iOSLOG2LUTConverter/Resources/Secondary LUTS/50D.cube
TITLE "Generated by Resolve"
LUT_3D_SIZE 33
0 0 0
0 0 0
0 0 0
0 0 0
0 0 0
0 0 0
0.00189212 0.000869764 0.000869764
0.020798 0.00836194 0.00836194
0.051667 0.016907 0.016907
0.108354 0.0255894 0.0255894
0.176471 0.0299535 0.0299535
0.258778 0.030869 0.030869
0.353948 0.0288548 0.0288548
0.45684 0.0252842 0.0251164
0.564095 0.0220035 0.0221408
0.661219 0.0215457 0.0227054
0.743252 0.0264744 0.0299535
0.810132 0.0385138 0.0424201
0.860304 0.0531167 0.0569924
0.900374 0.0679484 0.0716716
0.936416 0.0814527 0.0851759
0.96199 0.093019 0.0966201
0.962325 0.100755 0.104265
0.962493 0.104509 0.107805
0.962493 0.104509 0.107805
0.962493 0.104509 0.107805
0.962493 0.104509 0.107805
0.962509 0.104509 0.108598
0.962539 0.10425 0.118593
0.962585 0.10399 0.128893
0.962661 0.103761 0.139956
0.962737 0.10341 0.152193
0.962783 0.102754 0.166949
0 0 0
0 0 0
0 0 0
0 0 0
0 0 0
0 0 0
0.00221256 0.00102235 0.00102235
0.0214389 0.00857557 0.00857557
0.0526284 0.0171054 0.0171054
0.109712 0.0257267 0.0257267
0.177661 0.029984 0.029984
0.260105 0.0308537 0.0308537
0.355032 0.028809 0.028809
0.457877 0.0252537 0.0251011
0.564981 0.0219883 0.0221408
0.661784 0.0215305 0.0227665
0.743709 0.026566 0.0299687
0.810407 0.0386511 0.0425727
0.860502 0.0531472 0.057145
0.900557 0.0679789 0.0717021
0.936416 0.0814527 0.0851759
0.96199 0.0931563 0.0966354
0.962325 0.100755 0.104265
0.962493 0.104509 0.107805
0.962493 0.104509 0.107805
0.962493 0.104509 0.107805
0.962493 0.104509 0.107805
0.962509 0.104509 0.108598
0.962539 0.10425 0.118593
0.962585 0.10399 0.128893
0.962661 0.103761 0.139956
0.962737 0.10341 0.152193
0.962783 0.102754 0.166949
0 0 0
0 0 0
0 0 0
0 0 0
0 0 0
0 0 0
0.00244144 0.00111391 0.00111391
0.0245365 0.00961318 0.00961318
0.0560769 0.0178378 0.0178378
0.109819 0.025742 0.025742
0.178058 0.0299992 0.0299992
0.260395 0.0308537 0.0308537
0.355352 0.028809 0.028809
0.458045 0.0252384 0.0250858
0.565286 0.0219883 0.0221408
0.66215 0.0215763 0.0227665
0.743954 0.0265812 0.029984
0.81062 0.0386816 0.0425879
0.8607 0.0532998 0.0571908
0.900649 0.0679942 0.0717174
0.936507 0.0816052 0.0851911
0.96199 0.0931563 0.0966354
0.962325 0.100908 0.104265
0.962493 0.104509 0.107805
0.962493 0.104509 0.107805
0.962493 0.104509 0.107805
0.962493 0.104509 0.107805
0.962509 0.104509 0.108598
0.962539 0.10425 0.118593
0.962585 0.10399 0.128893
0.962661 0.103761 0.139956
0.962737 0.10341 0.152193
0.962783 0.102754 0.166949
0 0 0
0 0 0
0 0 0
0 0 0
0 0 0
0 0 0
0.00271611 0.00123598 0.00123598
0.0262455 0.0101625 0.0101625
0.0607004 0.0187686 0.0187686
0.119844 0.0266728 0.0266728
0.180438 0.0300755 0.0300755
0.259663 0.030869 0.030869
0.354879 0.0288243 0.0288243
0.457725 0.0252537 0.0251011
0.564981 0.0219883 0.0221408
0.661921 0.0215305 0.0227665
0.743832 0.026566 0.029984
0.810712 0.0386969 0.0426032
0.860792 0.053315 0.0571908
0.90074 0.0680095 0.0717327
0.936599 0.0816205 0.0852064
0.96199 0.0931563 0.0966354
0.962325 0.100908 0.104265
0.962493 0.104509 0.107805
0.962493 0.104509 0.107805
0.962493 0.104509 0.107805
0.962493 0.104509 0.107805
0.962509 0.104509 0.108598
0.962539 0.10425 0.118593
0.962585 0.10399 0.128893
0.962661 0.103761 0.139956
0.962737 0.10341 0.152193
0.962783 0.102754 0.166949
0 0 0
0 0 0
0 0 0
0 0 0
0 0 0
0 0 0
0.00781262 0.00344854 0.00344854
0.0361181 0.013077 0.013077
0.0714275 0.0207065 0.0207065
0.118791 0.0265812 0.0265812
0.188907 0.0303197 0.0303197
0.269001 0.0307774 0.0307774
0.353475 0.0288701 0.0288701
0.456367 0.0252995 0.0251469
0.563943 0.0220035 0.0221561
0.661372 0.0215305 0.0227054
0.743587 0.026566 0.0299687
0.81062 0.0386816 0.0425879
0.860792 0.053315 0.0571908
0.900832 0.0680247 0.0717479
0.93669 0.0816205 0.0852216
0.96199 0.0931563 0.0966354
0.962325 0.100908 0.104265
0.962493 0.104509 0.107805
0.962493 0.104509 0.107805
0.962493 0.104509 0.107805
0.962493 0.104509 0.107805
0.962509 0.104509 0.108598
0.962539 0.10425 0.118593
0.962585 0.10399 0.128893
0.962661 0.103761 0.139956
0.962737 0.10341 0.152193
0.962783 0.102754 0.166949
0.0217441 0.038468 0.0217441
0.0206455 0.0356451 0.0206455
0.0197147 0.033402 0.0197147
0.0175326 0.0285496 0.0175326
0.0129702 0.0197299 0.0129702
0.01149 0.0171664 0.01149
0.0169375 0.0175021 0.0124666
0.0438697 0.0235142 0.0186618
0.0739605 0.0252537 0.0225223
0.120592 0.0267338 0.0267338
0.184619 0.0302129 0.0302129
0.269001 0.0307774 0.0307774
0.363378 0.0285344 0.0285344
0.454444 0.0253452 0.0252079
0.5626 0.022034 0.0221714
0.660304 0.0215 0.0226596
0.742992 0.0264744 0.0298314
0.810239 0.038529 0.0425574
0.860609 0.0532998 0.0571756
0.90074 0.0680095 0.0717327
0.936782 0.0816358 0.0852369
0.96199 0.0931563 0.0966354
0.962325 0.100908 0.104265
0.962493 0.104509 0.107805
0.962493 0.104509 0.107805
0.962493 0.104509 0.107805
0.962493 0.104509 0.107805
0.962509 0.104509 0.108598
0.962539 0.10425 0.118593
0.962585 0.10399 0.128893
0.962661 0.103761 0.139956
0.962737 0.10341 0.152193
0.962783 0.102754 0.166949
0.0308537 0.0870069 0.0308537
0.0307774 0.0848859 0.0307774
0.0306706 0.082475 0.0306706
0.0304265 0.0788891 0.0304265
0.0297704 0.071931 0.0297704
0.0289006 0.0655375 0.0289006
0.037171 0.0596017 0.028336
0.0722362 0.062562 0.0301061
0.111559 0.0629892 0.0308537
0.155718 0.0593118 0.0309148
0.205661 0.0501411 0.0307622
0.264149 0.0318303 0.0307927
0.357702 0.0287327 0.0287327
0.462959 0.0250858 0.024918
0.560159 0.0221103 0.0222324
0.658839 0.0214847 0.0226139
0.741802 0.0263523 0.0296788
0.809598 0.0384527 0.0423743
0.860304 0.0531167 0.0569924
0.900649 0.0679942 0.0717174
0.936782 0.0816358 0.0852369
0.96199 0.0931563 0.0966354
0.962325 0.100908 0.104265
0.962493 0.104509 0.107805
0.962493 0.104509 0.107805
0.962493 0.104509 0.107805
0.962493 0.104509 0.107805
0.962509 0.104509 0.108598
0.962539 0.10425 0.118593
0.962585 0.10399 0.128893
0.962661 0.103761 0.139956
0.962737 0.10341 0.152193
0.962783 0.102754 0.166949
0.0268406 0.140215 0.0268406
0.0271 0.138491 0.0271
0.0273747 0.136599 0.0273747
0.0276951 0.134417 0.0276951
0.0284123 0.129061 0.0284123
0.0292821 0.121706 0.0292821
0.0351873 0.110475 0.0301823
0.082887 0.110857 0.0286717
0.132509 0.109804 0.0266728
0.186572 0.105501 0.0246128
0.247807 0.0968795 0.0227512
0.315755 0.082414 0.0215763
0.385611 0.0595254 0.0220188
0.45948 0.0278172 0.024094
0.562753 0.022034 0.0222019
0.655756 0.0214237 0.0225071
0.739895 0.0261387 0.0294804
0.808301 0.0381018 0.0420081
0.859556 0.0528725 0.0567483
0.900175 0.0677958 0.0715038
0.936507 0.0816052 0.0851911
0.96199 0.0931563 0.0966354
0.962325 0.100908 0.104265
0.962493 0.104509 0.107805
0.962493 0.104509 0.107805
0.962493 0.104509 0.107805
0.962493 0.104509 0.107805
0.962509 0.104509 0.108598
0.962539 0.10425 0.118593
0.962585 0.10399 0.128893
0.962661 0.103761 0.139956
0.962737 0.10341 0.152193
0.962783 0.102754 0.166949
0.0161898 0.196338 0.0161898
0.0164492 0.195056 0.0164492
0.0168154 0.193317 0.0168154
0.0171817 0.191562 0.0171817
0.0175784 0.189654 0.0175784
0.0187533 0.183917 0.0187533
0.0207218 0.174228 0.0207218
0.0707103 0.164843 0.0195468
0.133074 0.162127 0.0160678
0.195972 0.157656 0.0129397
0.264988 0.149599 0.0102693
0.340642 0.136812 0.00830091
0.421134 0.118944 0.00712596
0.500786 0.0944228 0.00727855
0.57789 0.0578012 0.0100252
0.65124 0.0213169 0.0223239
0.736645 0.0258183 0.0290379
0.806256 0.0376593 0.0415808
0.858228 0.0523995 0.0562905
0.89926 0.0675212 0.0712291
0.935958 0.0813764 0.0849775
0.96199 0.0931563 0.0966354
0.962325 0.100908 0.104265
0.962493 0.104509 0.107805
0.962493 0.104509 0.107805
0.962493 0.104509 0.107805
0.962493 0.104509 0.107805
0.962509 0.104509 0.108598
0.962539 0.10425 0.118593
0.962585 0.10399 0.128893
0.962661 0.103761 0.139956
0.962737 0.10341 0.152193
0.962783 0.102754 0.166949
0.00477607 0.255802 0.00477607
0.00497444 0.254566 0.00497444
0.00517281 0.253315 0.00517281
0.00543221 0.251759 0.00543221
0.00567636 0.250355 0.00567636
0.00596628 0.248646 0.00596628
0.00708019 0.242222 0.00708019
0.0307012 0.226764 0.00872816
0.11545 0.221103 0.00508125
0.188052 0.216052 0.002533
0.263005 0.208698 0.000793469
0.343191 0.19791 0
0.427344 0.18352 0
0.510338 0.165148 0
0.590066 0.141573 0
0.667216 0.108141 0
0.745251 0.0508736 0.0200504
0.804517 0.0372625 0.0411841
0.856123 0.0516976 0.0555734
0.897673 0.066865 0.0705882
0.934752 0.0809339 0.084535
0.961975 0.0928817 0.0963607
0.962325 0.100755 0.104265
0.962493 0.104509 0.107805
0.962493 0.104509 0.107805
0.962493 0.104509 0.107805
0.962493 0.104509 0.107805
0.962493 0.104372 0.108598
0.962539 0.10425 0.118593
0.962585 0.10399 0.128893
0.962661 0.103761 0.139956
0.962737 0.10341 0.152193
0.962783 0.102754 0.166949
0 0.317006 0
0 0.316136 0
0 0.314992 0
0 0.313832 0
0 0.312688 0
0 0.311376 0
0 0.309789 0
0 0.302495 0
0.0780804 0.286015 0
0.166552 0.280156 0
0.247837 0.273793 0
0.331731 0.264958 0
0.41883 0.253193 0
0.504463 0.239048 0
0.585901 0.222187 0
0.661677 0.200641 0
0.72639 0.172625 0.00140383
0.781903 0.130694 0.00691234
0.852338 0.0503548 0.0542458
0.89546 0.0661173 0.0698558
0.932906 0.0802319 0.0838483
0.961959 0.092607 0.0960861
0.96231 0.100481 0.10399
0.962493 0.104509 0.107805
0.962493 0.104509 0.107805
0.962493 0.104509 0.107805
0.962493 0.104509 0.107805
0.962493 0.104372 0.108598
0.962539 0.10425 0.118593
0.962585 0.10399 0.128893
0.962661 0.103761 0.139956
0.962737 0.10341 0.152193
0.962783 0.102754 0.166949
0 0.381094 0
0 0.38024 0
0 0.379385 0
0 0.378256 0
0 0.377279 0
0 0.376287 0
0 0.374868 0
0 0.3729 0
0.000839246 0.363302 0
0.13167 0.349569 0
0.223728 0.344259 0
0.313115 0.337118 0
0.404608 0.327398 0
0.494194 0.316167 0
0.578531 0.303181 0
0.656535 0.287892 0
0.722881 0.269886 0.000671397
0.776532 0.247074 0.00668345
0.822385 0.212528 0.0119326
0.868101 0.150423 0.0272221
0.931594 0.0796368 0.083238
0.961944 0.0920577 0.0955367
0.962295 0.100069 0.103441
0.962493 0.104509 0.107805
0.962493 0.104509 0.107805
0.962493 0.104509 0.107805
0.962493 0.104509 0.107805
0.962509 0.104509 0.108736
0.962539 0.10425 0.118593
0.962585 0.10399 0.12903
0.962661 0.103761 0.139956
0.962737 0.10341 0.152193
0.962783 0.102754 0.166949
0 0.450126 0
0 0.449302 0
0 0.448463 0
0 0.447639 0
0 0.446799 0
0 0.445838 0
0 0.444724 0
0 0.443061 0
0 0.4421 0
0.0713817 0.42591 0
0.189029 0.419471 0
0.287068 0.413687 0
0.383948 0.405661 0
0.478141 0.396185 0
0.565957 0.385748 0
0.646601 0.37438 0
0.715969 0.362249 0
0.771374 0.348287 0.00350958
0.818219 0.329 0.00955215
0.860182 0.29955 0.0146792
0.898207 0.250385 0.0248112
0.947906 0.145296 0.0666209
0.962264 0.099382 0.102754
0.962493 0.104509 0.107805
0.962493 0.104509 0.107805
0.962493 0.104509 0.107805
0.962493 0.104509 0.107805
0.962493 0.104372 0.108736
0.962539 0.10425 0.118593
0.962585 0.10399 0.12903
0.962661 0.103777 0.140078
0.962737 0.10341 0.152193
0.962783 0.102754 0.166949
0 0.522484 0
0 0.521798 0
0 0.521126 0
0 0.520317 0
0 0.519631 0
0 0.518822 0
0 0.517876 0
0 0.516533 0
0 0.514626 0
0 0.514626 0
0.141421 0.497383 0
0.254582 0.49192 0
0.358038 0.484993 0
0.457542 0.476509 0
0.549401 0.467689 0
0.632578 0.458564 0
0.704814 0.449363 0
0.761791 0.440574 0
0.809934 0.429694 0.00434882
0.852537 0.413367 0.00982681
0.891539 0.388403 0.014435
0.927962 0.34789 0.0260319
0.962295 0.274098 0.0439155
0.962493 0.104509 0.107805
0.962493 0.104509 0.107805
0.962493 0.104509 0.107805
0.962493 0.104509 0.107805
0.962493 0.104372 0.108736
0.962539 0.10425 0.118593
0.962585 0.10399 0.12903
0.962661 0.103777 0.140078
0.962737 0.10341 0.152193
0.962783 0.102754 0.166949
0 0.595651 0
0 0.595132 0
0 0.594476 0
0 0.59382 0
0 0.593164 0
0 0.592645 0
0 0.59173 0
0 0.590677 0
0 0.589105 0
0 0.587137 0
0.0567025 0.579599 0
0.215137 0.569528 0
0.328176 0.562676 0
0.433478 0.554299 0
0.529854 0.545907 0
0.616068 0.538018 0
0.691997 0.530327 0
0.750835 0.524453 0
0.799298 0.51812 0
0.841886 0.509316 0.00317388
0.880491 0.495872 0.0078584
0.916747 0.47483 0.0129549
0.952728 0.440803 0.0244297
0.957702 0.3738 0.0332647
0.963348 0.237888 0.0517891
0.962493 0.104509 0.107805
0.962493 0.104509 0.107805
0.962493 0.104509 0.107805
0.962539 0.10425 0.11873
0.962585 0.10399 0.12903
0.962661 0.103777 0.140078
0.962737 0.10341 0.152193
0.962783 0.102754 0.166949
0.000228885 0.667872 0.00062562
0.000198367 0.667353 0.00062562
0.000198367 0.66685 0.000518807
0.000167849 0.666346 0.000518807
0.000167849 0.665843 0.000411994
0.000137331 0.665324 0.000411994
0.000122072 0.664698 0.000320439
9.15541e-05 0.663676 0.000213626
6.10361e-05 0.662547 0.000122072
0 0.660883 1.5259e-05
6.10361e-05 0.662547 0.000122072
0.162509 0.644587 0
0.293675 0.637247 0
0.406256 0.628626 0
0.508202 0.619623 0
0.598276 0.611643 0
0.677134 0.604608 0
0.739178 0.599634 0
0.788678 0.595712 0
0.83093 0.590951 0
0.869322 0.583825 0.000823987
0.904341 0.572519 0.00479133
0.93843 0.554726 0.0124971
0.947234 0.519844 0.016846
0.951598 0.463218 0.0224155
0.958511 0.360265 0.0349889
0.962493 0.104509 0.107805
0.962493 0.104509 0.107805
0.962493 0.104509 0.107805
0.962585 0.10399 0.12903
0.962661 0.103777 0.140078
0.962737 0.10341 0.152331
0.962783 0.102754 0.166949
0.00520333 0.735698 0.0132753
0.00518807 0.735225 0.0130922
0.00511177 0.734874 0.0130465
0.00508125 0.734508 0.0128786
0.005066 0.734035 0.0128176
0.0049897 0.733684 0.012665
0.00491341 0.733211 0.0125887
0.00486763 0.732494 0.0123751
0.00476081 0.731548 0.0121309
0.00459297 0.730251 0.011841
0.00440986 0.72871 0.0114137
0.0614328 0.723445 0.00300603
0.254002 0.707012 0
0.376074 0.697978 0
0.48426 0.688182 0
0.578607 0.679652 0
0.66125 0.672572 0
0.72694 0.668132 0
0.778119 0.665614 0
0.821012 0.662898 0
0.859144 0.659205 0
0.893462 0.653223 0
0.926116 0.643702 0.00357061
0.938582 0.624491 0.0074464
0.941222 0.593027 0.0104677
0.945251 0.544442 0.0147707
0.952209 0.454917 0.0232853
0.962997 0.251377 0.049424
0.962493 0.104509 0.107805
0.962493 0.104509 0.107805
0.962661 0.103777 0.140078
0.962737 0.10341 0.152331
0.962783 0.102754 0.166949
0.0181277 0.797147 0.033051
0.0180056 0.796933 0.0330053
0.0179446 0.796597 0.0328222
0.0178073 0.796262 0.0327611
0.0177462 0.795926 0.032578
0.0177157 0.795712 0.0325322
0.0175631 0.795254 0.0323186
0.01738 0.794705 0.0322118
0.0171969 0.794034 0.0319677
0.016968 0.793149 0.0315557
0.0166018 0.791913 0.0312047
0.0162051 0.790356 0.0306706
0.211902 0.770687 0.00401312
0.350027 0.760403 0
0.46537 0.750042 0
0.564569 0.740703 0
0.649454 0.733013 0
0.719051 0.727489 0
0.770855 0.72459 0
0.813046 0.722683 0
0.849836 0.719936 0
0.882551 0.71635 0
0.913024 0.710811 0.00117494
0.928786 0.701091 0.00238041
0.931243 0.684306 0.00257877
0.934783 0.659342 0.00408942
0.939498 0.614038 0.0084535
0.945769 0.538231 0.0153964
0.95671 0.388693 0.0312505
0.962493 0.104509 0.107805
0.962493 0.104509 0.107805
0.962737 0.10341 0.152331
0.962783 0.102754 0.167086
0.0382544 0.852262 0.0537881
0.0380865 0.852049 0.0537575
0.0380407 0.851835 0.0535897
0.0379797 0.851514 0.0535286
0.0377966 0.851301 0.0534829
0.0377661 0.851087 0.0533303
0.0375677 0.850782 0.0532692
0.0375067 0.850462 0.0530861
0.0372778 0.849928 0.0528572
0.0369879 0.84918 0.0525978
0.0365606 0.848325 0.0523232
0.0361944 0.84715 0.0518502
0.150973 0.832837 0.030869
0.327077 0.816968 0.0121004
0.449348 0.805081 0.00111391
0.552529 0.793256 0
0.639384 0.783307 0
0.711254 0.775631 0
0.764645 0.771405 0
0.806851 0.768612 0
0.843 0.766278 0
0.874815 0.76347 0.000350958
0.903868 0.759854 0.00137331
0.923049 0.754345 0.00216678
0.923858 0.745174 0.00213626
0.925155 0.732189 0.0021973
0.927642 0.710399 0.00227359
0.932555 0.675166 0.00280766
0.939574 0.613092 0.00852979
0.949355 0.492317 0.0191958
0.962493 0.104509 0.107805
0.962493 0.104509 0.107805
0.962783 0.102754 0.167086
0.0577249 0.90222 0.0722057
0.0576944 0.902007 0.0721752
0.0576791 0.9019 0.0721599
0.0575265 0.901701 0.0721447
0.057496 0.901503 0.0719921
0.0574807 0.901396 0.0719768
0.0572976 0.901091 0.071931
0.0572518 0.900786 0.0717632
0.057084 0.900481 0.0716106
0.0568856 0.899977 0.0714122
0.0566415 0.89926 0.0711833
0.0562448 0.898344 0.0709392
0.0568856 0.900069 0.0715496
0.305135 0.866636 0.0290684
0.433433 0.851255 0.0139315
0.539574 0.836912 0.00460822
0.628565 0.824903 0.0015259
0.702525 0.815396 0.00030518
0.757855 0.809613 0
0.800748 0.806073 0.000213626
0.836774 0.803479 0.000671397
0.868376 0.8009 0.00120546
0.896757 0.798032 0.00172427
0.919661 0.794461 0.00227359
0.92015 0.788632 0.00230411
0.920806 0.780835 0.00231937
0.921782 0.76907 0.00227359
0.923323 0.751064 0.00215152
0.926009 0.72401 0.00222782
0.932265 0.677287 0.00274662
0.942321 0.579782 0.0116274
0.961639 0.294453 0.0433509
0.962493 0.104509 0.107805
0.0721904 0.944121 0.0854963
0.0721904 0.94403 0.0853742
0.0721752 0.943847 0.0853742
0.0721752 0.943755 0.085359
0.0720378 0.943679 0.0853742
0.0720378 0.943496 0.0852369
0.0720378 0.943404 0.0852369
0.0719005 0.943236 0.0852369
0.0718853 0.942977 0.0850996
0.0717327 0.942626 0.0850996
0.0715953 0.942184 0.0849622
0.0714427 0.941558 0.0847028
0.0711528 0.940871 0.0845655
0.286152 0.908354 0.0417639
0.42005 0.89015 0.0226902
0.527169 0.874128 0.0105745
0.617594 0.860395 0.00508125
0.692912 0.849454 0.00248722
0.749966 0.842298 0.00140383
0.793988 0.837888 0.00117494
0.830396 0.83476 0.00125124
0.862272 0.832074 0.00141909
0.890303 0.829541 0.0016022
0.916594 0.826673 0.00180056
0.917067 0.822705 0.00195315
0.917586 0.817426 0.00204471
0.918288 0.810086 0.00216678
0.919249 0.799237 0.00225834
0.920501 0.784512 0.00231937
0.922316 0.762814 0.00227359
0.925643 0.727428 0.00215152
0.9355 0.654322 0.00453193
0.953017 0.444068 0.0245823
0.0826276 0.978897 0.0938125
0.0824903 0.978836 0.093843
0.0824903 0.978744 0.093843
0.0824903 0.978668 0.0937209
0.0825055 0.978592 0.0937362
0.0825055 0.9785 0.0937362
0.0825055 0.978347 0.0937362
0.0823682 0.978271 0.0937667
0.0823835 0.978119 0.0936446
0.0822614 0.97789 0.0936751
0.0822766 0.977569 0.0935683
0.0821546 0.977172 0.093492
0.0820478 0.976623 0.0934157
0.279606 0.942718 0.0497597
0.414572 0.922728 0.027863
0.519081 0.905791 0.0144503
0.608179 0.891188 0.00729381
0.683619 0.879179 0.00340276
0.741863 0.870954 0.0016022
0.786694 0.865827 0.00105287
0.823667 0.862181 0.0009308
0.855848 0.859251 0.000839246
0.88397 0.856779 0.000808728
0.910018 0.854292 0.000762951
0.913939 0.851347 0.000915541
0.914397 0.847242 0.00111391
0.914961 0.842176 0.00134279
0.915755 0.834928 0.00161746
0.916777 0.825559 0.00192264
0.917998 0.813016 0.002121
0.9196 0.795056 0.00228885
0.921981 0.766812 0.00225834
0.927413 0.712322 0.00231937
0.0907759 0.992264 0.100069
0.0907759 0.992264 0.100069
0.0906233 0.992279 0.100084
0.0906233 0.992279 0.100084
0.0906233 0.992279 0.100084
0.0906386 0.992279 0.0999619
0.0906386 0.992279 0.0999619
0.0906386 0.992279 0.0999619
0.0905013 0.992294 0.0999771
0.0905013 0.992309 0.099855
0.0905013 0.992309 0.099855
0.0903639 0.992325 0.0997482
0.0902266 0.99234 0.0997635
0.29778 0.969024 0.050782
0.420554 0.949371 0.029633
0.517647 0.932799 0.0154726
0.60264 0.917998 0.00787366
0.675944 0.905608 0.00299077
0.734508 0.89659 0.000671397
0.77969 0.890913 1.5259e-05
0.817014 0.886885 0
0.849546 0.88365 0
0.877974 0.881041 0
0.904036 0.878767 0
0.911208 0.876265 0
0.911574 0.872953 0
0.911986 0.868971 0
0.912535 0.863813 0.000228885
0.913252 0.857359 0.000610361
0.914199 0.849073 0.00102235
0.915404 0.838087 0.00149538
0.917067 0.822629 0.00195315
0.919264 0.799084 0.00225834
0.098085 0.991226 0.10602
0.098085 0.991226 0.10602
0.098085 0.991226 0.10602
0.098085 0.991226 0.10602
0.098085 0.991226 0.10602
0.098085 0.991226 0.105898
0.098085 0.991226 0.105898
0.098085 0.991226 0.105898
0.098085 0.991226 0.105898
0.0979477 0.991241 0.105913
0.0979477 0.991241 0.105791
0.0979477 0.991241 0.105791
0.0978103 0.991257 0.105806
0.346456 0.964096 0.0474708
0.443549 0.953033 0.0299077
0.527306 0.943526 0.0158236
0.603632 0.935286 0.00735485
0.671717 0.928389 0.0016022
0.72842 0.920211 0
0.773205 0.914061 0
0.810575 0.909606 0
0.843091 0.906188 0
0.872038 0.903441 0
0.898177 0.901167 0
0.909026 0.89897 0
0.909285 0.896132 0
0.909606 0.892775 0
0.909972 0.888747 0
0.91043 0.883894 0
0.91104 0.877882 0
0.911849 0.870375 0
0.912902 0.860517 0.000411994
0.914412 0.847013 0.00112917
0.098497 0.991165 0.106355
0.098497 0.991165 0.106355
0.098497 0.991165 0.106355
0.098497 0.991165 0.106355
0.098497 0.991165 0.106355
0.098497 0.991165 0.106355
0.098497 0.991165 0.106355
0.098497 0.991165 0.106355
0.098497 0.991165 0.106355
0.098497 0.991165 0.106355
0.098497 0.991165 0.106355
0.098497 0.991165 0.106355
0.324193 0.966613 0.05243
0.406455 0.957244 0.037232
0.47776 0.949081 0.0249943
0.546273 0.94136 0.014374
0.612329 0.934325 0.00697337
0.673716 0.928145 0.00164797
0.726024 0.924086 0
0.768856 0.922362 0
0.805249 0.92166 0
0.837339 0.921172 0
0.865934 0.920424 0
0.891814 0.919844 0
0.906554 0.919539 0
0.906813 0.917357 0
0.907164 0.914519 0
0.907576 0.911238 0
0.908034 0.90753 0
0.908583 0.903029 0
0.909178 0.897414 0
0.909834 0.890318 0
0.910689 0.881209 0
0.0977493 0.990921 0.116335
0.0977493 0.990921 0.116335
0.0977493 0.990921 0.116335
0.0977493 0.990921 0.116335
0.0977493 0.990921 0.116335
0.0977493 0.990921 0.116335
0.0977493 0.990921 0.116335
0.0977493 0.990936 0.116213
0.176318 0.982757 0.0915236
0.27837 0.971817 0.062562
0.332692 0.965637 0.0508888
0.378988 0.960403 0.0422522
0.42446 0.955184 0.0340124
0.471916 0.949752 0.0259403
0.52192 0.944106 0.0178225
0.574289 0.938293 0.0108797
0.627909 0.932708 0.00547799
0.680003 0.92752 0.00117494
0.726024 0.924086 0
0.76556 0.922454 0
0.800488 0.921736 0
0.831952 0.921248 0
0.860456 0.920577 0
0.886366 0.919936 0
0.906523 0.919493 0
0.906508 0.919493 0
0.906508 0.919493 0
0.906508 0.919493 0
0.906523 0.919493 0
0.906523 0.919509 0
0.906538 0.919524 0
0.907012 0.915816 0
0.90782 0.909209 0
0.370001 0.961288 0.0473182
0.376852 0.960525 0.0457465
0.38352 0.959777 0.0441749
0.389807 0.959075 0.0426642
0.395834 0.958389 0.0411841
0.401617 0.957732 0.0397345
0.408667 0.956939 0.0380255
0.418128 0.955886 0.0357366
0.429908 0.954574 0.0330816
0.444495 0.952895 0.0306096
0.462333 0.950851 0.027512
0.483955 0.948394 0.0238956
0.50956 0.94548 0.0198215
0.539345 0.942153 0.0152285
0.573602 0.938369 0.0109407
0.611643 0.934401 0.00703441
0.652277 0.930236 0.00335698
0.693141 0.926421 0.000320439
0.731426 0.923796 0
0.766125 0.922438 0
0.798077 0.921782 0
0.827878 0.921309 0
0.855528 0.920729 0
0.881025 0.920043 0
0.905241 0.919524 0
0.906508 0.919493 0
0.906508 0.919493 0
0.906508 0.919493 0
0.906508 0.919493 0
0.906508 0.919493 0
0.906508 0.919493 0
0.906508 0.919493 0
0.906508 0.919493 0
0.510506 0.945373 0.0196078
0.513481 0.945052 0.019089
0.516335 0.944732 0.0187076
0.51931 0.944396 0.0181888
0.522164 0.944076 0.0178073
0.524895 0.943771 0.0174258
0.52845 0.943374 0.016846
0.533211 0.94284 0.0160525
0.539452 0.942138 0.0152132
