iOSLOG2LUTConverter/Resources/Secondary LUTS/50D.cube
TITLE "Generated by Resolve"
LUT_3D_SIZE 9
0 0 0
0 0 0
0.051667 0.016907 0.016907
0.353948 0.0288548 0.0288548
0.743252 0.0264744 0.0299535
0.936416 0.0814527 0.0851759
0.962493 0.104509 0.107805
0.962539 0.10425 0.118593
0.962783 0.102754 0.166949
0 0 0
0 0 0
0.0714275 0.0207065 0.0207065
0.353475 0.0288701 0.0288701
0.743587 0.026566 0.0299687
0.93669 0.0816205 0.0852216
0.962493 0.104509 0.107805
0.962539 0.10425 0.118593
0.962783 0.102754 0.166949
0.0161898 0.196338 0.0161898
0.0175784 0.189654 0.0175784
0.133074 0.162127 0.0160678
0.421134 0.118944 0.00712596
0.736645 0.0258183 0.0290379
0.935958 0.0813764 0.0849775
0.962493 0.104509 0.107805
0.962539 0.10425 0.118593
0.962783 0.102754 0.166949
0 0.450126 0
0 0.446799 0
0 0.4421 0
0.383948 0.405661 0
0.715969 0.362249 0
0.898207 0.250385 0.0248112
0.962493 0.104509 0.107805
0.962539 0.10425 0.118593
0.962783 0.102754 0.166949
0.00520333 0.735698 0.0132753
0.005066 0.734035 0.0128176
0.00476081 0.731548 0.0121309
0.254002 0.707012 0
0.66125 0.672572 0
0.859144 0.659205 0
0.941222 0.593027 0.0104677
0.962493 0.104509 0.107805
0.962783 0.102754 0.166949
0.0721904 0.944121 0.0854963
0.0720378 0.943679 0.0853742
0.0718853 0.942977 0.0850996
0.0711528 0.940871 0.0845655
0.617594 0.860395 0.00508125
0.830396 0.83476 0.00125124
0.917067 0.822705 0.00195315
0.920501 0.784512 0.00231937
0.953017 0.444068 0.0245823
0.098497 0.991165 0.106355
0.098497 0.991165 0.106355
0.098497 0.991165 0.106355
0.324193 0.966613 0.05243
0.612329 0.934325 0.00697337
0.805249 0.92166 0
0.906554 0.919539 0
0.908034 0.90753 0
0.910689 0.881209 0
0.610742 0.934493 0.0071107
0.617227 0.933822 0.00646983
0.627131 0.932784 0.00555428
0.654673 0.930007 0.00315862
0.715618 0.924743 0
0.803662 0.921691 0
0.896223 0.919722 0
0.906508 0.919493 0
0.906508 0.919493 0
0.818265 0.921462 0
0.818936 0.921447 0
0.819913 0.921431 0
0.822995 0.921386 0
0.831952 0.921248 0
0.854643 0.92076 0
0.899306 0.919661 0
0.906508 0.919493 0
0.906508 0.919493 0
0 0 0
0 0 0
0.050721 0.0166934 0.0166934
0.353948 0.0288243 0.0308232
0.742992 0.0264744 0.0298314
0.936324 0.0814374 0.0850385
0.962493 0.104509 0.107805
0.962539 0.10425 0.118593
0.962783 0.102754 0.166949
0 0 0
0 0 0
0.0606851 0.0187686 0.0187686
0.350393 0.0289464 0.0301366
0.743587 0.026566 0.0299687
0.93669 0.0816205 0.0852216
0.962493 0.104509 0.107805
0.962539 0.10425 0.118593
0.962783 0.102754 0.166949
0.0178225 0.186847 0.033875
0.0192569 0.180224 0.0312963
0.126558 0.154513 0.0181735
0.402365 0.120241 0.00794995
0.737224 0.0258946 0.0290532
0.935958 0.0813764 0.0849775
0.962493 0.104509 0.107805
0.962539 0.10425 0.118593
0.962783 0.102754 0.166949
0 0.447776 0
0 0.444312 0
0 0.439597 0
0.382773 0.402533 0
0.715953 0.359533 0
0.898253 0.247089 0.0251164
0.962493 0.104509 0.107805
0.962539 0.10425 0.118593
0.962783 0.102754 0.166949
0.00515755 0.734874 0.0130465
0.00497444 0.733333 0.012604
0.00466926 0.730724 0.0119173
0.252811 0.706477 0
0.661143 0.672114 0
0.859174 0.658763 0
0.941283 0.592309 0.0105287
0.962493 0.104509 0.107805
0.962783 0.102754 0.166949
0.0721904 0.94403 0.0853742
0.0720378 0.943587 0.085359
0.0718853 0.942885 0.0850996
0.0711528 0.94078 0.0845655
0.617487 0.860334 0.00509651
0.830396 0.834684 0.00125124
0.917067 0.822629 0.00195315
0.920516 0.78436 0.00231937
0.953094 0.442908 0.0246738
0.098497 0.991165 0.106355
0.098497 0.991165 0.106355
0.098497 0.991165 0.106355
0.323415 0.966705 0.0526284
0.6121 0.934356 0.00700389
0.805249 0.92166 0
0.906554 0.919539 0
0.908034 0.907469 0
0.910689 0.881209 0
0.610636 0.934508 0.00712596
0.617105 0.933822 0.00648508
0.627024 0.932799 0.00555428
0.654566 0.930022 0.00315862
0.715526 0.924743 0
0.803662 0.921691 0
0.896223 0.919722 0
0.906508 0.919493 0
0.906508 0.919493 0
0.818265 0.921462 0
0.818936 0.921447 0
0.819913 0.921431 0
0.822995 0.921386 0
0.831952 0.921248 0
0.854566 0.920775 0
0.899306 0.919661 0
0.906508 0.919493 0
0.906508 0.919493 0
0.00646983 0.00646983 0.0331121
0.00607309 0.00607309 0.0307012
0.069276 0.0230259 0.0741894
0.375525 0.026276 0.161517
0.748089 0.0217288 0.199329
0.934966 0.0792859 0.150759
0.962493 0.104509 0.107805
0.962539 0.10425 0.118593
0.962783 0.102754 0.166949
0.00640879 0.00640879 0.0326848
0.00628672 0.00628672 0.0319829
0.075227 0.0239719 0.0791028
0.376028 0.0262913 0.159197
0.748699 0.0217899 0.196612
0.935485 0.0796216 0.145266
0.962493 0.104509 0.107805
0.962539 0.10425 0.118593
0.962783 0.102754 0.166949
0.0187381 0.16846 0.172625
0.0202487 0.161486 0.169512
0.116472 0.132769 0.150851
0.403326 0.0867628 0.14493
0.740444 0.0212863 0.178943
0.93434 0.0799115 0.121584
0.962493 0.104509 0.107805
0.962539 0.10425 0.118593
0.962783 0.102754 0.166949
0 0.437171 0.157458
0 0.433845 0.156222
0 0.42771 0.154147
0.376898 0.394141 0.132265
0.70457 0.358541 0.108125
0.892149 0.268147 0.0215305
0.962493 0.104509 0.107805
0.962539 0.10425 0.118593
0.962783 0.102754 0.166949
0.00466926 0.733822 0.0426032
0.00454719 0.732403 0.0385748
0.0043946 0.730068 0.0321965
0.250355 0.70573 0.004654
0.661036 0.67097 0
0.85919 0.657389 0
0.941375 0.591257 0.0106203
0.962493 0.104509 0.107805
0.962783 0.102754 0.166949
0.0720378 0.943679 0.0853742
0.0719005 0.943236 0.0852369
0.0717327 0.942535 0.0849775
0.0711376 0.940414 0.0844282
0.617044 0.860227 0.00511177
0.830411 0.834607 0.0012665
0.917082 0.822553 0.00195315
0.920516 0.784207 0.00231937
0.953216 0.441245 0.024918
0.098497 0.991165 0.106355
0.098497 0.991165 0.106355
0.098497 0.991165 0.106355
0.322271 0.966827 0.0528725
0.611872 0.934371 0.00701915
0.805173 0.92166 0
0.906554 0.919539 0
0.908034 0.907469 0
0.910689 0.881132 0
0.610407 0.934524 0.00714122
0.616999 0.933837 0.00653086
0.626917 0.932815 0.00556954
0.654459 0.930022 0.00317388
0.715434 0.924758 0
0.803586 0.921691 0
0.896223 0.919722 0
0.906508 0.919493 0
0.906508 0.919493 0
0.818265 0.921462 0
0.81886 0.921447 0
0.819913 0.921431 0
0.822995 0.921386 0
0.831876 0.921248 0
0.854566 0.920775 0
0.899306 0.919661 0
0.906508 0.919493 0
0.906508 0.919493 0
0.0170901 0.0170901 0.121431
0.0170443 0.0170443 0.120836
0.0725414 0.0273442 0.190524
0.391852 0.0223392 0.357229
0.754116 0.0195163 0.434714
0.931395 0.0751049 0.460594
0.962966 0.0983902 0.370138
0.962539 0.10425 0.118593
0.962783 0.102754 0.166812
0.0170291 0.0170291 0.120638
0.0169985 0.0169985 0.120378
0.0759442 0.0276493 0.192981
0.395468 0.0221408 0.357046
0.755276 0.0196841 0.433845
0.931777 0.0753033 0.459709
0.962966 0.0983902 0.368612
0.962539 0.10425 0.118593
0.962783 0.102754 0.166949
0.0303044 0.0847028 0.283375
0.030869 0.0747997 0.265705
0.0676127 0.0455482 0.222339
0.388388 0.0225071 0.357321
0.751003 0.0191348 0.429145
0.931487 0.0751202 0.457206
0.962966 0.0983902 0.366247
0.962539 0.10425 0.118593
0.962783 0.102754 0.166949
0 0.406287 0.39585
0 0.40267 0.395178
0 0.396078 0.394385
0.365301 0.359991 0.378973
0.711727 0.312215 0.375448
0.899275 0.16701 0.390723
0.962921 0.0985428 0.331533
0.962539 0.10425 0.118593
0.962783 0.102754 0.166949
0.000396735 0.716701 0.393805
0.00030518 0.715084 0.39263
0.00015259 0.712657 0.390799
0.215961 0.688945 0.366781
0.648157 0.65182 0.332433
0.84686 0.644312 0.305547
0.93637 0.594079 0.184634
0.962493 0.104509 0.107805
0.962783 0.102754 0.166949
0.05243 0.928832 0.4056
0.0523384 0.92845 0.404395
0.0522469 0.92781 0.402533
0.0520027 0.926024 0.396918
0.593378 0.845685 0.281621
0.817624 0.821088 0.198978
0.916777 0.825635 0.00190738
0.920577 0.783673 0.00228885
0.953628 0.43563 0.0255894
0.098497 0.991165 0.106355
0.098497 0.991165 0.106355
0.098497 0.991165 0.106355
0.31223 0.967987 0.0548257
0.610056 0.934569 0.00720226
0.80502 0.921675 0
0.906554 0.919539 0
0.908049 0.907393 0
0.910704 0.881056 0
0.609949 0.934569 0.00721752
0.616419 0.933898 0.00657664
0.626474 0.93286 0.00560006
0.654017 0.930068 0.00320439
0.715251 0.924773 0
0.80351 0.921691 0
0.896223 0.919722 0
0.906508 0.919493 0
0.906508 0.919493 0
0.818189 0.921462 0
0.81886 0.921447 0
0.819837 0.921431 0
0.822919 0.921386 0
0.831876 0.921248 0
0.854566 0.920775 0
0.899306 0.919661 0
0.906508 0.919493 0
0.906508 0.919493 0
0.0266728 0.0266728 0.300801
0.0266575 0.0266575 0.30071
0.0265812 0.0265812 0.298009
0.374182 0.0195315 0.595773
0.750607 0.0225071 0.699626
0.930648 0.080705 0.740856
0.965377 0.104509 0.745266
0.963592 0.0999771 0.603113
0.962783 0.102754 0.166812
0.0266575 0.0266575 0.300526
0.0266575 0.0266575 0.30045
0.0265812 0.0265812 0.298116
0.383749 0.0190585 0.59968
0.752361 0.0228122 0.699687
0.930999 0.0807507 0.74081
0.965362 0.104494 0.744976
0.963592 0.0999771 0.602457
0.962783 0.102754 0.166812
0.026627 0.026627 0.299672
0.026627 0.026627 0.299489
0.0265507 0.0265507 0.297063
0.376699 0.0194247 0.595605
0.75108 0.0225376 0.698604
0.931273 0.0809186 0.740459
0.965362 0.104494 0.744579
0.963592 0.0999771 0.601419
0.962783 0.102754 0.166949
0 0.312215 0.662348
0 0.30782 0.662104
0 0.299458 0.661723
0.324468 0.252934 0.64947
0.70222 0.167941 0.656428
0.923171 0.0777142 0.7337
0.965286 0.10428 0.742229
0.963561 0.0999619 0.597894
0.962783 0.102754 0.166949
0 0.682795 0.67245
0 0.680995 0.671977
0 0.678248 0.671199
0.131197 0.657023 0.657588
0.630518 0.613336 0.635019
0.849302 0.594491 0.649622
0.93843 0.517678 0.664759
0.963226 0.0990311 0.540124
0.962783 0.102754 0.166949
0.0387274 0.9084 0.732509
0.0385901 0.907988 0.732204
0.0383307 0.907332 0.731579
0.0379339 0.905226 0.72987
0.550103 0.826047 0.634409
0.794293 0.793561 0.589151
0.894621 0.786557 0.540749
0.906645 0.768521 0.314153
0.954833 0.417472 0.0276951
0.0592203 0.972961 0.722087
0.0592203 0.972961 0.721767
0.0592355 0.972976 0.721325
0.0592813 0.973022 0.719921
0.540551 0.919799 0.588769
0.766857 0.896422 0.515618
0.886946 0.888151 0.447044
0.90779 0.909422 0
0.910735 0.880766 0
0.601877 0.935424 0.00801099
0.608698 0.934707 0.00732433
0.619043 0.933623 0.00631724
0.647852 0.930694 0.00370794
0.711604 0.925002 0
0.802228 0.921706 0
0.896071 0.919722 0
0.906508 0.919493 0
0.906508 0.919493 0
0.818036 0.921462 0
0.818708 0.921447 0
0.819684 0.921431 0
0.822766 0.921386 0
0.831724 0.921248 0
0.85449 0.920775 0
0.899229 0.919661 0
0.906508 0.919493 0
0.906508 0.919493 0
0.0299229 0.0312657 0.445762
0.0299229 0.0312657 0.445762
0.0299229 0.0312657 0.44567
0.273548 0.0254368 0.7037
0.735927 0.0331731 0.849592
0.934035 0.0941024 0.895186
0.973159 0.121324 0.917342
0.972427 0.11957 0.902998
0.968307 0.110033 0.814984
0.0299229 0.0312657 0.44567
0.0299229 0.0312657 0.44567
0.0299229 0.0312657 0.44567
0.286931 0.0248569 0.712261
0.737896 0.0335393 0.849943
0.934401 0.0943008 0.895232
0.973159 0.121324 0.91725
0.972427 0.11957 0.902998
0.968307 0.110018 0.814817
0.0299229 0.0312657 0.44567
0.0299229 0.0312657 0.445594
0.0299229 0.0312657 0.445594
0.307378 0.0239567 0.724575
0.740963 0.0343175 0.85037
0.934936 0.0943618 0.895308
0.973159 0.121324 0.91725
0.972427 0.11957 0.902907
0.968292 0.10988 0.814633
0.0298924 0.0311894 0.44419
0.0298924 0.0311894 0.44419
0.0298924 0.0311894 0.44419
0.245991 0.0265965 0.683223
0.726101 0.030869 0.846983
0.930968 0.092958 0.893385
0.973144 0.121187 0.916991
0.972412 0.119554 0.902663
0.968261 0.10985 0.813962
0 0.609628 0.825635
0 0.607324 0.825452
0 0.603464 0.825086
0 0.591791 0.82417
0.611002 0.535576 0.808621
0.860456 0.499153 0.83798
0.965835 0.331182 0.882948
0.97229 0.119173 0.900374
0.968154 0.109606 0.811872
0.035996 0.888731 0.887709
0.0358587 0.888212 0.887526
0.0357214 0.887419 0.887251
0.035172 0.884993 0.886351
0.496651 0.811872 0.818418
0.782269 0.770336 0.78735
0.89134 0.755581 0.786984
0.898116 0.713039 0.782956
0.967391 0.108248 0.79559
0.0561837 0.970443 0.910964
0.0561837 0.970443 0.910887
0.0561837 0.970443 0.910796
0.0561837 0.970459 0.910567
0.472694 0.921599 0.82472
0.741497 0.878233 0.775143
0.867277 0.864027 0.76144
0.883558 0.855741 0.729747
0.888731 0.836835 0.605692
0.482826 0.920851 0.791119
0.491508 0.919905 0.789273
0.50457 0.918471 0.786526
0.5411 0.914626 0.778759
0.623453 0.906584 0.761395
0.742245 0.897139 0.736538
0.846342 0.89453 0.71841
0.882063 0.894987 0.682414
0.895384 0.908354 0.309682
0.790768 0.909514 0.34052
0.791485 0.909514 0.339727
0.79266 0.909545 0.338506
0.796124 0.909606 0.334737
0.806134 0.909834 0.323247
0.831937 0.910628 0.287297
0.888426 0.915557 0.119646
0.906508 0.919493 0
0.906508 0.919493 0
0.0324102 0.0387427 0.578134
0.0324102 0.0387427 0.578134
0.0324102 0.0387427 0.578134
0.0324102 0.0387427 0.578134
0.67425 0.0355383 0.935699
0.929015 0.102525 0.970642
0.976226 0.132647 0.977523
0.976226 0.132647 0.977523
0.976196 0.131563 0.977508
0.0324102 0.0387427 0.578134
0.0324102 0.0387427 0.578134
0.0324102 0.0387427 0.578134
0.0324102 0.0387427 0.578134
0.677455 0.0359503 0.935866
0.929381 0.102708 0.970703
0.976226 0.132647 0.977523
0.976226 0.132647 0.977523
0.976196 0.131563 0.977508
0.0324102 0.0387427 0.578134
0.0324102 0.0387427 0.578134
0.0324102 0.0387427 0.578134
0.0324102 0.0387427 0.578134
0.682612 0.0365911 0.936141
0.930022 0.102937 0.970794
0.976226 0.132647 0.977523
0.976226 0.132647 0.977523
0.976196 0.131563 0.977508
0.0324102 0.0387427 0.578134
0.0324102 0.0387427 0.578134
0.0324102 0.0387427 0.578134
0.0324102 0.0387274 0.578088
0.696941 0.038819 0.937316
0.932006 0.103471 0.971038
0.976226 0.132647 0.977523
0.976226 0.132647 0.977523
0.976196 0.131563 0.977508
0 0.328237 0.917693
0 0.325704 0.917632
0 0.318441 0.917586
0 0.289387 0.916991
0.577615 0.174609 0.913161
0.909758 0.0959945 0.967803
0.976226 0.132509 0.977523
0.976226 0.132509 0.977523
0.976196 0.131563 0.977508
0.0307317 0.850202 0.961517
0.0305791 0.849577 0.961456
0.0302586 0.848417 0.961334
0.0294347 0.845121 0.960861
0.3906 0.790387 0.923323
0.774624 0.7355 0.886915
0.898116 0.715038 0.898802
0.922118 0.638468 0.923232
0.976196 0.131289 0.977493
0.056199 0.970047 0.958083
0.056199 0.970047 0.958083
0.0560616 0.970062 0.958099
0.0559243 0.970077 0.958114
0.347662 0.935119 0.923186
0.720333 0.86714 0.880552
0.86125 0.849485 0.870741
0.884672 0.836042 0.865919
0.886976 0.806622 0.861036
0.366476 0.932891 0.920974
0.380087 0.931289 0.919371
0.399893 0.928985 0.917052
0.452644 0.922942 0.911025
0.564828 0.911086 0.899168
0.717815 0.89752 0.870939
0.833783 0.89366 0.858457
0.879759 0.892653 0.852552
0.87982 0.892714 0.840467
0.742519 0.896162 0.844511
0.743313 0.896147 0.844404
0.744625 0.896117 0.84419
0.748684 0.895933 0.843656
0.760052 0.895476 0.842054
0.787625 0.894697 0.838849
0.8392 0.893721 0.83328
0.879896 0.89279 0.826993
0.880034 0.892912 0.808408
0.0325933 0.039292 0.581842
0.0325933 0.039292 0.581842
0.0325933 0.039292 0.581842
0.0325933 0.039292 0.581842
0.163943 0.0346227 0.738262
0.893278 0.09308 0.965423
0.976272 0.134401 0.977569
0.976272 0.134401 0.977569
0.976272 0.134401 0.977569
0.0325933 0.039292 0.581842
0.0325933 0.039292 0.581842
0.0325933 0.039292 0.581842
0.0325933 0.039292 0.581842
0.182956 0.0338445 0.755169
0.893828 0.0932784 0.965515
0.976272 0.134401 0.977569
0.976272 0.134401 0.977569
0.976272 0.134401 0.977569
0.0325933 0.039292 0.581842
0.0325933 0.039292 0.581842
0.0325933 0.039292 0.581842
0.0325933 0.039292 0.581842
0.2103 0.0328069 0.777829
0.894636 0.0935378 0.965621
0.976272 0.134401 0.977569
0.976272 0.134401 0.977569
0.976272 0.134401 0.977569
0.0325933 0.039292 0.581842
0.0325933 0.039292 0.581842
0.0325933 0.039292 0.581842
0.0325933 0.039292 0.581842
0.281758 0.0299229 0.82652
0.897368 0.0944533 0.966033
0.976272 0.134401 0.977569
0.976272 0.134401 0.977569
0.976272 0.134401 0.977569
0.0325933 0.039292 0.581842
0.0325933 0.039292 0.581842
0.0325933 0.039292 0.581842
0.0325933 0.039292 0.581842
0.442725 0.0253452 0.8981
0.905287 0.0970169 0.967208
0.976272 0.134401 0.977569
0.976272 0.134401 0.977569
0.976272 0.134401 0.977569
0.00418097 0.695033 0.935699
0.00418097 0.694682 0.935668
0.0040589 0.692805 0.9355
0.00363165 0.684337 0.934798
0.00289921 0.659586 0.934203
0.786374 0.580026 0.918822
0.950973 0.513176 0.952209
0.976272 0.134401 0.977569
0.976272 0.134401 0.977569
0.0513924 0.970596 0.958663
0.0512703 0.970611 0.958679
0.0512703 0.970611 0.958679
0.0511482 0.970626 0.958694
0.05066 0.970672 0.958755
0.675746 0.850996 0.89163
0.854597 0.826825 0.886854
0.886519 0.809842 0.887526
0.889418 0.769894 0.890394
0.0576944 0.969863 0.9579
0.0576944 0.969863 0.9579
0.0576944 0.969863 0.9579
0.0576944 0.969863 0.9579
0.428656 0.925658 0.913741
0.674388 0.900114 0.888228
0.822232 0.893736 0.881865
0.879484 0.892409 0.880552
0.879484 0.892409 0.880552
0.71046 0.897734 0.885832
0.711681 0.897658 0.885756
0.713497 0.897566 0.885664
0.718975 0.897261 0.885374
0.734035 0.896422 0.884535
0.768368 0.894957 0.88307
0.826963 0.893614 0.881743
0.879484 0.892409 0.880552
0.879484 0.892409 0.880552
0.0325933 0.039292 0.581842
0.0325933 0.039292 0.581842
0.0325933 0.039292 0.581842
0.0325933 0.039292 0.581842
0.0325933 0.039292 0.581842
0.677272 0.0378729 0.936034
0.976211 0.132235 0.977523
0.976272 0.134401 0.977569
0.976272 0.134401 0.977569
0.0325933 0.039292 0.581842
0.0325933 0.039292 0.581842
0.0325933 0.039292 0.581842
0.0325933 0.039292 0.581842
0.0325933 0.039292 0.581842
0.680095 0.0382849 0.936187
0.976226 0.132372 0.977523
0.976272 0.134401 0.977569
0.976272 0.134401 0.977569
0.0325933 0.039292 0.581842
0.0325933 0.039292 0.581842
0.0325933 0.039292 0.581842
0.0325933 0.039292 0.581842
0.0325933 0.039292 0.581842
0.68452 0.0387427 0.936416
0.976226 0.132372 0.977523
0.976272 0.134401 0.977569
0.976272 0.134401 0.977569
0.0325933 0.039292 0.581842
0.0325933 0.039292 0.581842
0.0325933 0.039292 0.581842
0.0325933 0.039292 0.581842
0.0325933 0.039292 0.581842
0.696574 0.0408484 0.937469
0.976226 0.132509 0.977523
0.976272 0.134401 0.977569
0.976272 0.134401 0.977569
0.0325933 0.039292 0.581842
0.0325933 0.039292 0.581842
0.0325933 0.039292 0.581842
0.0325933 0.039292 0.581842
0.0325933 0.039292 0.581842
0.729305 0.0469062 0.940719
0.976242 0.132921 0.977539
0.976272 0.134401 0.977569
0.976272 0.134401 0.977569
0.0325933 0.039292 0.581842
0.0325933 0.039292 0.581842
0.0325933 0.039292 0.581842
0.0325933 0.039292 0.581842
0.0325933 0.039292 0.581842
0.797757 0.0640116 0.950408
0.976272 0.134264 0.977569
0.976272 0.134401 0.977569
0.976272 0.134401 0.977569
0.042771 0.905058 0.963836
0.042649 0.904997 0.963851
0.042649 0.904906 0.963851
0.0423438 0.902815 0.963867
0.0410773 0.896071 0.963943
0.494606 0.81236 0.915282
0.853788 0.759716 0.891722
0.895491 0.727337 0.896483
0.944274 0.560647 0.94551
0.0576944 0.969863 0.9579
0.0576944 0.969863 0.9579
0.0576944 0.969863 0.9579
0.0576944 0.969863 0.9579
0.0576944 0.969863 0.9579
0.523827 0.915297 0.90338
0.80119 0.894118 0.882261
0.879484 0.892409 0.880552
0.880964 0.880659 0.882033
0.626474 0.90457 0.892668
0.628779 0.904341 0.892439
0.632273 0.904005 0.892103
0.642756 0.902968 0.891081
0.671183 0.900404 0.888502
0.728923 0.896696 0.884794
0.808087 0.893965 0.882109
0.879484 0.892409 0.880552
0.879484 0.892409 0.880552
