iOSLOG2LUTConverter/Resources/Secondary LUTS/50D.cube
TITLE "Generated by Resolve"
LUT_3D_SIZE 5
0 0 0
0.051667 0.016907 0.016907
0.743252 0.0264744 0.0299535
0.962493 0.104509 0.107805
0.962783 0.102754 0.166949
0.0161898 0.196338 0.0161898
0.133074 0.162127 0.0160678
0.736645 0.0258183 0.0290379
0.962493 0.104509 0.107805
0.962783 0.102754 0.166949
0.00520333 0.735698 0.0132753
0.00476081 0.731548 0.0121309
0.66125 0.672572 0
0.941222 0.593027 0.0104677
0.962783 0.102754 0.166949
0.098497 0.991165 0.106355
0.098497 0.991165 0.106355
0.612329 0.934325 0.00697337
0.906554 0.919539 0
0.910689 0.881209 0
0.818265 0.921462 0
0.819913 0.921431 0
0.831952 0.921248 0
0.899306 0.919661 0
0.906508 0.919493 0
0.00646983 0.00646983 0.0331121
0.069276 0.0230259 0.0741894
0.748089 0.0217288 0.199329
0.962493 0.104509 0.107805
0.962783 0.102754 0.166949
0.0187381 0.16846 0.172625
0.116472 0.132769 0.150851
0.740444 0.0212863 0.178943
0.962493 0.104509 0.107805
0.962783 0.102754 0.166949
0.00466926 0.733822 0.0426032
0.0043946 0.730068 0.0321965
0.661036 0.67097 0
0.941375 0.591257 0.0106203
0.962783 0.102754 0.166949
0.098497 0.991165 0.106355
0.098497 0.991165 0.106355
0.611872 0.934371 0.00701915
0.906554 0.919539 0
0.910689 0.881132 0
0.818265 0.921462 0
0.819913 0.921431 0
0.831876 0.921248 0
0.899306 0.919661 0
0.906508 0.919493 0
0.0266728 0.0266728 0.300801
0.0265812 0.0265812 0.298009
0.750607 0.0225071 0.699626
0.965377 0.104509 0.745266
0.962783 0.102754 0.166812
0.026627 0.026627 0.299672
0.0265507 0.0265507 0.297063
0.75108 0.0225376 0.698604
0.965362 0.104494 0.744579
0.962783 0.102754 0.166949
0 0.682795 0.67245
0 0.678248 0.671199
0.630518 0.613336 0.635019
0.93843 0.517678 0.664759
0.962783 0.102754 0.166949
0.0592203 0.972961 0.722087
0.0592355 0.972976 0.721325
0.540551 0.919799 0.588769
0.886946 0.888151 0.447044
0.910735 0.880766 0
0.818036 0.921462 0
0.819684 0.921431 0
0.831724 0.921248 0
0.899229 0.919661 0
0.906508 0.919493 0
0.0324102 0.0387427 0.578134
0.0324102 0.0387427 0.578134
0.67425 0.0355383 0.935699
0.976226 0.132647 0.977523
0.976196 0.131563 0.977508
0.0324102 0.0387427 0.578134
0.0324102 0.0387427 0.578134
0.682612 0.0365911 0.936141
0.976226 0.132647 0.977523
0.976196 0.131563 0.977508
0 0.328237 0.917693
0 0.318441 0.917586
0.577615 0.174609 0.913161
0.976226 0.132509 0.977523
0.976196 0.131563 0.977508
0.056199 0.970047 0.958083
0.0560616 0.970062 0.958099
0.347662 0.935119 0.923186
0.86125 0.849485 0.870741
0.886976 0.806622 0.861036
0.742519 0.896162 0.844511
0.744625 0.896117 0.84419
0.760052 0.895476 0.842054
0.8392 0.893721 0.83328
0.880034 0.892912 0.808408
0.0325933 0.039292 0.581842
0.0325933 0.039292 0.581842
0.0325933 0.039292 0.581842
0.976211 0.132235 0.977523
0.976272 0.134401 0.977569
0.0325933 0.039292 0.581842
0.0325933 0.039292 0.581842
0.0325933 0.039292 0.581842
0.976226 0.132372 0.977523
0.976272 0.134401 0.977569
0.0325933 0.039292 0.581842
0.0325933 0.039292 0.581842
0.0325933 0.039292 0.581842
0.976242 0.132921 0.977539
0.976272 0.134401 0.977569
0.042771 0.905058 0.963836
0.042649 0.904906 0.963851
0.0410773 0.896071 0.963943
0.853788 0.759716 0.891722
0.944274 0.560647 0.94551
0.626474 0.90457 0.892668
0.632273 0.904005 0.892103
0.671183 0.900404 0.888502
0.808087 0.893965 0.882109
0.879484 0.892409 0.880552
