iOSLOG2LUTConverter/Resources/Secondary LUTS/BLADE RUNNER 2049 - HAZE.cube
TITLE "Generated by Resolve"
LUT_3D_SIZE 33
0.121141 0.0314183 6.10361e-05
0.128832 0.035111 6.10361e-05
0.148043 0.0316777 7.62951e-05
0.170916 0.0278782 0.000442512
0.193561 0.0196536 7.62951e-05
0.219852 0.0163577 7.62951e-05
0.241047 0.00469978 7.62951e-05
0.27126 0.00177005 7.62951e-05
0.295338 4.57771e-05 0.00106813
0.324193 6.10361e-05 9.15541e-05
0.354986 0.00276188 0.000106813
0.388373 6.10361e-05 0.00146487
0.42443 7.62951e-05 0.00308232
0.461463 0.00167849 0.00408942
0.501701 9.15541e-05 0.00187686
0.544472 0.00218204 0.00015259
0.594598 0.00205997 0.00215152
0.640574 0.000106813 0.000183108
0.693126 0.000122072 0.00242618
0.73872 0.0024567 0.000213626
0.79411 0.000137331 0.000213626
0.84007 0.00015259 0.000228885
0.893858 0.00015259 0.00297551
0.947646 0.000167849 0.00137331
0.990677 0.000167849 0.00622568
0.993606 0.000167849 0.000274662
0.993606 0.000167849 0.000274662
0.993606 0.000167849 0.000274662
0.993606 0.000167849 0.000274662
0.993606 0.000167849 0.000274662
0.997269 0.00386053 0.00399786
0.993606 0.000167849 0.000274662
0.997513 0.00410468 0.00424201
0.128801 0.0430762 7.62951e-05
0.147524 0.0429694 7.62951e-05
0.155596 0.0391546 0.000198367
0.17882 0.0354772 0.000442512
0.20061 0.034638 0.00680552
0.213352 0.0240787 0.00077821
0.244068 0.0162509 0.000213626
0.274052 0.0116121 0.0009308
0.293462 0.00395209 0.000213626
0.326955 9.15541e-05 0.000167849
0.354986 0.00276188 0.000106813
0.398444 0.000106813 0.00395209
0.429725 0.0024567 0.000122072
0.465385 7.62951e-05 0.00408942
0.507149 9.15541e-05 0.00187686
0.548577 9.15541e-05 0.00015259
0.600214 0.00205997 0.00407416
0.644358 0.000106813 0.000183108
0.696559 0.000122072 0.000198367
0.746502 0.000137331 0.000213626
0.79884 0.000137331 0.000381476
0.847684 0.000274662 0.000228885
0.901625 0.00280766 0.00682078
0.945418 0.00123598 0.000259403
0.985107 0.0030518 0.00605783
0.993713 0.000274662 0.000366217
0.993606 0.000167849 0.000274662
0.993606 0.000167849 0.000274662
0.993713 0.000274662 0.000381476
0.994095 0.000656138 0.000762951
0.993606 0.000167849 0.000274662
0.993606 0.000167849 0.000274662
0.993606 0.000167849 0.000274662
0.14406 0.0510567 9.15541e-05
0.155413 0.0543679 0.00369268
0.16408 0.0505837 9.15541e-05
0.186618 0.0466621 0.000335698
0.205005 0.0395666 0.00334173
0.227436 0.0356909 0.00030518
0.248585 0.0271153 0.000381476
0.277104 0.0208438 9.15541e-05
0.3037 0.00587472 0.000274662
0.337041 0.00115969 9.15541e-05
0.362417 0.000228885 0.000106813
0.399863 0.00132753 0.00254826
0.436698 0.000381476 0.000122072
0.473014 7.62951e-05 0.000427253
0.516854 9.15541e-05 0.00573739
0.552422 0.000213626 0.00015259
0.600336 0.00207523 0.000167849
0.648264 0.000106813 0.00401312
0.698619 0.000122072 0.000442512
0.748043 0.000137331 0.00172427
0.799542 0.00244144 0.00393683
0.848051 0.00015259 0.000228885
0.898833 0.000228885 0.00297551
0.955337 0.000167849 0.00131228
0.99617 0.00292973 0.00881971
0.993606 0.000167849 0.000274662
0.993606 0.000167849 0.000274662
0.994186 0.000747692 0.000854505
0.993606 0.000167849 0.000274662
0.993606 0.000167849 0.000274662
0.993606 0.000167849 0.000274662
0.993622 0.000183108 0.000289921
0.997269 0.00386053 0.00399786
0.155856 0.066392 0.000106813
0.170642 0.066041 0.000106813
0.185367 0.0624704 0.00384527
0.198184 0.0588846 0.000518807
0.216526 0.0550698 0.000427253
0.236042 0.0503395 0.00320439
0.259449 0.0403296 0.00077821
0.292729 0.0343481 0.00291447
0.31809 0.0226902 0.000106813
0.34226 0.00582895 0.000106813
0.370535 0.00117494 0.00282292
0.404028 7.62951e-05 0.000350958
0.440085 7.62951e-05 0.00189212
0.482628 7.62951e-05 0.0037232
0.518563 0.00164797 0.00170901
0.563531 0.000274662 0.00015259
0.606332 0.000106813 0.000350958
0.652552 0.000106813 0.000549325
0.700252 0.00184634 0.000411994
0.751537 0.000137331 0.000213626
0.801801 0.000137331 0.00157168
0.851804 0.000396735 0.00184634
0.90071 0.00015259 0.000244144
0.96257 0.000167849 0.000366217
0.993698 0.000259403 0.000366217
0.994385 0.000946059 0.00106813
0.994278 0.000839246 0.000946059
0.993606 0.000167849 0.000274662
0.996704 0.00328069 0.0043183
0.993606 0.000167849 0.000274662
0.993606 0.000167849 0.000274662
0.997147 0.00373846 0.00387579
0.997147 0.00373846 0.00387579
0.182086 0.0780499 0.00358587
0.189181 0.0809033 0.000122072
0.198138 0.0775921 0.000122072
0.216907 0.0740063 0.00062562
0.232349 0.0740673 0.00360113
0.255558 0.072282 0.00415045
0.277836 0.0628519 0.00369268
0.297246 0.0543984 0.000518807
0.326101 0.0442206 0.00582895
0.354055 0.0284123 0.00271611
0.382422 0.0155184 0.000961318
0.415412 0.00244144 0.000122072
0.452186 0.000259403 0.00273136
0.488518 9.15541e-05 0.000137331
0.522972 0.000366217 0.00015259
0.560647 9.15541e-05 0.00015259
0.611963 0.000350958 0.00363165
0.656458 0.000610361 0.00248722
0.704311 0.00184634 0.000747692
0.753399 0.000137331 0.000213626
0.808408 0.000137331 0.00369268
0.849149 0.00047303 0.00479133
0.899001 0.00015259 0.00263981
0.953384 0.000167849 0.00123598
0.99202 0.00103761 0.00584421
0.994354 0.0009308 0.00103761
0.993606 0.000167849 0.00157168
0.993683 0.000244144 0.00729381
0.997452 0.00404364 0.0102541
0.993606 0.000167849 0.000274662
0.993606 0.000167849 0.000274662
0.993606 0.000167849 0.000274662
0.997024 0.00360113 0.00375372
0.187366 0.104173 0.00015259
0.20087 0.100755 0.0039826
0.214969 0.100298 0.000183108
0.228473 0.0963912 0.00015259
0.245838 0.0930953 0.00077821
0.262516 0.0890974 0.00015259
0.288289 0.0879988 0.00337224
0.315068 0.0807813 0.000885023
0.333196 0.0736858 0.0053254
0.359426 0.0618601 0.00202945
0.39086 0.0502937 0.00392157
0.420066 0.0346227 0.00349432
0.45713 0.011902 0.000518807
0.496681 0.00143435 0.0010071
0.533349 0.00195315 0.00015259
0.574594 0.000106813 0.0019379
0.61941 0.00177005 0.000793469
0.663752 0.000122072 0.00270085
0.711727 0.00157168 0.00354009
0.759884 0.000137331 0.0037995
0.811841 0.000518807 0.00270085
0.859846 0.00015259 0.000854505
0.908095 0.00015259 0.000244144
0.965316 0.00254826 0.000442512
0.993606 0.000167849 0.00120546
0.993606 0.000167849 0.000274662
0.993606 0.000167849 0.000274662
0.993606 0.000167849 0.000274662
0.993606 0.000167849 0.000274662
0.993667 0.000228885 0.000335698
0.993652 0.000213626 0.000396735
0.993606 0.000167849 0.00148013
0.993606 0.000167849 0.000274662
0.207843 0.120241 0.000167849
0.219364 0.124147 0.00341802
0.223987 0.119753 0.0033875
0.24448 0.113436 0.0040589
0.257832 0.116335 0.0037995
0.281331 0.113024 0.000411994
0.304204 0.114275 0.00138857
0.332433 0.104814 0.00357061
0.353033 0.100343 0.000381476
0.378775 0.0903487 0.000183108
0.409171 0.0847028 0.00291447
0.439094 0.0715801 0.00129702
0.474235 0.060502 0.000656138
0.507958 0.041001 0.000915541
0.542214 0.016968 0.000167849
0.587366 0.0016022 0.000900282
0.634577 0.000106813 0.00215152
0.679957 0.000503548 0.000534066
0.724758 0.000122072 0.000946059
0.7729 0.000137331 0.000213626
0.818814 0.00241093 0.00672923
0.86685 0.000640879 0.000244144
0.921477 0.000396735 0.00247196
0.969802 0.00389105 0.000488289
0.995132 0.00170901 0.00183108
0.993606 0.000167849 0.000274662
0.994202 0.00077821 0.000885023
0.993606 0.000167849 0.007187
0.994003 0.000564584 0.00198367
0.993606 0.000167849 0.000274662
0.993805 0.000366217 0.00047303
0.993606 0.000167849 0.000274662
0.993606 0.000167849 0.000274662
0.231586 0.145769 0.00329595
0.236316 0.142702 0.00112917
0.250477 0.141711 0.000244144
0.263035 0.13608 0.000198367
0.274144 0.142107 0.000595102
0.294057 0.139406 0.000213626
0.316915 0.13724 0.000793469
0.346059 0.130266 0.00262455
0.364416 0.128679 0.0018616
0.39585 0.124208 0.000839246
0.426322 0.115251 0.00234989
0.458274 0.108949 0.00129702
0.491737 0.0973983 0.000228885
0.524727 0.0887617 0.000228885
0.563272 0.0703746 0.00167849
0.602335 0.0476997 0.00602731
0.646052 0.0204776 0.00329595
0.692882 0.00175479 0.00492866
0.733104 0.000122072 0.000198367
0.784314 0.000137331 0.00418097
0.830564 0.00276188 0.0037995
0.879484 0.00216678 0.000549325
0.932052 0.000167849 0.000259403
0.970138 0.00386053 0.0031281
0.99382 0.000381476 0.00776684
0.993606 0.000167849 0.00511177
0.994308 0.000869764 0.000976577
0.996658 0.00323491 0.00337224
0.993713 0.000274662 0.00267033
0.996368 0.00296025 0.00308232
0.990936 0.000366217 0.00047303
0.996567 0.00314336 0.00328069
0.993606 0.000167849 0.000274662
0.259495 0.168826 0.000228885
0.269917 0.169787 0.00311284
0.272145 0.169757 0.00134279
0.286061 0.165805 0.002121
0.297032 0.165042 0.000350958
0.321767 0.164096 0.000244144
0.34168 0.160998 0.000244144
0.36466 0.160998 0.000457771
0.393271 0.158068 0.00123598
0.418479 0.153429 0.000259403
0.44831 0.148562 0.00297551
0.474296 0.142092 0.00221256
0.506188 0.13637 0.002121
0.546471 0.126925 0.00268559
0.580575 0.120562 0.00256352
0.615335 0.107408 0.00125124
0.657816 0.0923629 0.00125124
0.704677 0.0746166 0.000793469
0.74902 0.0439155 0.000244144
0.791669 0.0147707 0.000640879
0.838834 0.00297551 0.000854505
0.881422 0.00209049 0.000579843
0.935119 0.000167849 0.00125124
0.976349 0.000167849 0.0012665
0.996048 0.00262455 0.00399786
0.993606 0.000167849 0.000274662
0.994156 0.000732433 0.000839246
0.996078 0.00265507 0.0027924
0.994461 0.00103761 0.00114443
0.993881 0.000442512 0.000549325
0.996353 0.00292973 0.00306706
0.993606 0.000167849 0.000274662
0.993606 0.000167849 0.000274662
0.270863 0.198642 0.00595102
0.28127 0.196887 0.00408942
0.285176 0.195895 0.00317388
0.300359 0.192905 0.000518807
0.314443 0.193225 0.000610361
0.334447 0.194903 0.000442512
0.353338 0.192432 0.00117494
0.378103 0.192538 0.00337224
0.408408 0.189685 0.00170901
0.435477 0.185977 0.00140383
0.462974 0.184085 0.00105287
0.496025 0.178332 0.00350958
0.527489 0.171206 0.00511177
0.56202 0.167742 0.00315862
0.600336 0.158968 0.00218204
0.637079 0.151354 0.000320439
0.678462 0.14406 0.000869764
0.722469 0.133959 0.00166323
0.767483 0.116304 0.00440986
0.812116 0.0948806 0.00030518
0.850614 0.0717174 0.000717174
0.899214 0.0377661 0.002533
0.94699 0.00686656 0.000274662
0.990799 0.000961318 0.00756847
0.993606 0.000717174 0.00482185
0.992752 0.00103761 0.000274662
0.993606 0.000167849 0.000274662
0.993606 0.000167849 0.00819409
0.993606 0.000167849 0.00721752
0.994598 0.00117494 0.00128176
0.994644 0.00120546 0.00132753
0.994675 0.00123598 0.00135805
0.997513 0.00410468 0.0031281
0.300587 0.22797 0.000289921
0.304356 0.232013 0.000289921
0.312001 0.228061 0.000289921
0.323186 0.228077 0.000289921
0.337819 0.227085 0.00302129
0.356832 0.224475 0.00030518
0.377386 0.22652 0.00183108
0.399481 0.223423 0.00030518
0.424079 0.221912 0.00236515
0.453391 0.218036 0.00108339
0.482658 0.217685 0.00117494
0.518791 0.212009 0.00238041
0.548226 0.211231 0.000808728
0.583932 0.206302 0.000350958
0.620722 0.200504 0.0041352
0.658045 0.19266 0.0010071
0.697185 0.187671 0.000366217
0.739681 0.178775 0.000366217
0.786282 0.168872 0.00210575
0.827985 0.156054 0.00248722
0.866194 0.145174 0.00192264
0.913924 0.125124 0.00129702
0.964141 0.0999924 0.0043183
0.992355 0.0688945 0.00306706
0.996155 0.0366064 0.00234989
0.995697 0.00650034 0.000274662
0.993606 0.000167849 0.000274662
0.994034 0.000595102 0.000701915
0.995956 0.002533 0.00265507
0.993606 0.000167849 0.000274662
0.993606 0.000167849 0.00538643
0.993606 0.000167849 0.000274662
0.994827 0.00140383 0.00151064
0.318441 0.257649 0.000320439
0.327443 0.25893 0.000320439
0.335058 0.260075 0.000320439
0.349859 0.259754 0.00282292
0.363272 0.258885 0.000656138
0.378256 0.256321 0.000335698
0.402686 0.25951 0.000350958
0.425895 0.253254 0.000640879
0.450767 0.252399 0.000350958
0.47921 0.251438 0.000366217
0.510399 0.248493 0.00117494
0.545037 0.248493 0.00390631
0.573114 0.247028 0.000885023
0.60383 0.241199 0.000381476
0.63978 0.236042 0.000396735
0.679011 0.234653 0.00225834
0.720745 0.226932 0.00238041
0.758572 0.220417 0.00112917
0.805737 0.215198 0.00178531
0.845518 0.205478 0.00259403
0.881621 0.195682 0.002121
0.928756 0.184283 0.00213626
0.975601 0.170611 0.0043946
0.996201 0.157046 0.00326543
0.997009 0.135836 0.00108339
0.996811 0.111208 0.000946059
0.99585 0.0847944 0.00296025
0.995575 0.0527657 0.00292973
0.993805 0.0346227 0.00268559
0.996139 0.0120851 0.000534066
0.993774 0.000335698 0.00564584
0.990967 0.000411994 0.000274662
0.997391 0.0350042 0.00686656
0.370031 0.29102 0.000366217
0.372915 0.2925 0.000366217
0.376867 0.29366 0.000610361
0.39205 0.293538 0.000366217
0.401129 0.29337 0.00254826
0.416648 0.28896 0.00308232
0.436744 0.290578 0.00239567
0.46244 0.291035 0.00265507
0.484688 0.292149 0.00163272
0.50811 0.292149 0.00109865
0.538262 0.285664 0.000411994
0.568551 0.284566 0.00190738
0.598962 0.284199 0.000427253
0.633005 0.283345 0.000427253
0.670787 0.279301 0.00267033
0.705165 0.274601 0.000442512
0.745403 0.268772 0.00292973
0.782895 0.265705 0.00494392
0.820493 0.26215 0.00111391
0.862318 0.252995 0.00148013
0.901778 0.245548 0.00660716
0.942077 0.238117 0.00132753
0.980682 0.232013 0.000946059
0.994553 0.224277 0.00224308
0.996338 0.212757 0.00146487
0.996216 0.201297 0.0019379
0.996796 0.190066 0.00314336
0.9944 0.178531 0.000671397
0.996902 0.164858 0.000915541
0.996689 0.157305 0.00213626
0.996857 0.14992 0.00288396
0.993103 0.153826 0.000411994
0.996887 0.165042 0.00190738
0.378042 0.337514 0.00201419
0.386328 0.337575 0.000411994
0.393545 0.335332 0.000411994
0.402579 0.337301 0.000411994
0.416388 0.333593 0.00247196
0.431235 0.33164 0.00277714
0.45597 0.334462 0.00425727
0.475731 0.330938 0.00352483
0.503059 0.331472 0.00164797
0.534295 0.330144 0.00111391
0.558358 0.326772 0.000442512
0.591211 0.326329 0.000457771
0.626871 0.323919 0.00047303
0.656077 0.320912 0.00047303
0.690593 0.320974 0.0011902
0.726116 0.319295 0.000488289
0.764309 0.313237 0.000488289
0.805859 0.307424 0.00175479
0.846006 0.301946 0.00120546
0.887144 0.297704 0.00383001
0.922087 0.290517 0.00389105
0.960296 0.286778 0.00317388
0.994278 0.278019 0.00213626
0.996033 0.272129 0.000518807
0.992386 0.263233 0.00190738
0.996551 0.253635 0.00360113
0.9953 0.243412 0.0009308
0.996384 0.235691 0.000488289
0.99527 0.226078 0.000976577
0.996689 0.217411 0.00282292
0.994385 0.213596 0.00047303
0.992905 0.215396 0.00047303
0.996628 0.233112 0.00283818
0.41471 0.370031 0.00392157
0.418128 0.369985 0.000564584
0.42594 0.372244 0.00218204
0.440497 0.369879 0.00263981
0.45449 0.371969 0.00421149
0.46775 0.371496 0.00434882
0.484886 0.369726 0.00361639
0.506767 0.368704 0.00393683
0.533288 0.37055 0.000915541
0.562524 0.367239 0.00320439
0.586267 0.367163 0.00321965
0.617533 0.364431 0.00196841
0.64976 0.363043 0.00329595
0.683436 0.360021 0.00477607
0.719142 0.355138 0.000518807
0.755886 0.355428 0.000534066
0.793484 0.35378 0.0033875
0.828901 0.349126 0.00227359
0.866636 0.343877 0.000549325
0.906172 0.340841 0.00158694
0.942885 0.334371 0.00140383
0.981247 0.326085 0.00349432
0.996277 0.324697 0.00111391
0.995682 0.318975 0.000564584
0.99469 0.309789 0.00228885
0.994186 0.299001 0.000549325
0.996399 0.293904 0.00170901
0.99498 0.287312 0.00241093
0.994537 0.279362 0.000534066
0.99649 0.270115 0.000518807
0.994171 0.264775 0.000518807
0.992706 0.271138 0.000518807
0.996429 0.288197 0.00450141
0.440955 0.41088 0.000488289
0.452644 0.410834 0.000564584
0.45832 0.410773 0.00224308
0.471336 0.407141 0.000503548
0.484627 0.405615 0.00260929
0.498466 0.406973 0.000503548
0.521706 0.410712 0.00297551
0.543236 0.403906 0.00242618
0.563882 0.401679 0.000518807
0.589075 0.403647 0.000534066
0.614572 0.405768 0.0011902
0.645502 0.402411 0.00117494
0.677348 0.399466 0.00256352
0.710658 0.399161 0.00241093
0.745953 0.396811 0.00230411
0.781231 0.394141 0.00144961
0.819562 0.392248 0.00163272
0.856184 0.389731 0.00256352
0.891661 0.382574 0.00163272
0.928206 0.37882 0.00230411
0.961578 0.374868 0.00471504
0.987228 0.368292 0.00393683
0.995483 0.363226 0.00204471
0.993561 0.358663 0.00480659
0.993423 0.352102 0.00270085
0.994583 0.345876 0.000579843
0.994537 0.338094 0.00244144
0.994415 0.333913 0.000900282
0.992813 0.325505 0.000564584
0.994232 0.318853 0.000564584
0.996216 0.31249 0.000564584
0.994385 0.322972 0.000564584
0.996246 0.334554 0.00244144
0.502922 0.447578 0.00251774
0.506722 0.445609 0.00251774
0.5122 0.449165 0.000671397
0.519966 0.447578 0.000549325
0.531762 0.447578 0.002533
0.54638 0.447272 0.000549325
0.558541 0.447578 0.002533
0.581415 0.444526 0.000991836
0.603662 0.445136 0.000564584
0.626215 0.444221 0.00112917
0.653788 0.443671 0.00256352
0.680812 0.43975 0.00523384
0.709545 0.43975 0.00357061
0.740658 0.43859 0.000595102
0.773861 0.436698 0.000610361
0.803754 0.435843 0.00271611
0.840375 0.43389 0.00161746
0.880781 0.430091 0.00354009
0.917281 0.426917 0.00373846
0.95024 0.42446 0.00181582
0.98027 0.421897 0.00337224
0.994644 0.416861 0.00195315
0.994003 0.410361 0.000640879
0.992615 0.403922 0.000640879
0.996002 0.397604 0.00410468
0.996033 0.390738 0.00062562
0.993713 0.387671 0.000991836
0.992462 0.380621 0.000610361
0.99266 0.374792 0.00433356
0.994141 0.373083 0.000976577
0.994278 0.371237 0.00271611
0.994186 0.377188 0.00259403
0.996048 0.386816 0.00656138
0.513756 0.490257 0.00268559
0.521737 0.495842 0.000717174
0.529412 0.488426 0.000579843
0.540642 0.492103 0.000793469
0.555825 0.490272 0.000854505
0.567559 0.488838 0.000595102
0.587762 0.488533 0.00210575
0.609049 0.486748 0.000610361
0.627924 0.484794 0.000610361
0.651026 0.487617 0.00213626
0.676524 0.484443 0.00207523
0.707774 0.478523 0.00263981
0.732021 0.48098 0.00364691
0.763531 0.480461 0.000640879
0.798749 0.478538 0.00448615
0.832761 0.473396 0.00375372
0.868208 0.472541 0.00383001
0.900984 0.469718 0.00277714
0.938949 0.467811 0.000686656
0.975326 0.463706 0.000686656
0.995758 0.463661 0.00148013
0.995789 0.454139 0.00343328
0.995819 0.44651 0.002533
0.995834 0.44213 0.0012665
0.995392 0.437873 0.00224308
0.99237 0.431067 0.000656138
0.993484 0.424765 0.000656138
0.995926 0.417273 0.00453193
0.994339 0.413443 0.00274662
0.993515 0.409384 0.000640879
0.993988 0.407904 0.000762951
0.995865 0.417792 0.00479133
0.99588 0.431464 0.00486763
0.551995 0.526818 0.00408942
0.557992 0.52903 0.00062562
0.565591 0.527291 0.00271611
0.575769 0.525109 0.00257877
0.586526 0.523247 0.000854505
0.599939 0.523049 0.000640879
0.622507 0.524376 0.0024567
0.639918 0.519844 0.000640879
0.660395 0.521202 0.00276188
0.68333 0.51838 0.000656138
0.713451 0.516594 0.000656138
0.740688 0.512398 0.000671397
0.763317 0.509529 0.00132753
0.790356 0.512062 0.00381476
0.826612 0.512627 0.00563058
0.853361 0.508537 0.00268559
0.886198 0.50161 0.000701915
0.920851 0.501884 0.000701915
0.953567 0.500664 0.00196841
0.985153 0.495491 0.00204471
0.991882 0.492699 0.00155642
0.992767 0.490227 0.00294499
0.994171 0.482643 0.000717174
0.994125 0.476493 0.0011902
0.995727 0.471336 0.00244144
0.995758 0.462486 0.00106813
0.995773 0.456321 0.00242618
0.993957 0.448386 0.000686656
0.995544 0.448173 0.000686656
0.991424 0.444465 0.000671397
0.995544 0.444572 0.000671397
0.993667 0.450324 0.00254826
0.991836 0.464591 0.00292973
0.590265 0.55761 0.000671397
0.597955 0.557626 0.000671397
0.605829 0.555932 0.000671397
0.617823 0.554208 0.000671397
0.626825 0.554635 0.00273136
0.641993 0.553826 0.00239567
0.658076 0.555291 0.00390631
0.678203 0.551247 0.0019379
0.696437 0.55172 0.00167849
0.719631 0.549783 0.00114443
0.74435 0.548196 0.0030518
0.772915 0.540352 0.00175479
0.793393 0.541817 0.000701915
0.817182 0.542046 0.00166323
0.848646 0.539467 0.00294499
0.879713 0.533974 0.00544747
0.907164 0.531731 0.00154116
0.939849 0.533028 0.000747692
0.969818 0.529229 0.0033875
0.993194 0.525429 0.00544747
0.995544 0.519173 0.000747692
0.995544 0.517571 0.000747692
0.994476 0.510964 0.000732433
0.99559 0.50576 0.00250248
0.992279 0.50013 0.00601205
0.99382 0.49453 0.000717174
0.995666 0.485008 0.00262455
0.995682 0.48127 0.00207523
0.995697 0.479423 0.00111391
0.994278 0.474327 0.000701915
0.994125 0.475547 0.000701915
0.995682 0.481834 0.00227359
0.995636 0.494026 0.00306706
0.647135 0.582528 0.000701915
0.656504 0.582605 0.00077821
0.659037 0.580224 0.000854505
0.671229 0.580179 0.000946059
0.679118 0.580392 0.00318914
0.690913 0.580087 0.00196841
0.706035 0.580087 0.00318914
0.722179 0.576699 0.000717174
0.741176 0.575555 0.00183108
0.755199 0.572244 0.000717174
0.777722 0.575189 0.00120546
0.801236 0.572259 0.000732433
0.820417 0.567895 0.000732433
0.844633 0.570672 0.00163272
0.876204 0.565148 0.000747692
0.904814 0.563439 0.00277714
0.931563 0.560739 0.00274662
0.962173 0.556893 0.00146487
0.988434 0.555993 0.00077821
0.993072 0.552544 0.00077821
0.993957 0.549661 0.000762951
0.993973 0.544594 0.002121
0.994003 0.538918 0.00224308
0.995468 0.535973 0.00215152
0.994873 0.531441 0.00483711
0.995193 0.526497 0.000747692
0.995529 0.521538 0.00149538
0.99556 0.513024 0.00282292
0.995575 0.509361 0.00334173
0.995575 0.510948 0.000732433
0.99556 0.513405 0.00321965
0.995544 0.519829 0.00222782
0.995514 0.525185 0.00321965
0.672084 0.613931 0.00210575
0.678477 0.615076 0.00331121
0.686229 0.611322 0.000900282
0.698497 0.612345 0.000747692
0.702953 0.608988 0.000747692
0.717693 0.608454 0.00450141
0.732891 0.605005 0.0028687
0.74815 0.60531 0.00218204
0.771466 0.607324 0.00242618
0.786068 0.600961 0.000762951
0.806638 0.601633 0.0011902
0.825727 0.598688 0.000762951
0.847791 0.596277 0.00422675
0.874052 0.592996 0.00231937
0.901259 0.592233 0.00155642
0.926833 0.587869 0.00141909
0.952438 0.585779 0.000793469
0.980011 0.582452 0.00201419
0.992416 0.579522 0.00399786
0.994781 0.575723 0.00419623
0.994827 0.571572 0.00343328
0.994461 0.572045 0.00250248
0.995361 0.567315 0.00241093
0.994659 0.56051 0.0033875
0.995407 0.554772 0.0040589
0.995407 0.551843 0.00416571
0.995438 0.545174 0.00151064
0.995468 0.539834 0.00296025
0.995483 0.535485 0.000762951
0.995239 0.533516 0.0010071
0.994125 0.538338 0.00228885
0.991669 0.540963 0.002121
0.994079 0.548608 0.00213626
0.719585 0.62916 0.000762951
0.725887 0.631815 0.00196841
0.732448 0.630549 0.004654
0.743908 0.62707 0.00225834
0.753475 0.626703 0.00294499
0.763226 0.625467 0.00221256
0.77731 0.624521 0.00201419
0.791852 0.623056 0.00137331
0.80914 0.622797 0.00263981
0.823377 0.619974 0.00155642
0.840681 0.61825 0.00117494
0.860487 0.617105 0.00215152
0.881514 0.616892 0.00306706
0.902144 0.612253 0.000808728
0.930495 0.609033 0.00233463
0.953628 0.608957 0.00225834
0.979324 0.605035 0.00218204
0.993133 0.603204 0.000823987
0.994705 0.596719 0.000808728
0.995254 0.595483 0.00302129
0.995254 0.592187 0.0062562
0.99527 0.587762 0.00352483
0.994446 0.586648 0.00267033
0.992142 0.582818 0.00233463
0.99379 0.575662 0.00352483
0.994385 0.572168 0.00291447
0.995346 0.568093 0.000793469
0.994766 0.561852 0.00308232
0.992691 0.559777 0.0009308
0.992828 0.559915 0.00215152
0.994232 0.561318 0.00358587
0.995315 0.567941 0.00198367
0.994125 0.570321 0.000793469
0.775845 0.650019 0.00761425
0.779644 0.648951 0.00209049
0.782345 0.646204 0.00184634
0.790997 0.644541 0.00201419
0.797543 0.645747 0.00343328
0.809247 0.643717 0.00125124
0.816022 0.642374 0.000808728
0.83357 0.64303 0.00588998
0.849104 0.6439 0.0015259
0.862257 0.639048 0.000808728
0.877531 0.632746 0.000808728
0.895964 0.634333 0.000823987
0.918654 0.635828 0.00367742
0.933272 0.62829 0.000823987
0.960769 0.627604 0.00131228
0.988251 0.624414 0.00234989
0.995148 0.623133 0.00393683
0.994568 0.620218 0.00486763
0.995163 0.61706 0.00416571
0.995178 0.613626 0.0019379
0.995193 0.610437 0.00337224
0.995209 0.606882 0.000823987
0.992416 0.602609 0.000823987
0.995224 0.601053 0.000823987
0.993851 0.595254 0.000808728
0.992447 0.590936 0.00230411
0.99527 0.589548 0.00596628
0.9953 0.581613 0.000793469
0.994949 0.582925 0.00177005
0.992477 0.585534 0.00192264
0.995285 0.587243 0.00364691
0.995117 0.590112 0.000808728
0.994156 0.595102 0.000808728
0.829725 0.65861 0.000823987
0.837461 0.65951 0.00370794
0.840116 0.659602 0.000823987
0.849348 0.660487 0.000823987
0.854795 0.657023 0.000823987
0.860945 0.655833 0.000823987
0.86949 0.651682 0.00138857
0.88574 0.653925 0.00712596
