iOSLOG2LUTConverter/Resources/Secondary LUTS/BLADE RUNNER 2049 - HAZE.cube
TITLE "Generated by Resolve"
LUT_3D_SIZE 5
0.121141 0.0314183 6.10361e-05
0.295338 4.57771e-05 0.00106813
0.594598 0.00205997 0.00215152
0.990677 0.000167849 0.00622568
0.997513 0.00410468 0.00424201
0.259495 0.168826 0.000228885
0.393271 0.158068 0.00123598
0.657816 0.0923629 0.00125124
0.996048 0.00262455 0.00399786
0.993606 0.000167849 0.000274662
0.502922 0.447578 0.00251774
0.603662 0.445136 0.000564584
0.840375 0.43389 0.00161746
0.996002 0.397604 0.00410468
0.996048 0.386816 0.00656138
0.829725 0.65861 0.000823987
0.894789 0.652979 0.00479133
0.994598 0.637049 0.00283818
0.992981 0.611292 0.00181582
0.992233 0.617426 0.000823987
0.994919 0.683177 0.000885023
0.993927 0.686122 0.00386053
0.99295 0.68513 0.000885023
0.989013 0.69102 0.00189212
0.994858 0.698878 0.000900282
0.174975 0.021622 0.0099794
0.322454 0.00595102 0.00381476
0.62002 0.000595102 0.00462348
0.993606 0.000167849 0.00671397
0.994583 0.00115969 0.00721752
0.296681 0.160983 0.00616464
0.413108 0.148196 0.000427253
0.684581 0.0608377 0.00234989
0.996353 0.00292973 0.00138857
0.992126 0.00311284 0.00250248
0.514672 0.441199 0.00251774
0.620554 0.437781 0.00131228
0.861921 0.422126 0.00556954
0.993347 0.388525 0.00471504
0.992554 0.403006 0.002121
0.868391 0.651499 0.000823987
0.929763 0.64802 0.00282292
0.993652 0.630182 0.00122072
0.992645 0.606699 0.000823987
0.994446 0.612772 0.00181582
0.991974 0.683177 0.000885023
0.994186 0.682689 0.0028687
0.994415 0.68661 0.000900282
0.990494 0.689555 0.00114443
0.994842 0.699855 0.000900282
0.307073 0.00201419 0.0159304
0.424414 0.00302129 0.0120089
0.695323 0.00109865 0.0011902
0.993606 0.000167849 0.000274662
0.99556 0.00213626 0.00225834
0.380362 0.14432 0.000732433
0.490471 0.121035 0.00321965
0.75523 0.000137331 0.00466926
0.993973 0.000534066 0.00138857
0.994583 0.00115969 0.00225834
0.590967 0.440711 0.00155642
0.681697 0.434104 0.00280766
0.902541 0.417227 0.00111391
0.995254 0.401038 0.00262455
0.995819 0.445701 0.00166323
0.937362 0.644892 0.000839246
0.98555 0.639384 0.00492866
0.993927 0.620859 0.00256352
0.993027 0.602701 0.000823987
0.994659 0.621836 0.00183108
0.994919 0.681208 0.000885023
0.994904 0.685634 0.00436408
0.994904 0.686122 0.000900282
0.990478 0.692012 0.00288396
0.992889 0.700832 0.000900282
0.51342 7.62951e-05 0.0308537
0.598749 0.000106813 0.0162661
0.819532 0.000137331 0.000228885
0.995804 0.00238041 0.00250248
0.993606 0.000167849 0.000274662
0.53753 0.0913558 0.00419623
0.633463 0.0337835 0.00238041
0.848127 0.00210575 0.000244144
0.993606 0.000167849 0.000274662
0.995758 0.0769665 0.00727855
0.706447 0.419638 0.00106813
0.781903 0.411551 0.00207523
0.963485 0.39736 0.00285344
0.995666 0.391226 0.00260929
0.995743 0.464836 0.000701915
0.992889 0.635828 0.00381476
0.991821 0.628458 0.00567636
0.992615 0.614603 0.00157168
0.994263 0.598291 0.000808728
0.993667 0.626505 0.000839246
0.994904 0.687099 0.0028687
0.994904 0.684886 0.000885023
0.994904 0.687099 0.000900282
0.993423 0.690288 0.00114443
0.991928 0.695933 0.000900282
0.680629 0.00404364 0.027924
0.737377 0.00109865 0.0239872
0.903639 0.00015259 0.00421149
0.993606 0.000167849 0.000274662
0.997269 0.0668956 0.0161898
0.70605 0.011902 0.000213626
0.764263 0.00259403 0.000961318
0.924666 0.000656138 0.000747692
0.993851 0.000411994 0.000518807
0.9935 0.283772 0.000534066
0.829816 0.380896 0.000579843
0.89044 0.383368 0.00108339
0.996033 0.391714 0.00260929
0.995438 0.417243 0.00114443
0.995636 0.494759 0.000717174
0.992294 0.601724 0.00378424
0.994995 0.59707 0.000808728
0.992813 0.593378 0.000808728
0.992798 0.596078 0.000808728
0.992172 0.630182 0.00679026
0.994904 0.687099 0.000900282
0.994888 0.688075 0.00189212
0.994888 0.69102 0.00288396
0.993896 0.692012 0.000900282
0.990921 0.7028 0.000900282
