iOSLOG2LUTConverter/Resources/Secondary LUTS/BLADE RUNNER 2049 - HAZE.cube
TITLE "Generated by Resolve"
LUT_3D_SIZE 9
0.121141 0.0314183 6.10361e-05
0.193561 0.0196536 7.62951e-05
0.295338 4.57771e-05 0.00106813
0.42443 7.62951e-05 0.00308232
0.594598 0.00205997 0.00215152
0.79411 0.000137331 0.000213626
0.990677 0.000167849 0.00622568
0.993606 0.000167849 0.000274662
0.997513 0.00410468 0.00424201
0.182086 0.0780499 0.00358587
0.232349 0.0740673 0.00360113
0.326101 0.0442206 0.00582895
0.452186 0.000259403 0.00273136
0.611963 0.000350958 0.00363165
0.808408 0.000137331 0.00369268
0.99202 0.00103761 0.00584421
0.997452 0.00404364 0.0102541
0.997024 0.00360113 0.00375372
0.259495 0.168826 0.000228885
0.297032 0.165042 0.000350958
0.393271 0.158068 0.00123598
0.506188 0.13637 0.002121
0.657816 0.0923629 0.00125124
0.838834 0.00297551 0.000854505
0.996048 0.00262455 0.00399786
0.994461 0.00103761 0.00114443
0.993606 0.000167849 0.000274662
0.370031 0.29102 0.000366217
0.401129 0.29337 0.00254826
0.484688 0.292149 0.00163272
0.598962 0.284199 0.000427253
0.745403 0.268772 0.00292973
0.901778 0.245548 0.00660716
0.996338 0.212757 0.00146487
0.996902 0.164858 0.000915541
0.996887 0.165042 0.00190738
0.502922 0.447578 0.00251774
0.531762 0.447578 0.002533
0.603662 0.445136 0.000564584
0.709545 0.43975 0.00357061
0.840375 0.43389 0.00161746
0.98027 0.421897 0.00337224
0.996002 0.397604 0.00410468
0.99266 0.374792 0.00433356
0.996048 0.386816 0.00656138
0.647135 0.582528 0.000701915
0.679118 0.580392 0.00318914
0.741176 0.575555 0.00183108
0.820417 0.567895 0.000732433
0.931563 0.560739 0.00274662
0.993957 0.549661 0.000762951
0.994873 0.531441 0.00483711
0.995575 0.509361 0.00334173
0.995514 0.525185 0.00321965
0.829725 0.65861 0.000823987
0.854795 0.657023 0.000823987
0.894789 0.652979 0.00479133
0.956069 0.642313 0.00270085
0.994598 0.637049 0.00283818
0.994766 0.625528 0.00183108
0.992981 0.611292 0.00181582
0.994812 0.613993 0.00355535
0.992233 0.617426 0.000823987
0.994904 0.686122 0.00138857
0.988464 0.689189 0.00740063
0.994934 0.679255 0.000885023
0.992615 0.675624 0.0011902
0.994965 0.66772 0.00508125
0.99501 0.65864 0.00247196
0.994049 0.653742 0.00123598
0.994995 0.661036 0.00180056
0.994965 0.668452 0.00137331
0.994919 0.683177 0.000885023
0.99443 0.679744 0.000885023
0.993927 0.686122 0.00386053
0.994904 0.687099 0.00584421
0.99295 0.68513 0.000885023
0.994888 0.688579 0.00238041
0.989013 0.69102 0.00189212
0.99144 0.694453 0.00486763
0.994858 0.698878 0.000900282
0.14023 0.027985 0.000564584
0.201465 0.0162814 7.62951e-05
0.304875 0.00262455 0.00355535
0.436835 0.000686656 0.000122072
0.605844 0.000106813 0.00387579
0.804074 0.000137331 0.000228885
0.993606 0.000167849 0.00794995
0.993606 0.000167849 0.000274662
0.993606 0.000167849 0.00819409
0.196826 0.0771344 0.000122072
0.243671 0.0669261 0.00392157
0.336202 0.0444648 0.000137331
0.463783 0.000244144 0.000701915
0.623697 0.000106813 0.00196841
0.815198 0.00314336 0.000411994
0.993713 0.000274662 0.00102235
0.993667 0.000228885 0.000335698
0.994034 0.000610361 0.000701915
0.277012 0.158038 0.000595102
0.309133 0.158053 0.000335698
0.395987 0.150698 0.000518807
0.515099 0.126558 0.00451667
0.666178 0.0788128 0.00224308
0.850385 0.000656138 0.00688182
0.994522 0.0011902 0.00277714
0.993774 0.000335698 0.000442512
0.994461 0.00177005 0.00114443
0.373754 0.290715 0.00296025
0.407233 0.287709 0.00167849
0.486122 0.280385 0.000976577
0.609522 0.277211 0.000686656
0.752941 0.256809 0.000534066
0.907164 0.23415 0.000640879
0.994629 0.195483 0.0031281
0.996277 0.146014 0.00062562
0.996719 0.162585 0.00859083
0.507118 0.438254 0.00077821
0.539574 0.437797 0.000762951
0.613046 0.436851 0.00204471
0.718013 0.431724 0.00151064
0.850294 0.426047 0.00309758
0.987152 0.408865 0.00404364
0.994354 0.383322 0.00241093
0.994385 0.364126 0.00239567
0.99263 0.38706 0.00161746
0.65919 0.579767 0.000885023
0.69015 0.573816 0.00314336
0.749477 0.567315 0.000839246
0.830869 0.566049 0.00178531
0.937758 0.556695 0.00265507
0.993927 0.54377 0.000762951
0.995529 0.522683 0.00183108
0.993835 0.501534 0.000885023
0.994232 0.523827 0.000747692
0.847211 0.657511 0.0037995
0.867857 0.654231 0.00311284
0.909285 0.647593 0.0040589
0.96492 0.642664 0.00183108
0.992721 0.633005 0.00215152
0.994751 0.618296 0.00369268
0.994842 0.605707 0.000946059
0.992279 0.60412 0.00105287
0.991394 0.610681 0.000946059
0.994842 0.686183 0.00695811
0.991913 0.683055 0.0047303
0.992355 0.679683 0.00851453
0.992309 0.674052 0.000885023
0.991958 0.670237 0.00462348
0.992996 0.654765 0.00112917
0.989334 0.658686 0.000885023
0.994888 0.660288 0.00180056
0.99498 0.664103 0.00434882
0.994934 0.679744 0.000885023
0.994934 0.679683 0.000885023
0.993942 0.683177 0.00175479
0.994888 0.687099 0.00622568
0.994904 0.687099 0.00138857
0.994293 0.687404 0.000900282
0.994888 0.690166 0.00399786
0.99089 0.694896 0.00393683
0.994858 0.698878 0.00189212
0.174975 0.021622 0.0099794
0.222553 0.0132906 0.00489815
0.322454 0.00595102 0.00381476
0.454383 0.000686656 0.00149538
0.62002 0.000595102 0.00462348
0.818677 0.000137331 0.00146487
0.993606 0.000167849 0.00671397
0.993606 0.000167849 0.000274662
0.994583 0.00115969 0.00721752
0.221714 0.0731518 0.00062562
0.264271 0.0652171 0.00015259
0.35938 0.0306096 0.00164797
0.481697 0.000167849 0.000320439
0.637934 0.00146487 0.00111391
0.830137 0.000137331 0.00369268
0.994614 0.0011902 0.00129702
0.99382 0.000381476 0.000488289
0.993606 0.000167849 0.000274662
0.296681 0.160983 0.00616464
0.332036 0.156985 0.000976577
0.413108 0.148196 0.000427253
0.532479 0.124727 0.00257877
0.684581 0.0608377 0.00234989
0.863752 0.00300603 0.000671397
0.996353 0.00292973 0.00138857
0.993606 0.000167849 0.000518807
0.992126 0.00311284 0.00250248
0.390082 0.288579 0.00247196
0.426413 0.287526 0.00521859
0.504082 0.279667 0.000701915
0.619974 0.273213 0.00111391
0.763287 0.258595 0.0027924
0.923095 0.230045 0.000457771
0.994492 0.193378 0.000823987
0.994781 0.158602 0.00114443
0.996765 0.197177 0.00230411
0.514672 0.441199 0.00251774
0.544213 0.439734 0.000610361
0.620554 0.437781 0.00131228
0.723766 0.430686 0.00132753
0.861921 0.422126 0.00556954
0.989303 0.407919 0.00218204
0.993347 0.388525 0.00471504
0.99353 0.373754 0.00445563
0.992554 0.403006 0.002121
0.681041 0.574685 0.000701915
0.706249 0.573281 0.00401312
0.762158 0.569909 0.00292973
0.849073 0.564645 0.00143435
0.950301 0.55462 0.00317388
0.993469 0.541939 0.00169375
0.995346 0.522454 0.000747692
0.994492 0.506722 0.00105287
0.995483 0.533776 0.000762951
0.868391 0.651499 0.000823987
0.893782 0.650584 0.00180056
0.929763 0.64802 0.00282292
0.981109 0.641428 0.00140383
0.993652 0.630182 0.00122072
0.993698 0.617578 0.00175479
0.992645 0.606699 0.000823987
0.993286 0.60473 0.00277714
0.994446 0.612772 0.00181582
0.991119 0.683177 0.0012665
0.993744 0.679789 0.00328069
0.991638 0.675593 0.00221256
0.994385 0.669184 0.0040589
0.994553 0.663981 0.00402838
0.994049 0.657481 0.000869764
0.993439 0.654383 0.000900282
0.994995 0.660548 0.00407416
0.993988 0.667964 0.00434882
0.991974 0.683177 0.000885023
0.994919 0.681819 0.00225834
0.994186 0.682689 0.0028687
0.994904 0.684031 0.000885023
0.994415 0.68661 0.000900282
0.994171 0.687465 0.000900282
0.990494 0.689555 0.00114443
0.994766 0.691142 0.0012665
0.994842 0.699855 0.000900282
0.23418 0.00788891 0.014435
0.27071 0.000534066 0.00961318
0.361105 6.10361e-05 0.00393683
0.488304 0.002533 0.00254826
0.649119 0.000106813 0.000915541
0.838666 0.00015259 0.00115969
0.993606 0.000167849 0.000274662
0.994888 0.00146487 0.00157168
0.997513 0.00410468 0.00424201
0.271229 0.0578164 0.00595102
0.303578 0.0487068 0.00648508
0.390219 0.00654612 0.000976577
0.511833 0.000198367 0.00303655
0.669718 0.00247196 0.000366217
0.85127 0.00202945 0.000244144
0.994842 0.00141909 0.0015259
0.994934 0.00149538 0.00161746
0.994888 0.00146487 0.00157168
0.32874 0.155962 0.00209049
0.356558 0.15378 0.000289921
0.441978 0.135378 0.00318914
0.56463 0.102068 0.00164797
0.712947 0.0277256 0.00294499
0.88661 0.00125124 0.00296025
0.993759 0.000320439 0.000427253
0.993606 0.000167849 0.000518807
0.996048 0.00262455 0.00213626
0.42475 0.285573 0.000381476
0.45655 0.285084 0.00138857
0.52929 0.280735 0.0009308
0.643091 0.270115 0.00444038
0.781674 0.253895 0.00257877
0.935927 0.225177 0.00138857
0.993835 0.198718 0.00167849
0.996689 0.186999 0.00205997
0.996567 0.249363 0.00502022
0.547189 0.442176 0.00129702
0.576822 0.439643 0.00321965
0.644022 0.43772 0.00453193
0.744076 0.431418 0.000869764
0.878065 0.423102 0.00062562
0.993317 0.405493 0.00138857
0.995102 0.392462 0.00588998
0.99585 0.389425 0.000717174
0.995895 0.427787 0.0033875
0.71075 0.574075 0.000717174
0.734401 0.571588 0.00213626
0.790265 0.568231 0.00268559
0.871305 0.560769 0.00144961
0.972137 0.549371 0.0047303
0.995468 0.537682 0.000762951
0.995529 0.521385 0.00234989
0.994568 0.512551 0.00216678
0.993057 0.545357 0.000762951
0.910582 0.648203 0.000839246
0.92842 0.644099 0.00137331
0.962066 0.642512 0.00260929
0.995102 0.633875 0.00381476
0.991577 0.626505 0.00195315
0.995178 0.613611 0.00254826
0.993408 0.604822 0.00128176
0.993469 0.60589 0.00254826
0.993332 0.615961 0.00244144
0.992309 0.676616 0.000885023
0.991943 0.674723 0.00103761
0.993439 0.672786 0.000976577
0.994736 0.667887 0.00495918
0.994842 0.660517 0.00161746
0.991348 0.653239 0.000976577
0.994461 0.655772 0.00267033
0.994995 0.661677 0.00222782
0.994598 0.667659 0.00218204
0.994904 0.684153 0.000885023
0.993637 0.682994 0.00108339
0.993072 0.685252 0.00497444
0.993988 0.685634 0.000900282
0.994904 0.687099 0.000900282
0.994904 0.686122 0.00144961
0.994888 0.69041 0.0012665
0.993591 0.692012 0.00325017
0.994858 0.698878 0.000900282
0.307073 0.00201419 0.0159304
0.34374 6.10361e-05 0.0166934
0.424414 0.00302129 0.0120089
0.541299 9.15541e-05 0.000900282
0.695323 0.00109865 0.0011902
0.868193 0.00015259 0.00172427
0.993606 0.000167849 0.000274662
0.993606 0.000167849 0.000274662
0.99556 0.00213626 0.00225834
0.338491 0.0307164 0.0115206
0.370901 0.0149386 0.00776684
0.448463 0.000564584 0.000427253
0.563546 0.000244144 0.000900282
0.710613 0.00109865 0.00205997
0.887282 0.00030518 0.00157168
0.993667 0.000228885 0.0037995
0.994064 0.000640879 0.000808728
0.993851 0.000411994 0.000518807
0.380362 0.14432 0.000732433
0.413748 0.139422 0.00500496
0.490471 0.121035 0.00321965
0.604639 0.0753643 0.00178531
0.75523 0.000137331 0.00466926
0.919768 0.00199893 0.002121
0.993973 0.000534066 0.00138857
0.993606 0.000167849 0.000274662
0.994583 0.00115969 0.00225834
0.467109 0.285649 0.00112917
0.494102 0.283909 0.00123598
0.568017 0.272663 0.000900282
0.674296 0.257282 0.00389105
0.817533 0.237873 0.00143435
0.967636 0.21416 0.0034638
0.994263 0.196002 0.00131228
0.996628 0.209628 0.0059205
0.996384 0.29752 0.0052491
0.590967 0.440711 0.00155642
0.618601 0.436927 0.000808728
0.681697 0.434104 0.00280766
0.7794 0.426032 0.00183108
0.902541 0.417227 0.00111391
0.994614 0.408774 0.00175479
0.995254 0.401038 0.00262455
0.99292 0.405463 0.00151064
0.995819 0.445701 0.00166323
0.747677 0.569787 0.000717174
0.773953 0.569635 0.00137331
0.827466 0.562142 0.00123598
0.904845 0.556634 0.00224308
0.99176 0.547143 0.00325017
0.994705 0.537484 0.00308232
0.994965 0.524193 0.0018616
0.991806 0.521004 0.00129702
0.992966 0.552911 0.00077821
0.937362 0.644892 0.000839246
0.958526 0.639445 0.00108339
0.98555 0.639384 0.00492866
0.994812 0.628595 0.00294499
0.993927 0.620859 0.00256352
0.993088 0.615152 0.00299077
0.993027 0.602701 0.000823987
0.995026 0.60737 0.00125124
0.994659 0.621836 0.00183108
0.991272 0.675074 0.000885023
0.993469 0.67097 0.000885023
0.994965 0.668147 0.0037232
0.99498 0.664103 0.0024567
0.995026 0.655329 0.00198367
0.995026 0.653239 0.00318914
0.995026 0.655512 0.00105287
0.994781 0.661036 0.00161746
0.99498 0.665995 0.00607309
0.994919 0.681208 0.000885023
0.99295 0.68513 0.00138857
0.994904 0.685634 0.00436408
0.994904 0.684642 0.00238041
0.994904 0.686122 0.000900282
0.992187 0.69102 0.00163272
0.990478 0.692012 0.00288396
0.99144 0.694453 0.00114443
0.992889 0.700832 0.000900282
0.404868 6.10361e-05 0.0174563
0.439094 0.000259403 0.025391
0.507912 0.0011902 0.0185855
0.616236 0.000106813 0.00257877
0.753521 0.000137331 0.000213626
0.919295 0.000167849 0.000259403
0.993606 0.000167849 0.000274662
0.993606 0.000167849 0.000274662
0.995071 0.00164797 0.000274662
0.425284 0.00135805 0.0158389
0.456168 7.62951e-05 0.0112306
0.524132 0.00192264 0.00495918
0.632563 0.00144961 0.000991836
0.768734 0.000137331 0.00238041
0.930236 0.00151064 0.00297551
0.993744 0.00030518 0.000411994
0.99379 0.000350958 0.000457771
0.996841 0.0037995 0.00375372
0.452934 0.12459 0.000854505
0.484031 0.115373 0.00148013
0.560433 0.089189 0.00190738
0.661692 0.018555 0.00158694
0.799359 0.00222782 0.00233463
0.955489 0.00122072 0.00222782
0.993606 0.000167849 0.000579843
0.995865 0.00282292 0.00404364
0.997055 0.0254368 0.00798047
0.521798 0.275898 0.000396735
0.548623 0.272725 0.00062562
0.612573 0.259785 0.00288396
0.721462 0.245304 0.0010071
0.853864 0.222416 0.00198367
0.993698 0.190692 0.00421149
0.996246 0.17464 0.000427253
0.995743 0.206455 0.00796521
0.996353 0.307881 0.000549325
0.644785 0.433127 0.00254826
0.669581 0.428687 0.00137331
0.727337 0.424063 0.00244144
0.816037 0.417975 0.00199893
0.930449 0.407538 0.00297551
0.994034 0.400824 0.00140383
0.996017 0.396017 0.00335698
0.995468 0.408804 0.00302129
0.995773 0.459434 0.00341802
0.799207 0.567407 0.000732433
0.819394 0.563546 0.00236515
0.874998 0.558114 0.00181582
0.944854 0.552239 0.00259403
0.993774 0.542443 0.00416571
0.995148 0.532967 0.000762951
0.994446 0.523796 0.000976577
0.994232 0.526482 0.00241093
0.991485 0.557687 0.00077821
0.966842 0.63888 0.00381476
0.985885 0.636149 0.00228885
0.99292 0.630823 0.00158694
0.992599 0.626902 0.00471504
0.994598 0.61976 0.00325017
0.992981 0.610239 0.00128176
0.99498 0.599939 0.000808728
0.991516 0.612634 0.00177005
0.995132 0.623438 0.00715648
0.994965 0.66981 0.0011902
0.99498 0.667735 0.00137331
0.993683 0.665263 0.00428778
0.9944 0.661143 0.00364691
0.994232 0.65275 0.000961318
0.992889 0.651408 0.00105287
0.994049 0.657038 0.00117494
0.994995 0.66157 0.00366217
0.994781 0.668147 0.0030518
0.993454 0.683177 0.000885023
0.988846 0.687465 0.00268559
0.994537 0.686122 0.000900282
0.994904 0.684092 0.000885023
0.992447 0.689555 0.00213626
0.993057 0.688014 0.000900282
0.991943 0.693599 0.00263981
0.99144 0.694453 0.00108339
0.994858 0.698878 0.000900282
0.51342 7.62951e-05 0.0308537
0.537987 9.15541e-05 0.0306096
0.598749 0.000106813 0.0162661
0.697536 0.000122072 0.0108492
0.819532 0.000137331 0.000228885
0.966598 0.000534066 0.000274662
0.995804 0.00238041 0.00250248
0.994583 0.00115969 0.00201419
0.993606 0.000167849 0.000274662
0.522087 0.00364691 0.0247959
0.549035 0.00309758 0.022858
0.608118 0.00296025 0.0115358
0.701228 0.000122072 0.00210575
0.828153 0.000579843 0.00375372
0.972168 0.00135805 0.00274662
0.994278 0.000854505 0.000961318
0.99617 0.00274662 0.00288396
0.997024 0.00360113 0.00547799
0.53753 0.0913558 0.00419623
0.565057 0.0801099 0.000976577
0.633463 0.0337835 0.00238041
0.729107 0.000869764 0.000762951
0.848127 0.00210575 0.000244144
0.981933 0.00299077 0.000427253
0.993606 0.000167849 0.000274662
0.994644 0.00122072 0.00111391
0.995758 0.0769665 0.00727855
0.594095 0.261875 0.000396735
0.616632 0.254536 0.000518807
0.67776 0.248112 0.00263981
0.774136 0.232746 0.00267033
0.891157 0.212558 0.00260929
0.996399 0.18732 0.00207523
0.995773 0.171542 0.000427253
0.996582 0.192279 0.00729381
0.996292 0.320577 0.00489815
0.706447 0.419638 0.00106813
0.731334 0.415106 0.00497444
0.781903 0.411551 0.00207523
0.858885 0.404883 0.00190738
0.963485 0.39736 0.00285344
0.995834 0.395224 0.0011902
0.995666 0.391226 0.00260929
0.991821 0.404288 0.00169375
0.995743 0.464836 0.000701915
0.853376 0.549569 0.00135805
0.874388 0.548562 0.00170901
0.921401 0.542519 0.00173953
0.982315 0.538476 0.00416571
0.993347 0.53254 0.00167849
0.995377 0.525994 0.00325017
0.995529 0.522179 0.000747692
0.993515 0.530388 0.00106813
0.995377 0.561242 0.00288396
0.992889 0.635828 0.00381476
0.995117 0.631098 0.00511177
0.991821 0.628458 0.00567636
0.99472 0.620584 0.00436408
0.992615 0.614603 0.00157168
0.991943 0.606516 0.00166323
0.994263 0.598291 0.000808728
0.992615 0.612207 0.000854505
0.993667 0.626505 0.000839246
0.989822 0.66981 0.00384527
0.99498 0.665949 0.00158694
0.994995 0.662257 0.00357061
0.994995 0.659617 0.00355535
0.992844 0.650355 0.00111391
0.994888 0.652979 0.000915541
0.994369 0.65745 0.0012665
0.994995 0.660746 0.00102235
0.987869 0.673121 0.000885023
0.994904 0.687099 0.0028687
0.994049 0.686122 0.00175479
0.994904 0.684886 0.000885023
0.994904 0.687099 0.0031281
0.994904 0.687099 0.000900282
0.994522 0.689555 0.00238041
0.993423 0.690288 0.00114443
0.991806 0.695811 0.00276188
0.991928 0.695933 0.000900282
0.607294 0.000106813 0.0323644
0.629801 0.000106813 0.0318761
0.681132 0.00268559 0.0289158
0.761212 0.000137331 0.00962844
0.866468 0.002121 0.000244144
0.991165 0.00047303 0.00460822
0.993606 0.000167849 0.000274662
0.993606 0.000167849 0.00114443
0.993606 0.000167849 0.000274662
0.613718 0.000534066 0.0266117
0.631571 0.000106813 0.0238499
0.685603 0.000228885 0.0111391
0.762524 0.000137331 0.00416571
0.875578 0.00015259 0.00198367
0.992554 0.00129702 0.00863661
0.993606 0.000167849 0.00482185
0.993286 0.000610361 0.000335698
0.994034 0.000610361 0.000274662
0.631113 0.0414435 0.00256352
0.650294 0.0264439 0.000198367
0.70367 0.00143435 0.00357061
0.785351 0.000137331 0.000289921
0.887816 0.000335698 0.000427253
0.994461 0.00103761 0.00238041
0.994247 0.000823987 0.0009308
0.995911 0.00257877 0.00271611
0.996994 0.137072 0.0114137
0.673747 0.24416 0.000595102
0.693477 0.240467 0.00451667
0.74638 0.234119 0.000808728
0.826047 0.22327 0.00265507
0.928985 0.213352 0.000442512
0.995712 0.203738 0.000457771
0.994537 0.210437 0.00166323
0.996277 0.231708 0.00402838
0.996063 0.335363 0.00434882
0.773983 0.402472 0.00428778
0.795041 0.401556 0.00256352
0.83856 0.395438 0.00108339
0.906615 0.396704 0.00135805
0.985992 0.394415 0.00447089
0.995834 0.393774 0.00332647
0.994522 0.399451 0.00564584
0.995743 0.409567 0.00238041
0.995727 0.471458 0.000701915
0.921157 0.534188 0.000732433
0.934951 0.530724 0.000732433
0.971878 0.531197 0.00151064
0.995514 0.524758 0.00354009
0.994308 0.522148 0.00183108
0.994614 0.520104 0.00228885
0.995544 0.519982 0.00106813
0.993835 0.532708 0.000747692
0.99469 0.564126 0.00326543
0.992599 0.61706 0.000961318
0.994858 0.61384 0.00181582
0.995178 0.614237 0.00370794
0.99263 0.605997 0.000823987
0.993255 0.604669 0.0010071
0.994095 0.59968 0.000808728
0.994476 0.598566 0.00155642
0.99498 0.615137 0.00137331
0.992187 0.629328 0.000839246
0.99501 0.659617 0.000869764
0.99501 0.659617 0.00125124
0.99501 0.657252 0.00370794
0.993469 0.653544 0.000900282
0.994812 0.652964 0.00111391
0.992935 0.657542 0.00105287
0.994995 0.660395 0.00148013
0.994598 0.663996 0.00352483
0.993179 0.67274 0.00694286
0.994904 0.687099 0.000900282
0.994904 0.687099 0.000900282
0.994904 0.687099 0.000900282
0.992935 0.689555 0.0021973
0.994888 0.688823 0.000900282
0.994888 0.69102 0.00486763
0.994018 0.692134 0.00387579
0.991867 0.695018 0.00132753
0.994858 0.698878 0.000900282
0.680629 0.00404364 0.027924
0.699229 0.000122072 0.0249638
0.737377 0.00109865 0.0239872
0.807797 0.000137331 0.00170901
0.903639 0.00015259 0.00421149
0.993606 0.000167849 0.000274662
0.993606 0.000167849 0.000274662
0.993606 0.000167849 0.000274662
0.997269 0.0668956 0.0161898
0.687495 0.000610361 0.013077
0.703517 0.000122072 0.013138
0.750835 0.000137331 0.00317388
0.815015 0.000137331 0.00239567
0.910735 0.00015259 0.000747692
0.994888 0.00146487 0.00157168
0.994461 0.00103761 0.00114443
0.994095 0.000671397 0.00077821
0.996902 0.162097 0.00537118
0.70605 0.011902 0.000213626
0.720745 0.0037995 0.00106813
0.764263 0.00259403 0.000961318
0.833478 0.00015259 0.00134279
0.924666 0.000656138 0.000747692
0.994217 0.000793469 0.00163272
0.993851 0.000411994 0.000518807
0.996124 0.111055 0.00643931
0.9935 0.283772 0.000534066
0.745296 0.234668 0.000411994
0.766018 0.234363 0.00221256
0.808637 0.227192 0.00228885
0.876249 0.226474 0.0019379
0.962417 0.230533 0.00170901
0.995148 0.23949 0.00141909
0.995407 0.267338 0.0065919
0.991455 0.310643 0.00216678
0.996017 0.395651 0.0055848
0.829816 0.380896 0.000579843
0.852308 0.382864 0.000823987
0.89044 0.383368 0.00108339
0.950576 0.384848 0.00135805
0.996033 0.391714 0.00260929
0.991577 0.40325 0.00187686
0.995438 0.417243 0.00114443
0.995865 0.436133 0.00239567
0.995636 0.494759 0.000717174
0.978424 0.518791 0.00717174
0.987915 0.515862 0.0043946
0.993729 0.513039 0.00283818
0.993118 0.512428 0.00469978
0.994354 0.510948 0.000732433
0.994644 0.512795 0.00166323
0.993347 0.518441 0.00259403
0.99295 0.542718 0.00256352
0.995331 0.57229 0.00326543
0.992294 0.601724 0.00378424
0.99266 0.601724 0.000823987
0.994995 0.59707 0.000808728
0.995239 0.598779 0.00192264
0.992813 0.593378 0.000808728
0.993439 0.588113 0.000808728
0.992798 0.596078 0.000808728
0.995178 0.612146 0.00343328
0.992172 0.630182 0.00679026
0.991623 0.648341 0.000854505
0.989075 0.64448 0.000854505
0.991989 0.64773 0.00172427
0.992905 0.647425 0.00215152
0.995041 0.651041 0.00433356
0.991592 0.656184 0.000869764
0.992447 0.656184 0.00297551
0.994995 0.661036 0.00180056
0.994965 0.671397 0.00187686
0.994904 0.687099 0.000900282
0.988037 0.690532 0.000900282
0.994888 0.688075 0.00189212
0.994888 0.688579 0.00485237
0.994888 0.69102 0.00288396
0.994888 0.69102 0.00486763
0.993896 0.692012 0.000900282
0.99144 0.694453 0.000900282
0.990921 0.7028 0.000900282
