iOSLOG2LUTConverter/Resources/Secondary LUTS/BLISSFUL BURNOUT.cube
TITLE "Generated by Resolve"
LUT_3D_SIZE 9
0.000579843 0.000198367 1.5259e-05
0.0637217 0.00814832 0.00605783
0.152743 0.0216526 0.0128023
0.260273 0.0372015 0.016968
0.373999 0.0502937 0.0197147
0.503685 0.0627909 0.0235294
0.646891 0.0749523 0.02916
0.780835 0.0846571 0.0356909
0.88957 0.0915694 0.0386206
0.00277714 0.0552682 0.00108339
0.068986 0.0675059 0.00813306
0.163714 0.0847486 0.013611
0.275761 0.103105 0.0167391
0.393149 0.119982 0.0196536
0.527718 0.13817 0.0239567
0.673548 0.156085 0.0297398
0.803067 0.169177 0.0355077
0.907027 0.176822 0.038117
0.0113375 0.123232 0.00421149
0.0730297 0.13315 0.0068513
0.167361 0.154788 0.0174105
0.28574 0.182681 0.0178683
0.409857 0.207584 0.0198367
0.547631 0.231907 0.0239719
0.692058 0.254536 0.0291142
0.817182 0.268284 0.0332799
0.919036 0.273548 0.0349126
0.0289769 0.204135 0.00979629
0.0875868 0.21236 0.0109102
0.176761 0.235813 0.019028
0.295872 0.271733 0.0264439
0.420569 0.30518 0.0244297
0.561944 0.339681 0.0254978
0.706386 0.366659 0.0272221
0.829007 0.378195 0.0283818
0.928206 0.378607 0.0281224
0.0575265 0.302037 0.0187686
0.114778 0.310491 0.0190127
0.203143 0.330861 0.0203861
0.31194 0.369726 0.0347295
0.438544 0.407019 0.0351873
0.57023 0.444465 0.029572
0.717449 0.482414 0.0278782
0.839399 0.49572 0.0269017
0.936553 0.491676 0.0266423
0.0933242 0.414649 0.034165
0.145373 0.422675 0.0337072
0.240024 0.440925 0.0316472
0.331273 0.47129 0.0344549
0.466789 0.517052 0.0470588
0.58938 0.551308 0.0374456
0.721996 0.589044 0.0317693
0.848203 0.611994 0.0318608
0.944228 0.609293 0.0309758
0.126162 0.530907 0.0549935
0.179858 0.538033 0.0542306
0.275227 0.553918 0.0500649
0.359625 0.57937 0.0462806
0.47953 0.618051 0.0487526
0.615564 0.658366 0.0497597
0.734905 0.693263 0.042771
0.850706 0.718578 0.0397803
0.948974 0.722011 0.0391699
0.160388 0.638529 0.0753033
0.211643 0.644831 0.0747539
0.304768 0.658244 0.0703746
0.38851 0.678096 0.063386
0.492851 0.712886 0.0540627
0.631052 0.755947 0.0597848
0.747463 0.788388 0.059617
0.854856 0.818143 0.0538796
0.94757 0.824247 0.0487984
0.197894 0.738903 0.0965286
0.246296 0.743832 0.0965133
0.33164 0.754223 0.0931716
0.42034 0.772961 0.0817884
0.520653 0.806287 0.0692607
0.655818 0.854109 0.0637675
0.765835 0.887907 0.0890211
0.856336 0.90927 0.0959945
0.946838 0.920378 0.0767987
0.000396735 0.00273136 0.0444038
0.0569924 0.00961318 0.0536965
0.143664 0.0194095 0.0657816
0.25658 0.0307164 0.0728618
0.374258 0.0404822 0.0776379
0.506584 0.0499123 0.0836347
0.65272 0.0584573 0.0910811
0.789731 0.0656291 0.0979477
0.899351 0.0705272 0.0960555
0.0033875 0.0591897 0.0529946
0.0611887 0.0683452 0.0618601
0.160708 0.0816205 0.0702983
0.277333 0.0937209 0.0730602
0.397787 0.104967 0.0744182
0.533303 0.117754 0.0775006
0.678431 0.13167 0.0829023
0.807233 0.14345 0.088426
0.912093 0.153094 0.0889448
0.00527962 0.12459 0.0603952
0.0620584 0.133928 0.0618906
0.162829 0.155474 0.0710613
0.289738 0.180865 0.0759289
0.416678 0.202197 0.0773938
0.557092 0.224201 0.0799878
0.701854 0.244541 0.0838788
0.824262 0.256474 0.087129
0.924147 0.260517 0.0873579
0.0186923 0.203449 0.0666819
0.0653391 0.21088 0.0632181
0.169528 0.236301 0.0682383
0.295293 0.272892 0.0780804
0.424491 0.30576 0.0814527
0.568612 0.338445 0.082948
0.714153 0.363531 0.0839857
0.834852 0.373449 0.0836652
0.932586 0.372854 0.0810712
0.0471351 0.30013 0.0780194
0.0942245 0.307668 0.0649271
0.195056 0.330129 0.0611734
0.306737 0.369741 0.0811933
0.43856 0.408667 0.0853895
0.573129 0.446235 0.0858015
0.72221 0.483055 0.0848859
0.843809 0.494682 0.0825666
0.939956 0.489677 0.0801709
0.0822156 0.410895 0.0978561
0.129976 0.418189 0.0781109
0.227405 0.436454 0.0709239
0.324971 0.469657 0.0778515
0.462989 0.517693 0.0920424
0.589944 0.553262 0.0870222
0.724163 0.591165 0.0868696
0.850996 0.613413 0.0875868
0.946578 0.60972 0.0856031
0.117708 0.52607 0.107637
0.165835 0.532631 0.0956283
0.259998 0.548623 0.0895705
0.354192 0.576379 0.0856641
0.474571 0.617182 0.0918288
0.614603 0.659724 0.0944839
0.735348 0.694942 0.0909438
0.852186 0.720577 0.0939193
0.950423 0.723613 0.094728
0.154147 0.634577 0.121141
0.200504 0.64004 0.114595
0.289967 0.653925 0.109865
0.382742 0.675059 0.102708
0.488518 0.710765 0.0961929
0.629023 0.756252 0.105898
0.746502 0.789471 0.103578
0.8551 0.819745 0.101808
0.948714 0.826337 0.101991
0.193317 0.737499 0.14464
0.237766 0.741588 0.137438
0.306325 0.74931 0.1346
0.413672 0.770199 0.122377
0.516976 0.803906 0.110842
0.653971 0.852918 0.112322
0.765805 0.888747 0.132509
0.857084 0.911055 0.139361
0.948379 0.923262 0.126131
0.00115969 0.00970474 0.0981308
0.0523384 0.0144045 0.106508
0.129564 0.0220188 0.119387
0.245731 0.0314794 0.135424
0.36614 0.0388037 0.147097
0.495537 0.044831 0.157839
0.638331 0.0505074 0.170443
0.778027 0.0562295 0.181445
0.893477 0.0589761 0.180453
0.00325017 0.0674296 0.110964
0.0540475 0.0723583 0.119097
0.139391 0.0798962 0.130694
0.266346 0.0884565 0.143679
0.391241 0.0941787 0.151385
0.525261 0.100267 0.159289
0.670085 0.107118 0.168093
0.802579 0.11429 0.173053
0.911391 0.11928 0.164431
0.00796521 0.133165 0.122713
0.0585641 0.140414 0.12874
0.141649 0.154528 0.142458
0.285618 0.17409 0.151736
0.418509 0.186816 0.15491
0.562539 0.199435 0.15671
0.708858 0.21207 0.158556
0.830152 0.221622 0.158846
0.927687 0.232288 0.157992
0.0190127 0.208957 0.133425
0.0684672 0.217502 0.137087
0.148638 0.237064 0.144854
0.288121 0.273381 0.155337
0.429389 0.302495 0.162707
0.575936 0.327886 0.162264
0.72285 0.348104 0.160433
0.842252 0.356085 0.156741
0.935485 0.357351 0.15787
0.0361486 0.301091 0.14931
0.0805829 0.308827 0.150225
0.169406 0.329992 0.14609
0.292134 0.369116 0.149493
0.4374 0.411841 0.159213
0.578073 0.447242 0.163546
0.728237 0.478737 0.160601
0.849348 0.486549 0.154284
0.94229 0.481498 0.1579
0.065156 0.409583 0.170718
0.110231 0.416327 0.169268
0.192874 0.433097 0.154894
0.310628 0.467002 0.151263
0.449638 0.5187 0.157122
0.590616 0.557687 0.156527
0.728283 0.593866 0.159136
0.855116 0.612482 0.157366
0.948547 0.606378 0.161425
0.0982681 0.522438 0.193545
0.14406 0.527474 0.190112
0.214511 0.540307 0.171176
0.336522 0.568734 0.157412
0.455817 0.611795 0.161242
0.610285 0.662303 0.155001
0.735561 0.698116 0.15346
0.854246 0.722713 0.159823
0.952361 0.724666 0.165942
0.135149 0.630854 0.21561
0.18027 0.634821 0.212436
0.241337 0.644068 0.191409
0.363149 0.668711 0.173404
0.473304 0.703838 0.161532
0.619226 0.754421 0.164019
0.743999 0.790738 0.157397
0.854948 0.822019 0.158343
0.950011 0.828275 0.163455
0.177462 0.736828 0.24181
0.221134 0.740261 0.238239
0.279942 0.746441 0.22945
0.393072 0.76408 0.217472
0.499809 0.795544 0.193774
0.640528 0.847517 0.186358
0.763363 0.889921 0.188464
0.857328 0.914214 0.190799
0.949722 0.927047 0.179324
0.00265507 0.0194858 0.160555
0.0500649 0.0222629 0.169467
0.119722 0.0279545 0.181445
0.226719 0.0363622 0.197559
0.347951 0.0429389 0.215564
0.474327 0.0470283 0.235157
0.610452 0.0502785 0.254704
0.753185 0.0532235 0.270878
0.876554 0.0572824 0.277668
0.00428778 0.0784314 0.175631
0.0507668 0.0802319 0.183948
0.123598 0.0827802 0.196185
0.239445 0.0899825 0.210636
0.368582 0.0947127 0.226123
0.500175 0.0981155 0.243488
0.640299 0.101717 0.261036
0.778729 0.105989 0.272923
0.896117 0.110597 0.272511
0.00865187 0.148257 0.194705
0.0547189 0.153338 0.201389
0.125109 0.159365 0.212604
0.257053 0.172137 0.229023
0.404196 0.180117 0.244862
0.546471 0.181781 0.255619
0.691051 0.183368 0.265141
0.818021 0.186282 0.266545
0.922408 0.1953 0.259129
0.0178836 0.226169 0.211597
0.0640421 0.233753 0.217609
0.133654 0.24622 0.229313
0.262791 0.274311 0.25005
0.432013 0.29604 0.262272
0.579751 0.305837 0.262516
0.723232 0.315328 0.2607
0.843839 0.321019 0.25568
0.936431 0.328984 0.252079
0.0353094 0.314366 0.229175
0.0849012 0.323644 0.23357
0.157519 0.340963 0.240269
0.27306 0.376944 0.257465
0.43624 0.417655 0.266606
0.585107 0.445121 0.271778
0.731212 0.464729 0.266819
0.852277 0.46949 0.256565
0.943206 0.468254 0.254108
0.0554208 0.417609 0.25243
0.105135 0.425986 0.254337
0.184237 0.443732 0.255161
0.299794 0.478279 0.257252
0.437079 0.521447 0.258015
0.593454 0.56434 0.261753
0.733303 0.59646 0.263264
0.858778 0.607935 0.254932
0.949889 0.600488 0.255955
0.0803998 0.528878 0.275837
0.127062 0.534585 0.275471
0.19733 0.547982 0.273152
0.324956 0.578271 0.265873
0.445365 0.614191 0.256672
0.604242 0.666453 0.249546
0.73846 0.704387 0.245106
0.858778 0.727031 0.248386
0.954482 0.726452 0.258778
0.120256 0.638285 0.29662
0.165072 0.642573 0.296208
0.221363 0.650935 0.291829
0.336797 0.673548 0.281788
0.466926 0.706203 0.26511
0.605371 0.752667 0.247639
0.744381 0.796674 0.238193
0.857343 0.828061 0.232563
0.952636 0.833219 0.247135
0.164096 0.7458 0.319844
0.207568 0.749249 0.319051
0.265873 0.755566 0.318929
0.387503 0.772534 0.311696
0.487678 0.795163 0.293462
0.630854 0.843961 0.276402
0.762234 0.892744 0.270481
0.861295 0.921309 0.266468
0.952483 0.933837 0.250004
0.00561532 0.0298161 0.228351
0.0523384 0.031281 0.237339
0.114763 0.0355993 0.24947
0.211002 0.0433814 0.264271
0.324224 0.0510109 0.280293
0.444892 0.0552071 0.30045
0.571344 0.0565957 0.32398
0.70721 0.0567788 0.347387
0.843214 0.0591897 0.366476
0.00701915 0.0909438 0.243717
0.0520333 0.0904555 0.253086
0.116518 0.0894026 0.264897
0.218921 0.0959945 0.279362
0.339513 0.1019 0.293675
0.466133 0.105272 0.311955
0.596292 0.106538 0.334234
0.733715 0.107897 0.355779
0.865766 0.111788 0.370581
0.0112917 0.16492 0.269245
0.055436 0.168933 0.2766
0.1178 0.169879 0.285603
0.227237 0.177249 0.304402
0.370855 0.184726 0.320912
0.515297 0.186374 0.338827
0.65211 0.184314 0.356832
0.785138 0.183474 0.369772
0.902266 0.193011 0.373632
0.0199588 0.251637 0.296651
0.0646525 0.258396 0.303685
0.128985 0.266926 0.314549
0.237613 0.285496 0.337987
0.408286 0.30312 0.355657
0.571115 0.305943 0.370565
0.709438 0.301228 0.375769
0.83061 0.297307 0.373312
0.927962 0.303502 0.366247
0.03093 0.343191 0.319554
0.076997 0.350896 0.325368
0.143954 0.365515 0.336568
0.257572 0.395865 0.360693
0.431601 0.431434 0.378271
0.602228 0.448859 0.388357
0.741207 0.447791 0.383444
0.853208 0.446738 0.372457
0.942824 0.450584 0.364889
0.052781 0.44239 0.344823
0.102174 0.450355 0.34905
0.172061 0.466987 0.356939
0.284077 0.498207 0.368963
0.443305 0.541619 0.382239
0.605905 0.578943 0.388006
0.744808 0.600565 0.389792
0.861463 0.601511 0.378302
0.951568 0.594003 0.367102
0.0809644 0.549447 0.371191
0.136065 0.557214 0.373144
0.207324 0.573327 0.37615
0.315129 0.598627 0.377447
0.459861 0.638239 0.38172
0.609506 0.679103 0.375998
0.748562 0.715846 0.371832
0.865339 0.733837 0.368353
0.957443 0.728115 0.364538
0.108614 0.65687 0.392432
0.160266 0.662501 0.392538
0.225544 0.673884 0.391089
0.342367 0.696895 0.388144
0.474754 0.727077 0.381903
0.610285 0.764141 0.368307
0.750744 0.808911 0.359136
0.86511 0.838972 0.341207
0.957534 0.841123 0.345739
0.14667 0.764736 0.410132
0.191073 0.76875 0.408896
0.278233 0.778271 0.410239
0.383383 0.793118 0.408179
0.479042 0.809873 0.398154
0.629404 0.851392 0.384543
0.766781 0.899611 0.381033
0.86862 0.930358 0.370825
0.957183 0.943008 0.336996
0.009308 0.041062 0.297612
0.0564584 0.041886 0.30721
0.114702 0.0451514 0.319203
0.200885 0.051667 0.334356
0.309911 0.0602426 0.348684
0.422889 0.0666209 0.364843
0.539971 0.0682689 0.38558
0.662379 0.067155 0.40943
0.795499 0.0658885 0.435752
0.0111238 0.104875 0.315724
0.0552529 0.102571 0.32398
0.115343 0.0996109 0.335027
0.203876 0.104585 0.350484
0.322576 0.112215 0.364553
0.442618 0.117891 0.379232
0.561746 0.118395 0.398047
0.68661 0.117723 0.42092
0.818143 0.11809 0.445243
0.0155489 0.181765 0.343984
0.0594949 0.184939 0.351583
0.118822 0.18352 0.359533
0.208896 0.188586 0.379355
0.346593 0.197711 0.398337
0.48629 0.200702 0.412055
0.612573 0.196506 0.427909
0.739376 0.192264 0.446372
0.864393 0.200565 0.464256
0.0232853 0.274952 0.379553
0.0670024 0.280583 0.387198
0.12871 0.286915 0.398001
0.225086 0.300664 0.417975
0.374426 0.317296 0.443519
0.54313 0.321767 0.457801
0.685603 0.315694 0.470817
0.804944 0.306462 0.477714
0.908156 0.311177 0.479362
0.0320439 0.376791 0.413855
0.0772717 0.383337 0.420584
0.141466 0.396078 0.433448
0.249531 0.422919 0.459205
0.40885 0.453529 0.486122
0.592218 0.466606 0.496315
0.737865 0.460731 0.500771
0.846372 0.446601 0.494133
0.936248 0.442588 0.482292
0.0498665 0.482017 0.446433
0.097734 0.488884 0.452018
0.164477 0.504662 0.464164
0.274907 0.534096 0.48455
0.433188 0.571115 0.50576
0.613779 0.599863 0.513237
0.757443 0.612482 0.52163
0.868574 0.602914 0.513436
0.954025 0.593652 0.494667
0.0830854 0.587167 0.477104
0.132891 0.593866 0.481163
0.200351 0.609552 0.489937
0.304982 0.6336 0.499626
0.455375 0.66836 0.508431
0.619898 0.701595 0.513252
0.757839 0.729274 0.513909
0.873335 0.741451 0.514534
0.960845 0.731228 0.495598
0.124193 0.690806 0.501991
0.176593 0.697673 0.504326
0.243091 0.711269 0.508186
0.340963 0.731579 0.510002
0.469993 0.756283 0.507103
0.61883 0.787945 0.506569
0.756527 0.82237 0.501945
0.871824 0.848508 0.486549
0.962539 0.849393 0.473625
0.155901 0.795895 0.52462
0.208515 0.801114 0.524636
0.287755 0.810636 0.525612
0.370855 0.821241 0.522179
0.464469 0.835279 0.517067
0.621973 0.869764 0.511543
0.76791 0.909331 0.511421
0.871443 0.937041 0.500114
0.960281 0.951324 0.459419
0.0130465 0.0527504 0.367575
0.0604105 0.0539101 0.379477
0.117006 0.0565347 0.390127
0.192508 0.0614939 0.40618
0.302205 0.0706951 0.42182
0.418128 0.0796521 0.436027
0.525078 0.0825818 0.450278
0.631983 0.0810712 0.468498
0.752178 0.0794537 0.494926
0.0154116 0.118837 0.388785
0.0589609 0.116396 0.395956
0.118349 0.113191 0.406973
0.194751 0.117601 0.423362
0.31252 0.126299 0.441016
0.437324 0.135225 0.454459
0.545449 0.135302 0.465599
0.653117 0.132067 0.481453
0.772442 0.13048 0.506676
0.0201572 0.198047 0.418601
0.06421 0.2009 0.426215
0.124117 0.198398 0.433631
0.201007 0.203021 0.453208
0.325109 0.213382 0.47744
0.472343 0.221057 0.491371
0.589105 0.216327 0.499229
0.701228 0.208469 0.512001
0.821256 0.214511 0.535363
0.0259098 0.293935 0.458991
0.0700847 0.298695 0.466331
0.132555 0.303578 0.4766
0.221927 0.316167 0.496269
0.34522 0.333043 0.527291
0.513268 0.340475 0.542519
0.653834 0.337758 0.550408
0.772702 0.326909 0.559747
0.880858 0.330602 0.571237
0.034638 0.402975 0.503044
0.080293 0.408927 0.510262
0.144717 0.420569 0.524392
0.247608 0.445335 0.550423
0.391959 0.478065 0.584665
0.558221 0.488777 0.59736
0.70901 0.48513 0.599466
0.826185 0.472343 0.600275
0.919387 0.46598 0.596765
0.0534524 0.521294 0.549035
0.102708 0.527932 0.555611
0.169253 0.543267 0.570581
0.274937 0.571466 0.596078
0.4262 0.608286 0.628092
0.598123 0.629526 0.637705
0.745861 0.63241 0.637324
0.861479 0.624155 0.636118
0.948608 0.609064 0.619058
0.088777 0.637156 0.591287
0.138308 0.64358 0.596674
0.202655 0.659159 0.609567
0.30338 0.68368 0.628321
0.45156 0.714794 0.65005
0.613947 0.734874 0.653895
0.756664 0.748852 0.652735
0.872786 0.757656 0.659068
0.96051 0.746807 0.643015
0.131273 0.74284 0.62388
0.181064 0.749187 0.628534
0.244434 0.761822 0.63769
0.337194 0.780758 0.649363
0.461326 0.799664 0.655406
0.613764 0.819638 0.653635
0.758144 0.841947 0.654383
0.86981 0.858488 0.641245
0.962997 0.859297 0.63035
0.178943 0.841749 0.65095
0.229297 0.846235 0.653605
0.293645 0.852811 0.657389
0.370016 0.860334 0.659052
0.457649 0.870527 0.658106
0.612253 0.895918 0.656855
0.762127 0.923003 0.654124
0.866758 0.94316 0.63801
0.957565 0.956451 0.608042
0.0160525 0.0647135 0.437064
0.0648508 0.0677653 0.451118
0.120607 0.0702678 0.461433
0.187854 0.074815 0.477989
0.293919 0.0844282 0.499184
0.418814 0.0961471 0.512734
0.524941 0.0995651 0.523308
0.622095 0.0982223 0.534646
0.725048 0.0952163 0.553506
0.0202029 0.133196 0.461524
0.0647288 0.130648 0.468101
0.123079 0.128328 0.477821
0.190753 0.132952 0.49572
0.299397 0.143114 0.519036
0.433799 0.155612 0.533959
0.544198 0.156863 0.542275
0.641611 0.152377 0.550256
0.744152 0.147936 0.567559
0.0250401 0.213169 0.492164
0.0708019 0.215396 0.499245
0.131228 0.214343 0.508659
0.200519 0.219242 0.527062
0.30338 0.228214 0.552209
0.456153 0.241672 0.572641
0.580224 0.241611 0.579644
0.68307 0.233707 0.584955
0.788663 0.234531 0.600916
0.0293126 0.3093 0.533852
0.0758373 0.313542 0.540536
0.138933 0.318242 0.551156
0.222416 0.332967 0.574456
0.324544 0.349767 0.60647
0.476478 0.3579 0.62771
0.627695 0.361273 0.633829
0.74255 0.353872 0.637324
0.848768 0.355108 0.646891
0.0393683 0.423331 0.58674
0.086656 0.428946 0.594095
0.151186 0.439872 0.608484
0.247639 0.464485 0.636316
0.378805 0.501564 0.678614
0.525109 0.513817 0.697932
0.674159 0.508644 0.693233
0.794553 0.500175 0.689677
0.896284 0.497505 0.690364
0.0620584 0.549737 0.643824
0.111971 0.556497 0.651438
0.177295 0.572045 0.668894
0.276234 0.599603 0.697978
0.416953 0.637018 0.736324
0.582223 0.659754 0.75317
0.719844 0.659571 0.742977
0.833692 0.649302 0.736355
0.928847 0.642695 0.731258
0.0977951 0.677134 0.69836
0.148058 0.684031 0.70544
0.212039 0.699062 0.720836
0.308354 0.722454 0.744121
0.447791 0.752438 0.772107
0.610346 0.770535 0.784115
0.747845 0.77763 0.77702
0.856214 0.775479 0.7691
0.947524 0.771298 0.7682
0.143969 0.795666 0.746624
0.193744 0.80174 0.752468
0.255634 0.813199 0.763333
0.343374 0.830503 0.778988
0.467033 0.848295 0.792828
0.624567 0.861067 0.795865
0.756817 0.867857 0.7897
0.861906 0.873671 0.779919
0.954223 0.877607 0.780118
0.194995 0.891234 0.777142
0.244327 0.89456 0.779812
0.304784 0.898894 0.783139
0.376822 0.904448 0.786816
0.473136 0.914748 0.792905
0.624308 0.930694 0.7944
0.759899 0.941039 0.788678
0.864134 0.951232 0.781872
0.950866 0.961593 0.772976
0.0178225 0.0763256 0.506264
0.0678874 0.0810407 0.521584
0.123049 0.0834516 0.531807
0.184848 0.0881208 0.548913
0.279103 0.0978714 0.5729
0.409369 0.11339 0.593759
0.525994 0.119692 0.601877
0.62385 0.117968 0.609964
0.716915 0.116472 0.621973
0.0241398 0.146075 0.533898
0.0720378 0.147585 0.540017
0.126421 0.148089 0.549172
0.188312 0.152956 0.567071
0.280079 0.161212 0.591379
0.41828 0.179751 0.616678
0.544717 0.186969 0.626108
0.645319 0.184146 0.632258
0.739849 0.181674 0.642847
0.0288243 0.225956 0.564065
0.0777752 0.228824 0.56965
0.134417 0.232319 0.581353
0.197436 0.238911 0.600717
0.282231 0.245502 0.624826
0.425101 0.262638 0.653498
0.56968 0.272709 0.665385
0.678935 0.271229 0.669673
0.775784 0.267338 0.676799
0.0335851 0.321859 0.60589
0.0840162 0.326818 0.612436
0.14229 0.332586 0.623163
0.213535 0.350958 0.652049
0.308537 0.368612 0.685527
0.438514 0.376028 0.709758
0.598093 0.383352 0.721096
0.72015 0.384817 0.720348
0.824109 0.386542 0.723323
0.0455177 0.439139 0.666163
0.0976272 0.446128 0.674708
0.157794 0.455146 0.686198
0.237079 0.478691 0.714885
0.36437 0.520195 0.76286
0.503136 0.535729 0.786419
0.64242 0.532036 0.782681
0.767178 0.532021 0.776898
0.868574 0.530983 0.772854
0.0727855 0.572412 0.734981
0.126741 0.580865 0.744717
0.18706 0.5906 0.756695
0.272297 0.614847 0.783917
0.411307 0.654261 0.826322
0.572152 0.678111 0.844068
0.703777 0.683497 0.836881
0.808881 0.676982 0.827115
0.90277 0.671672 0.820478
0.1084 0.702068 0.794751
0.162921 0.710369 0.804059
0.223056 0.718975 0.814664
0.310567 0.738766 0.836271
0.452155 0.76939 0.867903
0.610971 0.787594 0.880735
0.741161 0.797726 0.877195
0.838346 0.796704 0.8654
0.925505 0.791241 0.860594
0.153262 0.821775 0.845045
0.208652 0.828504 0.852781
0.26865 0.834546 0.859617
0.356207 0.849241 0.87509
0.490517 0.870573 0.894942
0.637278 0.882734 0.902586
0.759304 0.887984 0.900236
0.856336 0.88922 0.892073
0.938994 0.889479 0.886229
0.20647 0.923506 0.884504
0.261265 0.927077 0.888258
0.324346 0.932357 0.893721
0.410468 0.942718 0.903517
0.527214 0.953674 0.911391
0.659037 0.959167 0.911452
0.774243 0.960998 0.907515
0.870222 0.962646 0.90425
0.945846 0.965972 0.900938
