iOSLOG2LUTConverter/Resources/Secondary LUTS/BLISSFUL BURNOUT.cube
TITLE "Generated by Resolve"
LUT_3D_SIZE 5
0.000579843 0.000198367 1.5259e-05
0.152743 0.0216526 0.0128023
0.373999 0.0502937 0.0197147
0.646891 0.0749523 0.02916
0.88957 0.0915694 0.0386206
0.0113375 0.123232 0.00421149
0.167361 0.154788 0.0174105
0.409857 0.207584 0.0198367
0.692058 0.254536 0.0291142
0.919036 0.273548 0.0349126
0.0575265 0.302037 0.0187686
0.203143 0.330861 0.0203861
0.438544 0.407019 0.0351873
0.717449 0.482414 0.0278782
0.936553 0.491676 0.0266423
0.126162 0.530907 0.0549935
0.275227 0.553918 0.0500649
0.47953 0.618051 0.0487526
0.734905 0.693263 0.042771
0.948974 0.722011 0.0391699
0.197894 0.738903 0.0965286
0.33164 0.754223 0.0931716
0.520653 0.806287 0.0692607
0.765835 0.887907 0.0890211
0.946838 0.920378 0.0767987
0.00115969 0.00970474 0.0981308
0.129564 0.0220188 0.119387
0.36614 0.0388037 0.147097
0.638331 0.0505074 0.170443
0.893477 0.0589761 0.180453
0.00796521 0.133165 0.122713
0.141649 0.154528 0.142458
0.418509 0.186816 0.15491
0.708858 0.21207 0.158556
0.927687 0.232288 0.157992
0.0361486 0.301091 0.14931
0.169406 0.329992 0.14609
0.4374 0.411841 0.159213
0.728237 0.478737 0.160601
0.94229 0.481498 0.1579
0.0982681 0.522438 0.193545
0.214511 0.540307 0.171176
0.455817 0.611795 0.161242
0.735561 0.698116 0.15346
0.952361 0.724666 0.165942
0.177462 0.736828 0.24181
0.279942 0.746441 0.22945
0.499809 0.795544 0.193774
0.763363 0.889921 0.188464
0.949722 0.927047 0.179324
0.00561532 0.0298161 0.228351
0.114763 0.0355993 0.24947
0.324224 0.0510109 0.280293
0.571344 0.0565957 0.32398
0.843214 0.0591897 0.366476
0.0112917 0.16492 0.269245
0.1178 0.169879 0.285603
0.370855 0.184726 0.320912
0.65211 0.184314 0.356832
0.902266 0.193011 0.373632
0.03093 0.343191 0.319554
0.143954 0.365515 0.336568
0.431601 0.431434 0.378271
0.741207 0.447791 0.383444
0.942824 0.450584 0.364889
0.0809644 0.549447 0.371191
0.207324 0.573327 0.37615
0.459861 0.638239 0.38172
0.748562 0.715846 0.371832
0.957443 0.728115 0.364538
0.14667 0.764736 0.410132
0.278233 0.778271 0.410239
0.479042 0.809873 0.398154
0.766781 0.899611 0.381033
0.957183 0.943008 0.336996
0.0130465 0.0527504 0.367575
0.117006 0.0565347 0.390127
0.302205 0.0706951 0.42182
0.525078 0.0825818 0.450278
0.752178 0.0794537 0.494926
0.0201572 0.198047 0.418601
0.124117 0.198398 0.433631
0.325109 0.213382 0.47744
0.589105 0.216327 0.499229
0.821256 0.214511 0.535363
0.034638 0.402975 0.503044
0.144717 0.420569 0.524392
0.391959 0.478065 0.584665
0.70901 0.48513 0.599466
0.919387 0.46598 0.596765
0.088777 0.637156 0.591287
0.202655 0.659159 0.609567
0.45156 0.714794 0.65005
0.756664 0.748852 0.652735
0.96051 0.746807 0.643015
0.178943 0.841749 0.65095
0.293645 0.852811 0.657389
0.457649 0.870527 0.658106
0.762127 0.923003 0.654124
0.957565 0.956451 0.608042
0.0178225 0.0763256 0.506264
0.123049 0.0834516 0.531807
0.279103 0.0978714 0.5729
0.525994 0.119692 0.601877
0.716915 0.116472 0.621973
0.0288243 0.225956 0.564065
0.134417 0.232319 0.581353
0.282231 0.245502 0.624826
0.56968 0.272709 0.665385
0.775784 0.267338 0.676799
0.0455177 0.439139 0.666163
0.157794 0.455146 0.686198
0.36437 0.520195 0.76286
0.64242 0.532036 0.782681
0.868574 0.530983 0.772854
0.1084 0.702068 0.794751
0.223056 0.718975 0.814664
0.452155 0.76939 0.867903
0.741161 0.797726 0.877195
0.925505 0.791241 0.860594
0.20647 0.923506 0.884504
0.324346 0.932357 0.893721
0.527214 0.953674 0.911391
0.774243 0.960998 0.907515
0.945846 0.965972 0.900938
