iOSLOG2LUTConverter/Resources/Secondary LUTS/BLISSFUL BURNOUT.cube
TITLE "Generated by Resolve"
LUT_3D_SIZE 33
0.000579843 0.000198367 1.5259e-05
0.0151369 0.0019379 0.00140383
0.0297093 0.00364691 0.00280766
0.0460822 0.00579843 0.0043946
0.0637217 0.00814832 0.00605783
0.0836652 0.0108797 0.00787366
0.105074 0.0141451 0.00959792
0.127153 0.0174868 0.0111238
0.152743 0.0216526 0.0128023
0.178546 0.0254826 0.0140688
0.20531 0.0295872 0.0152895
0.233051 0.0334936 0.0161746
0.260273 0.0372015 0.016968
0.288289 0.04065 0.0176242
0.315923 0.0439918 0.0183108
0.344778 0.0471199 0.019028
0.373999 0.0502937 0.0197147
0.404974 0.0534676 0.0205081
0.436408 0.0565347 0.0213626
0.469444 0.0596017 0.0224002
0.503685 0.0627909 0.0235294
0.538582 0.0658579 0.0247349
0.574929 0.0691386 0.0261845
0.610636 0.0719615 0.0275578
0.646891 0.0749523 0.02916
0.682078 0.0775464 0.0307622
0.716167 0.0801099 0.0323949
0.748959 0.0824903 0.0340581
0.780835 0.0846571 0.0356909
0.809537 0.0866102 0.0369573
0.837659 0.0885481 0.0381933
0.86421 0.0901045 0.0387274
0.88957 0.0915694 0.0386206
0.000854505 0.0133974 0.000167849
0.01561 0.0154574 0.00178531
0.0307317 0.0176699 0.00349432
0.047303 0.0201724 0.00502022
0.0653849 0.0228122 0.00653086
0.085832 0.0258183 0.00827039
0.107683 0.0291905 0.00996414
0.130373 0.0325933 0.01149
0.156161 0.0367132 0.0130922
0.1823 0.0407111 0.0142824
0.209232 0.0448463 0.0153811
0.236973 0.0487678 0.0162509
0.264302 0.0525978 0.0169985
0.292576 0.0562295 0.0176242
0.32047 0.059678 0.018265
0.349752 0.0630655 0.0189822
0.379065 0.066453 0.0196841
0.410529 0.0699168 0.0205234
0.442267 0.0733806 0.0214084
0.475868 0.0768902 0.0224613
0.510185 0.0804761 0.0235904
0.545556 0.0839094 0.0248722
0.581994 0.0875105 0.026276
0.618021 0.0906691 0.0277256
0.654169 0.0940414 0.0293278
0.689372 0.0968795 0.03093
0.723186 0.0996719 0.032578
0.75584 0.102235 0.0342412
0.787076 0.104677 0.0357671
0.815442 0.106813 0.0369879
0.843305 0.108843 0.0382086
0.869047 0.110399 0.0385748
0.894148 0.111955 0.0385595
0.00111391 0.0265812 0.00030518
0.0160525 0.0289616 0.00218204
0.0317082 0.0316472 0.00419623
0.0484779 0.0345617 0.00561532
0.0670634 0.0374762 0.00706493
0.087892 0.0407416 0.00869764
0.110338 0.0442206 0.0103304
0.133532 0.0476692 0.011841
0.159777 0.0518807 0.0133822
0.186038 0.0558633 0.0144808
0.213077 0.0601663 0.0155032
0.24094 0.0644999 0.0162814
0.268452 0.0686046 0.0170291
0.296818 0.0726024 0.0176394
0.325124 0.0762951 0.0183108
0.354711 0.0800031 0.0189975
0.384298 0.0836042 0.0197147
0.416281 0.0872663 0.0205997
0.448127 0.090898 0.0214694
0.4822 0.094667 0.0225834
0.516762 0.098497 0.0237278
0.55259 0.102251 0.0250248
0.589044 0.106096 0.0264591
0.625299 0.109667 0.0279393
0.661295 0.113176 0.0295415
0.696513 0.116396 0.0310979
0.730159 0.119417 0.0327916
0.762585 0.12224 0.0343938
0.793225 0.124819 0.0358129
0.821195 0.127077 0.0370642
0.848814 0.129335 0.0382544
0.873869 0.130953 0.038468
0.89865 0.132616 0.038529
0.00148013 0.0407721 0.00062562
0.0164797 0.0431678 0.00204471
0.0325017 0.0460059 0.00357061
0.0493324 0.0491646 0.00537118
0.0680705 0.0523842 0.0075227
0.0889906 0.0558785 0.00924697
0.11162 0.059617 0.0107576
0.135332 0.063508 0.0121309
0.161913 0.0681468 0.0135042
0.1888 0.0725719 0.0144961
0.216129 0.0771191 0.0154116
0.244327 0.08159 0.0161593
0.272114 0.0858015 0.0168917
0.300542 0.0899672 0.0175174
0.329152 0.0938888 0.0182193
0.358953 0.0977646 0.0189364
0.38883 0.101549 0.0196994
0.420981 0.105577 0.0205997
0.453132 0.109453 0.0215457
0.487648 0.113603 0.0226596
0.522545 0.117693 0.0238499
0.558633 0.121813 0.0252079
0.595239 0.125994 0.0266423
0.631525 0.130083 0.0281376
0.667765 0.134051 0.0297551
0.703029 0.137728 0.031281
0.736233 0.141054 0.0328832
0.768338 0.144091 0.0344244
0.798474 0.146838 0.0358129
0.82594 0.149126 0.0369726
0.85333 0.151431 0.0380865
0.878096 0.153033 0.0382391
0.902907 0.154665 0.0384222
0.00277714 0.0552682 0.00108339
0.0175784 0.0574502 0.00196841
0.0337224 0.0603189 0.00299077
0.050309 0.0637369 0.00534066
0.068986 0.0675059 0.00813306
0.0896925 0.0714733 0.0099794
0.112367 0.0755627 0.0112917
0.136492 0.0798505 0.0124056
0.163714 0.0847486 0.013611
0.191363 0.0894636 0.0144808
0.21912 0.0941024 0.0153048
0.247623 0.0986954 0.0160372
0.275761 0.103105 0.0167391
0.30428 0.107454 0.0173648
0.33315 0.111559 0.0181277
0.362966 0.115816 0.0188602
0.393149 0.119982 0.0196536
0.425437 0.124392 0.0206149
0.457801 0.128786 0.0215763
0.492729 0.133532 0.0227665
0.527718 0.13817 0.0239567
0.564111 0.14287 0.0253147
0.600916 0.147478 0.0267338
0.637263 0.151843 0.0282139
0.673548 0.156085 0.0297398
0.708721 0.159854 0.0312657
0.741909 0.163409 0.0327916
0.773754 0.166537 0.0342412
0.803067 0.169177 0.0355077
0.830488 0.171542 0.0366217
0.857267 0.173632 0.037583
0.882185 0.175265 0.0378424
0.907027 0.176822 0.038117
0.00416571 0.0715496 0.00158694
0.0186923 0.0735637 0.0021973
0.0347753 0.0762188 0.00292973
0.0512703 0.0795453 0.0049897
0.0700542 0.0835279 0.00743114
0.0904555 0.0875563 0.00944533
0.113146 0.0919661 0.0115358
0.137362 0.096437 0.0128634
0.165087 0.10161 0.0139467
0.193225 0.106584 0.0146944
0.221469 0.111727 0.0153811
0.250278 0.116838 0.0159457
0.278706 0.121599 0.0165713
0.307576 0.126467 0.0171969
0.336782 0.131121 0.0179294
0.366842 0.13579 0.0186923
0.397543 0.140459 0.0195468
0.429938 0.145312 0.0205539
0.462593 0.149981 0.0215763
0.497963 0.155184 0.022797
0.532967 0.160098 0.0240177
0.569512 0.165133 0.0254063
0.606256 0.170092 0.0268101
0.642603 0.174716 0.0282444
0.678782 0.179171 0.0297704
0.713542 0.183246 0.0312047
0.746685 0.186816 0.0326848
0.778286 0.190066 0.0340734
0.807034 0.192737 0.0352331
0.834302 0.195026 0.0363165
0.860761 0.196918 0.037171
0.885542 0.198566 0.0375372
0.91046 0.200031 0.0378882
0.00579843 0.0881361 0.00230411
0.0200809 0.0899062 0.00282292
0.0359655 0.0923323 0.00341802
0.0522927 0.095552 0.00500496
0.0710765 0.0995956 0.00683604
0.0910353 0.103639 0.00929274
0.113497 0.108125 0.0122072
0.137758 0.112947 0.0140841
0.165454 0.118456 0.0148928
0.194217 0.124376 0.0152895
0.223133 0.130434 0.0157015
0.252613 0.136263 0.016083
0.281621 0.141527 0.0165866
0.310735 0.146654 0.0170901
0.340505 0.151644 0.0178225
0.370916 0.156634 0.018555
0.402014 0.161517 0.01944
0.434684 0.16672 0.0204623
0.46772 0.171771 0.0215457
0.502968 0.177356 0.0228122
0.538064 0.18262 0.0240787
0.574487 0.188067 0.0254215
0.611246 0.193484 0.0268254
0.64744 0.198535 0.0282597
0.683406 0.203403 0.0297093
0.717983 0.207568 0.0310826
0.750774 0.211337 0.0324559
0.782193 0.214679 0.0337377
0.81059 0.217121 0.0347753
0.837797 0.219287 0.0357214
0.863935 0.221118 0.0364233
0.888747 0.222507 0.0367437
0.913741 0.223896 0.0370947
0.00840772 0.105272 0.00320439
0.0215 0.106676 0.00357061
0.0362249 0.108827 0.0040589
0.0524605 0.111742 0.00520333
0.0720073 0.115846 0.00654612
0.0918288 0.120012 0.0093843
0.114488 0.125017 0.0129397
0.138766 0.130297 0.0151675
0.166445 0.136309 0.0157626
0.19559 0.142855 0.0159152
0.224704 0.149401 0.0162356
0.254627 0.155703 0.0164645
0.284016 0.161624 0.0168917
0.313558 0.167407 0.0173648
0.343771 0.172976 0.0179751
0.374441 0.1785 0.018616
0.406043 0.183963 0.0194858
0.438834 0.189639 0.0204623
0.472206 0.195193 0.0215763
0.507515 0.201175 0.0227665
0.542718 0.206928 0.0240177
0.579278 0.212787 0.0253452
0.615961 0.218479 0.026688
0.651957 0.223758 0.0280461
0.687785 0.228656 0.0294652
0.721981 0.23299 0.0307622
0.754757 0.236744 0.0320287
0.78587 0.240055 0.0331884
0.814038 0.242313 0.0341192
0.841108 0.244419 0.0349584
0.866896 0.245991 0.0355077
0.891798 0.247227 0.0358282
0.916609 0.248386 0.0361181
0.0113375 0.123232 0.00421149
0.022858 0.124453 0.00453193
0.0360723 0.126375 0.00497444
0.0525978 0.128985 0.00588998
0.0730297 0.13315 0.0068513
0.092607 0.137285 0.0099794
0.115526 0.142901 0.0141909
0.139742 0.148608 0.0167544
0.167361 0.154788 0.0174105
0.196597 0.161746 0.0176852
0.225666 0.168551 0.0178378
0.255909 0.175677 0.0177462
0.28574 0.182681 0.0178683
0.315908 0.189364 0.0180819
0.346517 0.195636 0.0184634
0.377722 0.20177 0.019028
0.409857 0.207584 0.0198367
0.443091 0.213642 0.0207218
0.476875 0.219593 0.0217136
0.512306 0.225925 0.0228122
0.547631 0.231907 0.0239719
0.58407 0.238102 0.0252232
0.620584 0.243992 0.0265202
0.656428 0.249332 0.0278325
0.692058 0.254536 0.0291142
0.725948 0.258946 0.0303197
0.758526 0.262913 0.0314794
0.789197 0.26598 0.0325017
0.817182 0.268284 0.0332799
0.844343 0.270207 0.0340581
0.869612 0.271504 0.0345006
0.894438 0.272602 0.0347601
0.919036 0.273548 0.0349126
0.0148318 0.142168 0.0053254
0.0253452 0.143236 0.00561532
0.0375677 0.145037 0.00605783
0.0543679 0.147387 0.0068513
0.0749065 0.151156 0.00746166
0.0941787 0.155169 0.0101778
0.117082 0.161227 0.0140841
0.141268 0.167285 0.0168307
0.168826 0.173846 0.0186007
0.198047 0.181186 0.0196384
0.227192 0.188449 0.0194858
0.257527 0.196292 0.0189364
0.287602 0.203983 0.0188449
0.317983 0.211383 0.0189822
0.349096 0.218311 0.0192569
0.380713 0.225147 0.0197604
0.413336 0.231647 0.0204471
0.446769 0.238361 0.0211337
0.480858 0.244785 0.0220035
0.516289 0.251438 0.0229648
0.55169 0.257939 0.024033
0.58819 0.264546 0.0251164
0.62446 0.270756 0.026276
0.660349 0.276356 0.0274205
0.695888 0.281682 0.0286259
0.729656 0.286076 0.0296483
0.762005 0.289921 0.0306554
0.792325 0.292882 0.0315099
0.820233 0.294987 0.0321355
0.847242 0.296727 0.0327153
0.872297 0.297719 0.0330053
0.897093 0.298528 0.0331579
0.921477 0.299214 0.0331731
0.019028 0.161898 0.00663767
0.02916 0.163043 0.0069276
0.0408942 0.164752 0.00730907
0.0578317 0.166949 0.00798047
0.0781109 0.170291 0.00843824
0.096849 0.174029 0.0100862
0.119493 0.180163 0.0125429
0.142916 0.186282 0.0157778
0.17026 0.193668 0.0195926
0.199512 0.201907 0.0221866
0.229206 0.209583 0.0218814
0.260014 0.217929 0.0213016
0.28986 0.225727 0.0211337
0.319829 0.233326 0.0208896
0.351202 0.241306 0.0208896
0.383124 0.248966 0.0211337
0.415869 0.256291 0.0214847
0.449744 0.26392 0.0220493
0.484123 0.270939 0.0227054
0.519783 0.278141 0.0234836
0.555596 0.285069 0.0243687
0.592111 0.291798 0.0252232
0.628534 0.298329 0.0261845
0.664347 0.30396 0.0271305
0.699718 0.309392 0.0281071
0.733196 0.313619 0.0289769
0.765423 0.317433 0.0297856
0.795392 0.320073 0.0304265
0.823178 0.322087 0.030869
0.850187 0.323598 0.0313268
0.874891 0.324269 0.0314488
0.899535 0.324758 0.0314794
0.923659 0.325093 0.0314031
0.0236362 0.1823 0.0081178
0.0334783 0.183474 0.00833143
0.0448005 0.18526 0.00863661
0.0620584 0.187381 0.00918593
0.0821851 0.190402 0.00952163
0.100664 0.194018 0.0104677
0.122911 0.200183 0.0118563
0.145724 0.206409 0.015198
0.173022 0.214557 0.0200504
0.201846 0.223239 0.0235752
0.2318 0.231235 0.0238804
0.26276 0.239948 0.0239109
0.292332 0.247868 0.0234226
0.322011 0.255848 0.0226902
0.353384 0.264622 0.0224155
0.385199 0.272938 0.0224002
0.418265 0.281117 0.0225681
0.452552 0.289357 0.0230564
0.48719 0.297002 0.0235599
0.523079 0.304845 0.024094
0.558953 0.312108 0.0247349
0.595636 0.319356 0.02533
0.632074 0.326207 0.0260624
0.667704 0.332113 0.0267643
0.703227 0.337804 0.027512
0.73637 0.342 0.0281682
0.768719 0.345724 0.0287938
0.798352 0.348165 0.0292668
0.826154 0.350042 0.0295567
0.853056 0.351232 0.0298772
0.87744 0.351492 0.0299077
0.902129 0.351781 0.0298924
0.925994 0.351675 0.0297398
0.0289769 0.204135 0.00979629
0.0387732 0.205402 0.00999466
0.0497444 0.207156 0.0102083
0.0674907 0.209369 0.0106355
0.0875868 0.21236 0.0109102
0.106081 0.215686 0.0116121
0.127916 0.221485 0.0126192
0.149996 0.22742 0.0150607
0.176761 0.235813 0.019028
0.204547 0.24448 0.0225681
0.234501 0.253635 0.0250706
0.265843 0.263508 0.0270085
0.295872 0.271733 0.0264439
0.325994 0.279942 0.0255741
0.35671 0.288273 0.0250553
0.387472 0.296361 0.0245975
0.420569 0.30518 0.0244297
0.454734 0.314153 0.0245823
0.489525 0.322698 0.0247807
0.525643 0.331472 0.0251316
0.561944 0.339681 0.0254978
0.598581 0.347478 0.0258488
0.634989 0.354665 0.0263066
0.670848 0.360861 0.0267338
0.706386 0.366659 0.0272221
0.739605 0.370764 0.0276188
0.771817 0.374395 0.0280156
0.801251 0.376715 0.0282292
0.829007 0.378195 0.0283818
0.855711 0.379217 0.0285191
0.879866 0.379049 0.0284276
0.90457 0.37908 0.0283207
0.928206 0.378607 0.0281224
0.0348821 0.226658 0.0117037
0.0447395 0.228107 0.0118868
0.0554665 0.229862 0.0120241
0.0735943 0.232074 0.0122988
0.093904 0.23505 0.0124361
0.112581 0.238346 0.0129091
0.13402 0.243641 0.0134585
0.155398 0.249195 0.0151522
0.181506 0.257862 0.0182956
0.208331 0.266926 0.0221256
0.238132 0.277073 0.0264134
0.269596 0.287556 0.0299229
0.299901 0.295811 0.0294499
0.330526 0.304097 0.0286717
0.360464 0.312215 0.0277867
0.390112 0.320104 0.0267643
0.422843 0.329534 0.0261845
0.456733 0.339239 0.0260014
0.4916 0.348562 0.0259251
0.52813 0.358144 0.0261997
0.564446 0.366857 0.0263066
0.601526 0.375479 0.0264286
0.63801 0.383047 0.0265812
0.674006 0.389624 0.0267185
0.709514 0.395773 0.0269017
0.742611 0.399847 0.0270848
0.774914 0.403586 0.0272679
0.803922 0.405631 0.0273747
0.831647 0.406989 0.0273747
0.858274 0.407614 0.027451
0.88246 0.407202 0.0273289
0.906996 0.406806 0.0272221
0.93051 0.406027 0.0269932
0.0417334 0.250751 0.0137331
0.0517128 0.252293 0.0138705
0.0625315 0.254139 0.0140078
0.0809949 0.256367 0.0142061
0.101381 0.259358 0.0142824
0.120287 0.262547 0.0145571
0.141695 0.267643 0.0148775
0.162448 0.272816 0.0160983
0.187594 0.281147 0.0185245
0.212863 0.289616 0.0220951
0.24152 0.299886 0.0271916
0.272099 0.310536 0.0314794
0.30399 0.320409 0.0318151
0.336126 0.330144 0.0319677
0.365789 0.338155 0.0310979
0.395163 0.345724 0.0298619
0.4271 0.354635 0.0289464
0.459327 0.363531 0.0281682
0.493874 0.373236 0.0276951
0.529946 0.383352 0.0275273
0.566567 0.393072 0.0273442
0.60383 0.402502 0.0272831
0.640711 0.411124 0.0271763
0.676982 0.418372 0.0271153
0.712291 0.424964 0.0270542
0.745235 0.429282 0.0269474
0.777539 0.433295 0.0269169
0.806287 0.435004 0.0269169
0.834119 0.436347 0.0268559
0.860548 0.436606 0.0268711
0.884779 0.43595 0.0267948
0.909361 0.435248 0.0267185
0.932586 0.434165 0.0265049
0.0490883 0.275959 0.016022
0.0592813 0.277592 0.0161593
0.0703136 0.279408 0.0162356
0.0887465 0.28159 0.0163729
0.109194 0.284596 0.0164034
0.128649 0.287739 0.0164645
0.150286 0.292607 0.0165713
0.170962 0.297505 0.01738
0.195163 0.305287 0.0189975
0.218906 0.313191 0.0222629
0.246098 0.3234 0.0280613
0.275334 0.334447 0.0328679
0.308476 0.345678 0.0342107
0.342168 0.356512 0.0353857
0.371771 0.364233 0.0345159
0.40087 0.371344 0.0333715
0.431785 0.379904 0.0319524
0.462272 0.388144 0.0304112
0.496178 0.39826 0.0294041
0.531945 0.409079 0.0287938
0.568429 0.419532 0.0283207
0.60621 0.429862 0.0280613
0.643137 0.439063 0.0277409
0.679637 0.447028 0.0274815
0.715084 0.454108 0.0272068
0.747982 0.458625 0.0269322
0.780255 0.462943 0.0267491
0.80885 0.464561 0.026627
0.836744 0.465782 0.0265049
0.863005 0.465827 0.0264744
0.887114 0.464851 0.0264134
0.911742 0.463966 0.0263828
0.934615 0.462455 0.0262303
0.0575265 0.302037 0.0187686
0.0681621 0.3037 0.0188754
0.0792096 0.305455 0.0189059
0.0962539 0.307637 0.0190127
0.114778 0.310491 0.0190127
0.135424 0.313603 0.0189517
0.158679 0.318273 0.0188907
0.179934 0.323262 0.0193942
0.203143 0.330861 0.0203861
0.22565 0.338186 0.0224613
0.251667 0.347936 0.0266117
0.279225 0.358206 0.0307927
0.31194 0.369726 0.0347295
0.345846 0.381308 0.0384222
0.377325 0.390448 0.0377966
0.408225 0.398733 0.0368048
0.438544 0.407019 0.0351873
0.467674 0.414572 0.033341
0.500664 0.424079 0.0317998
0.534539 0.434134 0.0305486
0.57023 0.444465 0.029572
0.607477 0.455238 0.0289921
0.644572 0.465339 0.0284886
0.68162 0.474357 0.0281834
0.717449 0.482414 0.0278782
0.750729 0.487663 0.0276188
0.783139 0.492576 0.0273899
0.811536 0.494347 0.0271153
0.839399 0.49572 0.0269017
0.865324 0.495659 0.0268101
0.889342 0.494469 0.0267033
0.913832 0.493462 0.0267185
0.936553 0.491676 0.0266423
0.0661936 0.329122 0.0217594
0.0769818 0.33077 0.0218051
0.088014 0.332464 0.0218051
0.103502 0.334585 0.0218204
0.120089 0.337194 0.0218204
0.141939 0.340398 0.0216068
0.167285 0.345098 0.0214389
0.189425 0.350088 0.0217136
0.212009 0.357427 0.0222019
0.233692 0.364248 0.0232547
0.258473 0.373053 0.0255894
0.284382 0.382498 0.0292363
0.316106 0.394324 0.0356146
0.349615 0.406668 0.0414282
0.382986 0.416861 0.0409094
0.416342 0.426429 0.0401923
0.445655 0.434089 0.0384985
0.473747 0.440848 0.0365148
0.505852 0.450141 0.0345006
0.537484 0.459327 0.0324712
0.57229 0.469749 0.030869
0.609033 0.481102 0.0299382
0.646036 0.49189 0.0291905
0.683543 0.501869 0.0288701
0.719814 0.510781 0.0285344
0.753262 0.516655 0.0283207
0.786023 0.522148 0.0280156
0.814206 0.524102 0.0277104
0.841932 0.525658 0.0274357
0.867536 0.525444 0.0271916
0.891585 0.524163 0.0270542
0.91603 0.523095 0.0271153
0.938399 0.520851 0.0271611
0.0755322 0.357214 0.0255283
0.0863661 0.358846 0.0254978
0.0973068 0.36054 0.0254826
0.112367 0.362753 0.025452
0.128389 0.365255 0.0254215
0.150835 0.368368 0.0250858
0.176989 0.37293 0.0247196
0.199435 0.377768 0.0247959
0.221057 0.384421 0.0248264
0.242054 0.390845 0.0253758
0.265965 0.399451 0.0269474
0.290349 0.408225 0.0294652
0.320394 0.419425 0.0345312
0.352575 0.431479 0.0393225
0.387518 0.442664 0.0413825
0.423087 0.453712 0.0432288
0.453147 0.461952 0.0415808
0.482536 0.46949 0.0396429
0.513466 0.478401 0.0372625
0.542931 0.486351 0.0346685
0.576562 0.496208 0.0327001
0.611353 0.506828 0.0312352
0.64715 0.517296 0.0301976
0.684367 0.527703 0.0298161
0.720439 0.537011 0.0294652
0.75462 0.543908 0.0293736
0.787884 0.550378 0.0292363
0.816205 0.552804 0.0290227
0.844434 0.554894 0.0287785
0.869932 0.554833 0.0285191
0.893889 0.553765 0.028336
0.918227 0.552682 0.028275
0.940444 0.550454 0.0282139
0.0844587 0.385626 0.0294957
0.0952926 0.387259 0.0294347
0.106157 0.388907 0.0293431
0.120623 0.391089 0.029221
0.1364 0.393652 0.0291142
0.159228 0.396719 0.0286412
0.186206 0.401236 0.0280919
0.208942 0.406073 0.0279088
0.230213 0.412421 0.0277867
0.25098 0.41854 0.0280919
0.274525 0.426932 0.0290227
0.297734 0.434852 0.0304265
0.32578 0.445029 0.0338445
0.355718 0.455985 0.0375677
0.391959 0.468544 0.041886
0.429343 0.481239 0.0461128
0.460731 0.489937 0.0444648
0.492378 0.49865 0.0425879
0.52166 0.506615 0.0400244
0.549355 0.513436 0.0372015
0.582086 0.523186 0.0349737
0.614359 0.532631 0.0328527
0.648707 0.542565 0.0313725
0.685466 0.553567 0.030808
0.721248 0.563409 0.0304265
0.75581 0.571176 0.0304723
0.789517 0.578592 0.030457
0.81828 0.581445 0.0303349
0.846754 0.584161 0.0301976
0.872236 0.584253 0.0299382
0.896208 0.583413 0.0296941
0.920287 0.5823 0.0295109
0.942428 0.580041 0.0294041
0.0933242 0.414649 0.034165
0.104204 0.416281 0.0340734
0.115038 0.417914 0.0339818
0.129732 0.420096 0.0338445
0.145373 0.422675 0.0337072
0.16849 0.42565 0.0330968
0.195987 0.430243 0.0323186
0.218952 0.435019 0.0319524
0.240024 0.440925 0.0316472
0.260655 0.446891 0.0316167
0.283085 0.454612 0.0317998
0.305257 0.462119 0.0323339
0.331273 0.47129 0.0344549
0.359182 0.481392 0.0372931
0.395605 0.494255 0.0430152
0.433875 0.507591 0.0486458
0.466789 0.517052 0.0470588
0.500435 0.527047 0.0454108
0.529702 0.53489 0.0426947
0.558251 0.54226 0.0398718
0.58938 0.551308 0.0374456
0.619257 0.55964 0.0349279
0.652445 0.5691 0.0332647
0.687297 0.579553 0.0323949
0.721996 0.589044 0.0317693
0.756436 0.59736 0.0318151
0.790082 0.605203 0.0318608
0.819181 0.608728 0.0318608
0.848203 0.611994 0.0318608
0.873823 0.612665 0.031632
0.898054 0.612131 0.0313573
0.92221 0.611337 0.0311894
0.944228 0.609293 0.0309758
0.101686 0.443793 0.0391241
0.112551 0.445365 0.0389715
0.123766 0.446906 0.0388037
0.138613 0.449119 0.0386358
0.154223 0.451606 0.0383917
0.177722 0.454719 0.0376745
0.205417 0.459373 0.0366674
0.228519 0.464164 0.0360418
0.249622 0.469917 0.0356146
0.270222 0.475746 0.0353704
0.292134 0.483268 0.0351415
0.313542 0.490211 0.035111
0.337865 0.498512 0.0360876
0.363851 0.507378 0.0380865
0.399573 0.519692 0.0447547
0.437537 0.532937 0.0511025
0.471992 0.543572 0.0496529
0.507149 0.554574 0.0481575
0.537072 0.562524 0.0453651
0.567391 0.570932 0.0428016
0.59733 0.579522 0.0403449
0.625254 0.58674 0.0375982
0.657526 0.596078 0.0359197
0.689906 0.605386 0.0345159
0.722988 0.614252 0.0335088
0.757214 0.623041 0.0334783
0.790509 0.631373 0.033463
0.819989 0.635477 0.0336004
0.849256 0.639582 0.0336919
0.875181 0.640696 0.0334936
0.899702 0.640711 0.0333257
0.923995 0.640162 0.0330816
0.945983 0.638315 0.0327916
0.110002 0.473075 0.0443427
0.120974 0.474708 0.0442206
0.132631 0.476219 0.0440681
0.147341 0.478325 0.0438697
0.162997 0.480858 0.0436408
0.186725 0.483818 0.0428931
0.214664 0.488548 0.0417792
0.237781 0.493126 0.0408789
0.258762 0.498405 0.0402838
0.279103 0.503899 0.039826
0.30071 0.511238 0.0392462
0.321645 0.51783 0.0387274
0.344671 0.525505 0.0387274
0.369345 0.53373 0.0395361
0.403052 0.545113 0.0445411
0.4392 0.557595 0.0491646
0.475349 0.569177 0.049836
0.512276 0.581064 0.0506142
0.543267 0.589426 0.0480659
0.575235 0.598917 0.0458534
0.604547 0.607004 0.0433814
0.63267 0.614328 0.0407416
0.663859 0.623453 0.0388952
0.693996 0.631983 0.0371099
0.725643 0.640284 0.0358434
0.758648 0.649134 0.0355535
0.790997 0.657206 0.0352789
0.820493 0.661891 0.0354314
0.849897 0.66656 0.035523
0.875959 0.668009 0.0354314
0.900786 0.668498 0.0352483
0.925231 0.668437 0.0350195
0.94725 0.666789 0.0347906
0.117464 0.502007 0.0495918
0.12932 0.503639 0.049485
0.1411 0.505119 0.0493324
0.15581 0.507118 0.0491493
0.171267 0.509422 0.0488289
0.195209 0.51252 0.048127
0.223239 0.517159 0.046891
0.246311 0.521492 0.0458534
0.267033 0.526177 0.0449836
0.287282 0.531548 0.0443122
0.308904 0.538796 0.043595
0.329915 0.545556 0.0428626
0.352331 0.552926 0.0422065
0.376043 0.560662 0.0418708
0.407095 0.570687 0.0439918
0.440833 0.581872 0.0459602
0.477623 0.593835 0.0493019
0.515663 0.606027 0.0529183
0.547936 0.615137 0.0508736
0.580713 0.624842 0.049012
0.610376 0.632853 0.0466011
0.639963 0.641108 0.0442664
0.670497 0.650401 0.0424659
0.699123 0.658442 0.0404669
0.730022 0.666804 0.0391699
0.76109 0.674937 0.0383001
0.79176 0.682231 0.0376135
0.821012 0.687266 0.0376287
0.850248 0.692348 0.0375372
0.876326 0.694347 0.0375372
0.90132 0.695338 0.0374151
0.925978 0.695811 0.0372473
0.948165 0.694499 0.0369116
0.126162 0.530907 0.0549935
0.138064 0.532372 0.0548409
0.149981 0.533913 0.0547036
0.164508 0.53579 0.0545357
0.179858 0.538033 0.0542306
0.203754 0.541207 0.0536049
0.231708 0.545739 0.0523537
0.254749 0.549676 0.051133
0.275227 0.553918 0.0500649
0.295415 0.558877 0.0492103
0.316686 0.565576 0.0483558
0.337606 0.57203 0.047425
0.359625 0.57937 0.0462806
0.382727 0.586954 0.0450752
0.411246 0.595895 0.0451362
0.442573 0.606134 0.0450752
0.47953 0.618051 0.0487526
0.518227 0.630426 0.0522927
0.551659 0.640238 0.0519417
0.585122 0.650095 0.0517586
0.615564 0.658366 0.0497597
0.646357 0.667552 0.0478065
0.676417 0.676616 0.0461585
0.704356 0.684428 0.0440833
0.734905 0.693263 0.042771
0.764202 0.701137 0.041474
0.793225 0.707851 0.0403754
0.821988 0.713252 0.0401007
0.850706 0.718578 0.0397803
0.876722 0.720806 0.039765
0.90193 0.72221 0.0396277
0.926635 0.723003 0.0394446
0.948974 0.722011 0.0391699
0.134478 0.558663 0.0600443
0.146487 0.560174 0.0599374
0.158465 0.561608 0.0598001
0.17261 0.563424 0.0596628
0.187671 0.565576 0.0593881
0.211276 0.568658 0.0587472
0.239048 0.573053 0.0576028
0.262058 0.576761 0.0563363
0.28275 0.580758 0.0550393
0.302754 0.585214 0.0539101
0.323507 0.590921 0.052903
0.344533 0.597223 0.0518807
0.366842 0.604837 0.0505684
0.38996 0.612772 0.0490272
0.416297 0.621088 0.0480354
0.445411 0.630747 0.0466621
0.481697 0.642145 0.0484321
0.520317 0.654215 0.0500496
0.554467 0.664439 0.0514839
0.588434 0.674525 0.0538643
0.619425 0.682948 0.052903
0.650538 0.69189 0.0514687
0.680476 0.700694 0.0499275
0.709072 0.708934 0.0480659
0.739406 0.718395 0.0468147
0.767849 0.726604 0.0453956
0.796094 0.733379 0.0441444
0.823636 0.738537 0.0433509
0.851255 0.743801 0.0424964
