iOSLOG2LUTConverter/Resources/Secondary LUTS/DAHMER.cube
TITLE "Generated by Resolve"
LUT_3D_SIZE 9
0.00534066 0.00503548 0.00236515
0.0785992 0.00567636 0.00190738
0.182544 0.00848402 0.00146487
0.304677 0.0167697 0.00437934
0.426246 0.0304417 0.0100404
0.549554 0.0470893 0.0184634
0.673167 0.064622 0.0288243
0.792248 0.0836652 0.0402228
0.899733 0.106477 0.0513161
0.00553903 0.0717632 0.00679026
0.0881666 0.0730297 0.00367742
0.193301 0.0776379 0.00335698
0.315267 0.0867781 0.00639353
0.436652 0.100557 0.0125887
0.560952 0.11722 0.0215152
0.685008 0.135668 0.0321508
0.803418 0.156924 0.0438544
0.908263 0.181857 0.0576791
0.0210422 0.169192 0.0189364
0.0832685 0.173907 0.0162814
0.211658 0.176699 0.00975052
0.330571 0.186175 0.0135958
0.451881 0.199283 0.0205081
0.575891 0.214786 0.0294347
0.698222 0.232029 0.0398871
0.813901 0.252171 0.0512245
0.916091 0.275242 0.0646372
0.0455787 0.294255 0.0467994
0.105043 0.29868 0.0466316
0.224048 0.301335 0.0420691
0.354971 0.30724 0.0292668
0.471107 0.31751 0.0352331
0.591821 0.329961 0.0428016
0.711971 0.34551 0.0528572
0.827558 0.365301 0.0643473
0.930632 0.388724 0.0784924
0.0722057 0.424552 0.0811017
0.126452 0.427451 0.0800488
0.202701 0.433097 0.0716564
0.373907 0.430442 0.0684215
0.498283 0.439872 0.0565652
0.615259 0.452445 0.0638132
0.734615 0.470314 0.0747845
0.847593 0.491005 0.0866102
0.947326 0.513664 0.100053
0.101457 0.555352 0.118135
0.155367 0.558267 0.117556
0.225589 0.563638 0.114672
0.376715 0.564202 0.104387
0.524483 0.566064 0.0962692
0.649195 0.581643 0.0910964
0.76051 0.597711 0.10045
0.867872 0.617014 0.112398
0.963226 0.637598 0.125277
0.148562 0.688914 0.158328
0.207538 0.691844 0.158267
0.273548 0.696803 0.155444
0.403403 0.69955 0.14255
0.554742 0.695766 0.138628
0.680323 0.700786 0.12369
0.792264 0.719814 0.129351
0.889845 0.734188 0.139101
0.975586 0.749691 0.149905
0.209796 0.815839 0.198306
0.265705 0.818463 0.198077
0.349126 0.822522 0.190433
0.464225 0.820569 0.176944
0.597864 0.814984 0.173281
0.71339 0.816815 0.165179
0.816754 0.824292 0.158785
0.914183 0.841947 0.168017
0.98761 0.852476 0.176532
0.282979 0.927962 0.23183
0.349493 0.929442 0.227024
0.423239 0.930739 0.21735
0.528038 0.928573 0.206485
0.644358 0.923522 0.206394
0.747173 0.923919 0.202335
0.842405 0.927138 0.195224
0.931868 0.937102 0.198291
0.998322 0.94934 0.206119
0.00642405 0.00794995 0.0501411
0.08336 0.00834669 0.0502937
0.189471 0.0106508 0.0493629
0.309606 0.0203555 0.0505226
0.430945 0.0347143 0.05449
0.554269 0.0512703 0.0619974
0.678157 0.0689097 0.0728618
0.797269 0.0880903 0.0873579
0.903609 0.111131 0.10367
0.014313 0.0759442 0.0552834
0.0936294 0.0787976 0.0534981
0.199557 0.0833906 0.0534524
0.320302 0.0922866 0.0549172
0.44126 0.105882 0.0602426
0.565957 0.12256 0.0692302
0.689632 0.141238 0.0809796
0.807248 0.162356 0.0950484
0.910918 0.186908 0.109972
0.0241855 0.175433 0.068925
0.0907454 0.18117 0.0690776
0.218494 0.184466 0.0616159
0.336553 0.193393 0.0643168
0.456992 0.206043 0.0705272
0.580194 0.220676 0.0791791
0.701564 0.237339 0.090013
0.816403 0.257099 0.102754
0.91812 0.28011 0.116579
0.0487831 0.300526 0.0988479
0.108904 0.305074 0.0986954
0.229068 0.308339 0.0936294
0.35996 0.312871 0.0816205
0.475441 0.322805 0.0872969
0.595468 0.334737 0.0940414
0.715328 0.349935 0.10367
0.830655 0.370016 0.116518
0.933135 0.39321 0.131029
0.0741283 0.42858 0.133486
0.130327 0.431739 0.132433
0.215503 0.437781 0.12491
0.377478 0.435523 0.120424
0.50193 0.444266 0.108461
0.618784 0.456901 0.115908
0.737743 0.474449 0.12694
0.850233 0.495094 0.138918
0.949279 0.51725 0.152544
0.103532 0.558999 0.17116
0.160082 0.562051 0.170657
0.231525 0.56817 0.168872
0.380453 0.569314 0.156542
0.527932 0.570321 0.148287
0.651942 0.585153 0.142611
0.76257 0.600534 0.152178
0.869688 0.620035 0.164508
0.964401 0.640192 0.177707
0.154467 0.691783 0.212558
0.213001 0.694881 0.212528
0.279057 0.700877 0.211048
0.409979 0.70425 0.196796
0.558602 0.699763 0.192081
0.682628 0.703441 0.176181
0.79353 0.721569 0.181674
0.890761 0.735775 0.191745
0.977005 0.751324 0.20296
0.217441 0.817563 0.253315
0.277897 0.820874 0.253513
0.363149 0.825803 0.247242
0.47039 0.824674 0.232593
0.601022 0.818372 0.227558
0.715724 0.819516 0.219272
0.818067 0.826001 0.212131
0.914656 0.843137 0.221424
0.988754 0.853758 0.230457
0.294392 0.930678 0.289235
0.360784 0.93315 0.285191
0.433494 0.934783 0.27541
0.533532 0.932525 0.263478
0.647227 0.926909 0.261875
0.74934 0.926787 0.257557
0.844068 0.929763 0.249866
0.932647 0.938643 0.252888
0.999466 0.950713 0.260746
0.00819409 0.0153201 0.110842
0.0892958 0.0151217 0.113008
0.195972 0.0188449 0.113802
0.320134 0.02533 0.113527
0.440833 0.0383917 0.11664
0.563241 0.0566567 0.12668
0.686229 0.0748608 0.138903
0.8047 0.094728 0.153933
0.909133 0.119341 0.171344
0.0197757 0.0857252 0.11635
0.100786 0.0889448 0.118151
0.20911 0.0931563 0.119799
0.32874 0.10251 0.123278
0.449729 0.11574 0.12929
0.574182 0.132158 0.13814
0.696498 0.150439 0.148928
0.812406 0.171252 0.162264
0.914336 0.194965 0.176547
0.0417487 0.185534 0.132067
0.115831 0.191516 0.134081
0.229374 0.196796 0.129976
0.346471 0.205158 0.133089
0.465187 0.216587 0.139055
0.58706 0.230076 0.14699
0.706752 0.245991 0.156985
0.820157 0.264988 0.1691
0.92166 0.288197 0.183368
0.0602579 0.308949 0.162036
0.127001 0.31368 0.162173
0.234302 0.319677 0.158419
0.368109 0.322271 0.149477
0.483009 0.331197 0.154589
0.602853 0.342855 0.161349
0.722271 0.358175 0.170916
0.836515 0.377584 0.183566
0.937606 0.400778 0.198383
0.0777295 0.434638 0.195819
0.141588 0.438117 0.195056
0.235767 0.445182 0.192096
0.382483 0.444343 0.186191
0.508843 0.451881 0.175051
0.625818 0.46479 0.182727
0.743969 0.482322 0.193622
0.855406 0.502281 0.205753
0.953323 0.524056 0.219669
0.109377 0.564004 0.233555
0.170977 0.567193 0.233265
0.251698 0.574548 0.234241
0.387198 0.579004 0.22237
0.5346 0.578225 0.214511
0.657465 0.59147 0.208682
0.767498 0.606806 0.218326
0.873869 0.626093 0.230747
0.967559 0.645426 0.244114
0.171313 0.695521 0.27541
0.234134 0.699199 0.275761
0.309453 0.706889 0.27718
0.421363 0.713008 0.263294
0.565377 0.70692 0.257313
0.687709 0.709789 0.242329
0.797086 0.725994 0.247303
0.893721 0.739956 0.257511
0.980484 0.755596 0.269047
0.247028 0.820539 0.316686
0.307851 0.824445 0.317296
0.383703 0.830732 0.314733
0.480812 0.832425 0.299565
0.606867 0.824659 0.292683
0.720088 0.824826 0.285084
0.821408 0.83003 0.27747
0.916808 0.846479 0.286503
0.991623 0.85745 0.296147
0.313405 0.934707 0.353719
0.376806 0.938033 0.352331
0.45034 0.941161 0.344305
0.542733 0.939498 0.331701
0.651957 0.933196 0.327749
0.753613 0.932189 0.323522
0.847868 0.934844 0.315312
0.934646 0.94197 0.317937
1 0.953872 0.326085
0.0134585 0.0314336 0.189624
0.0919814 0.0335546 0.191653
0.211841 0.0319371 0.195468
0.328481 0.0412604 0.200473
0.452308 0.0513771 0.205005
0.578943 0.0638743 0.210391
0.703487 0.0785687 0.21825
0.818387 0.0979934 0.230838
0.917693 0.122301 0.246403
0.0278325 0.104387 0.196139
0.108324 0.108721 0.200092
0.225299 0.107851 0.204044
0.340291 0.118578 0.208576
0.463432 0.128496 0.213642
0.588006 0.140856 0.219623
0.706935 0.158343 0.229511
0.818631 0.180865 0.244541
0.917815 0.205295 0.259922
0.052369 0.204379 0.21091
0.134737 0.20856 0.214084
0.241703 0.21413 0.218708
0.357305 0.221576 0.221469
0.474647 0.231693 0.227115
0.594781 0.243992 0.234058
0.712688 0.258671 0.242786
0.826154 0.277775 0.254917
0.926833 0.301152 0.269352
0.0862593 0.320317 0.238621
0.169619 0.32285 0.241032
0.254078 0.331502 0.242359
0.37908 0.335164 0.236103
0.493965 0.343999 0.240833
0.613077 0.355032 0.247044
0.731579 0.37026 0.256504
0.844419 0.389563 0.269123
0.943465 0.412589 0.284047
0.115709 0.441245 0.269261
0.188556 0.446204 0.270451
0.269978 0.454093 0.271672
0.389197 0.457694 0.267842
0.519265 0.464088 0.259953
0.637171 0.477745 0.267628
0.753704 0.494392 0.277653
0.863767 0.513649 0.289601
0.959762 0.534218 0.303365
0.151797 0.570214 0.305882
0.220768 0.574884 0.306889
0.299672 0.583261 0.309056
0.398749 0.594186 0.302678
0.544396 0.59089 0.297322
0.666911 0.602289 0.291478
0.776165 0.617716 0.301305
0.881209 0.636103 0.313115
0.973114 0.654673 0.326085
0.211002 0.701198 0.347738
0.276127 0.705959 0.348959
0.35082 0.713924 0.351171
0.443366 0.723781 0.344884
0.574975 0.718379 0.335836
0.696223 0.720577 0.32314
0.803342 0.733944 0.327596
0.899428 0.748028 0.337636
0.984817 0.763714 0.349248
0.275929 0.82446 0.387747
0.339025 0.828977 0.389151
0.409339 0.83592 0.391119
0.496544 0.843732 0.379446
0.615442 0.834791 0.369909
0.727367 0.834012 0.363531
0.827375 0.837201 0.355413
0.920882 0.852827 0.364263
0.995926 0.864057 0.374762
0.336614 0.93785 0.425101
0.398291 0.942504 0.426688
0.471336 0.948302 0.42359
0.555688 0.949737 0.411948
0.659205 0.942214 0.405371
0.76025 0.940627 0.402472
0.853529 0.942351 0.394369
0.938033 0.947646 0.395697
1 0.958526 0.404211
0.0207675 0.0535134 0.282338
0.101228 0.0561837 0.285145
0.214847 0.0569162 0.292027
0.352911 0.0545968 0.298772
0.464103 0.0718853 0.304845
0.588281 0.0847486 0.311513
0.712337 0.0973526 0.31902
0.827329 0.114046 0.328527
0.925872 0.136019 0.340215
0.0384833 0.131655 0.289845
0.120058 0.136202 0.294255
0.228077 0.1402 0.299443
0.361669 0.136065 0.306538
0.472358 0.152636 0.311818
0.59649 0.163088 0.317739
0.71783 0.175448 0.324605
0.831357 0.192386 0.33402
0.929915 0.214038 0.346517
0.0700236 0.228397 0.303304
0.152621 0.232059 0.30663
0.253941 0.237919 0.312551
0.371679 0.240574 0.317235
0.486152 0.250416 0.322042
0.606775 0.259327 0.327291
0.724346 0.272328 0.335073
0.835248 0.292256 0.348516
0.933547 0.317494 0.365133
0.0990921 0.338872 0.324712
0.183322 0.340825 0.326589
0.285039 0.344976 0.330129
0.390265 0.352987 0.333623
0.506722 0.360174 0.336416
0.624643 0.371572 0.343481
0.741665 0.386877 0.352819
0.853025 0.406149 0.365454
0.950256 0.428855 0.380224
0.136889 0.454032 0.35169
0.22118 0.456657 0.354147
0.311986 0.4636 0.358282
0.401129 0.476036 0.361578
0.534279 0.481041 0.355077
0.652094 0.495491 0.362676
0.76614 0.510323 0.371817
0.873701 0.527993 0.383185
0.966827 0.547814 0.396857
0.185702 0.578103 0.386557
0.259724 0.584176 0.389395
0.342748 0.593637 0.393774
0.42974 0.605676 0.397894
0.556771 0.608286 0.391196
0.680293 0.617456 0.385153
0.788037 0.632822 0.394568
0.890959 0.650034 0.405844
0.979049 0.666453 0.417868
0.244404 0.708263 0.427665
0.313909 0.714275 0.430228
0.390494 0.722301 0.433738
0.472389 0.732876 0.437263
0.586175 0.733898 0.425666
0.707332 0.734234 0.41706
0.812451 0.745693 0.419272
0.907256 0.759548 0.429328
0.989532 0.774578 0.441642
0.306355 0.829358 0.46717
0.371756 0.833967 0.469596
0.443565 0.840955 0.472587
0.523339 0.850401 0.471839
0.625132 0.848554 0.459083
0.73698 0.84683 0.455543
0.835554 0.849149 0.447715
0.926863 0.862654 0.456214
0.999817 0.873701 0.467597
0.364172 0.940475 0.505028
0.427375 0.945342 0.507469
0.495323 0.952117 0.510414
0.574365 0.959121 0.505638
0.66746 0.954314 0.495628
0.768444 0.951415 0.494759
0.860822 0.9523 0.488716
0.942657 0.955581 0.488182
1 0.965057 0.496788
0.0307164 0.0810559 0.38175
0.114382 0.0844434 0.385275
0.222629 0.088838 0.388952
0.35964 0.0871901 0.396445
0.488457 0.0885786 0.409491
0.599084 0.106493 0.414023
0.716411 0.120226 0.421164
0.830549 0.136019 0.430793
0.928115 0.157595 0.443626
0.0513771 0.161395 0.389914
0.134997 0.165438 0.394125
0.242206 0.171328 0.399725
0.368612 0.169207 0.405966
0.494087 0.171038 0.415259
0.604501 0.186496 0.41915
0.72285 0.198627 0.42652
0.83711 0.215213 0.437201
0.934813 0.237034 0.450965
0.085771 0.254902 0.402747
0.167483 0.258473 0.406363
0.268269 0.26453 0.412924
0.380301 0.266682 0.419409
0.501915 0.269871 0.423667
0.61593 0.282719 0.42948
0.736263 0.294926 0.438239
0.850126 0.312749 0.450309
0.947082 0.334493 0.464775
0.118105 0.359945 0.421103
0.201587 0.362692 0.423484
0.300237 0.36762 0.427924
0.407187 0.374609 0.434363
0.520684 0.381079 0.439338
0.639536 0.392569 0.447196
0.755337 0.406958 0.457115
0.862516 0.426139 0.470771
0.956741 0.448615 0.486107
0.155123 0.473289 0.443839
0.238422 0.475883 0.446296
0.334646 0.480919 0.450782
0.439612 0.49012 0.458686
0.549737 0.502815 0.461646
0.667353 0.514626 0.467506
0.777966 0.528298 0.476616
0.882719 0.545296 0.488212
0.972488 0.564279 0.501945
0.207172 0.593591 0.476555
0.287633 0.598138 0.480049
0.38146 0.604425 0.486275
0.474296 0.617105 0.493339
0.569039 0.631159 0.493584
0.694667 0.635386 0.490074
0.801144 0.650568 0.499229
0.900755 0.665187 0.509529
0.984375 0.679713 0.521859
0.274418 0.715099 0.515312
0.349889 0.720211 0.519219
0.431189 0.729793 0.525154
0.513817 0.740993 0.530144
0.60145 0.752682 0.528359
0.719249 0.751247 0.5234
0.823102 0.760052 0.523033
0.916396 0.773983 0.533959
0.994079 0.788266 0.546899
0.336431 0.833066 0.553582
0.406622 0.838895 0.557946
0.480964 0.846494 0.562676
0.556588 0.85594 0.566415
0.640696 0.866041 0.56318
0.747433 0.862669 0.559991
0.845701 0.865034 0.552605
0.933394 0.875059 0.561105
1 0.885985 0.572763
0.394553 0.943236 0.592462
0.459419 0.948287 0.596048
0.528389 0.954879 0.600504
0.600793 0.962463 0.605112
0.681727 0.969802 0.602304
0.777584 0.964614 0.599115
0.868986 0.963928 0.596109
0.947356 0.965331 0.593301
1 0.972549 0.601068
0.0476844 0.111788 0.488731
0.130175 0.115145 0.492424
0.24152 0.120119 0.497276
0.359548 0.120089 0.506172
0.4972 0.119768 0.509514
0.623285 0.12314 0.526223
0.726085 0.141283 0.529732
0.835416 0.160433 0.541054
0.928695 0.182696 0.555032
0.0681926 0.192615 0.497063
0.153262 0.196262 0.500984
0.26006 0.201968 0.507485
0.37055 0.20415 0.512871
0.504799 0.200168 0.51725
0.627817 0.204364 0.531365
0.73344 0.22327 0.536721
0.844175 0.243336 0.549569
0.938613 0.265309 0.564492
0.101381 0.282887 0.508766
0.184909 0.286534 0.512718
0.284489 0.2925 0.519966
0.390738 0.299245 0.525551
0.519066 0.296147 0.530938
0.638834 0.303532 0.542092
0.748623 0.322255 0.550378
0.857481 0.341375 0.563317
0.952239 0.362097 0.578164
0.143252 0.383642 0.524224
0.224552 0.387228 0.527749
0.318135 0.393835 0.534661
0.423362 0.403342 0.543877
0.539269 0.407828 0.552148
0.65478 0.417899 0.557443
0.767178 0.433631 0.568475
0.875563 0.450446 0.581292
0.966964 0.46978 0.595575
0.180331 0.497429 0.54818
0.260792 0.501045 0.551186
0.35465 0.507912 0.556771
0.461097 0.518059 0.565255
0.572686 0.528115 0.573343
0.68217 0.537362 0.580453
0.78967 0.550637 0.590677
0.890852 0.5664 0.602808
0.976562 0.583795 0.616159
0.229068 0.614725 0.576562
0.308614 0.61915 0.580133
0.40061 0.625605 0.585504
0.502052 0.634226 0.592782
0.606653 0.644312 0.602274
0.710231 0.65742 0.604974
0.813565 0.668238 0.611719
0.909331 0.681147 0.622415
0.988037 0.695232 0.634623
0.293523 0.731899 0.611078
0.369955 0.73666 0.615152
0.455741 0.742992 0.620996
0.549294 0.749828 0.628
0.637995 0.761532 0.634958
0.730373 0.772 0.636408
0.835187 0.777279 0.636194
0.92549 0.790402 0.647517
0.997681 0.802808 0.659358
0.357275 0.842924 0.646571
0.430106 0.847318 0.650889
0.511162 0.852674 0.656779
0.593423 0.861128 0.663645
0.67277 0.872786 0.670222
0.757137 0.882033 0.671153
0.855772 0.881849 0.670085
0.939651 0.889143 0.673808
1 0.899092 0.684901
0.418097 0.946487 0.682933
0.488365 0.9505 0.688319
0.56025 0.957473 0.695109
0.634867 0.96524 0.702495
0.708888 0.972412 0.708553
0.787167 0.978302 0.709484
0.875776 0.975509 0.709346
0.951019 0.976272 0.705486
1 0.979522 0.711727
0.0698253 0.141878 0.598764
0.152255 0.145281 0.60267
0.263401 0.150332 0.607645
0.368597 0.155367 0.610956
0.497536 0.149386 0.625864
0.636423 0.148104 0.628397
0.756436 0.159365 0.649805
0.847364 0.185855 0.655833
0.938369 0.209949 0.671611
0.0901808 0.22237 0.606378
0.177172 0.226108 0.610651
0.281254 0.232074 0.617716
0.386618 0.237949 0.622293
0.508232 0.232166 0.636469
0.646067 0.23151 0.6374
0.764675 0.24445 0.657725
0.85742 0.271275 0.665263
0.947402 0.293751 0.680766
0.124697 0.311452 0.617411
0.207904 0.315419 0.622324
0.305241 0.322194 0.630365
0.412924 0.331472 0.638331
0.525948 0.33106 0.646815
0.660883 0.33019 0.651652
0.777356 0.344244 0.670161
0.870909 0.36965 0.678889
0.95935 0.390921 0.694194
0.167025 0.410986 0.632731
0.245792 0.415457 0.637568
0.339071 0.423621 0.646235
0.445594 0.435264 0.657832
0.554376 0.445151 0.664683
0.680674 0.443931 0.671748
0.791058 0.456214 0.685298
0.886213 0.477653 0.695811
0.97142 0.497108 0.710216
0.209659 0.521981 0.65539
0.288945 0.527184 0.659998
0.381415 0.535332 0.667201
0.485206 0.545769 0.676936
0.591623 0.557656 0.687846
0.700435 0.563989 0.696254
0.804959 0.574197 0.703426
0.901091 0.590204 0.715434
0.982422 0.60621 0.728862
0.259419 0.64033 0.685084
0.336416 0.644953 0.688792
0.425849 0.652171 0.69485
0.523903 0.660731 0.701961
0.626871 0.670344 0.710231
0.728847 0.679606 0.718425
0.82475 0.688426 0.726375
0.916823 0.700191 0.737667
0.990753 0.713359 0.75021
0.313848 0.751476 0.713283
0.388922 0.755856 0.716884
0.473243 0.761791 0.721981
0.565606 0.768856 0.728511
0.661906 0.776516 0.73637
0.755718 0.785306 0.745769
0.846265 0.796613 0.75285
0.932998 0.80647 0.761501
1 0.817121 0.771908
0.374578 0.858045 0.743969
0.446738 0.862501 0.74818
0.527047 0.867903 0.75375
0.612222 0.87396 0.760952
0.699794 0.880903 0.769909
0.784451 0.889693 0.779065
0.864195 0.900465 0.785382
0.946059 0.90399 0.787762
1 0.911391 0.797131
0.432212 0.959167 0.777584
0.501534 0.962982 0.783062
0.576791 0.967178 0.790021
0.656855 0.971099 0.798474
0.738796 0.974487 0.80737
0.812894 0.980941 0.814984
0.881666 0.985687 0.820661
0.952285 0.984146 0.820737
1 0.98497 0.821317
0.0986954 0.170703 0.707759
0.189395 0.174609 0.712642
0.292683 0.18056 0.718196
0.397055 0.187259 0.723018
0.509621 0.186145 0.732799
0.64213 0.185809 0.739055
0.776928 0.186557 0.755703
0.879622 0.207202 0.77789
0.954101 0.235508 0.791272
0.126146 0.251652 0.715511
0.211231 0.25594 0.721325
0.310491 0.262745 0.728542
0.417258 0.271717 0.735424
0.524651 0.273014 0.742702
0.654566 0.271794 0.751202
0.786175 0.273808 0.765301
0.888212 0.292561 0.786908
0.963149 0.319371 0.799512
0.159152 0.341756 0.727459
0.239338 0.346456 0.733593
0.336034 0.355154 0.742992
0.443091 0.366461 0.752712
0.547692 0.374273 0.758282
0.671641 0.370687 0.769894
0.797513 0.373938 0.778637
0.899168 0.390143 0.799115
0.974227 0.415885 0.811063
0.197604 0.441077 0.743389
0.276783 0.447471 0.750256
0.369589 0.456703 0.760159
0.474754 0.469383 0.772671
0.58204 0.48098 0.78114
0.690455 0.480674 0.79118
0.809995 0.484855 0.795789
0.910704 0.497398 0.813993
0.981918 0.520714 0.824323
0.245716 0.55079 0.765179
0.322927 0.556924 0.771115
0.41181 0.566003 0.780148
0.510369 0.577249 0.791485
0.614527 0.589349 0.803235
0.714778 0.598779 0.80943
0.822644 0.600259 0.817044
0.921492 0.608377 0.830808
0.988159 0.628305 0.840116
0.291814 0.664851 0.793256
0.367742 0.670207 0.797909
0.453971 0.677516 0.804532
0.548623 0.686 0.812757
0.647608 0.695994 0.822644
0.744518 0.70634 0.833036
0.837705 0.713268 0.841352
0.932464 0.717937 0.851377
0.995773 0.733593 0.86096
0.341619 0.773587 0.820493
0.414832 0.778042 0.824567
0.497261 0.784451 0.830304
0.586343 0.79147 0.837293
0.679469 0.799786 0.845838
0.772396 0.808774 0.855741
0.861479 0.818875 0.866758
0.94226 0.823896 0.875059
1 0.834531 0.88455
0.394125 0.875975 0.847532
0.46566 0.880888 0.852277
0.544015 0.886595 0.858228
0.627497 0.892271 0.864958
0.714351 0.898878 0.873793
0.800763 0.90518 0.882841
0.881926 0.911849 0.89308
0.950759 0.917174 0.90219
1 0.921157 0.909712
0.446815 0.974655 0.880354
0.515785 0.977737 0.885649
0.590127 0.981003 0.891951
0.668864 0.983948 0.899718
0.75021 0.986435 0.908202
0.829038 0.988083 0.916701
0.898863 0.98883 0.924346
0.957839 0.98941 0.930938
1 0.99028 0.932525
