iOSLOG2LUTConverter/Resources/Secondary LUTS/DAHMER.cube
TITLE "Generated by Resolve"
LUT_3D_SIZE 33
0.00534066 0.00503548 0.00236515
0.0214847 0.00515755 0.00224308
0.0376593 0.00527962 0.00216678
0.0566873 0.00543221 0.00204471
0.0785992 0.00567636 0.00190738
0.101183 0.0059205 0.00170901
0.12723 0.0065919 0.00163272
0.154223 0.00732433 0.00149538
0.182544 0.00848402 0.00146487
0.212573 0.00994888 0.00195315
0.243015 0.0118563 0.00265507
0.27393 0.0140841 0.00344854
0.304677 0.0167697 0.00437934
0.335637 0.0198367 0.00546273
0.366186 0.0231785 0.00679026
0.396063 0.0267185 0.00833143
0.426246 0.0304417 0.0100404
0.45687 0.0343481 0.0119478
0.487678 0.038468 0.013962
0.518624 0.0427558 0.0161746
0.549554 0.0470893 0.0184634
0.580728 0.0514992 0.0209812
0.611795 0.0559701 0.0235294
0.642527 0.0601968 0.026154
0.673167 0.064622 0.0288243
0.70338 0.0691386 0.0315862
0.733227 0.0737621 0.0343481
0.763012 0.078706 0.0373236
0.792248 0.0836652 0.0402228
0.820584 0.0889754 0.0431067
0.848249 0.0944991 0.0459297
0.874907 0.100267 0.0487068
0.899733 0.106477 0.0513161
0.00541695 0.019791 0.00326543
0.022797 0.0198215 0.00259403
0.0392309 0.0199435 0.00247196
0.0585946 0.0201724 0.00236515
0.0805829 0.0204166 0.0021973
0.103334 0.020737 0.00198367
0.129396 0.0215 0.00190738
0.156603 0.0223545 0.00177005
0.185077 0.0236515 0.00177005
0.215167 0.0251621 0.00221256
0.24564 0.0270542 0.00291447
0.276402 0.0293736 0.00367742
0.307225 0.0321813 0.004654
0.338094 0.0353094 0.00576791
0.368521 0.0388495 0.00714122
0.39855 0.0425574 0.0087129
0.428809 0.0463874 0.0104372
0.459464 0.0502327 0.0123445
0.490318 0.0543221 0.0143893
0.521141 0.0584878 0.0166018
0.552224 0.0628214 0.0189517
0.583383 0.0671855 0.0214389
0.614435 0.0715801 0.0239872
0.645304 0.0759594 0.0266423
0.676005 0.0803845 0.0293126
0.706249 0.085008 0.0320745
0.736278 0.0895857 0.0348669
0.765896 0.0945296 0.0378271
0.795056 0.0995041 0.0407416
0.823255 0.105226 0.0436713
0.850965 0.111208 0.0465705
0.877302 0.117403 0.0493782
0.902159 0.124041 0.0526131
0.00454719 0.0351873 0.00395209
0.0231632 0.0348821 0.00361639
0.0407263 0.0349889 0.00274662
0.0604257 0.0353094 0.00260929
0.0824445 0.0357366 0.00250248
0.105699 0.0360723 0.00225834
0.131762 0.0369726 0.0021973
0.158892 0.0378729 0.00209049
0.187686 0.0392767 0.00210575
0.217639 0.0409094 0.00247196
0.248157 0.0429847 0.00317388
0.278691 0.0453346 0.00390631
0.309636 0.0482185 0.00492866
0.340581 0.0513924 0.00608835
0.370809 0.0548257 0.00750744
0.400839 0.0584573 0.00906386
0.431128 0.0621653 0.0108186
0.461845 0.0659953 0.012726
0.492851 0.0702983 0.0148623
0.523583 0.0746777 0.0171054
0.554772 0.0792248 0.0195163
0.586069 0.0838483 0.0220798
0.617227 0.0885328 0.0246738
0.64828 0.0931411 0.0273899
0.678965 0.0979324 0.0301213
0.709133 0.102708 0.0328832
0.739269 0.107607 0.0357366
0.768917 0.112825 0.0387579
0.798032 0.11809 0.0417334
0.825986 0.123873 0.0446326
0.853605 0.129809 0.0475013
0.879683 0.136034 0.0505379
0.904311 0.142443 0.0543526
0.00440986 0.0522621 0.00534066
0.023209 0.052369 0.00480659
0.042298 0.0522774 0.00364691
0.0628214 0.0526284 0.00308232
0.0849622 0.0529946 0.00291447
0.108064 0.0535286 0.00280766
0.134371 0.0545968 0.00271611
0.16141 0.0555734 0.00256352
0.190188 0.0570993 0.00259403
0.220295 0.0588998 0.00292973
0.250751 0.0610819 0.00366217
0.28127 0.0636301 0.00444038
0.312245 0.0666056 0.00555428
0.343038 0.0698863 0.00679026
0.373297 0.0734417 0.00827039
0.403342 0.0771801 0.00985733
0.433829 0.0810254 0.0116732
0.46453 0.0850233 0.0136263
0.495293 0.0891737 0.0157778
0.526406 0.0934462 0.0180667
0.557687 0.0979477 0.0204929
0.589044 0.102586 0.0230564
0.620249 0.107118 0.0256809
0.651316 0.111742 0.028397
0.681849 0.116472 0.0310979
0.712123 0.121218 0.0338445
0.742229 0.126238 0.0367132
0.771679 0.131502 0.0397192
0.800656 0.136721 0.0426642
0.828412 0.142565 0.0455482
0.856016 0.148455 0.0484474
0.881697 0.154574 0.0521248
0.90605 0.160845 0.0558328
0.00553903 0.0717632 0.00679026
0.0225834 0.0726635 0.00582895
0.0433204 0.0721141 0.00587472
0.0657816 0.0724956 0.00415045
0.0881666 0.0730297 0.00367742
0.111376 0.0737469 0.00354009
0.137331 0.0748302 0.00355535
0.164446 0.0760052 0.00335698
0.193301 0.0776379 0.00335698
0.223377 0.079408 0.00363165
0.253544 0.0815137 0.00437934
0.284276 0.0838636 0.00520333
0.315267 0.0867781 0.00639353
0.345846 0.0898604 0.00767529
0.376196 0.0932937 0.00918593
0.406134 0.0967575 0.0107424
0.436652 0.100557 0.0125887
0.467201 0.104356 0.0145418
0.498299 0.108507 0.0167239
0.52961 0.112795 0.0190585
0.560952 0.11722 0.0215152
0.592325 0.121706 0.0240635
0.623545 0.126314 0.0267185
0.654414 0.130968 0.0294194
0.685008 0.135668 0.0321508
0.715221 0.140688 0.0348974
0.745251 0.145907 0.0378119
0.774594 0.151354 0.0408637
0.803418 0.156924 0.0438544
0.830976 0.162951 0.0467842
0.858351 0.168994 0.0502937
0.883909 0.175402 0.0540017
0.908263 0.181857 0.0576791
0.00703441 0.0921187 0.00849927
0.0227817 0.0931563 0.00801099
0.0425727 0.0935073 0.00737011
0.0664836 0.0934157 0.00709544
0.091371 0.0938735 0.00468452
0.114809 0.0948348 0.00436408
0.140856 0.0961776 0.00430304
0.167666 0.0975052 0.00427253
0.19675 0.0990768 0.00416571
0.226642 0.100832 0.00434882
0.256855 0.102815 0.00517281
0.287587 0.105104 0.00602731
0.318196 0.107897 0.00729381
0.349004 0.111101 0.00868238
0.379324 0.114397 0.0102541
0.4094 0.117891 0.0118715
0.43978 0.121752 0.0137942
0.470771 0.125826 0.0158389
0.502022 0.130053 0.0180972
0.533379 0.134371 0.0204471
0.564828 0.138949 0.0229648
0.596155 0.143572 0.0255589
0.627375 0.148363 0.0283055
0.658015 0.153017 0.0310674
0.688609 0.157946 0.0338445
0.71873 0.162966 0.0365911
0.748516 0.168078 0.0394751
0.777539 0.173526 0.0424201
0.806226 0.179004 0.0453651
0.833555 0.184955 0.0485237
0.860731 0.190845 0.0522164
0.885985 0.197055 0.0557717
0.910262 0.203403 0.0593118
0.0111086 0.116045 0.0112306
0.0258488 0.11725 0.0110475
0.0419013 0.118334 0.00988785
0.0655222 0.118303 0.00972
0.0929885 0.118288 0.00910964
0.119875 0.119051 0.00578317
0.145617 0.120394 0.0056611
0.172366 0.121553 0.00555428
0.200961 0.123201 0.00569161
0.230701 0.124941 0.00584421
0.260853 0.127047 0.00677501
0.291142 0.129442 0.00776684
0.322103 0.132418 0.00914015
0.352773 0.135622 0.0105135
0.383139 0.138903 0.0121309
0.413184 0.142397 0.0137484
0.4439 0.146059 0.0157015
0.474815 0.14995 0.0177157
0.506065 0.15404 0.0199588
0.537438 0.15816 0.0222171
0.56878 0.162676 0.0247501
0.599939 0.166995 0.0272831
0.630671 0.171633 0.0300298
0.661509 0.176349 0.0328527
0.69192 0.18117 0.0355993
0.721874 0.185992 0.0383001
0.751446 0.191058 0.0411231
0.780194 0.196353 0.0439765
0.808621 0.201923 0.046891
0.835859 0.207706 0.0504158
0.862974 0.213794 0.0540322
0.887999 0.22005 0.0575418
0.912261 0.226398 0.0610666
0.0157931 0.141711 0.0145571
0.030396 0.142809 0.0144045
0.0449531 0.143816 0.0141604
0.0608225 0.144778 0.0123751
0.0912642 0.144671 0.0126497
0.120912 0.14461 0.0115206
0.150362 0.145617 0.00727855
0.177096 0.146914 0.00704967
0.205676 0.148714 0.00729381
0.234943 0.150576 0.00767529
0.264881 0.152941 0.00859083
0.295354 0.155398 0.00970474
0.326146 0.158251 0.0110628
0.356741 0.16144 0.0124514
0.386847 0.164675 0.0140841
0.417136 0.168048 0.0157168
0.447883 0.171603 0.0177005
0.478721 0.175402 0.0197299
0.510018 0.179324 0.021973
0.541314 0.183276 0.0242161
0.572259 0.18761 0.0267338
0.603235 0.191989 0.0293126
0.634089 0.196582 0.0320897
0.66479 0.201236 0.0348974
0.695155 0.205966 0.0376593
0.724971 0.21088 0.0403754
0.754437 0.216068 0.0432593
0.783032 0.221393 0.0461433
0.811383 0.226688 0.049073
0.838422 0.232471 0.0525216
0.865141 0.238239 0.0559396
0.889998 0.244251 0.0593271
0.914107 0.250263 0.0627909
0.0210422 0.169192 0.0189364
0.0355535 0.170291 0.0188907
0.0500801 0.171389 0.0187533
0.0645609 0.172427 0.0184482
0.0832685 0.173907 0.0162814
0.118288 0.173373 0.0167697
0.152178 0.173617 0.0151217
0.183474 0.174899 0.00972
0.211658 0.176699 0.00975052
0.240452 0.178546 0.0101015
0.2701 0.180758 0.011017
0.300252 0.183337 0.0122072
0.330571 0.186175 0.0135958
0.360861 0.189349 0.0150607
0.391043 0.192508 0.0167849
0.421286 0.19585 0.018555
0.451881 0.199283 0.0205081
0.482734 0.202976 0.0225223
0.513893 0.206821 0.0247349
0.544747 0.210651 0.0269322
0.575891 0.214786 0.0294347
0.606806 0.218723 0.0318761
0.637613 0.222995 0.0345312
0.66807 0.227283 0.0371405
0.698222 0.232029 0.0398871
0.727947 0.236835 0.0426337
0.757183 0.241764 0.0454871
0.785809 0.246891 0.0484016
0.813901 0.252171 0.0512245
0.84065 0.257572 0.0544137
0.867018 0.26305 0.0576486
0.891905 0.269062 0.0610971
0.916091 0.275242 0.0646372
0.0269474 0.198688 0.0244755
0.0413977 0.199771 0.024506
0.0558785 0.200992 0.0244907
0.0703593 0.202182 0.0243687
0.0876326 0.203662 0.0239414
0.107515 0.205264 0.0209812
0.150484 0.20444 0.0220951
0.186175 0.204685 0.0192111
0.218372 0.206104 0.0130922
0.24683 0.207813 0.0131991
0.275914 0.209979 0.013901
0.305318 0.21236 0.0149844
0.335454 0.215061 0.0163882
0.365408 0.218082 0.0179141
0.395331 0.221286 0.0196994
0.425513 0.224613 0.0215152
0.455985 0.228 0.0234379
0.486656 0.231434 0.025391
0.517525 0.234913 0.0275425
0.548577 0.238621 0.0297704
0.579568 0.24239 0.0321965
0.610407 0.246311 0.034638
0.640955 0.25034 0.0371862
0.671275 0.254551 0.0397498
0.701259 0.25919 0.0425269
0.730816 0.263661 0.0452583
0.759854 0.268635 0.0481422
0.788418 0.273732 0.0510262
0.81648 0.278981 0.0538338
0.843259 0.284428 0.0567636
0.869871 0.289845 0.0600443
0.894774 0.295903 0.063508
0.918944 0.302052 0.0670634
0.0330053 0.229557 0.0310826
0.0474403 0.230793 0.0312047
0.0618296 0.231891 0.0312047
0.0762646 0.233051 0.0311742
0.093431 0.234592 0.0311131
0.110597 0.236118 0.0296178
0.143465 0.236942 0.0276799
0.186282 0.236072 0.0280003
0.222034 0.236866 0.0233463
0.254002 0.238605 0.0175021
0.282841 0.240665 0.017792
0.311879 0.242802 0.018555
0.341466 0.245441 0.0198672
0.370703 0.248203 0.0214847
0.400229 0.251102 0.0229953
0.430137 0.254215 0.0248112
0.460578 0.257557 0.0267643
0.491234 0.26096 0.0287938
0.522042 0.264408 0.0309911
0.552773 0.267903 0.0332189
0.583474 0.271504 0.0355688
0.613931 0.27509 0.0379034
0.644404 0.279026 0.0404517
0.674525 0.282902 0.0429694
0.704372 0.287221 0.045655
0.733501 0.291524 0.0482795
0.762524 0.296254 0.0510567
0.791012 0.301213 0.0538338
0.819242 0.306355 0.0565652
0.846204 0.311666 0.0594186
0.873182 0.317403 0.0627756
0.898131 0.323369 0.0663005
0.92224 0.329595 0.0699168
0.0394598 0.261555 0.0386511
0.0538491 0.262715 0.0387732
0.0681926 0.263828 0.0387884
0.0825666 0.264973 0.0387427
0.0995804 0.266377 0.0386664
0.116609 0.267918 0.0382391
0.134127 0.269627 0.0345006
0.183749 0.268681 0.0346075
0.224109 0.268376 0.033814
0.259068 0.26949 0.0268254
0.29012 0.271351 0.0224613
0.318791 0.273548 0.0229801
0.347463 0.275853 0.0240024
0.376303 0.278492 0.0254368
0.405615 0.281437 0.0271611
0.435279 0.284413 0.0289158
0.465644 0.287633 0.0303349
0.496147 0.290883 0.0322576
0.526711 0.294148 0.0344854
0.557137 0.297276 0.0366979
0.587457 0.300511 0.0389563
0.617746 0.304006 0.0413062
0.647837 0.307759 0.0438087
0.677714 0.311696 0.0463722
0.707546 0.315831 0.049012
0.736812 0.320043 0.0515908
0.766049 0.324941 0.0543984
0.79472 0.329854 0.0571756
0.822995 0.33521 0.0599069
0.850095 0.340917 0.0631876
0.877165 0.346792 0.0666972
0.901946 0.352789 0.0703136
0.926268 0.359014 0.0740673
0.0455787 0.294255 0.0467994
0.0597848 0.295308 0.0468605
0.073991 0.296345 0.0468299
0.0881971 0.297322 0.0467231
0.105043 0.29868 0.0466316
0.122057 0.300221 0.0464027
0.13901 0.301808 0.043946
0.177371 0.302556 0.0415656
0.224048 0.301335 0.0420691
0.261906 0.301457 0.0396735
0.296056 0.302663 0.0314031
0.326726 0.305104 0.0286412
0.354971 0.30724 0.0292668
0.383337 0.309651 0.0303349
0.412116 0.312078 0.031693
0.441444 0.314626 0.0333257
0.471107 0.31751 0.0352331
0.501198 0.320531 0.0368811
0.531411 0.323583 0.0385138
0.561517 0.32668 0.0404822
0.591821 0.329961 0.0428016
0.622019 0.333501 0.0451972
0.652125 0.33727 0.0476997
0.682109 0.341253 0.0502327
0.711971 0.34551 0.0528572
0.741512 0.349828 0.0554665
0.770626 0.354696 0.0581979
0.799405 0.35993 0.0610666
0.827558 0.365301 0.0643473
0.854673 0.371023 0.0677043
0.881727 0.376822 0.0711833
0.906294 0.382742 0.0747387
0.930632 0.388724 0.0784924
0.0517586 0.327184 0.0552834
0.0657969 0.328069 0.0552224
0.0798962 0.328969 0.0551308
0.0939345 0.329946 0.0549325
0.110552 0.331106 0.0547799
0.127535 0.332586 0.0545357
0.144381 0.333989 0.0527962
0.169009 0.336004 0.0486
0.222889 0.334173 0.0491035
0.264408 0.333471 0.0487831
0.299855 0.333852 0.0446326
0.333135 0.335119 0.0358892
0.362325 0.337804 0.0349584
0.390372 0.340063 0.0357214
0.418616 0.342199 0.0366979
0.447486 0.344625 0.038056
0.476738 0.347295 0.0397192
0.50634 0.350118 0.0416724
0.536309 0.353079 0.0437018
0.566598 0.356313 0.0453803
0.596902 0.359777 0.0472725
0.627192 0.363394 0.0493477
0.657267 0.367208 0.0516976
0.687175 0.37116 0.0542153
0.717189 0.375677 0.0568856
0.74667 0.380316 0.0597391
0.775738 0.385382 0.0628214
0.804318 0.390585 0.0659495
0.832456 0.396155 0.0692912
0.859495 0.40177 0.072694
0.886351 0.407492 0.0762798
0.910719 0.413321 0.0798657
0.934829 0.419394 0.0835126
0.0585031 0.359869 0.0639048
0.0720836 0.360754 0.063798
0.0855879 0.361532 0.0636149
0.0991226 0.362417 0.0634012
0.115541 0.363485 0.0631876
0.132387 0.36466 0.0628367
0.149294 0.366064 0.0615244
0.169482 0.367834 0.0574197
0.221637 0.366827 0.0563821
0.265843 0.365591 0.0566415
0.302876 0.365484 0.055024
0.336614 0.366461 0.0499886
0.368673 0.367498 0.0412909
0.398154 0.370977 0.0417487
0.426062 0.372992 0.0422827
0.454749 0.375311 0.0433661
0.483543 0.377829 0.04477
0.512856 0.380468 0.0465095
0.542412 0.383337 0.0485542
0.572274 0.386358 0.0508583
0.602625 0.38999 0.0528267
0.632959 0.39382 0.054902
0.663066 0.397971 0.0572213
0.693156 0.402319 0.0597238
0.722896 0.40679 0.0623941
0.752102 0.411475 0.0652018
0.780957 0.416693 0.0682078
0.809506 0.421988 0.0713054
0.837354 0.427283 0.0745861
0.86424 0.432746 0.0780499
0.891066 0.43856 0.0816663
0.915145 0.444404 0.0851453
0.939086 0.450507 0.088777
0.0652018 0.392355 0.0724956
0.0782635 0.393057 0.0722972
0.09131 0.393805 0.0720989
0.104341 0.394568 0.0718395
0.120562 0.395422 0.0715496
0.137407 0.396551 0.0712291
0.154208 0.397757 0.0702068
0.17229 0.399115 0.0665599
0.214664 0.399664 0.0636606
0.262348 0.397894 0.0635538
0.302754 0.397284 0.0637217
0.337911 0.397635 0.0616464
0.37113 0.398795 0.0562295
0.403861 0.400153 0.0477913
0.433356 0.403662 0.0483101
0.462104 0.406043 0.0491493
0.490303 0.408209 0.0502022
0.519326 0.410941 0.0517739
0.548348 0.413718 0.0536049
0.578531 0.417212 0.0558328
0.608591 0.42092 0.0583047
0.638743 0.424872 0.0609293
0.668879 0.429267 0.0632334
0.69897 0.433799 0.0657206
0.728557 0.438392 0.0683146
0.7579 0.44329 0.0711376
0.786465 0.448432 0.0740368
0.814786 0.45362 0.0770428
0.842542 0.458946 0.080415
0.8692 0.464561 0.0838636
0.895659 0.470268 0.0873274
0.919417 0.47599 0.0907149
0.943267 0.482048 0.0943618
0.0722057 0.424552 0.0811017
0.0850233 0.425208 0.080827
0.0978866 0.425864 0.0805829
0.110735 0.426612 0.0803082
0.126452 0.427451 0.0800488
0.142855 0.428626 0.0797436
0.159228 0.429877 0.0793469
0.177417 0.431189 0.0762188
0.202701 0.433097 0.0716564
0.258091 0.431281 0.0712902
0.301625 0.430137 0.0715801
0.339162 0.429969 0.0711528
0.373907 0.430442 0.0684215
0.407401 0.431952 0.0622873
0.439719 0.433494 0.054963
0.4701 0.437766 0.0559701
0.498283 0.439872 0.0565652
0.527108 0.442618 0.0578775
0.555871 0.44538 0.0594492
0.585611 0.448859 0.0615396
0.615259 0.452445 0.0638132
0.645319 0.456596 0.0664988
0.675196 0.460945 0.0693675
0.704997 0.465431 0.0721904
0.734615 0.470314 0.0747845
0.763714 0.475227 0.0774701
0.792096 0.480278 0.0803235
0.820356 0.485496 0.0833448
0.847593 0.491005 0.0866102
0.874174 0.49659 0.0899672
0.900267 0.502297 0.09337
0.923751 0.507927 0.0966659
0.947326 0.513664 0.100053
0.0792248 0.456718 0.0899519
0.0918135 0.457298 0.0896773
0.104479 0.458 0.0894331
0.117128 0.458732 0.0891585
0.132464 0.459586 0.0888991
0.148516 0.460777 0.0886091
0.164492 0.462043 0.0882277
0.182803 0.463325 0.0858473
0.202502 0.46508 0.0819257
0.250736 0.465354 0.0796979
0.295857 0.46392 0.0789197
0.337743 0.463127 0.0795911
0.37496 0.463081 0.0787213
0.409674 0.463783 0.0755474
0.443503 0.465309 0.0684062
0.475914 0.467201 0.0623941
0.506462 0.471641 0.0634012
0.535271 0.474434 0.0645609
0.563882 0.477195 0.0658579
0.593194 0.48069 0.0677348
0.622354 0.484352 0.0698558
0.652323 0.488396 0.0723888
0.681895 0.492622 0.0750896
0.711482 0.497246 0.0780194
0.740642 0.502174 0.081117
0.769314 0.507164 0.0842756
0.79765 0.512276 0.087129
0.825635 0.517617 0.0900893
0.85272 0.522942 0.0932326
0.879011 0.528435 0.0964675
0.904524 0.533974 0.099733
0.928115 0.539544 0.103029
0.951431 0.545068 0.106371
0.0864271 0.489418 0.0992294
0.0990463 0.490135 0.0990158
0.111666 0.490806 0.0988022
0.124224 0.491432 0.098558
0.139498 0.492393 0.0983597
0.155337 0.493507 0.098146
0.171206 0.494789 0.0979019
0.189639 0.496162 0.0962234
0.208682 0.497627 0.0928359
0.237537 0.499977 0.0887617
0.291661 0.49836 0.0881361
0.335653 0.497002 0.087602
0.375998 0.496376 0.0878309
0.412558 0.496544 0.0863203
0.44712 0.497551 0.0825208
0.480766 0.499367 0.0753338
0.513008 0.501534 0.0704509
0.54432 0.506767 0.0719615
0.57261 0.509392 0.0729839
0.601678 0.512825 0.0746471
0.630426 0.516258 0.0764477
0.659815 0.520378 0.0788128
0.688869 0.524514 0.0813611
0.717968 0.529122 0.0841535
0.74667 0.533898 0.0871138
0.775189 0.538994 0.0902724
0.803281 0.544228 0.0935378
0.831159 0.549569 0.0969253
0.857755 0.55465 0.100175
0.883467 0.55996 0.103136
0.908858 0.565423 0.106294
0.932128 0.570764 0.109483
0.955489 0.57644 0.11284
0.0936904 0.522332 0.108614
0.106279 0.522988 0.108415
0.118822 0.523613 0.108171
0.131411 0.524254 0.108003
0.146563 0.525139 0.107851
0.162402 0.526268 0.107744
0.178286 0.527611 0.107576
0.196963 0.529046 0.106767
0.216159 0.530526 0.104021
0.23917 0.532448 0.0999313
0.28629 0.532906 0.0973526
0.332204 0.531075 0.0958877
0.375433 0.5299 0.0961166
0.414603 0.529397 0.0957351
0.451026 0.529809 0.093431
0.485527 0.531243 0.0890211
0.518456 0.532876 0.0819867
0.55053 0.536187 0.0787213
0.582086 0.542031 0.080415
0.610788 0.545419 0.0818494
0.6392 0.548791 0.0835279
0.667903 0.552621 0.0857099
0.6963 0.556619 0.0880903
0.725093 0.561181 0.0907454
0.753277 0.565774 0.0935378
0.781506 0.570794 0.0966049
0.809369 0.576089 0.0998093
0.836851 0.581292 0.103059
0.862776 0.586206 0.106172
0.888319 0.591073 0.109331
0.9131 0.596368 0.112673
0.936248 0.601663 0.115984
0.959274 0.607156 0.119402
0.101457 0.555352 0.118135
0.114199 0.556069 0.117998
0.126879 0.556649 0.117769
0.13962 0.557366 0.117662
0.155367 0.558267 0.117556
0.17171 0.559365 0.11751
0.188083 0.560601 0.117388
0.206775 0.562203 0.117311
0.225589 0.563638 0.114672
0.244541 0.565332 0.111162
0.28127 0.567636 0.107042
0.332464 0.565713 0.105608
0.376715 0.564202 0.104387
0.418067 0.563577 0.104875
0.455451 0.563622 0.103975
0.490715 0.564508 0.101244
0.524483 0.566064 0.0962692
0.557305 0.567849 0.089601
0.589426 0.572091 0.0876631
0.621164 0.578531 0.089662
0.649195 0.581643 0.0910964
0.677272 0.585412 0.0930953
0.705135 0.589136 0.0952621
0.73312 0.593408 0.0977951
0.76051 0.597711 0.10045
0.788083 0.602228 0.103304
0.815137 0.607004 0.106279
0.842069 0.611963 0.109331
0.867872 0.617014 0.112398
0.893187 0.622156 0.11545
0.91751 0.627192 0.118639
0.940444 0.632303 0.121904
0.963226 0.637598 0.125277
0.109285 0.58851 0.127733
0.122164 0.589227 0.127626
0.135042 0.589807 0.127459
0.148028 0.590478 0.127382
0.164401 0.591409 0.127337
0.181369 0.592615 0.127367
0.198322 0.593851 0.127352
0.216983 0.595483 0.127398
0.235554 0.596933 0.125322
0.254368 0.598611 0.12221
0.285435 0.60116 0.117937
0.334508 0.600443 0.115557
0.377646 0.598627 0.113161
0.420554 0.59765 0.113436
0.460182 0.597391 0.113359
0.496498 0.597696 0.111727
0.530755 0.598764 0.108324
0.564004 0.600809 0.102937
0.596002 0.602411 0.0969406
0.627359 0.607477 0.0965438
0.658869 0.614099 0.0987869
0.686519 0.61767 0.100603
0.713741 0.621042 0.102541
0.741039 0.624933 0.104906
0.767742 0.628962 0.107393
0.794781 0.633356 0.11014
0.821454 0.63798 0.113024
0.847944 0.642756 0.115938
0.873167 0.647486 0.118761
0.897871 0.652323 0.121736
0.921828 0.657221 0.124849
0.944427 0.662226 0.128038
0.966903 0.667247 0.131289
0.120485 0.622263 0.137835
0.134157 0.62295 0.137774
0.147799 0.62356 0.137682
0.161593 0.624323 0.137621
0.178164 0.625269 0.137713
0.194888 0.626413 0.137743
0.211872 0.627649 0.137774
0.229984 0.629252 0.137819
0.247852 0.630564 0.135912
0.266117 0.632242 0.132769
0.29514 0.634577 0.128923
0.338766 0.635218 0.125719
0.38381 0.63299 0.123247
0.425635 0.631662 0.122026
0.466117 0.631113 0.122499
0.502953 0.631083 0.12166
0.53756 0.631601 0.119295
0.571435 0.633097 0.115312
0.603906 0.635187 0.109194
0.635233 0.636576 0.104021
0.665721 0.642695 0.105959
0.696483 0.649516 0.108431
0.723049 0.652644 0.11017
0.749722 0.656245 0.112261
0.775876 0.659953 0.114504
0.802243 0.664027 0.117098
0.828214 0.668269 0.119799
0.853864 0.672648 0.122576
0.878355 0.677012 0.125368
0.902556 0.681483 0.128252
0.926009 0.686305 0.131273
0.948318 0.691081 0.134295
0.970367 0.695827 0.137407
0.13196 0.655802 0.147951
0.146304 0.656397 0.14789
0.160708 0.657084 0.147829
0.17554 0.657771 0.147799
0.191989 0.658808 0.147906
0.208423 0.659907 0.147921
0.225452 0.661219 0.147921
0.242878 0.662562 0.147906
0.260136 0.663828 0.145754
0.278004 0.665385 0.142687
0.307698 0.667597 0.13904
0.348577 0.668742 0.135363
0.391974 0.66659 0.132845
0.431662 0.66479 0.130297
0.472999 0.664118 0.13106
0.51107 0.663676 0.130663
0.545769 0.663905 0.128969
0.57911 0.664973 0.126116
0.611261 0.666682 0.121675
0.642084 0.668315 0.11635
0.672557 0.670787 0.1131
0.702113 0.676951 0.115282
0.732219 0.683665 0.117876
0.758236 0.686992 0.119738
0.783841 0.690333 0.121767
0.809598 0.694163 0.124239
0.834852 0.697902 0.126726
0.860182 0.702052 0.129458
0.883955 0.705974 0.132143
0.9075 0.710033 0.13492
0.930373 0.714443 0.137789
0.952163 0.718868 0.140703
0.972961 0.723262 0.143633
0.148562 0.688914 0.158328
0.162737 0.689601 0.158297
0.176837 0.690166 0.158206
0.191852 0.690959 0.158251
0.207538 0.691844 0.158267
0.223331 0.692912 0.158297
0.24007 0.69424 0.158282
0.256931 0.695613 0.157992
0.273548 0.696803 0.155444
0.291752 0.698405 0.15256
0.324742 0.700755 0.148806
0.361685 0.7019 0.145281
0.403403 0.69955 0.14255
0.441871 0.697322 0.138994
0.482902 0.696284 0.139788
0.520104 0.695735 0.139757
0.554742 0.695766 0.138628
0.588083 0.696468 0.136355
0.620264 0.697749 0.132692
0.650919 0.699458 0.127733
0.680323 0.700786 0.12369
0.709636 0.704829 0.12282
0.738598 0.710811 0.125093
0.76733 0.716899 0.12752
0.792264 0.719814 0.129351
0.817349 0.723186 0.131624
0.842069 0.72668 0.133959
0.866712 0.730465 0.136584
0.889845 0.734188 0.139101
0.913085 0.737987 0.141817
0.935088 0.741863 0.144488
0.956329 0.74583 0.147234
0.975586 0.749691 0.149905
0.165042 0.721721 0.168551
0.178805 0.722286 0.168429
0.19295 0.722911 0.168399
0.207721 0.723705 0.168414
0.222919 0.724727 0.16846
0.238361 0.725795 0.16846
0.254414 0.726955 0.168414
0.270634 0.728176 0.167178
0.286885 0.72929 0.164736
0.312093 0.731121 0.161685
0.342428 0.73341 0.158267
0.377279 0.734096 0.154772
0.417487 0.731517 0.151629
0.452979 0.729091 0.147738
0.493156 0.727749 0.148348
0.530739 0.726909 0.148455
0.565026 0.726711 0.147692
0.597681 0.727077 0.14583
0.629252 0.728038 0.142855
0.65948 0.729503 0.138781
0.688563 0.731106 0.134173
0.716197 0.731792 0.130785
0.74464 0.737224 0.132143
0.772503 0.742733 0.134249
0.800168 0.748577 0.136736
0.824659 0.751751 0.138888
0.848905 0.75494 0.141115
0.872969 0.758434 0.143648
0.895766 0.761852 0.146181
0.91841 0.765423 0.148806
0.939849 0.768994 0.151369
0.960525 0.772519 0.153903
0.978302 0.775814 0.156298
0.180529 0.753811 0.178698
0.194049 0.75436 0.178576
