iOSLOG2LUTConverter/Resources/Secondary LUTS/DAHMER.cube
TITLE "Generated by Resolve"
LUT_3D_SIZE 5
0.00534066 0.00503548 0.00236515
0.182544 0.00848402 0.00146487
0.426246 0.0304417 0.0100404
0.673167 0.064622 0.0288243
0.899733 0.106477 0.0513161
0.0210422 0.169192 0.0189364
0.211658 0.176699 0.00975052
0.451881 0.199283 0.0205081
0.698222 0.232029 0.0398871
0.916091 0.275242 0.0646372
0.0722057 0.424552 0.0811017
0.202701 0.433097 0.0716564
0.498283 0.439872 0.0565652
0.734615 0.470314 0.0747845
0.947326 0.513664 0.100053
0.148562 0.688914 0.158328
0.273548 0.696803 0.155444
0.554742 0.695766 0.138628
0.792264 0.719814 0.129351
0.975586 0.749691 0.149905
0.282979 0.927962 0.23183
0.423239 0.930739 0.21735
0.644358 0.923522 0.206394
0.842405 0.927138 0.195224
0.998322 0.94934 0.206119
0.00819409 0.0153201 0.110842
0.195972 0.0188449 0.113802
0.440833 0.0383917 0.11664
0.686229 0.0748608 0.138903
0.909133 0.119341 0.171344
0.0417487 0.185534 0.132067
0.229374 0.196796 0.129976
0.465187 0.216587 0.139055
0.706752 0.245991 0.156985
0.92166 0.288197 0.183368
0.0777295 0.434638 0.195819
0.235767 0.445182 0.192096
0.508843 0.451881 0.175051
0.743969 0.482322 0.193622
0.953323 0.524056 0.219669
0.171313 0.695521 0.27541
0.309453 0.706889 0.27718
0.565377 0.70692 0.257313
0.797086 0.725994 0.247303
0.980484 0.755596 0.269047
0.313405 0.934707 0.353719
0.45034 0.941161 0.344305
0.651957 0.933196 0.327749
0.847868 0.934844 0.315312
1 0.953872 0.326085
0.0207675 0.0535134 0.282338
0.214847 0.0569162 0.292027
0.464103 0.0718853 0.304845
0.712337 0.0973526 0.31902
0.925872 0.136019 0.340215
0.0700236 0.228397 0.303304
0.253941 0.237919 0.312551
0.486152 0.250416 0.322042
0.724346 0.272328 0.335073
0.933547 0.317494 0.365133
0.136889 0.454032 0.35169
0.311986 0.4636 0.358282
0.534279 0.481041 0.355077
0.76614 0.510323 0.371817
0.966827 0.547814 0.396857
0.244404 0.708263 0.427665
0.390494 0.722301 0.433738
0.586175 0.733898 0.425666
0.812451 0.745693 0.419272
0.989532 0.774578 0.441642
0.364172 0.940475 0.505028
0.495323 0.952117 0.510414
0.66746 0.954314 0.495628
0.860822 0.9523 0.488716
1 0.965057 0.496788
0.0476844 0.111788 0.488731
0.24152 0.120119 0.497276
0.4972 0.119768 0.509514
0.726085 0.141283 0.529732
0.928695 0.182696 0.555032
0.101381 0.282887 0.508766
0.284489 0.2925 0.519966
0.519066 0.296147 0.530938
0.748623 0.322255 0.550378
0.952239 0.362097 0.578164
0.180331 0.497429 0.54818
0.35465 0.507912 0.556771
0.572686 0.528115 0.573343
0.78967 0.550637 0.590677
0.976562 0.583795 0.616159
0.293523 0.731899 0.611078
0.455741 0.742992 0.620996
0.637995 0.761532 0.634958
0.835187 0.777279 0.636194
0.997681 0.802808 0.659358
0.418097 0.946487 0.682933
0.56025 0.957473 0.695109
0.708888 0.972412 0.708553
0.875776 0.975509 0.709346
1 0.979522 0.711727
0.0986954 0.170703 0.707759
0.292683 0.18056 0.718196
0.509621 0.186145 0.732799
0.776928 0.186557 0.755703
0.954101 0.235508 0.791272
0.159152 0.341756 0.727459
0.336034 0.355154 0.742992
0.547692 0.374273 0.758282
0.797513 0.373938 0.778637
0.974227 0.415885 0.811063
0.245716 0.55079 0.765179
0.41181 0.566003 0.780148
0.614527 0.589349 0.803235
0.822644 0.600259 0.817044
0.988159 0.628305 0.840116
0.341619 0.773587 0.820493
0.497261 0.784451 0.830304
0.679469 0.799786 0.845838
0.861479 0.818875 0.866758
1 0.834531 0.88455
0.446815 0.974655 0.880354
0.590127 0.981003 0.891951
0.75021 0.986435 0.908202
0.898863 0.98883 0.924346
1 0.99028 0.932525
