iOSLOG2LUTConverter/Resources/Secondary LUTS/ETERNA.cube
TITLE "Generated by Resolve"
LUT_3D_SIZE 9
0 0 0
0 0 0
0.000320439 0.000183108 4.57771e-05
0.0797894 0.0365606 0.0283665
0.259602 0.0646067 0.0601663
0.46128 0.0795605 0.080766
0.516716 0.0893721 0.0920882
0.51809 0.0895399 0.0951553
0.522988 0.0900435 0.107744
0 0 0
0 0 0
0.00183108 0.0010071 0.000274662
0.0796521 0.0365148 0.0283207
0.259876 0.064622 0.0601816
0.461921 0.0796521 0.0808881
0.516716 0.0893721 0.0920882
0.51809 0.0895399 0.0951553
0.522988 0.0900435 0.107744
0.0499733 0.079118 0.04654
0.0488289 0.0755016 0.0447242
0.0695201 0.0752575 0.0471809
0.142855 0.0807965 0.0578164
0.254963 0.064271 0.0596933
0.460761 0.0795148 0.0807202
0.516716 0.0893721 0.0920882
0.51809 0.0895399 0.0951553
0.522988 0.0900435 0.107744
0.0648814 0.27509 0.0977035
0.0650187 0.271626 0.0973526
0.0652171 0.266712 0.0968643
0.251011 0.290379 0.113207
0.523644 0.278279 0.124239
0.628214 0.182788 0.116991
0.516716 0.0893721 0.0920882
0.51809 0.0895399 0.0951553
0.522988 0.0900435 0.107744
0.12726 0.621744 0.171191
0.126604 0.61973 0.170535
0.125505 0.616419 0.169451
0.259632 0.630579 0.187152
0.607569 0.648554 0.218341
0.793469 0.659586 0.249134
0.820874 0.584192 0.237583
0.516716 0.0893721 0.0920882
0.522988 0.0900435 0.107744
0.273442 0.897246 0.319951
0.272999 0.896651 0.319509
0.272358 0.895735 0.318837
0.270497 0.893111 0.316915
0.673472 0.887022 0.329732
0.851225 0.885695 0.342748
0.907515 0.884718 0.352789
0.892226 0.840131 0.32929
0.767452 0.396078 0.183749
0.331518 0.966461 0.379919
0.331518 0.966461 0.379919
0.331518 0.966461 0.379919
0.483574 0.967987 0.374929
0.715892 0.963424 0.382025
0.872312 0.965911 0.433875
0.939529 0.97319 0.497169
0.935378 0.963409 0.469642
0.926986 0.941619 0.421012
0.71458 0.963455 0.381872
0.719905 0.963333 0.382498
0.727855 0.963211 0.383673
0.74992 0.962936 0.387411
0.799374 0.962676 0.398901
0.871077 0.96582 0.433066
0.932754 0.972519 0.489799
0.93959 0.973342 0.497612
0.93959 0.973342 0.497612
0.881605 0.966751 0.440772
0.882078 0.966796 0.441123
0.88278 0.966857 0.441657
0.884993 0.967056 0.443336
0.891081 0.967681 0.448356
0.906325 0.96939 0.462089
0.934676 0.972763 0.491997
0.93959 0.973342 0.497612
0.93959 0.973342 0.497612
0 0 0
0 0 0
6.10361e-05 3.0518e-05 1.5259e-05
0.0794995 0.0364691 0.0282902
0.259419 0.0645914 0.0601358
0.46128 0.0795605 0.080766
0.516716 0.0893721 0.0920882
0.51809 0.0895399 0.0951553
0.522988 0.0900435 0.107744
0 0 0
0 0 0
0.000946059 0.000518807 0.000137331
0.0785077 0.0361486 0.0279698
0.259876 0.064622 0.0601816
0.461921 0.0796521 0.0808881
0.516716 0.0893721 0.0920882
0.51809 0.0895399 0.0951553
0.522988 0.0900435 0.107744
0.0483253 0.074342 0.0440681
0.0468452 0.0709544 0.0421454
0.0659342 0.0706645 0.0445869
0.136187 0.0798505 0.0567788
0.255329 0.0643015 0.0597238
0.460761 0.0795148 0.0807202
0.516716 0.0893721 0.0920882
0.51809 0.0895399 0.0951553
0.522988 0.0900435 0.107744
0.0649729 0.272786 0.0974746
0.0651102 0.269169 0.0971084
0.0653086 0.264103 0.0966049
0.249332 0.286992 0.112718
0.521874 0.275349 0.123613
0.625055 0.179995 0.116121
0.516716 0.0893721 0.0920882
0.51809 0.0895399 0.0951553
0.522988 0.0900435 0.107744
0.12694 0.620737 0.170855
0.126268 0.618723 0.170199
0.12517 0.615412 0.169116
0.258457 0.629602 0.186755
0.607217 0.647868 0.218112
0.793317 0.659068 0.248966
0.820615 0.58323 0.237308
0.516716 0.0893721 0.0920882
0.522988 0.0900435 0.107744
0.273365 0.897154 0.319875
0.272999 0.896651 0.319509
0.272282 0.895628 0.318776
0.27042 0.893004 0.316854
0.673381 0.887022 0.329732
0.851194 0.885618 0.342702
0.907454 0.884581 0.352682
0.892164 0.839963 0.329213
0.767071 0.394766 0.183398
0.331518 0.966461 0.379919
0.331518 0.966461 0.379919
0.331518 0.966461 0.379919
0.483101 0.967987 0.374914
0.715724 0.963424 0.38201
0.872312 0.965911 0.433875
0.939529 0.97319 0.497169
0.935378 0.963409 0.469642
0.92697 0.941558 0.420905
0.714488 0.963455 0.381872
0.719829 0.963333 0.382498
0.727779 0.963211 0.383658
0.74992 0.962936 0.387411
0.799313 0.962676 0.398871
0.871015 0.965805 0.433021
0.932754 0.972519 0.489799
0.93959 0.973342 0.497612
0.93959 0.973342 0.497612
0.881605 0.966751 0.440772
0.882078 0.966796 0.441123
0.88278 0.966857 0.441657
0.884993 0.967056 0.443336
0.891081 0.967681 0.448356
0.906325 0.96939 0.462089
0.934676 0.972763 0.491997
0.93959 0.973342 0.497612
0.93959 0.973342 0.497612
0 0 0
0 0 0
0.00549325 0.00350958 0.00202945
0.0932326 0.0427405 0.0464332
0.27808 0.0675517 0.0892653
0.46772 0.0801862 0.0959029
0.516716 0.0893721 0.0920882
0.51809 0.0895399 0.0951553
0.522988 0.0900435 0.107744
0 0 0
0 0 0
0.00704967 0.00453193 0.00270085
0.0932937 0.04271 0.0461585
0.278172 0.0675212 0.0886702
0.467796 0.0802167 0.0950332
0.516716 0.0893721 0.0920882
0.51809 0.0895399 0.0951553
0.522988 0.0900435 0.107744
0.0482643 0.0716411 0.0595712
0.0468299 0.0679789 0.0564736
0.0614939 0.064271 0.0544442
0.127123 0.0686351 0.0670481
0.269947 0.066804 0.0840009
0.463416 0.0797742 0.0896162
0.516716 0.0893721 0.0920882
0.51809 0.0895399 0.0951553
0.522988 0.0900435 0.107744
0.066804 0.271031 0.140642
0.0669108 0.267323 0.139483
0.0671092 0.260975 0.137575
0.249729 0.285679 0.154879
0.516014 0.27985 0.153399
0.638758 0.198001 0.120958
0.516716 0.0893721 0.0920882
0.51809 0.0895399 0.0951553
0.522988 0.0900435 0.107744
0.12665 0.619867 0.170581
0.125978 0.617853 0.169909
0.12488 0.614542 0.168826
0.25655 0.628504 0.186252
0.606607 0.646265 0.217578
0.792828 0.657374 0.248402
0.820264 0.581842 0.236896
0.516716 0.0893721 0.0920882
0.522988 0.0900435 0.107744
0.273075 0.896742 0.319585
0.272648 0.896132 0.319142
0.272007 0.895232 0.318471
0.27013 0.892592 0.316548
0.672786 0.886748 0.329549
0.851164 0.885542 0.342657
0.907439 0.884504 0.352636
0.892119 0.83978 0.329137
0.766461 0.392721 0.182834
0.331518 0.966461 0.379919
0.331518 0.966461 0.379919
0.331518 0.966461 0.379919
0.482246 0.967987 0.374899
0.715557 0.963424 0.381994
0.872267 0.965911 0.433845
0.939498 0.973129 0.497032
0.935363 0.963348 0.46949
0.92697 0.941558 0.420905
0.714336 0.963455 0.381842
0.719661 0.963348 0.382467
0.727626 0.963211 0.383627
0.749767 0.962936 0.387381
0.799237 0.962676 0.398856
0.871015 0.965805 0.433021
0.932754 0.972519 0.489799
0.93959 0.973342 0.497612
0.93959 0.973342 0.497612
0.881605 0.966751 0.440772
0.882017 0.966796 0.441093
0.88278 0.966857 0.441657
0.884993 0.967056 0.443336
0.891081 0.967681 0.448356
0.906325 0.96939 0.462089
0.93463 0.972747 0.491951
0.93959 0.973342 0.497612
0.93959 0.973342 0.497612
0 0 0
0 0 0
0.016968 0.0124819 0.013138
0.110307 0.0507973 0.0832227
0.308827 0.071809 0.158785
0.506035 0.0836347 0.213077
0.547677 0.0925765 0.181964
0.51809 0.0895399 0.0951553
0.522988 0.0900435 0.107744
0 0 0
0 0 0
0.0178836 0.0130617 0.013901
0.111513 0.0510567 0.0836957
0.309697 0.0718242 0.158633
0.506294 0.08365 0.212711
0.547448 0.092546 0.181308
0.51809 0.0895399 0.0951553
0.522988 0.0900435 0.107744
0.0319982 0.0370642 0.0431525
0.0284733 0.0318151 0.0363622
0.0267643 0.0230411 0.026276
0.109148 0.0505531 0.0827497
0.305196 0.0715953 0.1561
0.505577 0.0835889 0.211276
0.547082 0.0925002 0.180194
0.51809 0.0895399 0.0951553
0.522988 0.0900435 0.107744
0.0692912 0.2551 0.249134
0.0693828 0.251347 0.246845
0.0695354 0.244938 0.242969
0.242664 0.263569 0.281041
0.515877 0.247379 0.298878
0.58265 0.132387 0.239216
0.542 0.0918593 0.164569
0.51809 0.0895399 0.0951553
0.522988 0.0900435 0.107744
0.135073 0.621363 0.381842
0.134325 0.619196 0.380255
0.133165 0.615854 0.377874
0.246708 0.624643 0.391562
0.60827 0.642603 0.416876
0.792813 0.659663 0.421973
0.827344 0.59765 0.319203
0.516716 0.0893721 0.0920882
0.522988 0.0900435 0.107744
0.27805 0.897841 0.52604
0.277577 0.8972 0.524605
0.276967 0.896345 0.522469
0.274968 0.893584 0.515938
0.66424 0.88275 0.48835
0.846326 0.880262 0.446052
0.908553 0.887816 0.355047
0.89189 0.839078 0.328817
0.764446 0.386007 0.181018
0.331518 0.966461 0.379919
0.331518 0.966461 0.379919
0.331518 0.966461 0.379919
0.474662 0.967987 0.374746
0.714092 0.963455 0.381811
0.87216 0.965896 0.433783
0.939483 0.973083 0.49688
0.935332 0.963302 0.469352
0.926925 0.941436 0.420691
0.713924 0.963455 0.381796
0.719249 0.963348 0.382422
0.72723 0.963211 0.383566
0.749462 0.962936 0.38732
0.799039 0.962676 0.398795
0.87097 0.965805 0.43299
0.932708 0.972519 0.489754
0.93959 0.973342 0.497612
0.93959 0.973342 0.497612
0.881544 0.966751 0.440742
0.882017 0.966796 0.441093
0.882734 0.966857 0.441627
0.884947 0.967056 0.44329
0.891035 0.967681 0.448325
0.906279 0.96939 0.462043
0.93463 0.972747 0.491951
0.93959 0.973342 0.497612
0.93959 0.973342 0.497612
0.0157626 0.0144503 0.0212711
0.0157473 0.014435 0.0212406
0.0155032 0.0141756 0.0207065
0.119402 0.0581674 0.146059
0.338262 0.0750439 0.296773
0.546609 0.0868238 0.417166
0.606897 0.0996262 0.451301
0.582513 0.0964523 0.325841
0.522988 0.0900435 0.107744
0.0157321 0.0144198 0.0212253
0.0157321 0.0144045 0.0211948
0.0154879 0.0141756 0.0206912
0.122789 0.0588388 0.149218
0.340108 0.0751049 0.297704
0.54696 0.0868544 0.417197
0.606867 0.0996262 0.451118
0.582391 0.096437 0.325307
0.522988 0.0900435 0.107744
0.0156558 0.0143435 0.0210422
0.0156405 0.0143282 0.0210117
0.0154116 0.0140993 0.0205234
0.12015 0.0583047 0.146441
0.338567 0.0750591 0.296254
0.547448 0.0869459 0.417212
0.606775 0.0996109 0.450645
0.582223 0.0964218 0.324483
0.522988 0.0900435 0.107744
0.0699321 0.184497 0.354681
0.0698711 0.181109 0.349233
0.069749 0.174655 0.338872
0.1906 0.175952 0.388769
0.416312 0.135271 0.40621
0.53576 0.0855116 0.405753
0.606332 0.0995499 0.447959
0.581674 0.0963607 0.321874
0.522988 0.0900435 0.107744
0.133043 0.592844 0.618189
0.132342 0.590524 0.616999
0.131212 0.58674 0.615
0.187228 0.585153 0.619806
0.590204 0.609049 0.661479
0.789853 0.616892 0.69836
0.821378 0.530343 0.682567
0.572641 0.0953994 0.279591
0.522988 0.0900435 0.107744
0.278416 0.890089 0.798352
0.278004 0.889509 0.79762
0.277378 0.888624 0.796536
0.275502 0.885969 0.79324
0.636179 0.871427 0.773037
0.832776 0.864118 0.757488
0.900908 0.868421 0.731579
0.892424 0.838636 0.522026
0.757992 0.364523 0.175402
0.33164 0.971435 0.8392
0.331624 0.971435 0.838956
0.331609 0.97142 0.83856
0.331563 0.971389 0.83743
0.69015 0.959228 0.791913
0.862348 0.957321 0.775143
0.934356 0.960678 0.759503
0.936034 0.964965 0.474037
0.926833 0.941207 0.420279
0.707347 0.963592 0.381018
0.712932 0.963485 0.381689
0.721386 0.963302 0.382681
0.744564 0.962982 0.386374
0.795911 0.962676 0.39794
0.869978 0.965728 0.432334
0.932677 0.972519 0.489708
0.93959 0.973342 0.497612
0.93959 0.973342 0.497612
0.881407 0.966735 0.440635
0.88188 0.966781 0.440986
0.882597 0.966842 0.44152
0.88481 0.967041 0.443183
0.890944 0.967666 0.448249
0.906233 0.96939 0.462013
0.9346 0.972747 0.491905
0.93959 0.973342 0.497612
0.93959 0.973342 0.497612
0.0297398 0.0291142 0.0614176
0.0297398 0.0291142 0.0614176
0.0297398 0.0291142 0.061387
0.0961318 0.0577096 0.174014
0.344533 0.0772259 0.424918
0.579202 0.0928817 0.594965
0.650752 0.110658 0.661006
0.646738 0.109255 0.644831
0.623163 0.102586 0.53817
0.0297398 0.0291142 0.0614176
0.0297398 0.0291142 0.061387
0.0297398 0.0291142 0.061387
0.10016 0.0587778 0.180117
0.346685 0.0772564 0.426383
0.579736 0.0930037 0.595407
0.650752 0.110658 0.661006
0.646738 0.109255 0.644831
0.623133 0.102586 0.537987
0.0297398 0.0291142 0.061387
0.0297398 0.0291142 0.061387
0.0297398 0.029099 0.0613565
0.106523 0.0602731 0.189456
0.350011 0.0773175 0.428595
0.580423 0.0930648 0.59585
0.650736 0.110658 0.660929
0.646708 0.109239 0.644663
0.623087 0.102586 0.537713
0.029633 0.0289921 0.0610208
0.029633 0.0289921 0.0609903
0.029633 0.0289921 0.0609903
0.0879072 0.0553902 0.160998
0.334279 0.0770123 0.416861
0.574746 0.0921492 0.590555
0.65069 0.110643 0.6607
0.646647 0.109239 0.644434
0.622934 0.102556 0.536812
0.116365 0.509087 0.751263
0.115541 0.506157 0.750057
0.114305 0.50164 0.748333
0.11043 0.487404 0.742626
0.544854 0.516655 0.793805
0.769512 0.506722 0.832837
0.770413 0.313069 0.797726
0.645975 0.108995 0.641749
0.622354 0.102403 0.534005
0.273976 0.874342 0.928222
0.273487 0.87364 0.927687
0.272816 0.872648 0.92694
0.270695 0.869566 0.924605
0.588861 0.85713 0.915557
0.821546 0.845548 0.91046
0.896971 0.845365 0.921462
0.885405 0.79443 0.900755
0.61857 0.101701 0.512963
0.341924 0.978424 0.999878
0.341924 0.978424 0.999878
0.341924 0.978408 0.999847
0.341909 0.978408 0.999695
0.653834 0.963119 0.966583
0.850172 0.947906 0.942535
0.926726 0.950317 0.944732
0.930495 0.943481 0.92108
0.918624 0.920775 0.819379
0.658549 0.962066 0.941878
0.665888 0.96173 0.940948
0.67689 0.961212 0.939529
0.706783 0.95996 0.935821
0.770916 0.958587 0.928832
0.861021 0.961563 0.924056
0.930068 0.972381 0.93167
0.948669 0.975891 0.918303
0.940185 0.97171 0.688441
0.874708 0.962905 0.656138
0.875181 0.962951 0.655879
0.875959 0.963058 0.655467
0.878325 0.963348 0.654215
0.884993 0.964172 0.650126
0.901045 0.966354 0.635721
0.931746 0.971771 0.544228
0.93959 0.973342 0.497612
0.93959 0.973342 0.497612
0.0364843 0.0365606 0.0892195
0.0364843 0.0365606 0.0892195
0.0364843 0.0365606 0.0892195
0.0364843 0.0365606 0.0892195
0.29662 0.078233 0.456794
0.590066 0.0982223 0.679072
0.672862 0.120409 0.741421
0.672724 0.120302 0.741253
0.671916 0.119707 0.740261
0.0364843 0.0365606 0.0892195
0.0364843 0.0365606 0.0892195
0.0364843 0.0365606 0.0892195
0.0364843 0.0365606 0.0892195
0.299397 0.078294 0.459129
0.590555 0.0982834 0.679393
0.672862 0.120409 0.741421
0.672724 0.120302 0.741253
0.671916 0.119707 0.740261
0.0364843 0.0365606 0.0892195
0.0364843 0.0365606 0.0892195
0.0364843 0.0365606 0.0892195
0.0364843 0.0365606 0.0892195
0.303807 0.0783856 0.462837
0.591379 0.0984512 0.680003
0.672862 0.120409 0.741421
0.672724 0.120302 0.741253
0.671916 0.119707 0.740261
0.0364843 0.0365606 0.0892195
0.0364843 0.0365606 0.0892195
0.0364843 0.0365606 0.0892195
0.0364843 0.0365606 0.0892195
0.316854 0.078645 0.473762
0.593988 0.0988937 0.681849
0.672862 0.120409 0.741421
0.672724 0.120302 0.741253
0.671916 0.119707 0.740261
0.0722515 0.205005 0.605035
0.072221 0.202991 0.601221
0.0721447 0.196963 0.589746
0.0716259 0.174762 0.541604
0.33048 0.138766 0.618647
0.564446 0.093904 0.660395
0.672724 0.120302 0.741253
0.672724 0.120302 0.741253
0.671916 0.119707 0.740261
0.248615 0.828916 0.958465
0.248096 0.828061 0.957977
0.247166 0.826566 0.957122
0.244495 0.822278 0.954665
0.4795 0.81854 0.962951
0.806027 0.808194 0.971191
0.891356 0.803571 0.989364
0.873121 0.706737 0.966155
0.671778 0.1196 0.740093
0.345769 0.980423 1
0.345769 0.980423 1
0.345769 0.980423 1
0.345769 0.980423 1
0.556649 0.970687 1
0.832868 0.940078 0.999496
0.920806 0.941314 1
0.927993 0.931746 0.998749
0.915724 0.902815 0.989761
0.571649 0.969757 1
0.583124 0.969055 1
0.600214 0.968032 1
0.645914 0.965469 1
0.738994 0.961929 1
0.854566 0.964279 1
0.934173 0.977157 0.999985
0.959823 0.983856 1
0.958938 0.9832 0.999817
0.871031 0.96527 0.991882
0.871626 0.965347 0.991852
0.872572 0.965469 0.991867
0.875486 0.96585 0.991852
0.883787 0.966918 0.991897
0.902968 0.970062 0.992859
0.935225 0.976699 0.995605
0.957961 0.982467 0.999191
0.956527 0.981414 0.9897
0.0364843 0.0365606 0.0892195
0.0364843 0.0365606 0.0892195
0.0364843 0.0365606 0.0892195
0.0364843 0.0365606 0.0892195
0.0674601 0.0518654 0.153689
0.543725 0.0916609 0.646265
0.67422 0.121416 0.743099
0.67422 0.121416 0.743099
0.67422 0.121416 0.743099
0.0364843 0.0365606 0.0892195
0.0364843 0.0365606 0.0892195
0.0364843 0.0365606 0.0892195
0.0364843 0.0365606 0.0892195
0.0726024 0.0537118 0.163531
0.544549 0.0918135 0.646922
0.67422 0.121416 0.743099
0.67422 0.121416 0.743099
0.67422 0.121416 0.743099
0.0364843 0.0365606 0.0892195
0.0364843 0.0365606 0.0892195
0.0364843 0.0365606 0.0892195
0.0364843 0.0365606 0.0892195
0.0799115 0.0561837 0.177356
0.545769 0.0919966 0.647837
0.67422 0.121416 0.743099
0.67422 0.121416 0.743099
0.67422 0.121416 0.743099
0.0364843 0.0365606 0.0892195
0.0364843 0.0365606 0.0892195
0.0364843 0.0365606 0.0892195
0.0364843 0.0365606 0.0892195
0.100374 0.0617838 0.214664
0.549325 0.0925154 0.650538
0.67422 0.121416 0.743099
0.67422 0.121416 0.743099
0.67422 0.121416 0.743099
0.0364843 0.0365606 0.0892195
0.0364843 0.0365606 0.0892195
0.0364843 0.0365606 0.0892195
0.0364843 0.0365606 0.0892195
0.157626 0.0712596 0.306722
0.559625 0.0940261 0.658045
0.67422 0.121416 0.743099
0.67422 0.121416 0.743099
0.67422 0.121416 0.743099
0.156313 0.622751 0.867369
0.156115 0.622171 0.86717
0.155337 0.61973 0.8663
0.15172 0.608499 0.862364
0.141741 0.576745 0.851316
0.742184 0.60322 0.916167
0.838712 0.541665 0.925185
0.67422 0.121416 0.743099
0.67422 0.121416 0.743099
0.345769 0.980423 1
0.345769 0.980423 1
0.345769 0.980423 1
0.345602 0.980133 1
0.344076 0.977646 1
0.782712 0.92224 1
0.905241 0.919432 0.999985
0.917937 0.907164 1
0.904784 0.866026 0.999985
0.345769 0.980423 1
0.345769 0.980423 1
0.345769 0.980423 1
0.345769 0.980423 1
0.62501 0.966583 1
0.822248 0.962646 1
0.929061 0.976593 1
0.961913 0.985397 1
0.961913 0.985397 1
0.850111 0.964233 1
0.85098 0.964309 1
0.852369 0.964416 1
0.856626 0.964782 1
0.868193 0.965988 1
0.893278 0.969482 1
0.932067 0.977325 1
0.961913 0.985397 1
0.961913 0.985397 1
0.0364843 0.0365606 0.0892195
0.0364843 0.0365606 0.0892195
0.0364843 0.0365606 0.0892195
0.0364843 0.0365606 0.0892195
0.0364843 0.0365606 0.0892195
0.298436 0.0782635 0.45832
0.67245 0.120104 0.740932
0.67422 0.121416 0.743099
0.67422 0.121416 0.743099
0.0364843 0.0365606 0.0892195
0.0364843 0.0365606 0.0892195
0.0364843 0.0365606 0.0892195
0.0364843 0.0365606 0.0892195
0.0364843 0.0365606 0.0892195
0.300832 0.0783246 0.460334
0.67245 0.120104 0.740932
0.67422 0.121416 0.743099
0.67422 0.121416 0.743099
0.0364843 0.0365606 0.0892195
0.0364843 0.0365606 0.0892195
0.0364843 0.0365606 0.0892195
0.0364843 0.0365606 0.0892195
0.0364843 0.0365606 0.0892195
0.304585 0.0784009 0.463478
0.67245 0.120104 0.740932
0.67422 0.121416 0.743099
0.67422 0.121416 0.743099
0.0364843 0.0365606 0.0892195
0.0364843 0.0365606 0.0892195
0.0364843 0.0365606 0.0892195
0.0364843 0.0365606 0.0892195
0.0364843 0.0365606 0.0892195
0.315801 0.0786297 0.472877
0.672587 0.120211 0.7411
0.67422 0.121416 0.743099
0.67422 0.121416 0.743099
0.0364843 0.0365606 0.0892195
0.0364843 0.0365606 0.0892195
0.0364843 0.0365606 0.0892195
0.0364843 0.0365606 0.0892195
0.0364843 0.0365606 0.0892195
0.348302 0.0792096 0.498802
0.672999 0.120516 0.741588
0.67422 0.121416 0.743099
0.67422 0.121416 0.743099
0.0364843 0.0365606 0.0892195
0.0364843 0.0365606 0.0892195
0.0364843 0.0365606 0.0892195
0.0364843 0.0365606 0.0892195
0.0364843 0.0365606 0.0892195
0.425513 0.0812695 0.556954
0.674083 0.121324 0.742931
0.67422 0.121416 0.743099
0.67422 0.121416 0.743099
0.295552 0.901061 1
0.295491 0.900969 1
0.29543 0.900893 1
0.293584 0.898146 0.999054
0.287617 0.889235 0.99382
0.593637 0.862837 0.986999
0.877211 0.849775 0.996475
0.894057 0.818112 0.992676
0.852064 0.60264 0.940627
0.345769 0.980423 1
0.345769 0.980423 1
0.345769 0.980423 1
0.345769 0.980423 1
0.345769 0.980423 1
0.706157 0.962844 1
0.915648 0.973663 1
0.961913 0.985397 1
0.953918 0.974701 1
0.786938 0.961791 1
0.788602 0.961807 1
0.791257 0.961837 1
0.799008 0.961959 1
0.819913 0.962539 1
0.864286 0.965545 1
0.920119 0.974563 1
0.961913 0.985397 1
0.961913 0.985397 1
