iOSLOG2LUTConverter/Resources/Secondary LUTS/ETERNA.cube
TITLE "Generated by Resolve"
LUT_3D_SIZE 5
0 0 0
0.000320439 0.000183108 4.57771e-05
0.259602 0.0646067 0.0601663
0.516716 0.0893721 0.0920882
0.522988 0.0900435 0.107744
0.0499733 0.079118 0.04654
0.0695201 0.0752575 0.0471809
0.254963 0.064271 0.0596933
0.516716 0.0893721 0.0920882
0.522988 0.0900435 0.107744
0.12726 0.621744 0.171191
0.125505 0.616419 0.169451
0.607569 0.648554 0.218341
0.820874 0.584192 0.237583
0.522988 0.0900435 0.107744
0.331518 0.966461 0.379919
0.331518 0.966461 0.379919
0.715892 0.963424 0.382025
0.939529 0.97319 0.497169
0.926986 0.941619 0.421012
0.881605 0.966751 0.440772
0.88278 0.966857 0.441657
0.891081 0.967681 0.448356
0.934676 0.972763 0.491997
0.93959 0.973342 0.497612
0 0 0
0.00549325 0.00350958 0.00202945
0.27808 0.0675517 0.0892653
0.516716 0.0893721 0.0920882
0.522988 0.0900435 0.107744
0.0482643 0.0716411 0.0595712
0.0614939 0.064271 0.0544442
0.269947 0.066804 0.0840009
0.516716 0.0893721 0.0920882
0.522988 0.0900435 0.107744
0.12665 0.619867 0.170581
0.12488 0.614542 0.168826
0.606607 0.646265 0.217578
0.820264 0.581842 0.236896
0.522988 0.0900435 0.107744
0.331518 0.966461 0.379919
0.331518 0.966461 0.379919
0.715557 0.963424 0.381994
0.939498 0.973129 0.497032
0.92697 0.941558 0.420905
0.881605 0.966751 0.440772
0.88278 0.966857 0.441657
0.891081 0.967681 0.448356
0.93463 0.972747 0.491951
0.93959 0.973342 0.497612
0.0157626 0.0144503 0.0212711
0.0155032 0.0141756 0.0207065
0.338262 0.0750439 0.296773
0.606897 0.0996262 0.451301
0.522988 0.0900435 0.107744
0.0156558 0.0143435 0.0210422
0.0154116 0.0140993 0.0205234
0.338567 0.0750591 0.296254
0.606775 0.0996109 0.450645
0.522988 0.0900435 0.107744
0.133043 0.592844 0.618189
0.131212 0.58674 0.615
0.590204 0.609049 0.661479
0.821378 0.530343 0.682567
0.522988 0.0900435 0.107744
0.33164 0.971435 0.8392
0.331609 0.97142 0.83856
0.69015 0.959228 0.791913
0.934356 0.960678 0.759503
0.926833 0.941207 0.420279
0.881407 0.966735 0.440635
0.882597 0.966842 0.44152
0.890944 0.967666 0.448249
0.9346 0.972747 0.491905
0.93959 0.973342 0.497612
0.0364843 0.0365606 0.0892195
0.0364843 0.0365606 0.0892195
0.29662 0.078233 0.456794
0.672862 0.120409 0.741421
0.671916 0.119707 0.740261
0.0364843 0.0365606 0.0892195
0.0364843 0.0365606 0.0892195
0.303807 0.0783856 0.462837
0.672862 0.120409 0.741421
0.671916 0.119707 0.740261
0.0722515 0.205005 0.605035
0.0721447 0.196963 0.589746
0.33048 0.138766 0.618647
0.672724 0.120302 0.741253
0.671916 0.119707 0.740261
0.345769 0.980423 1
0.345769 0.980423 1
0.556649 0.970687 1
0.920806 0.941314 1
0.915724 0.902815 0.989761
0.871031 0.96527 0.991882
0.872572 0.965469 0.991867
0.883787 0.966918 0.991897
0.935225 0.976699 0.995605
0.956527 0.981414 0.9897
0.0364843 0.0365606 0.0892195
0.0364843 0.0365606 0.0892195
0.0364843 0.0365606 0.0892195
0.67245 0.120104 0.740932
0.67422 0.121416 0.743099
0.0364843 0.0365606 0.0892195
0.0364843 0.0365606 0.0892195
0.0364843 0.0365606 0.0892195
0.67245 0.120104 0.740932
0.67422 0.121416 0.743099
0.0364843 0.0365606 0.0892195
0.0364843 0.0365606 0.0892195
0.0364843 0.0365606 0.0892195
0.672999 0.120516 0.741588
0.67422 0.121416 0.743099
0.295552 0.901061 1
0.29543 0.900893 1
0.287617 0.889235 0.99382
0.877211 0.849775 0.996475
0.852064 0.60264 0.940627
0.786938 0.961791 1
0.791257 0.961837 1
0.819913 0.962539 1
0.920119 0.974563 1
0.961913 0.985397 1
