iOSLOG2LUTConverter/Resources/Secondary LUTS/ETERNA.cube
TITLE "Generated by Resolve"
LUT_3D_SIZE 33
0 0 0
0 0 0
0 0 0
0 0 0
0 0 0
0 0 0
0 0 0
0 0 0
0.000320439 0.000183108 4.57771e-05
0.0099794 0.00590524 0.00294499
0.0285649 0.0162203 0.0103456
0.0513161 0.0264744 0.0189822
0.0797894 0.0365606 0.0283665
0.115084 0.0460059 0.0379797
0.156573 0.0539864 0.0467231
0.205814 0.0601816 0.0542306
0.259602 0.0646067 0.0601663
0.314092 0.0681468 0.0652476
0.36466 0.0712139 0.0697642
0.410513 0.0740978 0.0739452
0.46128 0.0795605 0.080766
0.503059 0.0848096 0.087129
0.512245 0.0878614 0.0904402
0.516716 0.0893721 0.0920882
0.516716 0.0893721 0.0920882
0.516716 0.0893721 0.0920882
0.516716 0.0893721 0.0920882
0.516838 0.0893873 0.0923171
0.51809 0.0895399 0.0951553
0.519341 0.0897078 0.098024
0.520623 0.0898604 0.101152
0.521737 0.0899367 0.104326
0.522988 0.0900435 0.107744
0 0 0
0 0 0
0 0 0
0 0 0
0 0 0
0 0 0
0 0 0
0 0 0
0.000457771 0.000244144 7.62951e-05
0.0103456 0.00611887 0.00306706
0.0289006 0.0163729 0.0104829
0.0516518 0.0266117 0.0191043
0.0801709 0.0366827 0.0284886
0.115419 0.0460822 0.038056
0.156924 0.0540322 0.0467842
0.206134 0.0602121 0.0542763
0.259876 0.064622 0.0601816
0.314382 0.0681773 0.0652781
0.364965 0.0712291 0.0697948
0.410712 0.0741131 0.0739757
0.461387 0.0795605 0.0807813
0.503059 0.0848096 0.087129
0.512245 0.0878614 0.0904402
0.516716 0.0893721 0.0920882
0.516716 0.0893721 0.0920882
0.516716 0.0893721 0.0920882
0.516716 0.0893721 0.0920882
0.516838 0.0893873 0.0923171
0.51809 0.0895399 0.0951553
0.519341 0.0897078 0.098024
0.520623 0.0898604 0.101152
0.521737 0.0899367 0.104326
0.522988 0.0900435 0.107744
0 0 0
0 0 0
0 0 0
0 0 0
0 0 0
0 0 0
0 0 0
0 0 0
0.000900282 0.000488289 0.000137331
0.0103761 0.00613413 0.00308232
0.0289769 0.0164187 0.0105135
0.0517739 0.0266575 0.0191501
0.0802625 0.0367132 0.0285191
0.115541 0.0461128 0.0380865
0.157076 0.0540475 0.0468147
0.206287 0.0602274 0.0542916
0.26006 0.0646372 0.0601968
0.314488 0.0681773 0.0652781
0.365057 0.0712444 0.0697948
0.410803 0.0741283 0.0739757
0.461494 0.0795758 0.0807965
0.503059 0.0848096 0.087129
0.512245 0.0878614 0.0904402
0.516716 0.0893721 0.0920882
0.516716 0.0893721 0.0920882
0.516716 0.0893721 0.0920882
0.516716 0.0893721 0.0920882
0.516838 0.0893873 0.0923171
0.51809 0.0895399 0.0951553
0.519341 0.0897078 0.098024
0.520623 0.0898604 0.101152
0.521737 0.0899367 0.104326
0.522988 0.0900435 0.107744
0 0 0
0 0 0
0 0 0
0 0 0
0 0 0
0 0 0
0 0 0
0 0 0
0.00144961 0.000793469 0.000213626
0.0133669 0.00788891 0.00425727
0.0296941 0.0167697 0.0107881
0.0515602 0.0265812 0.0190738
0.0800793 0.0366522 0.0284581
0.115419 0.0460822 0.038056
0.156924 0.0540322 0.0467842
0.20621 0.0602274 0.0542763
0.26006 0.0646372 0.0601968
0.31458 0.0681773 0.0652934
0.365148 0.0712444 0.06981
0.41091 0.0741283 0.073991
0.461601 0.0795758 0.0807965
0.503059 0.0848096 0.087129
0.512245 0.0878614 0.0904402
0.516716 0.0893721 0.0920882
0.516716 0.0893721 0.0920882
0.516716 0.0893721 0.0920882
0.516716 0.0893721 0.0920882
0.516838 0.0893873 0.0923171
0.51809 0.0895399 0.0951553
0.519341 0.0897078 0.098024
0.520623 0.0898604 0.101152
0.521737 0.0899367 0.104326
0.522988 0.0900435 0.107744
0 0 0
0 0 0
0 0 0
0 0 0
0 0 0
0 0 0
0 0 0
0 0 0
0.00183108 0.0010071 0.000274662
0.0131533 0.00776684 0.00418097
0.0320134 0.0178988 0.0117189
0.0541848 0.0276188 0.0200046
0.0796521 0.0365148 0.0283207
0.114961 0.0459754 0.0379492
0.156512 0.0539712 0.0467231
0.20589 0.0601968 0.0542458
0.259876 0.064622 0.0601816
0.314488 0.0681773 0.0652781
0.365148 0.0712444 0.06981
0.411002 0.0741283 0.073991
0.461921 0.0796521 0.0808881
0.503059 0.0848096 0.087129
0.512245 0.0878614 0.0904402
0.516716 0.0893721 0.0920882
0.516716 0.0893721 0.0920882
0.516716 0.0893721 0.0920882
0.516716 0.0893721 0.0920882
0.516838 0.0893873 0.0923171
0.51809 0.0895399 0.0951553
0.519341 0.0897078 0.098024
0.520623 0.0898604 0.101152
0.521737 0.0899367 0.104326
0.522988 0.0900435 0.107744
0.00642405 0.00643931 0.00328069
0.00561532 0.00563058 0.00288396
0.00494392 0.00495918 0.002533
0.00357061 0.00357061 0.00183108
0.000854505 0.000854505 0.000427253
4.57771e-05 4.57771e-05 1.5259e-05
0.00109865 0.000823987 0.000320439
0.00643931 0.00489815 0.00247196
0.00877394 0.00624094 0.00354009
0.0135042 0.00796521 0.0043183
0.0308537 0.0173342 0.0112612
0.0542306 0.0276341 0.0200198
0.0828107 0.0374914 0.0292821
0.114275 0.0458228 0.0377813
0.155886 0.0538796 0.0466163
0.205325 0.0601358 0.0541695
0.259419 0.0645914 0.0601358
0.314199 0.0681621 0.0652476
0.365057 0.0712444 0.0697948
0.411002 0.0741283 0.073991
0.462028 0.0796674 0.0809033
0.503273 0.0848859 0.0872053
0.512459 0.0879377 0.0905318
0.516716 0.0893721 0.0920882
0.516716 0.0893721 0.0920882
0.516716 0.0893721 0.0920882
0.516716 0.0893721 0.0920882
0.516838 0.0893873 0.0923171
0.51809 0.0895399 0.0951553
0.519341 0.0897078 0.098024
0.520623 0.0898604 0.101152
0.521737 0.0899367 0.104326
0.522988 0.0900435 0.107744
0.0220188 0.0254368 0.0147097
0.0213016 0.024506 0.0141146
0.0204166 0.023331 0.0133669
0.0191806 0.0216831 0.0123293
0.0167391 0.0184787 0.0102998
0.0144961 0.0155184 0.00842298
0.0166171 0.0161746 0.00898756
0.0238041 0.0212558 0.0126955
0.0313573 0.0254826 0.0159152
0.0393225 0.0283818 0.0185092
0.0468147 0.0292515 0.0200046
0.0513924 0.0265049 0.0190127
0.0809796 0.0369421 0.0287327
0.117327 0.0465095 0.0385138
0.154833 0.0536965 0.0464027
0.204364 0.0600443 0.0540475
0.25861 0.0645457 0.0600595
0.313512 0.0681163 0.0651865
0.36466 0.0712139 0.0697642
0.410803 0.0741283 0.0739757
0.461921 0.0796521 0.0808881
0.503273 0.0848859 0.0872053
0.512459 0.0879377 0.0905318
0.516716 0.0893721 0.0920882
0.516716 0.0893721 0.0920882
0.516716 0.0893721 0.0920882
0.516716 0.0893721 0.0920882
0.516838 0.0893873 0.0923171
0.51809 0.0895399 0.0951553
0.519341 0.0897078 0.098024
0.520623 0.0898604 0.101152
0.521737 0.0899367 0.104326
0.522988 0.0900435 0.107744
0.0376135 0.0505379 0.030396
0.0371862 0.0497749 0.0299382
0.0366522 0.0488594 0.0293584
0.0360266 0.047776 0.028687
0.0346227 0.0453498 0.0271763
0.0325322 0.0417487 0.0249332
0.0322728 0.0388037 0.0232853
0.0424201 0.0440528 0.0275731
0.0524605 0.0487678 0.0314488
0.0638437 0.0525521 0.0349279
0.0762798 0.0544594 0.0375372
0.089189 0.0540322 0.0389258
0.100282 0.0498817 0.0381781
0.112825 0.0455024 0.0374304
0.155947 0.0538949 0.0466163
0.202594 0.0598611 0.0538186
0.257191 0.0644388 0.0599222
0.312352 0.06804 0.065095
0.363775 0.0711681 0.069688
0.4103 0.0740826 0.07393
0.461494 0.0795758 0.0807965
0.503273 0.0848859 0.0872053
0.512459 0.0879377 0.0905318
0.516716 0.0893721 0.0920882
0.516716 0.0893721 0.0920882
0.516716 0.0893721 0.0920882
0.516716 0.0893721 0.0920882
0.516838 0.0893873 0.0923171
0.51809 0.0895399 0.0951553
0.519341 0.0897078 0.098024
0.520623 0.0898604 0.101152
0.521737 0.0899367 0.104326
0.522988 0.0900435 0.107744
0.0499733 0.079118 0.04654
0.0497292 0.0783551 0.0461585
0.0494698 0.0775006 0.0457313
0.0491646 0.0765393 0.0452583
0.0488289 0.0755016 0.0447242
0.0475471 0.0725719 0.043061
0.0454871 0.0678416 0.0403754
0.0555734 0.0698711 0.04271
0.0695201 0.0752575 0.0471809
0.0844434 0.0793011 0.0509957
0.101442 0.0822309 0.0541543
0.12134 0.082887 0.0566262
0.142855 0.0807965 0.0578164
0.162295 0.0747845 0.057023
0.172656 0.0631571 0.0525368
0.199954 0.0595865 0.0534829
0.254963 0.064271 0.0596933
0.310521 0.0679332 0.0649271
0.362402 0.0710765 0.0695659
0.409216 0.0740215 0.0738231
0.460761 0.0795148 0.0807202
0.503059 0.0848096 0.087129
0.512459 0.0879377 0.0905318
0.516716 0.0893721 0.0920882
0.516716 0.0893721 0.0920882
0.516716 0.0893721 0.0920882
0.516716 0.0893721 0.0920882
0.516838 0.0893873 0.0923171
0.51809 0.0895399 0.0951553
0.519341 0.0897078 0.098024
0.520623 0.0898604 0.101152
0.521737 0.0899367 0.104326
0.522988 0.0900435 0.107744
0.0591745 0.113054 0.0623026
0.0590219 0.112337 0.0620127
0.058854 0.111513 0.061677
0.0586862 0.110689 0.061326
0.0584878 0.109773 0.0609445
0.0582742 0.108736 0.0605173
0.0574655 0.104845 0.0588998
0.060914 0.0996414 0.0571756
0.0804761 0.106096 0.0620432
0.0999924 0.11136 0.0661784
0.122469 0.115038 0.06981
0.149371 0.116655 0.0728008
0.180682 0.115511 0.0745556
0.213794 0.110918 0.0750591
0.244373 0.102617 0.0739147
0.265156 0.08925 0.0701152
0.261265 0.0678416 0.0614023
0.308965 0.0678264 0.0647898
0.360037 0.0709392 0.0693523
0.407416 0.0738994 0.0736553
0.458869 0.0792706 0.0804303
0.502831 0.0847334 0.0870527
0.512245 0.0878614 0.0904402
0.516716 0.0893721 0.0920882
0.516716 0.0893721 0.0920882
0.516716 0.0893721 0.0920882
0.516716 0.0893721 0.0920882
0.516854 0.0893873 0.0923629
0.51809 0.0895399 0.0951553
0.519341 0.0897078 0.098024
0.520623 0.0898604 0.101152
0.521737 0.0899367 0.104326
0.522988 0.0900435 0.107744
0.0652018 0.154406 0.0770428
0.0651255 0.15375 0.0768139
0.0650339 0.152972 0.0765698
0.0649424 0.152102 0.0762798
0.0648356 0.151217 0.0759899
0.0647288 0.150347 0.0757
0.0645914 0.149126 0.0753033
0.0639811 0.143969 0.0736095
0.0824598 0.143511 0.0754864
0.108949 0.150576 0.0802014
0.137758 0.156313 0.0841535
0.172061 0.15935 0.0872053
0.213779 0.159319 0.0895247
0.260319 0.155993 0.0905928
0.307012 0.149081 0.0903944
0.349142 0.138415 0.0889143
0.380529 0.122637 0.0857557
0.386954 0.099855 0.0796063
0.35581 0.0706798 0.0689708
0.404837 0.0737316 0.0734112
0.45623 0.0789807 0.0800641
0.502388 0.0845808 0.0868849
0.512016 0.0877852 0.0903639
0.516716 0.0893721 0.0920882
0.516716 0.0893721 0.0920882
0.516716 0.0893721 0.0920882
0.516716 0.0893721 0.0920882
0.516854 0.0893873 0.0923629
0.51809 0.0895399 0.0951553
0.519341 0.0897078 0.098024
0.520623 0.0898604 0.101152
0.521737 0.0899367 0.104326
0.522988 0.0900435 0.107744
0.0666514 0.207431 0.0888075
0.0666514 0.206668 0.0886702
0.0666514 0.205905 0.0885176
0.0666514 0.205005 0.0883497
0.0666514 0.204105 0.0881971
0.0666514 0.203098 0.0879988
0.0666514 0.201938 0.0877852
0.0666514 0.200275 0.08748
0.0666361 0.192752 0.0860914
0.106584 0.200809 0.0915847
0.143343 0.209216 0.0959335
0.186053 0.214862 0.0995956
0.238331 0.216785 0.102434
0.297566 0.214969 0.104051
0.357946 0.210651 0.105089
0.415442 0.20264 0.105608
0.466072 0.190585 0.10544
0.502297 0.173678 0.104021
0.515969 0.14905 0.10016
0.490288 0.110918 0.0897231
0.454124 0.0787213 0.0797436
0.50193 0.0844282 0.0867323
0.511345 0.0875715 0.0901198
0.516716 0.0893721 0.0920882
0.516716 0.0893721 0.0920882
0.516716 0.0893721 0.0920882
0.516716 0.0893721 0.0920882
0.516854 0.0893873 0.0923629
0.51809 0.0895399 0.0951553
0.519341 0.0897078 0.098024
0.520623 0.0898604 0.101152
0.521737 0.0899367 0.104326
0.522988 0.0900435 0.107744
0.0648814 0.27509 0.0977035
0.0649119 0.274235 0.097612
0.0649424 0.273365 0.0975357
0.0649729 0.272496 0.0974441
0.0650187 0.271626 0.0973526
0.0650492 0.270619 0.097261
0.065095 0.269459 0.0971389
0.0651713 0.26772 0.0969711
0.0652171 0.266712 0.0968643
0.0863355 0.262409 0.0986496
0.136736 0.275761 0.104585
0.189059 0.285512 0.109453
0.251011 0.290379 0.113207
0.322011 0.291356 0.116091
0.393362 0.289677 0.118517
0.46067 0.285817 0.121675
0.523644 0.278279 0.124239
0.575814 0.267063 0.126223
0.612222 0.250843 0.127306
0.633066 0.224887 0.125139
0.628214 0.182788 0.116991
0.560128 0.109407 0.0949264
0.510674 0.0873426 0.0898756
0.516716 0.0893721 0.0920882
0.516716 0.0893721 0.0920882
0.516716 0.0893721 0.0920882
0.516716 0.0893721 0.0920882
0.516854 0.0893873 0.0923629
0.51809 0.0895399 0.0951553
0.519341 0.0897078 0.098024
0.520623 0.0898604 0.101152
0.521737 0.0899367 0.104326
0.522988 0.0900435 0.107744
0.0636759 0.356497 0.105684
0.0636606 0.355718 0.105608
0.0636454 0.354788 0.105501
0.0636454 0.354009 0.105425
0.0636301 0.353079 0.105318
0.0636301 0.352132 0.105226
0.0636149 0.350896 0.105104
0.0635996 0.34934 0.104936
0.0635691 0.347158 0.104707
0.0635691 0.347158 0.104707
0.118395 0.354314 0.111452
0.183093 0.368414 0.1187
0.256199 0.376455 0.125917
0.335988 0.379492 0.131701
0.413718 0.380514 0.137118
0.485527 0.380179 0.142443
0.552728 0.377234 0.147295
0.610056 0.372366 0.152087
0.653468 0.364431 0.156329
0.686168 0.350912 0.158953
0.709529 0.327169 0.158419
0.722393 0.285679 0.152056
0.692638 0.205325 0.129076
0.516716 0.0893721 0.0920882
0.516716 0.0893721 0.0920882
0.516716 0.0893721 0.0920882
0.516716 0.0893721 0.0920882
0.516854 0.0893873 0.0923629
0.51809 0.0895399 0.0951553
0.519371 0.0897078 0.0980697
0.520623 0.0898604 0.101152
0.521737 0.0899367 0.104326
0.522988 0.0900435 0.107744
0.0757763 0.445106 0.12134
0.0755779 0.444358 0.121157
0.0753796 0.443595 0.120974
0.0751965 0.442847 0.120775
0.0749981 0.4421 0.120592
0.0747692 0.441184 0.120378
0.0745403 0.440284 0.12015
0.0741894 0.438926 0.119814
0.0737316 0.437125 0.119371
0.0731212 0.434714 0.118776
0.0874037 0.435554 0.120958
0.181033 0.453132 0.136095
0.262272 0.463767 0.145571
0.347601 0.468772 0.152529
0.429664 0.47129 0.158648
0.504601 0.472786 0.16463
0.574441 0.472755 0.170443
0.634714 0.471458 0.176242
0.681315 0.469795 0.182681
0.717159 0.464958 0.188037
0.745235 0.454414 0.19144
0.767468 0.434348 0.191882
0.766369 0.392432 0.182757
0.741787 0.313451 0.161776
0.661585 0.17258 0.118807
0.516716 0.0893721 0.0920882
0.516716 0.0893721 0.0920882
0.516716 0.0893721 0.0920882
0.51812 0.0895552 0.095201
0.519371 0.0897078 0.0980697
0.520623 0.0898604 0.101152
0.521737 0.0899367 0.104326
0.522988 0.0900435 0.107744
0.100511 0.534051 0.144961
0.100343 0.533471 0.144793
0.10013 0.532738 0.144594
0.0999619 0.532143 0.144442
0.099794 0.531563 0.144274
0.0995804 0.530831 0.144076
0.0993668 0.530098 0.143862
0.0990311 0.528923 0.143542
0.0986191 0.527443 0.14313
0.098024 0.525399 0.142565
0.0986191 0.527443 0.14313
0.171633 0.535515 0.154116
0.263249 0.548791 0.165408
0.35407 0.555367 0.173419
0.441199 0.558816 0.180377
0.520241 0.561776 0.187228
0.592401 0.563333 0.193759
0.655482 0.564736 0.200778
0.704433 0.566293 0.208194
0.741711 0.566796 0.215396
0.771847 0.564355 0.221469
0.796674 0.556313 0.225437
0.808087 0.535912 0.223575
0.795346 0.490105 0.210422
0.77438 0.419257 0.190082
0.736156 0.297856 0.15729
0.516716 0.0893721 0.0920882
0.516716 0.0893721 0.0920882
0.516716 0.0893721 0.0920882
0.519371 0.0897078 0.0980697
0.520623 0.0898604 0.101152
0.521767 0.0899367 0.104387
0.522988 0.0900435 0.107744
0.12726 0.621744 0.171191
0.127123 0.621317 0.171054
0.12694 0.620737 0.170855
0.126741 0.620157 0.170672
0.126604 0.61973 0.170535
0.126406 0.61915 0.170336
0.126223 0.61857 0.170153
0.125887 0.617563 0.169818
0.125505 0.616419 0.169451
0.124926 0.614694 0.168872
0.124269 0.612665 0.168215
0.132799 0.614862 0.169924
0.259632 0.630579 0.187152
0.356756 0.638666 0.196368
0.449256 0.642741 0.204211
0.532662 0.64564 0.211276
0.607569 0.648554 0.218341
0.672862 0.650782 0.225406
0.72398 0.654353 0.233738
0.762692 0.657786 0.241932
0.793469 0.659586 0.249134
0.819257 0.658351 0.255085
0.838376 0.650919 0.258
0.83151 0.624781 0.249821
0.820874 0.584192 0.237583
0.804166 0.52166 0.219486
0.771374 0.409201 0.187335
0.673182 0.184466 0.12253
0.516716 0.0893721 0.0920882
0.516716 0.0893721 0.0920882
0.520638 0.0898604 0.101198
0.521767 0.0899367 0.104387
0.522988 0.0900435 0.107744
0.158984 0.704829 0.202914
0.158801 0.704417 0.202747
0.158633 0.70399 0.202564
0.15845 0.703578 0.202396
0.158282 0.703166 0.202213
0.158114 0.702754 0.202045
0.15787 0.702205 0.201816
0.15758 0.701503 0.201526
0.157183 0.700542 0.201114
0.156664 0.69929 0.20058
0.155962 0.697627 0.199893
0.155093 0.695552 0.199008
0.252735 0.70605 0.212253
0.3608 0.715953 0.223331
0.457893 0.720424 0.231144
0.545663 0.72311 0.238148
0.622202 0.725322 0.244694
0.688716 0.727657 0.251621
0.74139 0.731197 0.259403
0.780667 0.73547 0.267903
0.81178 0.739193 0.275883
0.837461 0.741146 0.282551
0.860182 0.740307 0.28777
0.858473 0.726421 0.283284
0.852293 0.703746 0.275319
0.843473 0.670436 0.26424
0.827955 0.611322 0.24564
0.801984 0.513726 0.217227
0.747433 0.330846 0.166461
0.516716 0.0893721 0.0920882
0.516716 0.0893721 0.0920882
0.521767 0.0899367 0.104387
0.522988 0.0900435 0.107744
0.196582 0.778454 0.240986
0.196445 0.778195 0.240848
0.196216 0.777829 0.24062
0.196078 0.777584 0.240467
0.195926 0.77734 0.24033
0.195712 0.776974 0.240101
0.195499 0.776593 0.239887
0.195209 0.776104 0.239582
0.194842 0.775479 0.239216
0.194339 0.774624 0.238697
0.193729 0.773465 0.238071
0.192889 0.771908 0.237232
0.238575 0.774044 0.2421
0.370825 0.784588 0.255573
0.471427 0.788525 0.262959
0.5617 0.789868 0.268406
0.6392 0.791012 0.273823
0.705242 0.79234 0.2795
0.757931 0.794781 0.286152
0.797238 0.798672 0.293843
0.827543 0.802548 0.301106
0.852506 0.805325 0.307637
0.874357 0.806363 0.312795
0.879957 0.800931 0.312123
0.876234 0.788388 0.307027
0.871015 0.770413 0.299916
0.862165 0.739834 0.28809
0.84892 0.691066 0.271061
0.827665 0.610224 0.245304
0.785092 0.4551 0.200259
0.516716 0.0893721 0.0920882
0.516716 0.0893721 0.0920882
0.523003 0.0900435 0.10779
0.235843 0.84242 0.281239
0.235706 0.842206 0.281086
0.235554 0.841978 0.280934
0.235401 0.841749 0.280781
0.235248 0.841535 0.280613
0.235096 0.841306 0.280461
0.234943 0.841077 0.280308
0.234653 0.840635 0.280003
0.234348 0.840177 0.279698
0.233982 0.839612 0.279316
0.233371 0.838712 0.278691
0.2327 0.837705 0.278004
0.234058 0.839734 0.279393
0.385885 0.84332 0.29015
0.489616 0.84622 0.296864
0.580713 0.845411 0.300404
0.65771 0.844617 0.303822
0.721752 0.844144 0.307561
0.773541 0.844709 0.312062
0.811612 0.846876 0.317876
0.840986 0.849775 0.32401
0.86482 0.852201 0.329335
0.885512 0.853651 0.333761
0.896239 0.852033 0.335042
0.893874 0.845045 0.331655
0.8907 0.835416 0.327138
0.885847 0.820386 0.320302
0.878645 0.796551 0.310307
0.867597 0.758618 0.295323
0.849683 0.693919 0.272023
0.816403 0.567163 0.232593
0.704967 0.225406 0.135363
0.516716 0.0893721 0.0920882
0.273442 0.897246 0.319951
0.273365 0.897154 0.319875
0.273228 0.896941 0.319738
0.273152 0.896849 0.319661
0.272999 0.896651 0.319509
0.272938 0.896544 0.319432
0.272786 0.896345 0.319295
0.272648 0.896132 0.319142
0.272358 0.895735 0.318837
0.272068 0.895323 0.318547
0.271641 0.894728 0.318105
0.271138 0.894011 0.317586
0.270497 0.893111 0.316915
0.405142 0.893523 0.323888
0.510124 0.89395 0.328313
0.598947 0.8907 0.329351
0.673472 0.887022 0.329732
0.73489 0.884611 0.331182
0.784985 0.883406 0.333654
0.822797 0.884108 0.338003
0.851225 0.885695 0.342748
0.874311 0.887434 0.347646
0.894331 0.888884 0.352712
0.908934 0.888945 0.355871
0.907515 0.884718 0.352789
0.905501 0.878859 0.34876
0.902571 0.870436 0.344335
0.898192 0.857832 0.337835
0.892226 0.840131 0.32929
0.883345 0.812238 0.316823
0.869032 0.763592 0.297246
0.841672 0.663539 0.262043
0.767452 0.396078 0.183749
0.306935 0.943404 0.354482
0.306874 0.943313 0.354421
0.306813 0.943221 0.35436
0.306661 0.94313 0.354192
0.3066 0.943038 0.354131
0.306523 0.942946 0.354055
0.306401 0.942748 0.353918
0.306264 0.942565 0.35378
0.306035 0.942367 0.353552
0.305821 0.942077 0.353338
0.305394 0.941588 0.352895
0.305058 0.941115 0.352544
0.304417 0.940352 0.351888
0.429786 0.935363 0.353002
0.532036 0.932448 0.353979
0.615534 0.926726 0.352148
0.686564 0.921248 0.350622
0.745083 0.917235 0.3505
0.793729 0.914733 0.351873
0.830839 0.91371 0.356497
0.858991 0.914153 0.362722
0.881727 0.915328 0.369802
0.900999 0.916411 0.376608
0.91841 0.917082 0.382803
0.917418 0.914183 0.37911
0.916075 0.910155 0.374975
0.914351 0.905013 0.36968
0.911925 0.897734 0.362325
0.908537 0.887739 0.355001
0.903731 0.873777 0.34609
0.896483 0.852766 0.335393
0.884932 0.817578 0.319036
0.862913 0.742428 0.289097
0.327352 0.966232 0.375586
0.327352 0.966232 0.375586
0.327352 0.966232 0.375586
0.327245 0.966232 0.375494
0.327245 0.966232 0.375494
0.327245 0.966232 0.375494
0.327245 0.966232 0.375494
0.327245 0.966232 0.375494
0.327245 0.966232 0.375494
0.327245 0.966232 0.375494
0.327153 0.966217 0.375387
0.327153 0.966217 0.375387
0.327062 0.966217 0.375296
0.465187 0.967971 0.374563
0.55697 0.963272 0.372976
0.632914 0.956069 0.370199
0.699092 0.949355 0.368658
0.754726 0.943923 0.36994
0.80145 0.939956 0.373724
0.83772 0.937942 0.379934
0.865522 0.937667 0.388022
0.887694 0.937896 0.397177
0.906325 0.938445 0.406134
0.923079 0.938994 0.414923
0.925399 0.937194 0.413123
0.924331 0.934264 0.407874
0.923049 0.930724 0.401602
0.921416 0.925902 0.394965
0.919356 0.91986 0.386633
0.916671 0.91194 0.376806
0.912993 0.900923 0.365484
0.907454 0.884581 0.352682
0.898131 0.857679 0.337758
0.331319 0.966461 0.379721
0.331319 0.966461 0.379721
0.331319 0.966461 0.379721
0.331319 0.966461 0.379721
0.331319 0.966461 0.379721
0.331228 0.966445 0.379614
0.331228 0.966445 0.379614
0.331228 0.966445 0.379614
0.331228 0.966445 0.379614
0.331228 0.966445 0.379614
0.331228 0.966445 0.379614
0.331228 0.966445 0.379614
0.331121 0.966445 0.379507
0.500679 0.96791 0.375158
0.576822 0.966735 0.375128
0.646265 0.965209 0.376516
0.709484 0.963561 0.381277
0.764355 0.962814 0.390265
0.809537 0.961059 0.400046
0.844434 0.95819 0.408591
0.87129 0.957031 0.418662
0.892882 0.956863 0.42916
0.910964 0.957122 0.439551
0.927169 0.95758 0.450874
0.932601 0.956497 0.452262
0.931685 0.954116 0.446983
0.930632 0.95137 0.440848
0.929366 0.948058 0.433478
0.927825 0.943908 0.425116
0.925917 0.938674 0.415747
0.923522 0.932021 0.403876
0.920378 0.922881 0.390799
0.915984 0.909895 0.374701
0.331518 0.966461 0.379919
0.331518 0.966461 0.379919
0.331518 0.966461 0.379919
0.331518 0.966461 0.379919
0.331518 0.966461 0.379919
0.331518 0.966461 0.379919
0.331518 0.966461 0.379919
0.331518 0.966461 0.379919
0.331518 0.966461 0.379919
0.331518 0.966461 0.379919
0.331518 0.966461 0.379919
0.331518 0.966461 0.379919
0.483574 0.967987 0.374929
0.546868 0.967315 0.375265
0.60441 0.96614 0.375204
0.661692 0.964797 0.377264
0.715892 0.963424 0.382025
0.765087 0.962798 0.390417
0.807996 0.962783 0.401663
0.844083 0.963928 0.416754
0.872312 0.965911 0.433875
0.894987 0.968078 0.451591
0.913954 0.970291 0.469673
0.930373 0.972244 0.487083
0.939529 0.97319 0.497169
0.938704 0.971267 0.491753
0.937743 0.968978 0.485313
0.936629 0.966369 0.477989
0.935378 0.963409 0.469642
0.933852 0.959808 0.459632
0.932082 0.955169 0.449317
0.92987 0.949386 0.436423
0.926986 0.941619 0.421012
0.331518 0.966583 0.386221
0.331518 0.966583 0.386221
0.331518 0.966583 0.386221
0.331518 0.966583 0.386221
0.331518 0.966583 0.386221
0.331518 0.966583 0.386221
0.331518 0.966583 0.386221
0.331518 0.966583 0.386114
0.374823 0.967575 0.380941
0.44979 0.967987 0.374289
0.49012 0.968002 0.375067
0.525521 0.967636 0.37528
0.561212 0.967056 0.375219
0.599512 0.966247 0.375158
0.64126 0.965331 0.376303
0.68484 0.964157 0.378866
0.72842 0.963195 0.383749
0.769924 0.962768 0.391501
0.807996 0.962783 0.401663
0.841382 0.96379 0.415381
0.868635 0.965621 0.431449
0.891081 0.967681 0.448356
0.910155 0.969848 0.465858
0.926619 0.971801 0.482963
0.93959 0.973342 0.497612
0.93959 0.973342 0.497612
0.93959 0.973342 0.497612
0.93959 0.973342 0.497612
0.93959 0.973342 0.497612
0.93959 0.973342 0.497612
0.93959 0.973342 0.497612
0.938186 0.970016 0.488243
0.935958 0.964752 0.473442
0.518669 0.967727 0.375265
0.52401 0.967651 0.37528
0.529091 0.96759 0.37528
0.533974 0.967514 0.375296
0.538659 0.967453 0.375296
0.543236 0.967376 0.37528
0.54873 0.967269 0.375265
0.556191 0.967147 0.375235
0.565576 0.966964 0.375189
0.577188 0.966735 0.375128
0.591669 0.96643 0.375097
0.609491 0.966033 0.375235
0.630915 0.965591 0.375891
0.656001 0.96495 0.376928
0.684337 0.964172 0.37882
0.715312 0.963439 0.381964
0.748089 0.962951 0.38706
0.780835 0.962676 0.393912
0.812696 0.962829 0.403189
0.84184 0.963806 0.41561
0.866896 0.965484 0.430304
0.888304 0.967407 0.446067
0.906935 0.969467 0.462669
0.923293 0.971405 0.479393
0.938323 0.97319 0.496162
0.93959 0.973342 0.497612
0.93959 0.973342 0.497612
0.93959 0.973342 0.497612
0.93959 0.973342 0.497612
0.93959 0.973342 0.497612
0.93959 0.973342 0.497612
0.93959 0.973342 0.497612
0.93959 0.973342 0.497612
0.631739 0.965576 0.375921
0.634211 0.965515 0.375998
