iOSLOG2LUTConverter/Resources/Secondary LUTS/GAME OF THRONES.cube
TITLE "Generated by Resolve"
LUT_3D_SIZE 9
0 0 0
0.0603037 0 0
0.220356 0 0
0.399832 0 0
0.580102 0 0
0.759182 0 0
0.926467 0 0
0.99472 0 0
1 0 0
0 0.0537728 9.15541e-05
0.0602884 0.0530556 0
0.220356 0.0540169 0
0.399832 0.0552682 0
0.580102 0.056199 0
0.759182 0.0564279 0
0.926467 0.0564584 0
0.99472 0.0559701 0
1 0.0553902 0
0 0.195895 0.000183108
0.0616464 0.194903 9.15541e-05
0.220645 0.194125 0
0.399832 0.198459 0
0.580102 0.201419 0
0.759182 0.203265 0
0.926467 0.203647 0
0.99472 0.203479 0
1 0.202106 0
0 0.363302 0.000289921
0.0638285 0.361868 0.000183108
0.226047 0.3608 6.10361e-05
0.400381 0.360601 0
0.579736 0.365545 0
0.759182 0.368658 0
0.926467 0.370321 0
0.99469 0.370611 0
1 0.369162 0
0 0.538781 0.000396735
0.0655528 0.537285 0.000274662
0.230854 0.536171 0.000183108
0.406027 0.534691 6.10361e-05
0.58027 0.535012 0
0.759182 0.539117 0
0.926467 0.541741 0
0.99469 0.542123 0
1 0.540978 0
0 0.718441 0.000503548
0.0667277 0.717296 0.000366217
0.234134 0.715785 0.000274662
0.410895 0.714656 0.00015259
0.585122 0.713146 6.10361e-05
0.759548 0.713344 0
0.926467 0.716167 0
0.99469 0.717418 0
1 0.715877 0
0 0.895979 0.000656138
0.0674449 0.894759 0.000457771
0.236179 0.893843 0.000366217
0.413947 0.892622 0.000244144
0.589151 0.891707 0.00015259
0.76321 0.890501 3.0518e-05
0.926635 0.890532 0
0.99469 0.891951 0
1 0.890959 0
0 0.990433 0.000762951
0.0678416 0.990311 0.000549325
0.237278 0.990158 0.000457771
0.415244 0.990051 0.000335698
0.591318 0.989929 0.000244144
0.765957 0.989776 0.00015259
0.928588 0.98967 3.0518e-05
0.99469 0.989578 0
1 0.98941 0
0 0.999985 0.000869764
0.0678569 0.999985 0.000640879
0.237339 0.999969 0.000549325
0.415351 0.999954 0.000427253
0.591485 0.999939 0.000335698
0.766125 0.999924 0.000244144
0.928512 0.999908 0.000122072
0.994736 0.999893 3.0518e-05
1 0.999878 0
6.10361e-05 6.10361e-05 0.0331121
0.0602884 0 0.0327459
0.220722 0 0.033463
0.400198 0 0.0343938
0.580102 0 0.0350958
0.759548 0 0.0352941
0.926757 0 0.0353246
0.994751 0 0.0351415
1 0 0.0345922
6.10361e-05 0.0539101 0.0335699
0.0603037 0.053254 0.0331121
0.220722 0.0529641 0.0328985
0.400198 0.0525826 0.0326238
0.580102 0.0523232 0.0324407
0.759548 0.0518349 0.0321202
0.926757 0.0514687 0.0318608
0.99472 0.0508736 0.0315862
1 0.0504158 0.0311437
6.10361e-05 0.196231 0.0349737
0.0605173 0.195239 0.0335393
0.22092 0.194293 0.0331121
0.400198 0.197421 0.032639
0.580102 0.199359 0.0322881
0.759548 0.20058 0.0319371
0.926757 0.20058 0.0314641
0.99472 0.200244 0.0311131
1 0.198871 0.0306401
6.10361e-05 0.363653 0.0368353
0.0607462 0.362219 0.0339818
0.225147 0.361151 0.033463
0.400671 0.361135 0.0330053
0.580102 0.365042 0.032639
0.759548 0.367956 0.0322881
0.926757 0.368917 0.0318151
0.99472 0.369055 0.0314641
1 0.367559 0.0309911
6.10361e-05 0.539147 0.038407
0.0608835 0.537667 0.0344091
0.22887 0.536553 0.0338293
0.405646 0.535058 0.033463
0.580591 0.535256 0.0330053
0.759548 0.538857 0.032639
0.926757 0.541161 0.032166
0.99472 0.541375 0.0318151
1 0.540185 0.031342
6.10361e-05 0.718807 0.0396429
0.0609293 0.717678 0.0348211
0.231388 0.716167 0.0341802
0.409598 0.715038 0.0338293
0.584985 0.713512 0.0333562
0.759884 0.713603 0.0330053
0.926467 0.716075 0.0325322
0.99472 0.717128 0.032166
1 0.71548 0.0318151
0 0.896284 0.040589
0.0608988 0.895064 0.0353399
0.232929 0.894148 0.0345312
0.412222 0.892927 0.0341802
0.588663 0.892012 0.0337072
0.763226 0.890806 0.0333562
0.926619 0.890761 0.0328832
0.99472 0.89221 0.0325322
1 0.890883 0.032166
0 0.990463 0.0412757
0.060853 0.990356 0.0357061
0.233738 0.990234 0.0348821
0.413642 0.990082 0.0345312
0.590631 0.989975 0.0340581
0.765743 0.989822 0.0337072
0.928359 0.9897 0.0333562
0.99472 0.989609 0.0328832
1 0.989456 0.0325322
0 1 0.0417029
0.0607919 0.999985 0.0360723
0.233692 0.999969 0.0352331
0.413657 0.999954 0.0348821
0.590661 0.999939 0.0344091
0.765789 0.999924 0.0340581
0.928466 0.999908 0.0337072
0.994736 0.999908 0.0332341
1 0.999893 0.0328832
0.000137331 0.000122072 0.152361
0.0619669 0 0.151431
0.221332 0 0.150805
0.400565 0 0.154833
0.580468 0 0.157549
0.759915 0 0.159258
0.927031 0 0.159915
0.994751 0 0.159442
1 0 0.15845
0.000137331 0.0554513 0.153292
0.0606699 0.0535134 0.152361
0.221256 0.0529183 0.151522
0.400565 0.0522316 0.154391
0.580468 0.0517128 0.156161
0.759915 0.0510262 0.157259
0.927031 0.0505074 0.157549
0.994751 0.0498207 0.156909
1 0.0493019 0.155932
0.000137331 0.196979 0.154681
0.0604868 0.19585 0.153613
0.221073 0.194247 0.152041
0.400565 0.19382 0.151553
0.580468 0.192966 0.151019
0.759915 0.19234 0.150042
0.927031 0.191226 0.14931
0.994751 0.190356 0.148165
1 0.189364 0.147234
6.10361e-05 0.364019 0.160311
0.0604868 0.362936 0.158022
0.221698 0.361501 0.153201
0.400427 0.360922 0.152041
0.580468 0.362387 0.15111
0.759915 0.363531 0.149874
0.926757 0.363439 0.148943
0.994751 0.362997 0.147707
1 0.36141 0.146777
6.10361e-05 0.539513 0.165347
0.0604868 0.538033 0.162005
0.222187 0.536919 0.15465
0.403189 0.535439 0.152972
0.580789 0.535195 0.152041
0.759915 0.537194 0.150805
0.926757 0.53843 0.149874
0.994751 0.538018 0.148638
1 0.536614 0.147707
6.10361e-05 0.719188 0.169116
0.0604868 0.718059 0.165087
0.222507 0.716548 0.155734
0.405631 0.715404 0.153903
0.583841 0.713893 0.152972
0.760159 0.713649 0.151736
0.926757 0.715053 0.150805
0.994751 0.715373 0.149874
1 0.713436 0.148638
6.10361e-05 0.89659 0.172137
0.0604868 0.895369 0.167376
0.22266 0.894453 0.156756
0.407111 0.893233 0.154833
0.586358 0.892317 0.153903
0.762646 0.891417 0.152667
0.926863 0.890806 0.151736
0.994751 0.891508 0.150805
1 0.889754 0.149569
6.10361e-05 0.990539 0.174075
0.0604868 0.990387 0.16907
0.22269 0.99028 0.157748
0.407828 0.990127 0.155764
0.587594 0.990005 0.154833
0.76437 0.989853 0.153903
0.928084 0.989746 0.152667
0.994751 0.989609 0.151736
1 0.989319 0.1505
6.10361e-05 1 0.175082
0.0604868 0.999985 0.170031
0.222232 0.999969 0.158709
0.407614 0.999954 0.156695
0.587289 0.999939 0.155764
0.763607 0.999939 0.154833
0.927764 0.999924 0.153597
0.99472 0.999908 0.152667
1 0.999893 0.151431
0.000198367 0.000183108 0.311772
0.064332 0 0.310353
0.226825 0 0.30927
0.401373 0 0.309361
0.580835 0 0.314321
0.760281 0 0.317327
0.927306 0 0.318944
0.994781 0 0.319173
1 0 0.317754
0.000137331 0.0576028 0.31284
0.0610819 0.0537881 0.311421
0.22565 0.0530861 0.310353
0.400961 0.0523995 0.310185
0.580835 0.0518807 0.314427
0.760281 0.051194 0.31725
0.927031 0.0506752 0.318166
0.994781 0.0499886 0.318288
1 0.049485 0.316793
0.000137331 0.202136 0.313909
0.0606699 0.199786 0.31249
0.221958 0.194797 0.311421
0.400748 0.193576 0.310552
0.580835 0.192584 0.312261
0.760281 0.191257 0.313298
0.927031 0.190249 0.31313
0.994781 0.188922 0.312657
1 0.18793 0.31107
0.000137331 0.365164 0.316045
0.0606699 0.363973 0.314473
0.221439 0.362158 0.312871
0.400565 0.3608 0.311421
0.580835 0.359731 0.310277
0.760281 0.358953 0.309438
0.927031 0.357717 0.308156
0.994781 0.35671 0.307149
1 0.355215 0.305653
0.000137331 0.539895 0.322789
0.0606699 0.538399 0.320439
0.221439 0.537285 0.31632
0.400977 0.535805 0.312627
0.580972 0.535058 0.311055
0.760281 0.53521 0.309987
0.927031 0.535134 0.308568
0.994781 0.53402 0.307485
1 0.53254 0.306416
0.000137331 0.71957 0.328435
0.0606699 0.718441 0.325872
0.221073 0.716915 0.319432
0.401373 0.715785 0.313848
0.582452 0.714275 0.312123
0.760418 0.713634 0.311055
0.927031 0.713756 0.309636
0.994781 0.713283 0.308568
1 0.711452 0.307485
0.000137331 0.896895 0.332403
0.0606699 0.895674 0.329397
0.221073 0.894759 0.321782
0.401587 0.893843 0.315007
0.583627 0.892622 0.313207
0.761471 0.891707 0.312123
0.927092 0.890883 0.311055
0.994781 0.8907 0.309636
1 0.888548 0.308568
0.000137331 0.990585 0.334997
0.0606699 0.990433 0.331807
0.221073 0.990311 0.323507
0.401663 0.990158 0.316136
0.584131 0.990051 0.314275
0.762341 0.989899 0.313207
0.927718 0.989776 0.312123
0.994781 0.989624 0.310704
1 0.989273 0.309636
0.000137331 1 0.336172
0.0606699 0.999985 0.332876
0.221073 0.999969 0.324437
0.401572 0.999969 0.317189
0.583673 0.999954 0.315694
0.761608 0.999939 0.314275
0.927016 0.999924 0.313207
0.994659 0.999908 0.311772
1 0.999893 0.310704
0.000213626 0.000259403 0.486427
0.0662852 6.10361e-05 0.485283
0.232029 0 0.483742
0.406699 0 0.482582
0.581552 0 0.482902
0.760632 0 0.487572
0.927306 0 0.490196
0.994812 0 0.490547
1 0 0.489342
0.000198367 0.0593729 0.487587
0.0614328 0.0540322 0.486427
0.22977 0.053254 0.484886
0.406043 0.0525673 0.483742
0.581537 0.0520485 0.483879
0.760632 0.0513619 0.488014
0.927306 0.0508583 0.490303
0.994812 0.0501717 0.490486
1 0.0496529 0.48925
0.000198367 0.206836 0.488746
0.0608682 0.203387 0.487587
0.222782 0.195682 0.486046
0.403693 0.193912 0.484886
0.58143 0.19292 0.48481
0.760632 0.191577 0.48687
0.927306 0.190585 0.488045
0.994812 0.189258 0.487572
1 0.188266 0.486122
0.000198367 0.370962 0.489891
0.0608682 0.369055 0.488746
0.221439 0.364813 0.487205
0.401266 0.361288 0.486046
0.581292 0.359716 0.485328
0.760281 0.358648 0.485359
0.927306 0.357214 0.485206
0.994812 0.35613 0.484016
1 0.354696 0.482506
0.000198367 0.541024 0.492226
0.0608682 0.539467 0.490944
0.221439 0.538109 0.489403
0.400931 0.536339 0.487449
0.581201 0.535058 0.486046
0.760281 0.533761 0.484642
0.927306 0.532753 0.483558
0.994812 0.531273 0.482414
1 0.530083 0.480812
0.000198367 0.719951 0.498878
0.0608682 0.718807 0.497078
0.221439 0.717296 0.493812
0.400931 0.716167 0.489921
0.581445 0.714656 0.487266
0.760342 0.71368 0.485664
0.927306 0.713161 0.484504
0.994812 0.711742 0.48336
1 0.709972 0.481819
0.000198367 0.8972 0.504402
0.0608682 0.896284 0.501839
0.221439 0.895064 0.497322
0.400931 0.894148 0.492012
0.581613 0.892927 0.488472
0.760906 0.892012 0.487205
0.927352 0.89099 0.485664
0.994812 0.890196 0.484504
1 0.887831 0.482963
0.000198367 0.990616 0.507683
0.0608682 0.990463 0.504906
0.221439 0.990356 0.499657
0.400931 0.990204 0.493538
0.581659 0.990082 0.489647
0.76112 0.989929 0.48835
0.927535 0.989822 0.486824
0.994812 0.989624 0.485664
1 0.989166 0.484123
0.000198367 1 0.508904
0.0606699 1 0.50605
0.221439 0.999985 0.500481
0.400931 0.999969 0.494697
0.581155 0.999954 0.490761
0.760372 0.999939 0.489509
0.926604 0.999924 0.487968
0.994659 0.999908 0.486824
1 0.999893 0.485283
0.000289921 0.000320439 0.671611
0.0677195 0.000122072 0.669993
0.235767 0 0.668788
0.412009 0 0.667185
0.586496 0 0.66598
0.761166 0 0.66656
0.927596 0 0.669627
0.994858 0 0.670909
1 0 0.669276
0.000259403 0.0606699 0.672816
0.0617227 0.0542458 0.671214
0.232364 0.0534218 0.669993
0.410788 0.0527352 0.668391
0.586053 0.0522316 0.667185
0.760815 0.051545 0.667582
0.927596 0.0510262 0.670314
0.994858 0.0505074 0.671382
1 0.0498207 0.669627
0.000259403 0.210559 0.674022
0.0610513 0.205982 0.672419
0.223102 0.196155 0.671214
0.406531 0.194247 0.669993
0.584665 0.19324 0.668391
0.760769 0.191913 0.66833
0.927596 0.190921 0.669871
0.994858 0.189593 0.670146
1 0.188586 0.66804
0.000259403 0.376028 0.675227
0.0610513 0.37351 0.673625
0.221805 0.367269 0.672419
0.401999 0.361791 0.671214
0.583032 0.360082 0.669596
0.760723 0.358999 0.669032
0.927596 0.357565 0.669139
0.994858 0.356497 0.668574
1 0.355062 0.666651
0.000259403 0.546487 0.676448
0.0610513 0.544457 0.675227
0.221805 0.541497 0.673625
0.401297 0.537972 0.672419
0.581765 0.5355 0.670802
0.760678 0.533944 0.66981
0.927596 0.53283 0.668803
0.994858 0.53135 0.667674
1 0.530236 0.665843
0.000259403 0.720851 0.678599
0.0610513 0.719661 0.677287
0.221805 0.717998 0.675425
0.401297 0.716701 0.67393
0.581567 0.71545 0.672099
0.760632 0.713893 0.670802
0.927596 0.712795 0.669612
0.994858 0.711254 0.667994
1 0.710018 0.666728
0.000259403 0.89749 0.684367
0.0608682 0.89659 0.682689
0.221805 0.895369 0.679606
0.401297 0.894453 0.676707
0.581201 0.893233 0.673793
0.760708 0.892317 0.672023
0.927596 0.891096 0.670802
0.994812 0.890013 0.6692
1 0.887953 0.667994
0.000259403 0.990662 0.688334
0.0608682 0.990509 0.686427
0.221805 0.990387 0.682475
0.401297 0.990234 0.678691
0.581201 0.990127 0.675532
0.760678 0.989975 0.673228
0.927535 0.989853 0.672007
0.994812 0.989654 0.670405
1 0.989197 0.6692
0.000259403 1 0.689677
0.0608682 1 0.687602
0.221805 0.999985 0.683177
0.401297 0.999969 0.679088
0.581201 0.999954 0.676112
0.760479 0.999939 0.674388
0.926757 0.999939 0.673228
0.994644 0.999924 0.671611
1 0.999893 0.670405
0.000366217 0.000396735 0.862226
0.0687114 0.000183108 0.861189
0.237888 0 0.8598
0.415534 0 0.858763
0.590997 0 0.857313
0.764614 0 0.856077
0.927871 0 0.856245
0.994888 0 0.857694
1 0 0.856367
0.000320439 0.0615549 0.863264
0.0619516 0.0544289 0.862226
0.234379 0.0536049 0.860838
0.413886 0.0530861 0.8598
0.590219 0.0523995 0.858763
0.76434 0.0518807 0.857313
0.927871 0.051194 0.857328
0.994888 0.0506752 0.858473
1 0.0499886 0.857053
0.000320439 0.212818 0.864317
0.0612345 0.207767 0.863264
0.223651 0.196582 0.861891
0.408453 0.194568 0.860838
0.587625 0.193576 0.8598
0.763485 0.192248 0.858412
0.927871 0.191257 0.858167
0.994888 0.189929 0.858457
1 0.188922 0.856611
0.000320439 0.37937 0.865354
0.0610513 0.376425 0.864317
0.222156 0.368948 0.863264
0.402579 0.362249 0.861891
0.584573 0.360433 0.860838
0.762417 0.359365 0.859449
0.927871 0.357931 0.858915
0.994888 0.356847 0.858289
1 0.355413 0.85594
0.000320439 0.550851 0.866392
0.0610513 0.548455 0.865354
0.222156 0.544244 0.864317
0.401663 0.539284 0.862928
0.581918 0.535943 0.861891
0.761563 0.534325 0.860502
0.927871 0.533211 0.859709
0.994858 0.532082 0.858763
1 0.530602 0.85597
0.000320439 0.725704 0.867781
0.0610513 0.723796 0.866392
0.222156 0.721416 0.865354
0.401663 0.718502 0.863966
0.581567 0.716258 0.862928
0.761059 0.71429 0.86154
0.927871 0.713146 0.860502
0.994858 0.711635 0.859266
1 0.710491 0.857008
0.000320439 0.897993 0.869383
0.0610513 0.897047 0.867933
0.222156 0.895766 0.866712
0.401663 0.894804 0.865187
0.581567 0.893553 0.864042
0.760998 0.892622 0.862928
0.927871 0.891402 0.86154
0.994858 0.890471 0.860487
1 0.88922 0.859098
0.000320439 0.990692 0.873579
0.0610513 0.990539 0.871778
0.222156 0.990433 0.869764
0.401663 0.99028 0.867185
0.581567 0.990158 0.865339
0.760998 0.990005 0.863859
0.92781 0.989899 0.862577
0.994858 0.9897 0.86154
1 0.989334 0.860151
0.000320439 1 0.874693
0.0610513 1 0.872816
0.222156 0.999985 0.870207
0.401297 0.999969 0.867414
0.581567 0.999969 0.865034
0.760998 0.999954 0.864118
0.927672 0.999939 0.8636
0.994705 0.999924 0.862577
1 0.999908 0.861189
0.000442512 0.00047303 0.982757
0.0693523 0.000244144 0.982116
0.239445 0 0.981643
0.417655 0 0.981018
0.593637 0 0.980545
0.767849 0 0.980072
0.929992 0 0.979431
0.994919 0 0.979278
1 0 0.978592
0.000396735 0.06215 0.98323
0.0619516 0.0547951 0.982605
0.235645 0.0537728 0.982116
0.415747 0.053254 0.981643
0.592279 0.0525673 0.981018
0.767315 0.0520485 0.980545
0.929808 0.0513619 0.979919
0.994919 0.0508583 0.97969
1 0.0501717 0.979004
0.000396735 0.214221 0.983703
0.0612345 0.208896 0.983078
0.224109 0.196933 0.982605
0.409598 0.194903 0.982116
0.588937 0.193912 0.981491
0.765682 0.192584 0.981018
0.929335 0.191577 0.980392
0.994888 0.190249 0.980056
1 0.189258 0.979339
0.000396735 0.381353 0.984176
0.0612345 0.378164 0.983703
0.222522 0.36997 0.983078
0.403052 0.362646 0.982605
0.585122 0.3608 0.981964
0.763699 0.359716 0.981491
0.928771 0.358282 0.980865
0.994888 0.357214 0.980407
1 0.355779 0.979522
0.000396735 0.553429 0.984649
0.0612345 0.55079 0.984176
0.222522 0.545815 0.983551
0.402029 0.540078 0.983078
0.582345 0.536324 0.982437
0.762173 0.535058 0.981964
0.928359 0.533578 0.981491
0.994888 0.532464 0.980804
1 0.530968 0.979843
0.000396735 0.728878 0.985122
0.0612345 0.72668 0.984649
0.222522 0.723491 0.984024
0.402029 0.719676 0.983551
0.581933 0.716808 0.98291
0.761395 0.714656 0.982437
0.928115 0.713512 0.981964
0.994888 0.712001 0.981247
1 0.710872 0.980316
0.000396735 0.900999 0.985595
0.0612345 0.899779 0.985122
0.222522 0.897765 0.984497
0.401663 0.895949 0.984024
0.581933 0.894133 0.983551
0.761364 0.892851 0.98291
0.928115 0.891707 0.982437
0.994888 0.890806 0.981735
1 0.889586 0.980987
0.000320439 0.990738 0.98613
0.0612345 0.990585 0.985656
0.222522 0.990463 0.985
0.401663 0.990311 0.984497
0.581933 0.990204 0.984009
0.761364 0.990051 0.983368
0.927871 0.989929 0.982895
0.994888 0.989822 0.982284
1 0.989639 0.981811
0.000320439 1 0.986587
0.0612345 1 0.986114
0.222522 1 0.985443
0.401663 0.999985 0.984558
0.581933 0.999969 0.984009
0.761364 0.999954 0.983383
0.927871 0.999939 0.983108
0.994858 0.999924 0.982757
1 0.999908 0.982284
0.000503548 0.000534066 0.99968
0.0694285 0.00030518 0.99968
0.240009 0.000122072 0.999649
0.418326 0 0.999634
0.594064 0 0.999619
0.768719 0 0.999603
0.930739 0 0.999588
0.994965 0 0.999573
1 0 0.999542
0.000457771 0.0623941 0.999695
0.0621195 0.0549477 0.99968
0.236103 0.0539406 0.999664
0.416327 0.0534218 0.999649
0.592935 0.0527352 0.999634
0.768063 0.0522316 0.999619
0.930465 0.051545 0.999603
0.994949 0.0510262 0.999588
1 0.0503395 0.999557
0.000457771 0.21471 0.99971
0.0614176 0.209308 0.999695
0.224445 0.197253 0.99968
0.409903 0.195239 0.999664
0.589212 0.194247 0.999649
0.765911 0.19292 0.999634
0.929549 0.191913 0.999619
0.994904 0.190585 0.999603
1 0.189593 0.999573
0.000457771 0.381933 0.999725
0.0614176 0.378683 0.99971
0.222889 0.370245 0.999695
0.403372 0.362982 0.99968
0.585184 0.361151 0.999664
0.763546 0.360082 0.999649
0.928573 0.358648 0.999634
0.994827 0.357565 0.999619
1 0.356497 0.999573
0.000396735 0.554101 0.999741
0.0614176 0.551354 0.999725
0.222889 0.546029 0.99971
0.402029 0.54052 0.999695
0.582605 0.53666 0.99968
0.761929 0.535439 0.999664
0.927596 0.533944 0.999649
0.994781 0.53283 0.999634
1 0.53135 0.999619
0.000396735 0.729595 0.999756
0.0614176 0.727306 0.999741
0.222889 0.723644 0.999725
0.402029 0.719478 0.99971
0.5823 0.716686 0.999695
0.761608 0.714992 0.99968
0.927459 0.713893 0.999664
0.994797 0.712383 0.999649
1 0.711254 0.999634
0.000396735 0.90161 0.999771
0.0614176 0.900343 0.999756
0.222889 0.897795 0.999741
0.402029 0.895521 0.999725
0.5823 0.893416 0.99971
0.76173 0.892515 0.999695
0.927993 0.891981 0.99968
0.994812 0.891112 0.999664
1 0.889891 0.999619
0.000396735 0.990799 0.999786
0.0614176 0.990646 0.999771
0.222889 0.990387 0.999756
0.402029 0.990158 0.999741
0.5823 0.989929 0.999725
0.76173 0.989822 0.99971
0.928161 0.989761 0.999695
0.994904 0.989853 0.99968
1 0.9897 0.999649
0.000396735 1 0.999802
0.0614176 1 0.999771
0.222889 1 0.999756
0.402029 0.999985 0.999741
0.5823 0.999969 0.999741
0.76173 0.999954 0.999725
0.928161 0.999939 0.99968
0.994919 0.999924 0.99968
1 0.999924 0.99968
