iOSLOG2LUTConverter/Resources/Secondary LUTS/GAME OF THRONES.cube
TITLE "Generated by Resolve"
LUT_3D_SIZE 5
0 0 0
0.220356 0 0
0.580102 0 0
0.926467 0 0
1 0 0
0 0.195895 0.000183108
0.220645 0.194125 0
0.580102 0.201419 0
0.926467 0.203647 0
1 0.202106 0
0 0.538781 0.000396735
0.230854 0.536171 0.000183108
0.58027 0.535012 0
0.926467 0.541741 0
1 0.540978 0
0 0.895979 0.000656138
0.236179 0.893843 0.000366217
0.589151 0.891707 0.00015259
0.926635 0.890532 0
1 0.890959 0
0 0.999985 0.000869764
0.237339 0.999969 0.000549325
0.591485 0.999939 0.000335698
0.928512 0.999908 0.000122072
1 0.999878 0
0.000137331 0.000122072 0.152361
0.221332 0 0.150805
0.580468 0 0.157549
0.927031 0 0.159915
1 0 0.15845
0.000137331 0.196979 0.154681
0.221073 0.194247 0.152041
0.580468 0.192966 0.151019
0.927031 0.191226 0.14931
1 0.189364 0.147234
6.10361e-05 0.539513 0.165347
0.222187 0.536919 0.15465
0.580789 0.535195 0.152041
0.926757 0.53843 0.149874
1 0.536614 0.147707
6.10361e-05 0.89659 0.172137
0.22266 0.894453 0.156756
0.586358 0.892317 0.153903
0.926863 0.890806 0.151736
1 0.889754 0.149569
6.10361e-05 1 0.175082
0.222232 0.999969 0.158709
0.587289 0.999939 0.155764
0.927764 0.999924 0.153597
1 0.999893 0.151431
0.000213626 0.000259403 0.486427
0.232029 0 0.483742
0.581552 0 0.482902
0.927306 0 0.490196
1 0 0.489342
0.000198367 0.206836 0.488746
0.222782 0.195682 0.486046
0.58143 0.19292 0.48481
0.927306 0.190585 0.488045
1 0.188266 0.486122
0.000198367 0.541024 0.492226
0.221439 0.538109 0.489403
0.581201 0.535058 0.486046
0.927306 0.532753 0.483558
1 0.530083 0.480812
0.000198367 0.8972 0.504402
0.221439 0.895064 0.497322
0.581613 0.892927 0.488472
0.927352 0.89099 0.485664
1 0.887831 0.482963
0.000198367 1 0.508904
0.221439 0.999985 0.500481
0.581155 0.999954 0.490761
0.926604 0.999924 0.487968
1 0.999893 0.485283
0.000366217 0.000396735 0.862226
0.237888 0 0.8598
0.590997 0 0.857313
0.927871 0 0.856245
1 0 0.856367
0.000320439 0.212818 0.864317
0.223651 0.196582 0.861891
0.587625 0.193576 0.8598
0.927871 0.191257 0.858167
1 0.188922 0.856611
0.000320439 0.550851 0.866392
0.222156 0.544244 0.864317
0.581918 0.535943 0.861891
0.927871 0.533211 0.859709
1 0.530602 0.85597
0.000320439 0.897993 0.869383
0.222156 0.895766 0.866712
0.581567 0.893553 0.864042
0.927871 0.891402 0.86154
1 0.88922 0.859098
0.000320439 1 0.874693
0.222156 0.999985 0.870207
0.581567 0.999969 0.865034
0.927672 0.999939 0.8636
1 0.999908 0.861189
0.000503548 0.000534066 0.99968
0.240009 0.000122072 0.999649
0.594064 0 0.999619
0.930739 0 0.999588
1 0 0.999542
0.000457771 0.21471 0.99971
0.224445 0.197253 0.99968
0.589212 0.194247 0.999649
0.929549 0.191913 0.999619
1 0.189593 0.999573
0.000396735 0.554101 0.999741
0.222889 0.546029 0.99971
0.582605 0.53666 0.99968
0.927596 0.533944 0.999649
1 0.53135 0.999619
0.000396735 0.90161 0.999771
0.222889 0.897795 0.999741
0.5823 0.893416 0.99971
0.927993 0.891981 0.99968
1 0.889891 0.999619
0.000396735 1 0.999802
0.222889 1 0.999756
0.5823 0.999969 0.999741
0.928161 0.999939 0.99968
1 0.999924 0.99968
