iOSLOG2LUTConverter/Resources/Secondary LUTS/GAME OF THRONES.cube
TITLE "Generated by Resolve"
LUT_3D_SIZE 33
0 0 0
0.00807202 0 0
0.0161288 0 0
0.0376287 0 0
0.0603037 0 0
0.0956588 0 0
0.133165 0 0
0.175937 0 0
0.220356 0 0
0.265034 0 0
0.309834 0 0
0.354788 0 0
0.399832 0 0
0.444907 0 0
0.489998 0 0
0.535073 0 0
0.580102 0 0
0.625101 0 0
0.669642 0 0
0.714504 0 0
0.759182 0 0
0.80383 0 0
0.848325 0 0
0.89192 0 0
0.926467 0 0
0.960845 0 0
0.975418 0 0
0.989975 0 0
0.99472 0 0
0.998688 0 0
0.999588 0 0
0.999924 0 0
1 0 0
0 0.007187 3.0518e-05
0.00807202 0.00712596 0
0.0161288 0.00706493 0
0.0376287 0.00695811 0
0.0603037 0.0068513 0
0.0956588 0.00686656 0
0.133165 0.0068513 0
0.175937 0.0068513 0
0.220356 0.0068513 0
0.265034 0.0068513 0
0.309834 0.0068513 0
0.354788 0.0068513 0
0.399832 0.0068513 0
0.444907 0.00689708 0
0.489998 0.00688182 0
0.535073 0.00686656 0
0.580102 0.00683604 0
0.625101 0.00682078 0
0.669642 0.00677501 0
0.714504 0.00674449 0
0.759182 0.00669871 0
0.80383 0.00672923 0
0.848325 0.00666819 0
0.89192 0.00662242 0
0.926467 0.00657664 0
0.960845 0.0065156 0
0.975418 0.00646983 0
0.989975 0.00640879 0
0.99472 0.00640879 0
0.998688 0.00634775 0
0.999588 0.00627146 0
0.999924 0.00621042 0
1 0.00613413 0
0 0.0143587 6.10361e-05
0.00807202 0.0142977 3.0518e-05
0.0161288 0.0142367 0
0.0376287 0.0140841 0
0.0603037 0.0139315 0
0.0956588 0.0139162 0
0.133165 0.0139925 0
0.175937 0.0140536 0
0.220356 0.0141299 0
0.265034 0.0141909 0
0.309834 0.0142672 0
0.354788 0.0143282 0
0.399832 0.0143893 0
0.444907 0.014435 0
0.489998 0.0145418 0
0.535073 0.0145724 0
0.580102 0.0145876 0
0.625101 0.0146029 0
0.669642 0.0146029 0
0.714504 0.0146029 0
0.759182 0.0145876 0
0.80383 0.0146334 0
0.848325 0.0146029 0
0.89192 0.0145724 0
0.926467 0.0145418 0
0.960845 0.0145113 0
0.975418 0.0144503 0
0.989975 0.0144045 0
0.99472 0.0143587 0
0.998688 0.0143587 0
0.999588 0.0142977 0
0.999924 0.0142214 0
1 0.0141451 0
0 0.0331731 6.10361e-05
0.00801099 0.0330053 3.0518e-05
0.0160372 0.0328222 3.0518e-05
0.0375677 0.0325933 0
0.0603037 0.0323491 0
0.0953536 0.0323186 0
0.133165 0.0323339 0
0.175937 0.0326085 0
0.220356 0.0327306 0
0.265034 0.0328527 0
0.309834 0.03299 0
0.354788 0.0330968 0
0.399832 0.0331884 0
0.444907 0.0332647 0
0.489998 0.0334936 0
0.535073 0.0335241 0
0.580102 0.0335241 0
0.625101 0.0335088 0
0.669642 0.0334783 0
0.714504 0.0334325 0
0.759182 0.0333562 0
0.80383 0.0332799 0
0.848325 0.0333715 0
0.89192 0.0332647 0
0.926467 0.0331273 0
0.960845 0.0330053 0
0.975418 0.0328527 0
0.989975 0.0327001 0
0.99472 0.0325322 0
0.998688 0.0323491 0
0.999588 0.0323491 0
0.999924 0.0321355 0
1 0.0319371 0
0 0.0537728 9.15541e-05
0.00796521 0.0536049 6.10361e-05
0.0159304 0.0534218 3.0518e-05
0.0375067 0.0532387 3.0518e-05
0.0602884 0.0530556 0
0.0953536 0.0531319 0
0.133165 0.053254 0
0.175937 0.0536965 0
0.220356 0.0540169 0
0.265034 0.0543374 0
0.309834 0.0546731 0
0.354788 0.0549783 0
0.399832 0.0552682 0
0.444907 0.0554971 0
0.489998 0.0557107 0
0.535073 0.0560616 0
0.580102 0.056199 0
0.624735 0.0563058 0
0.669642 0.0563668 0
0.714504 0.0564279 0
0.759182 0.0564279 0
0.80383 0.0564279 0
0.848325 0.0563821 0
0.89192 0.0565347 0
0.926467 0.0564584 0
0.960845 0.0563668 0
0.975418 0.0562448 0
0.989975 0.0561379 0
0.99472 0.0559701 0
0.998688 0.0558175 0
0.999588 0.0558022 0
0.999924 0.0555886 0
1 0.0553902 0
0 0.0841382 0.000122072
0.00798047 0.0841382 9.15541e-05
0.0159609 0.0838483 6.10361e-05
0.0376287 0.0835584 3.0518e-05
0.0605173 0.0832685 0
0.0955062 0.0831769 0
0.133196 0.0831159 0
0.175937 0.0834516 0
0.220356 0.084184 0
0.265034 0.0846418 0
0.309834 0.0851301 0
0.354788 0.0855573 0
0.399832 0.0859541 0
0.444907 0.0862898 0
0.489998 0.0865644 0
0.535073 0.0867933 0
0.580102 0.0872663 0
0.624735 0.0874037 0
0.669642 0.08748 0
0.714504 0.0875257 0
0.759182 0.0875257 0
0.80383 0.0874952 0
0.848325 0.0874189 0
0.89192 0.0876326 0
0.926467 0.0874952 0
0.960845 0.0873426 0
0.975418 0.0871443 0
0.989975 0.0869459 0
0.99472 0.0867018 0
0.998688 0.0864424 0
0.999588 0.0861067 0
0.999924 0.0860761 0
1 0.0857557 0
0 0.118441 0.00015259
0.00802625 0.118441 0.000122072
0.0160525 0.118151 9.15541e-05
0.0378424 0.117861 6.10361e-05
0.060853 0.117571 3.0518e-05
0.0957198 0.117357 0
0.133242 0.117144 0
0.175937 0.117617 0
0.220356 0.118334 0
0.265034 0.119356 0
0.309834 0.120119 0
0.354788 0.120806 0
0.399832 0.121462 0
0.444907 0.122011 0
0.489998 0.122499 0
0.535073 0.122911 0
0.580102 0.123568 0
0.624735 0.123857 0
0.669642 0.124056 0
0.714504 0.124239 0
0.759182 0.124346 0
0.80383 0.124422 0
0.848325 0.124422 0
0.89192 0.124392 0
0.926467 0.12462 0
0.960845 0.124544 0
0.975418 0.124376 0
0.989975 0.124208 0
0.99472 0.12398 0
0.998657 0.123751 0
0.999588 0.123415 0
0.999924 0.123064 0
1 0.123049 0
0 0.156039 0.00015259
0.00808728 0.155703 0.00015259
0.0161593 0.155703 0.000122072
0.038117 0.155367 9.15541e-05
0.0611124 0.155032 6.10361e-05
0.0962692 0.154696 3.0518e-05
0.133883 0.154376 0
0.176349 0.154665 0
0.220462 0.155169 0
0.265034 0.155993 0
0.309834 0.157275 0
0.354788 0.15816 0
0.399832 0.158984 0
0.444907 0.159701 0
0.489998 0.160327 0
0.535073 0.160876 0
0.580102 0.161349 0
0.624735 0.162081 0
0.669642 0.162371 0
0.714504 0.162631 0
0.759182 0.162799 0
0.80383 0.162951 0
0.848325 0.162982 0
0.89192 0.162997 0
0.926467 0.162936 0
0.960845 0.163226 0
0.975418 0.163058 0
0.989975 0.162905 0
0.99472 0.162661 0
0.998657 0.162417 0
0.999588 0.162051 0
0.999924 0.161654 0
1 0.161639 0
0 0.195895 0.000183108
0.00814832 0.195575 0.00015259
0.0162966 0.195239 0.000122072
0.0384527 0.195239 0.000122072
0.0616464 0.194903 9.15541e-05
0.0970932 0.194568 6.10361e-05
0.135027 0.194247 3.0518e-05
0.177127 0.194141 0
0.220645 0.194125 0
0.265034 0.194903 0
0.309834 0.196384 0
0.354788 0.197452 0
0.399832 0.198459 0
0.444907 0.199344 0
0.489998 0.200122 0
0.535073 0.200824 0
0.580102 0.201419 0
0.624735 0.201938 0
0.669642 0.20267 0
0.714504 0.203021 0
0.759182 0.203265 0
0.80383 0.203494 0
0.848325 0.203571 0
0.89192 0.203662 0
0.926467 0.203647 0
0.960845 0.203967 0
0.975418 0.203845 0
0.989975 0.203708 0
0.99472 0.203479 0
0.998657 0.20325 0
0.999588 0.202869 0
0.999924 0.202472 0
1 0.202106 0
0 0.236591 0.000213626
0.00822461 0.23624 0.000183108
0.0164492 0.235889 0.00015259
0.0388037 0.235889 0.000122072
0.062211 0.235554 0.000122072
0.0979477 0.235203 9.15541e-05
0.136187 0.234852 6.10361e-05
0.178164 0.234501 3.0518e-05
0.221408 0.234165 0
0.265476 0.234684 0
0.309957 0.23566 0
0.354788 0.237095 0
0.399832 0.23827 0
0.444907 0.239322 0
0.489998 0.240253 0
0.535073 0.241077 0
0.579736 0.241779 0
0.624735 0.24242 0
0.669642 0.243259 0
0.714504 0.243702 0
0.759182 0.244022 0
0.80383 0.244312 0
0.848325 0.24445 0
0.89192 0.244587 0
0.926467 0.244617 0
0.960845 0.244633 0
0.975418 0.244877 0
0.989975 0.24477 0
0.99472 0.244556 0
0.998657 0.244327 0
0.999588 0.243931 0
0.999924 0.243503 0
1 0.243137 0
0 0.278233 0.000244144
0.00830091 0.277897 0.000213626
0.0165866 0.277546 0.000183108
0.0391546 0.277195 0.00015259
0.0627756 0.277195 0.000122072
0.0988174 0.276844 9.15541e-05
0.137377 0.276509 9.15541e-05
0.179583 0.276158 6.10361e-05
0.223026 0.275807 3.0518e-05
0.266606 0.275837 0
0.310292 0.276051 0
0.354788 0.276951 0
0.399832 0.27866 0
0.444907 0.279896 0
0.489998 0.28098 0
0.535073 0.281956 0
0.579736 0.282765 0
0.624735 0.283513 0
0.669642 0.284123 0
0.714504 0.285023 0
0.759182 0.285405 0
0.80383 0.285771 0
0.848325 0.285985 0
0.89192 0.286183 0
0.926467 0.286259 0
0.960845 0.28632 0
0.975418 0.286229 0
0.989975 0.286488 0
0.99472 0.286305 0
0.998657 0.286091 0
0.999588 0.285695 0
0.999924 0.285252 0
1 0.284886 0
0 0.320317 0.000259403
0.00836194 0.319966 0.000244144
0.0167391 0.3196 0.000213626
0.0394903 0.319249 0.000183108
0.0633249 0.318883 0.00015259
0.0996719 0.318883 0.000122072
0.138552 0.318532 9.15541e-05
0.180972 0.318166 9.15541e-05
0.224598 0.317815 6.10361e-05
0.267872 0.317464 3.0518e-05
0.310994 0.317098 0
0.355108 0.317708 0
0.399939 0.319341 0
0.444907 0.320623 0
0.489998 0.321859 0
0.535073 0.322957 0
0.579736 0.323888 0
0.624735 0.324758 0
0.669642 0.32546 0
0.714504 0.326116 0
0.759182 0.326925 0
0.80383 0.327352 0
0.848325 0.327626 0
0.89192 0.327886 0
0.926467 0.327993 0
0.960845 0.328115 0
0.975418 0.328038 0
0.989975 0.328313 0
0.99469 0.328145 0
0.998657 0.327947 0
0.999588 0.327535 0
0.999924 0.327077 0
1 0.326696 0
0 0.363302 0.000289921
0.00843824 0.362936 0.000244144
0.0168612 0.362585 0.000244144
0.0396124 0.362219 0.000213626
0.0638285 0.361868 0.000183108
0.10045 0.361868 0.00015259
0.13962 0.361501 0.000122072
0.182239 0.361151 9.15541e-05
0.226047 0.3608 6.10361e-05
0.269505 0.360433 6.10361e-05
0.312795 0.360082 3.0518e-05
0.356466 0.360174 0
0.400381 0.360601 0
0.444907 0.361852 0
0.489998 0.363241 0
0.535073 0.364492 0
0.579736 0.365545 0
0.624735 0.366537 0
0.669642 0.367346 0
0.714504 0.368109 0
0.759182 0.368658 0
0.80383 0.369512 0
0.848325 0.369848 0
0.89192 0.370169 0
0.926467 0.370321 0
0.960845 0.370474 0
0.975418 0.370459 0
0.989975 0.370428 0
0.99469 0.370611 0
0.998657 0.370428 0
0.999588 0.370001 0
0.999924 0.369543 0
1 0.369162 0
0 0.406439 0.000320439
0.00849927 0.406073 0.000289921
0.0169985 0.405707 0.000244144
0.0399176 0.405356 0.000213626
0.064332 0.40499 0.000213626
0.101213 0.404623 0.000183108
0.140658 0.404623 0.00015259
0.18349 0.404257 0.000122072
0.227451 0.403891 9.15541e-05
0.271092 0.403525 6.10361e-05
0.314565 0.403159 3.0518e-05
0.357839 0.402792 3.0518e-05
0.400977 0.402426 0
0.445045 0.40296 0
0.490043 0.40473 0
0.535073 0.406073 0
0.579736 0.407263 0
0.624735 0.408362 0
0.669642 0.409277 0
0.714504 0.410117 0
0.759182 0.410758 0
0.80383 0.411704 0
0.848325 0.4121 0
0.89192 0.412467 0
0.926467 0.412665 0
0.960845 0.412863 0
0.975418 0.412863 0
0.989975 0.412879 0
0.99469 0.412726 0
0.998657 0.412909 0
0.999588 0.412482 0
0.999924 0.411994 0
1 0.411612 0
0 0.450294 0.000366217
0.00854505 0.449943 0.000320439
0.0171054 0.449577 0.000274662
0.040177 0.44921 0.000244144
0.0647746 0.448844 0.000213626
0.101869 0.448478 0.000213626
0.141543 0.448112 0.000183108
0.184543 0.448112 0.00015259
0.228656 0.447745 0.000122072
0.27245 0.447379 9.15541e-05
0.316075 0.447013 6.10361e-05
0.359487 0.446647 3.0518e-05
0.402762 0.446281 3.0518e-05
0.446448 0.446372 0
0.490562 0.447288 0
0.534707 0.448157 0
0.579736 0.449485 0
0.624735 0.450706 0
0.669642 0.451743 0
0.714504 0.452689 0
0.759182 0.453407 0
0.80383 0.454063 0
0.848325 0.454856 0
0.89192 0.455283 0
0.926467 0.455543 0
0.960845 0.455787 0
0.975418 0.455817 0
0.989975 0.455848 0
0.99469 0.455711 0
0.998657 0.455924 0
0.999588 0.455467 0
0.999924 0.454963 0
1 0.454582 0
0 0.494194 0.000396735
0.00860609 0.493828 0.000350958
0.0171969 0.493462 0.00030518
0.0404517 0.49308 0.000274662
0.0652018 0.492714 0.000244144
0.102525 0.492348 0.000213626
0.142428 0.491966 0.000183108
0.185595 0.491966 0.000183108
0.229847 0.4916 0.00015259
0.273793 0.491234 0.000122072
0.317571 0.490867 9.15541e-05
0.361135 0.490501 6.10361e-05
0.404547 0.490135 3.0518e-05
0.447852 0.489784 0
0.491081 0.489479 0
0.534707 0.490242 0
0.579736 0.491707 0
0.624735 0.493065 0
0.669642 0.494194 0
0.714504 0.495247 0
0.759182 0.49604 0
0.80383 0.496788 0
0.848325 0.497276 0
0.89192 0.4981 0
0.926467 0.498421 0
0.960845 0.498726 0
0.975418 0.498772 0
0.989853 0.498802 0
0.99469 0.498695 0
0.998657 0.498589 0
0.999588 0.498482 0
0.999924 0.497963 0
1 0.497566 0
0 0.538781 0.000396735
0.00865187 0.538399 0.000350958
0.0172885 0.538033 0.000335698
0.0406653 0.537667 0.00030518
0.0655528 0.537285 0.000274662
0.103059 0.536919 0.000244144
0.14316 0.536553 0.000213626
0.186465 0.536171 0.000183108
0.230854 0.536171 0.000183108
0.274907 0.535805 0.00015259
0.318791 0.535439 0.000122072
0.362478 0.535058 9.15541e-05
0.406027 0.534691 6.10361e-05
0.449424 0.534325 3.0518e-05
0.492699 0.533944 0
0.536019 0.533989 0
0.58027 0.535012 0
0.624735 0.535866 0
0.669642 0.537102 0
0.714504 0.538247 0
0.759182 0.539117 0
0.80383 0.539925 0
0.848325 0.54049 0
0.89192 0.54139 0
0.926467 0.541741 0
0.960845 0.542077 0
0.975418 0.542153 0
0.989853 0.542214 0
0.99469 0.542123 0
0.998657 0.542 0
0.999588 0.541543 0
0.999924 0.541375 0
1 0.540978 0
0 0.582986 0.000427253
0.00868238 0.582986 0.000381476
0.017319 0.582605 0.000335698
0.0408789 0.582238 0.000335698
0.0659037 0.581872 0.00030518
0.103609 0.581491 0.000274662
0.143908 0.581125 0.000244144
0.18735 0.580758 0.000213626
0.231846 0.580377 0.000183108
0.27602 0.580377 0.00015259
0.320027 0.580011 0.00015259
0.363821 0.579644 0.000122072
0.407477 0.579263 9.15541e-05
0.450996 0.578897 6.10361e-05
0.494377 0.578531 3.0518e-05
0.537423 0.578225 0
0.580819 0.578378 0
0.624735 0.578698 0
0.669642 0.580056 0
0.714504 0.581292 0
0.759182 0.582238 0
0.80383 0.583124 0
0.848325 0.583764 0
0.89192 0.584375 0
0.926467 0.585122 0
0.960845 0.585504 0
0.975418 0.585595 0
0.989853 0.585702 0
0.99469 0.585611 0
0.998657 0.585504 0
0.999588 0.585046 0
0.999924 0.584527 0
1 0.584482 0
0 0.628031 0.00047303
0.00872816 0.627649 0.000411994
0.01738 0.627649 0.000366217
0.041062 0.627283 0.000335698
0.0662089 0.626902 0.00030518
0.104051 0.62652 0.00030518
0.144518 0.626154 0.000274662
0.188067 0.625772 0.000244144
0.23267 0.625406 0.000213626
0.276951 0.625406 0.000183108
0.32105 0.625025 0.00015259
0.36495 0.624643 0.000122072
0.408713 0.624277 0.000122072
0.452338 0.623896 9.15541e-05
0.495476 0.623514 6.10361e-05
0.538903 0.623148 3.0518e-05
0.582208 0.622766 0
0.625849 0.623133 0
0.670115 0.623835 0
0.714504 0.624643 0
0.759182 0.625681 0
0.80383 0.626657 0
0.848325 0.627329 0
0.89192 0.628 0
0.926467 0.628412 0
0.960845 0.629206 0
0.975418 0.629343 0
0.989853 0.62948 0
0.99469 0.629404 0
0.998657 0.629313 0
0.999588 0.628855 0
0.999924 0.628305 0
1 0.628275 0
0 0.673121 0.000503548
0.00875868 0.67274 0.000442512
0.0174563 0.67274 0.000396735
0.0412299 0.672374 0.000366217
0.0664836 0.671992 0.000335698
0.104494 0.671626 0.00030518
0.145098 0.671244 0.00030518
0.188769 0.670863 0.000274662
0.233463 0.670497 0.000244144
0.277836 0.670115 0.000213626
0.322057 0.670115 0.000183108
0.366049 0.669734 0.00015259
0.409888 0.669367 0.000122072
0.45362 0.668986 0.000122072
0.496864 0.66862 9.15541e-05
0.540398 0.668238 6.10361e-05
0.583795 0.667857 3.0518e-05
0.627222 0.667582 0
0.67071 0.667857 0
0.714504 0.66807 0
0.759182 0.669215 0
0.80383 0.670283 0
0.848325 0.671 0
0.89192 0.671702 0
0.926467 0.672175 0
0.960845 0.673014 0
0.975418 0.673182 0
0.989853 0.673365 0
0.99469 0.67332 0
0.998657 0.673259 0
0.999588 0.67277 0
0.999924 0.672221 0
1 0.671809 0
0 0.718441 0.000503548
0.0087892 0.718059 0.000488289
0.0175021 0.717678 0.000427253
0.0413825 0.717678 0.000396735
0.0667277 0.717296 0.000366217
0.104845 0.716915 0.000335698
0.145602 0.716548 0.00030518
0.189364 0.716167 0.000274662
0.234134 0.715785 0.000274662
0.278584 0.715404 0.000244144
0.322881 0.715038 0.000213626
0.366964 0.715038 0.000183108
0.410895 0.714656 0.00015259
0.454704 0.714275 0.000122072
0.498039 0.713893 9.15541e-05
0.54165 0.713512 9.15541e-05
0.585122 0.713146 6.10361e-05
0.628534 0.712764 3.0518e-05
0.671809 0.712764 0
0.715312 0.712657 0
0.759548 0.713344 0
0.80383 0.714076 0
0.848325 0.71487 0
0.89192 0.715648 0
0.926467 0.716167 0
0.960845 0.71667 0
0.975296 0.71725 0
0.989853 0.717464 0
0.99469 0.717418 0
0.998657 0.717357 0
0.999588 0.716869 0
0.999924 0.716304 0
1 0.715877 0
0 0.763806 0.000549325
0.00881971 0.763424 0.000488289
0.0175631 0.763058 0.000427253
0.0415045 0.762676 0.000427253
0.0669566 0.762676 0.000396735
0.10518 0.762295 0.000366217
0.146059 0.761913 0.000335698
0.189914 0.761532 0.00030518
0.23476 0.761166 0.000274662
0.279286 0.760784 0.000274662
0.323644 0.760403 0.000244144
0.367803 0.760403 0.000213626
0.411826 0.760021 0.000183108
0.455711 0.75964 0.00015259
0.499107 0.759274 0.000122072
0.542779 0.758892 9.15541e-05
0.586328 0.758511 9.15541e-05
0.629801 0.758129 6.10361e-05
0.673152 0.757763 3.0518e-05
0.716564 0.757839 0
0.760113 0.757824 0
0.80383 0.757961 0
0.848325 0.758877 0
0.89192 0.759747 0
0.926467 0.760296 0
0.960845 0.760861 0
0.975296 0.76109 0
0.989853 0.761685 0
0.99469 0.761654 0
0.998657 0.761593 0
0.999588 0.76109 0
0.999924 0.76051 0
1 0.760082 0
0 0.809369 0.000579843
0.00875868 0.808988 0.000518807
0.0176089 0.808606 0.000457771
0.0416266 0.808225 0.000427253
0.0671397 0.808225 0.000427253
0.10547 0.807843 0.000396735
0.146441 0.807462 0.000366217
0.190372 0.80708 0.000335698
0.235294 0.806699 0.00030518
0.279881 0.806317 0.000274662
0.324315 0.805936 0.000244144
0.368536 0.80557 0.000244144
0.412619 0.80557 0.000213626
0.45658 0.805188 0.000183108
0.500038 0.804807 0.00015259
0.54377 0.804425 0.000122072
0.587381 0.804044 9.15541e-05
0.63093 0.803662 6.10361e-05
0.674357 0.803281 6.10361e-05
0.717739 0.802899 3.0518e-05
0.760998 0.802899 0
0.804395 0.802686 0
0.848585 0.803326 0
0.89192 0.803967 0
0.926467 0.804578 0
0.960845 0.805173 0
0.975296 0.805432 0
0.989853 0.806073 0
0.99469 0.806043 0
0.998657 0.805982 0
0.999588 0.805478 0
0.999924 0.804868 0
1 0.80444 0
0 0.855024 0.000610361
0.00877394 0.854643 0.000549325
0.0176394 0.854276 0.000488289
0.0417182 0.853895 0.000457771
0.0673075 0.853513 0.000427253
0.10573 0.853513 0.000396735
0.146792 0.853132 0.000396735
0.190784 0.85275 0.000366217
0.235752 0.852369 0.000335698
0.2804 0.851987 0.00030518
0.324895 0.851606 0.000274662
0.369177 0.851225 0.000244144
0.413321 0.850843 0.000213626
0.456977 0.850843 0.000213626
0.500847 0.850462 0.000183108
0.54464 0.85008 0.00015259
0.588312 0.849699 0.000122072
0.631937 0.849317 9.15541e-05
0.675425 0.848936 6.10361e-05
0.718868 0.848554 6.10361e-05
0.762158 0.848554 3.0518e-05
0.805493 0.848249 0
0.849119 0.848264 0
0.89192 0.848341 0
0.926467 0.848997 0
0.960845 0.849638 0
0.975296 0.849958 0
0.989853 0.850278 0
0.99469 0.850629 0
0.998657 0.850584 0
0.999588 0.850065 0
0.999924 0.849454 0
1 0.849027 0
0 0.895979 0.000656138
0.0087892 0.895674 0.000579843
0.0176699 0.895369 0.000518807
0.0418097 0.895064 0.000488289
0.0674449 0.894759 0.000457771
0.105943 0.894453 0.000427253
0.147097 0.894453 0.000396735
0.19115 0.894148 0.000396735
0.236179 0.893843 0.000366217
0.280873 0.893538 0.000335698
0.325414 0.893233 0.00030518
0.369757 0.892927 0.000274662
0.413947 0.892622 0.000244144
0.457649 0.892622 0.000213626
0.501564 0.892317 0.000213626
0.545419 0.892012 0.000183108
0.589151 0.891707 0.00015259
0.632822 0.891402 0.000122072
0.676371 0.891112 9.15541e-05
0.71986 0.890806 6.10361e-05
0.76321 0.890501 3.0518e-05
0.806546 0.890501 3.0518e-05
0.84979 0.890196 0
0.892256 0.889967 0
0.926635 0.890532 0
0.960845 0.891112 0
0.975296 0.891493 0
0.989853 0.89189 0
0.99469 0.891951 0
0.998657 0.892256 0
0.999588 0.891829 0
0.999924 0.89131 0
1 0.890959 0
0 0.932509 0.000656138
0.00880446 0.932204 0.000579843
0.0177005 0.931899 0.000549325
0.041886 0.931594 0.000518807
0.0675669 0.931289 0.000488289
0.106142 0.930983 0.000457771
0.147356 0.930678 0.000427253
0.191455 0.930678 0.000396735
0.23653 0.930373 0.000366217
0.28127 0.930068 0.000366217
0.325872 0.929763 0.000335698
0.370245 0.929458 0.00030518
0.414481 0.929152 0.000274662
0.458228 0.928847 0.000244144
0.50219 0.928847 0.000213626
0.546075 0.928542 0.000183108
0.589837 0.928237 0.000183108
0.633539 0.927947 0.00015259
0.677119 0.927642 0.000122072
0.720653 0.927337 9.15541e-05
0.76408 0.927031 6.10361e-05
0.807477 0.926726 3.0518e-05
0.850767 0.926726 3.0518e-05
0.893202 0.926452 0
0.927092 0.926528 0
0.960739 0.926619 0
0.975296 0.926863 0
0.989853 0.927092 0
0.99469 0.927108 0
0.998657 0.927382 0
0.999588 0.926986 0
0.999924 0.926513 0
1 0.926177 0
0 0.961196 0.000686656
0.00881971 0.961059 0.000610361
0.017731 0.960922 0.000549325
0.0419471 0.9608 0.000518807
0.067689 0.960662 0.000518807
0.10631 0.960525 0.000488289
0.147585 0.960388 0.000457771
0.19173 0.960388 0.000427253
0.236851 0.96025 0.000396735
0.281636 0.960128 0.000366217
0.326253 0.959991 0.000366217
0.370672 0.959854 0.000335698
0.414954 0.959716 0.00030518
0.458747 0.959594 0.000274662
0.502754 0.959457 0.000244144
0.54667 0.959457 0.000213626
0.590463 0.959319 0.000183108
0.634195 0.959182 0.000183108
0.677806 0.959045 0.00015259
0.721386 0.958923 0.000122072
0.764874 0.958785 9.15541e-05
0.808331 0.958648 6.10361e-05
0.851652 0.958648 3.0518e-05
0.894072 0.958511 0
0.927581 0.958389 0
0.960815 0.958251 0
0.975326 0.95848 0
0.989868 0.958724 0
0.99469 0.958846 0
0.998657 0.958938 0
0.999588 0.958877 0
0.999924 0.958602 0
1 0.95845 0
0 0.977264 0.000717174
0.00883497 0.977142 0.000656138
0.017731 0.977005 0.000579843
0.0420081 0.976867 0.000549325
0.0677653 0.97673 0.000518807
0.106432 0.976593 0.000518807
0.147753 0.976471 0.000488289
0.191928 0.976333 0.000457771
0.237079 0.976333 0.000427253
