iOSLOG2LUTConverter/Resources/Secondary LUTS/GOLD.cube
TITLE "Generated by Resolve"
LUT_3D_SIZE 33
0.0801862 0.0774243 0.0836194
0.0801862 0.0774243 0.0836194
0.0801862 0.0774243 0.0836194
0.0801862 0.0774243 0.0836194
0.0801862 0.0774243 0.0836194
0.0946822 0.0775921 0.0839857
0.114183 0.076173 0.0834669
0.137331 0.0743267 0.0827649
0.166659 0.0726177 0.0821698
0.199405 0.070634 0.0812238
0.241062 0.0675669 0.0793164
0.296178 0.0636454 0.0767071
0.366506 0.0606088 0.0747692
0.441352 0.057435 0.0724346
0.510735 0.0562295 0.0715343
0.578439 0.0556649 0.0711528
0.643137 0.0560311 0.071519
0.701579 0.0574655 0.0728008
0.751842 0.0597848 0.0748608
0.794888 0.0629587 0.0776532
0.832029 0.0664683 0.0807355
0.866163 0.0705882 0.0843366
0.898894 0.074815 0.088014
0.914427 0.0769513 0.0898756
0.914427 0.0769513 0.0898756
0.914427 0.0769513 0.0898756
0.914427 0.0769513 0.0898756
0.914412 0.0768597 0.0901656
0.914183 0.0757153 0.0938277
0.913954 0.0745251 0.097612
0.913817 0.0738842 0.102541
0.913619 0.0730755 0.109194
0.913512 0.0725109 0.114397
0.0801862 0.0774243 0.0836194
0.0801862 0.0774243 0.0836194
0.0801862 0.0774243 0.0836194
0.0801862 0.0774243 0.0836194
0.0801862 0.0774243 0.0836194
0.0972915 0.0776074 0.0840314
0.116228 0.0759442 0.08336
0.138003 0.0742809 0.0827497
0.167391 0.0725872 0.0821546
0.200122 0.0705882 0.0812085
0.241794 0.0675059 0.0792859
0.297124 0.0636149 0.0766918
0.367376 0.0605936 0.0747539
0.442023 0.0573739 0.0723888
0.511238 0.056199 0.0715038
0.57882 0.0556344 0.0711376
0.643503 0.0560769 0.0715648
0.701808 0.0574502 0.0728008
0.751949 0.0597696 0.0748608
0.79498 0.0629587 0.0776532
0.83212 0.0664683 0.0807355
0.866163 0.0705882 0.0843366
0.89897 0.0748302 0.088014
0.914427 0.0769513 0.0898756
0.914427 0.0769513 0.0898756
0.914427 0.0769513 0.0898756
0.914427 0.0769513 0.0898756
0.914412 0.0768597 0.0901656
0.914183 0.0757153 0.0938277
0.913954 0.0745251 0.097612
0.913817 0.0738842 0.102541
0.913619 0.0730755 0.109194
0.913512 0.0725109 0.114397
0.0801862 0.0774243 0.0836194
0.0801862 0.0774243 0.0836194
0.0801862 0.0774243 0.0836194
0.0801862 0.0774243 0.0836194
0.0801862 0.0774243 0.0836194
0.0977035 0.0776074 0.0840467
0.117479 0.0758068 0.083299
0.141405 0.0740826 0.0826886
0.169894 0.0724346 0.0820935
0.200214 0.070573 0.0812085
0.242008 0.0674907 0.0792706
0.297383 0.0635996 0.0766766
0.367651 0.0605631 0.0747387
0.442161 0.0573587 0.0723735
0.511498 0.0561685 0.0714885
0.579065 0.0556954 0.0711833
0.643748 0.0560616 0.0715496
0.702037 0.0574502 0.0727855
0.752163 0.0598459 0.0749065
0.795087 0.0629587 0.0776532
0.832212 0.0664683 0.0807355
0.866255 0.0706035 0.0843366
0.89897 0.0748302 0.088014
0.914427 0.0769513 0.0898756
0.914427 0.0769513 0.0898756
0.914427 0.0769513 0.0898756
0.914427 0.0769513 0.0898756
0.914412 0.0768597 0.0901656
0.914183 0.0757153 0.0938277
0.913954 0.0745251 0.097612
0.913817 0.0738842 0.102541
0.913619 0.0730755 0.109194
0.913512 0.0725109 0.114397
0.0801862 0.0774243 0.0836194
0.0801862 0.0774243 0.0836194
0.0801862 0.0774243 0.0836194
0.0801862 0.0774243 0.0836194
0.0801862 0.0774243 0.0836194
0.0972152 0.0776074 0.0840314
0.117845 0.0757763 0.0832837
0.143603 0.0739605 0.0826581
0.173068 0.0722515 0.082002
0.20621 0.070161 0.0809491
0.243595 0.0673686 0.0791943
0.29688 0.0636454 0.0767071
0.367239 0.0606088 0.0747692
0.441886 0.0573892 0.0724041
0.511238 0.056199 0.0715038
0.578943 0.0556344 0.0711376
0.643748 0.0560616 0.0715496
0.702037 0.0574502 0.0727855
0.75227 0.0598306 0.0749065
0.795178 0.063035 0.0777142
0.832319 0.0664683 0.0807355
0.866346 0.0706035 0.0843366
0.899062 0.0748302 0.0880293
0.914427 0.0769513 0.0898756
0.914427 0.0769513 0.0898756
0.914427 0.0769513 0.0898756
0.914427 0.0769513 0.0898756
0.914412 0.0768597 0.0901656
0.914183 0.0757153 0.0938277
0.913954 0.0745251 0.097612
0.913817 0.0738842 0.102541
0.913619 0.0730755 0.109194
0.913512 0.0725109 0.114397
0.080827 0.0996872 0.0853285
0.080827 0.0981918 0.0852674
0.080827 0.0986648 0.0852979
0.080827 0.0959945 0.0851911
0.0809339 0.0924392 0.0851148
0.0999924 0.0904555 0.0850996
0.124102 0.0874342 0.0843824
0.148074 0.0821241 0.0833295
0.173999 0.0746624 0.0821546
0.20528 0.070222 0.0809949
0.248783 0.0669566 0.0789197
0.3037 0.063386 0.0765698
0.36611 0.0606546 0.0747997
0.441062 0.0574044 0.0724041
0.510613 0.0561685 0.0714885
0.578561 0.0556497 0.0711528
0.643503 0.0560769 0.0715648
0.701915 0.0574502 0.0728008
0.75227 0.0598306 0.0749065
0.795285 0.063035 0.0777142
0.83241 0.0664683 0.0807355
0.866346 0.0706035 0.0843366
0.899062 0.0748302 0.0880293
0.914427 0.0769513 0.0898756
0.914427 0.0769513 0.0898756
0.914427 0.0769513 0.0898756
0.914427 0.0769513 0.0898756
0.914412 0.0768597 0.0901656
0.914183 0.0757153 0.0938277
0.913954 0.0745251 0.097612
0.913817 0.0738842 0.102541
0.913619 0.0730755 0.109194
0.913512 0.0725109 0.114397
0.0793774 0.121859 0.0846571
0.0794995 0.120745 0.0847486
0.0796216 0.119768 0.0848249
0.0798199 0.117861 0.0849622
0.0801556 0.114214 0.0851606
0.097612 0.111315 0.0845808
0.125719 0.109133 0.0837873
0.15285 0.104967 0.0827344
0.17998 0.0988022 0.081651
0.211124 0.0900282 0.080415
0.251423 0.075227 0.0785229
0.3037 0.063386 0.0765698
0.373571 0.0602884 0.0745403
0.439704 0.0574502 0.0724498
0.509728 0.0562295 0.0715496
0.577798 0.0556344 0.0711223
0.642893 0.0560311 0.0715343
0.701579 0.0574655 0.0728008
0.752163 0.0598459 0.0749065
0.795285 0.063035 0.0777142
0.83241 0.0664683 0.0807355
0.866438 0.0706035 0.0843519
0.899153 0.0748302 0.0880293
0.914427 0.0769513 0.0898756
0.914427 0.0769513 0.0898756
0.914427 0.0769513 0.0898756
0.914427 0.0769513 0.0898756
0.914412 0.0768597 0.0901656
0.914183 0.0757153 0.0938277
0.913954 0.0745251 0.097612
0.913817 0.0738842 0.102541
0.913619 0.0730755 0.109194
0.913512 0.0725109 0.114397
0.0763867 0.142458 0.0823529
0.076524 0.141543 0.082475
0.0766918 0.140459 0.0826123
0.0769513 0.138888 0.0827955
0.077409 0.135943 0.0831617
0.0874189 0.132692 0.0829175
0.122118 0.129671 0.0814527
0.152956 0.126543 0.0802472
0.182895 0.121279 0.0790875
0.215579 0.113802 0.0778668
0.254688 0.102861 0.0760204
0.305043 0.085832 0.0733349
0.36936 0.0605173 0.0747082
0.445563 0.0572518 0.0722972
0.508095 0.0562295 0.0715343
0.576532 0.0556344 0.0711223
0.642023 0.0560159 0.071519
0.701015 0.0574044 0.0727703
0.751736 0.0597848 0.0748608
0.795087 0.0629587 0.0776532
0.83241 0.0664683 0.0807355
0.866529 0.0706035 0.0843519
0.899153 0.0748302 0.0880293
0.914427 0.0769513 0.0898756
0.914427 0.0769513 0.0898756
0.914427 0.0769513 0.0898756
0.914427 0.0769513 0.0898756
0.914412 0.0768597 0.0901656
0.914183 0.0757153 0.0938277
0.913954 0.0745251 0.097612
0.913817 0.0738842 0.102541
0.913619 0.0730755 0.109194
0.913512 0.0725109 0.114397
0.0726329 0.166217 0.0793317
0.072755 0.165454 0.0794232
0.0728771 0.164508 0.07953
0.0730297 0.163485 0.0796521
0.0733806 0.161166 0.0799268
0.0738994 0.157778 0.0803388
0.11252 0.153536 0.0783856
0.148226 0.150591 0.0774548
0.181476 0.146746 0.0766918
0.215808 0.140398 0.075761
0.255818 0.131365 0.0742809
0.304707 0.118425 0.0717327
0.364553 0.0995499 0.06804
0.438849 0.0688029 0.0711223
0.50985 0.0562295 0.0715343
0.574258 0.0556191 0.071107
0.640314 0.0560311 0.0715343
0.699779 0.0573892 0.0727398
0.750896 0.0597238 0.074815
0.794598 0.0629587 0.0776532
0.832212 0.0664683 0.0807355
0.866529 0.0706035 0.0843519
0.899245 0.0748302 0.0880293
0.914427 0.0769513 0.0898756
0.914427 0.0769513 0.0898756
0.914427 0.0769513 0.0898756
0.914427 0.0769513 0.0898756
0.914412 0.0768597 0.0901656
0.914183 0.0757153 0.0938277
0.913954 0.0745251 0.097612
0.913817 0.0738842 0.102541
0.913619 0.0730755 0.109194
0.913512 0.0725109 0.114397
0.0700694 0.191653 0.0774395
0.0701305 0.191058 0.0774853
0.0702068 0.190295 0.0775311
0.0702983 0.189456 0.0775921
0.0703899 0.188602 0.0776532
0.0706798 0.185885 0.0778515
0.089662 0.180896 0.0764782
0.138231 0.176593 0.0758526
0.17528 0.173541 0.075227
0.212741 0.169055 0.0744182
0.254276 0.161379 0.0733501
0.303853 0.150332 0.071107
0.363409 0.135378 0.0682078
0.427512 0.116091 0.0666819
0.493111 0.0902419 0.0666056
0.570703 0.0556191 0.071107
0.637751 0.0559548 0.071458
0.697841 0.0573129 0.0726787
0.749538 0.059678 0.0747692
0.793622 0.0628824 0.0775921
0.831556 0.0663767 0.0806592
0.866255 0.0706035 0.0843366
0.899245 0.0748302 0.0880293
0.914427 0.0769513 0.0898756
0.914427 0.0769513 0.0898756
0.914427 0.0769513 0.0898756
0.914427 0.0769513 0.0898756
0.914412 0.0768597 0.0901656
0.914183 0.0757153 0.0938277
0.913954 0.0745251 0.097612
0.913817 0.0738842 0.102541
0.913619 0.0730755 0.109194
0.913512 0.0725109 0.114397
0.0688487 0.220233 0.0770428
0.0688487 0.219608 0.0770275
0.0687572 0.218997 0.0769513
0.0687877 0.218189 0.0769513
0.0688029 0.217487 0.076936
0.0687266 0.216693 0.0768749
0.0686503 0.213504 0.0767376
0.1187 0.206455 0.0734569
0.164126 0.203723 0.0734569
0.205432 0.200397 0.0728161
0.250416 0.194842 0.0719005
0.30219 0.185275 0.0712902
0.363607 0.172137 0.0697185
0.429099 0.156359 0.0679789
0.492958 0.137789 0.0665446
0.557595 0.113466 0.0655375
0.628687 0.0747997 0.0690013
0.696269 0.0572366 0.0726177
0.747326 0.0595254 0.0746319
0.792065 0.0627451 0.0774701
0.830411 0.0662852 0.0805829
0.865339 0.0704967 0.0842451
0.898894 0.074815 0.088014
0.914427 0.0769513 0.0898756
0.914427 0.0769513 0.0898756
0.914427 0.0769513 0.0898756
0.914427 0.0769513 0.0898756
0.914412 0.0768597 0.0901656
0.914183 0.0757153 0.0938277
0.913954 0.0745251 0.097612
0.913817 0.0738842 0.102541
0.913619 0.0730755 0.109194
0.913512 0.0725109 0.114397
0.0691997 0.253834 0.077821
0.0691997 0.253239 0.077821
0.0692149 0.252552 0.077821
0.0692302 0.251865 0.0778363
0.0691539 0.251179 0.0777905
0.0691844 0.250385 0.0778058
0.0691386 0.249516 0.0777752
0.0694133 0.24535 0.0776837
0.143343 0.238712 0.0723735
0.191882 0.236835 0.0727398
0.240925 0.233326 0.0728313
0.297017 0.225772 0.0725109
0.361669 0.213947 0.071397
0.430396 0.200458 0.0699931
0.497322 0.185168 0.0689403
0.563638 0.166827 0.0679942
0.627207 0.143557 0.0672923
0.684489 0.11191 0.067277
0.743343 0.0593271 0.074464
0.7897 0.0625162 0.0772717
0.828519 0.0661021 0.0804303
0.863859 0.0702983 0.0840772
0.897673 0.0746166 0.0878462
0.914427 0.0769513 0.0898756
0.914427 0.0769513 0.0898756
0.914427 0.0769513 0.0898756
0.914427 0.0769513 0.0898756
0.914412 0.0768597 0.0901656
0.914183 0.0757153 0.0938277
0.913954 0.0745251 0.097612
0.913817 0.0738842 0.102541
0.913619 0.0730755 0.109194
0.913512 0.0725109 0.114397
0.0685893 0.293736 0.07776
0.0686809 0.293111 0.077821
0.0686961 0.292485 0.077821
0.0687114 0.291859 0.077821
0.0686503 0.291249 0.07776
0.0686809 0.290517 0.0777752
0.0687419 0.289677 0.0777905
0.0687724 0.288426 0.0777905
0.100633 0.281514 0.0729229
0.169696 0.279118 0.072755
0.225223 0.277531 0.0734569
0.28603 0.273152 0.0733806
0.35552 0.263844 0.072694
0.428534 0.251926 0.0719921
0.49984 0.239002 0.0716106
0.569863 0.224063 0.0713664
0.636988 0.206073 0.0711833
0.6972 0.1841 0.071458
0.746059 0.155505 0.0717327
0.784115 0.112123 0.0723125
0.827085 0.0659342 0.0802777
0.86154 0.0699931 0.0838026
0.89575 0.0743877 0.0876326
0.914427 0.0769513 0.0898756
0.914427 0.0769513 0.0898756
0.914427 0.0769513 0.0898756
0.914427 0.0769513 0.0898756
0.914412 0.0768597 0.0901656
0.914183 0.0757153 0.0938277
0.913954 0.0745098 0.097673
0.913817 0.0738842 0.102541
0.913619 0.0730755 0.109194
0.913512 0.0725109 0.114397
0.0685893 0.3411 0.0782483
0.068574 0.340536 0.078233
0.0686351 0.339864 0.0782025
0.0686046 0.3393 0.0782635
0.0685893 0.338628 0.0782483
0.068574 0.337957 0.078233
0.0685588 0.337163 0.078233
0.068513 0.336034 0.0781872
0.0684977 0.335363 0.0781872
0.133135 0.328481 0.0723888
0.20174 0.329 0.0737163
0.26807 0.327504 0.0746319
0.34313 0.321523 0.0739147
0.422156 0.311894 0.07364
0.498421 0.301076 0.0738231
0.572656 0.28896 0.0741741
0.643915 0.274876 0.074876
0.708583 0.258 0.0760662
0.76289 0.237949 0.0777905
0.805951 0.211475 0.0793622
0.837507 0.17258 0.0796368
0.858549 0.102785 0.0796063
0.892897 0.0740368 0.0873426
0.914427 0.0769513 0.0898756
0.914427 0.0769513 0.0898756
0.914427 0.0769513 0.0898756
0.914427 0.0769513 0.0898756
0.914412 0.0768444 0.0902266
0.914183 0.0757153 0.0938277
0.913954 0.0745098 0.097673
0.913817 0.0738842 0.102541
0.913619 0.0730755 0.109194
0.913512 0.0725109 0.114397
0.0717937 0.395102 0.0802319
0.0717174 0.394522 0.0801862
0.0717327 0.394049 0.0802014
0.0716564 0.393454 0.0801556
0.0715801 0.392859 0.0801099
0.0715038 0.392264 0.0800488
0.0714275 0.391424 0.0800183
0.0713512 0.390372 0.0799725
0.0712139 0.388937 0.079881
0.0712139 0.388937 0.079881
0.171572 0.386099 0.0747692
0.246754 0.387396 0.0763867
0.326528 0.384558 0.0765545
0.411948 0.377905 0.0756237
0.493477 0.368902 0.0759747
0.571252 0.359411 0.0768902
0.645762 0.348165 0.0777752
0.714153 0.335698 0.0795758
0.772412 0.321279 0.0819867
0.820706 0.303502 0.0848096
0.860029 0.279286 0.087541
0.89073 0.243565 0.0893263
0.910369 0.184543 0.0882582
0.914427 0.0769513 0.0898756
0.914427 0.0769513 0.0898756
0.914427 0.0769513 0.0898756
0.914427 0.0769513 0.0898756
0.914412 0.0768444 0.0902266
0.914183 0.0757153 0.0938277
0.913954 0.0745098 0.097673
0.913817 0.0738842 0.102541
0.913619 0.0730755 0.109194
0.913512 0.0725109 0.114397
0.0788586 0.454658 0.0847181
0.0788434 0.45417 0.0847181
0.0787518 0.453666 0.0846571
0.0786603 0.453056 0.084596
0.0785687 0.452552 0.084535
0.0785534 0.452064 0.084535
0.0784466 0.451316 0.0844739
0.0783551 0.45034 0.0844129
0.0781567 0.449104 0.0842908
0.0779583 0.447395 0.0841688
0.125017 0.446311 0.0778668
0.222873 0.449943 0.0802472
0.308751 0.449882 0.0810864
0.399451 0.445151 0.0802777
0.487205 0.438544 0.0797284
0.568429 0.430625 0.0805524
0.645716 0.421668 0.081529
0.71664 0.412222 0.083238
0.777569 0.402411 0.0858625
0.828351 0.390738 0.088838
0.870909 0.375814 0.0921035
0.907256 0.35436 0.0951705
0.93872 0.321477 0.0975967
0.934585 0.26305 0.0952926
0.916548 0.159106 0.0875257
0.914427 0.0769513 0.0898756
0.914427 0.0769513 0.0898756
0.914427 0.0769513 0.0898756
0.914183 0.0756847 0.0938888
0.913954 0.0745098 0.097673
0.913817 0.0738842 0.102541
0.913619 0.0730755 0.109194
0.913512 0.0725109 0.114397
0.0877546 0.51838 0.0902419
0.0877241 0.518013 0.0902419
0.0876173 0.51751 0.0901656
0.0875105 0.516991 0.0900893
0.0874952 0.516503 0.0900893
0.0873884 0.515999 0.090013
0.0872816 0.515496 0.0899519
0.0871595 0.514611 0.0898756
0.0870222 0.513497 0.0897993
0.0867933 0.512108 0.0896468
0.0870222 0.513497 0.0897993
0.191318 0.513268 0.0844892
0.28716 0.515618 0.0861219
0.38407 0.512749 0.0856489
0.478096 0.507607 0.0851911
0.565148 0.502068 0.085481
0.64625 0.494957 0.0871748
0.720363 0.487678 0.0894026
0.784619 0.481041 0.0925765
0.838224 0.474098 0.0962997
0.883116 0.465476 0.100038
0.921141 0.452766 0.103334
0.955062 0.433448 0.105898
0.955139 0.397284 0.103151
0.945556 0.342199 0.0991531
0.932845 0.251881 0.0946212
0.914427 0.0769513 0.0898756
0.914427 0.0769513 0.0898756
0.914427 0.0769513 0.0898756
0.913954 0.0745098 0.097673
0.913817 0.0738842 0.102541
0.913619 0.0730755 0.10927
0.913512 0.0725109 0.114397
0.0991379 0.583856 0.0973526
0.0990005 0.583474 0.0972763
0.09897 0.583093 0.0972457
0.0988327 0.582712 0.0971695
0.0986954 0.582193 0.0970779
0.0986648 0.581811 0.0970474
0.0985122 0.581308 0.0969558
0.0983597 0.580667 0.0968643
0.0981765 0.57966 0.0967422
0.0979477 0.578393 0.0966201
0.097612 0.576867 0.0964065
0.13521 0.577111 0.0903029
0.261677 0.581674 0.0925917
0.366323 0.581369 0.0933242
0.467597 0.578012 0.0935225
0.560845 0.574197 0.0940566
0.647181 0.569558 0.0951247
0.725658 0.564355 0.0979477
0.793362 0.55993 0.101518
0.850187 0.555856 0.105653
0.897597 0.551278 0.109987
0.937911 0.544625 0.113909
0.973892 0.533867 0.117342
0.982177 0.511269 0.116289
0.973281 0.475349 0.111925
0.960601 0.422538 0.105699
0.944427 0.334508 0.0987411
0.918242 0.168292 0.0882887
0.914427 0.0769513 0.0898756
0.914427 0.0769513 0.0898756
0.913817 0.0738689 0.102617
0.913619 0.0730755 0.10927
0.913512 0.0725109 0.114397
0.115816 0.649821 0.107851
0.115679 0.649546 0.107744
0.115587 0.649165 0.107698
0.11545 0.64889 0.107607
0.115373 0.648508 0.107561
0.115282 0.648112 0.1075
0.115114 0.647715 0.107393
0.114885 0.647059 0.10724
0.114626 0.646265 0.107088
0.114351 0.64535 0.106905
0.113863 0.643915 0.1066
0.113329 0.642206 0.106264
0.234211 0.64654 0.102312
0.350042 0.650126 0.104723
0.459571 0.648646 0.105241
0.558831 0.64596 0.105928
0.649454 0.642939 0.106615
0.731777 0.639261 0.108385
0.802365 0.635676 0.111818
0.861616 0.633234 0.115846
0.910582 0.630869 0.119905
0.952117 0.627497 0.123796
0.989319 0.621698 0.12726
1 0.609033 0.128099
1 0.585962 0.125353
0.992782 0.553597 0.121492
0.97908 0.499214 0.114748
0.959228 0.416159 0.105058
0.936324 0.275807 0.0959029
0.914427 0.0769513 0.0898756
0.914427 0.0769513 0.0898756
0.913619 0.0730755 0.10927
0.913512 0.0725109 0.114458
0.13901 0.714931 0.122377
0.138842 0.714656 0.122255
0.13872 0.71426 0.122194
0.138643 0.714 0.122148
0.13846 0.713726 0.122026
0.138384 0.713466 0.121981
0.138216 0.713207 0.121874
0.138048 0.712688 0.121782
0.137758 0.712016 0.121599
0.137423 0.711238 0.121386
0.137011 0.710185 0.121141
0.136416 0.708736 0.12076
0.200793 0.709911 0.11577
0.339132 0.716747 0.119478
0.455177 0.716518 0.119921
0.559548 0.714122 0.120043
0.653361 0.710964 0.120027
0.737987 0.707668 0.120272
0.810727 0.704265 0.122179
0.870954 0.701595 0.125338
0.920821 0.699931 0.128786
0.962737 0.698131 0.132158
0.999817 0.694881 0.135164
1 0.68806 0.136858
1 0.674052 0.135332
1 0.654322 0.13315
1 0.622354 0.12958
0.99762 0.573602 0.123842
0.978897 0.498085 0.114656
0.950057 0.369894 0.100938
0.914427 0.0769513 0.0898756
0.914427 0.0769513 0.0898756
0.913512 0.0725109 0.114458
0.167285 0.777752 0.139315
0.167193 0.777493 0.139254
0.167102 0.777249 0.139208
0.166949 0.777111 0.139116
0.166842 0.776867 0.139071
0.166751 0.776623 0.13901
0.166552 0.776364 0.138903
0.166415 0.775982 0.138827
0.166125 0.775464 0.138659
0.165805 0.774807 0.13846
0.165438 0.774029 0.138247
0.16492 0.772869 0.137957
0.165957 0.774945 0.138552
0.333883 0.778622 0.135714
0.455665 0.77879 0.135576
0.562676 0.775464 0.134478
0.658488 0.771237 0.133181
0.743221 0.766827 0.132067
0.817029 0.762921 0.131853
0.878538 0.759808 0.133867
0.928298 0.757397 0.136294
0.969818 0.755611 0.138689
1 0.753429 0.141131
1 0.749691 0.143114
1 0.740917 0.142275
1 0.729122 0.141131
1 0.710781 0.139193
1 0.68304 0.136309
1 0.642054 0.131792
0.998184 0.576349 0.124163
0.969711 0.460639 0.11017
0.92401 0.199756 0.090898
0.914427 0.0769513 0.0898756
0.196796 0.836011 0.156542
0.196704 0.835767 0.156481
0.196551 0.83563 0.15639
0.196506 0.835508 0.156359
0.196414 0.835264 0.156313
0.196368 0.835142 0.156283
0.196277 0.834897 0.156237
0.196094 0.834638 0.156115
0.195956 0.834272 0.156024
0.195666 0.833783 0.155856
0.195285 0.833036 0.155627
0.194919 0.832288 0.155398
0.1944 0.831174 0.155093
0.335866 0.834638 0.151797
0.461479 0.833799 0.150286
0.568322 0.829053 0.147692
0.663935 0.823148 0.144945
0.747784 0.817166 0.142489
0.821561 0.812085 0.140963
0.883223 0.807828 0.140627
0.93283 0.804166 0.14197
0.973922 0.801572 0.143572
1 0.798856 0.144762
1 0.795575 0.145876
1 0.790402 0.145983
1 0.783383 0.1458
1 0.772747 0.145052
1 0.757168 0.143801
1 0.734676 0.14168
1 0.701442 0.138262
1 0.646983 0.132311
0.99118 0.547204 0.120714
0.942977 0.324392 0.0982223
0.222217 0.888411 0.172076
0.222187 0.888289 0.172045
0.222141 0.888182 0.17203
0.22211 0.88806 0.172015
0.222065 0.887953 0.171984
0.222019 0.887846 0.171969
0.221897 0.887724 0.171878
0.22182 0.887495 0.171832
0.221698 0.88716 0.171771
0.2215 0.886809 0.171633
0.221256 0.886351 0.171481
0.221057 0.885786 0.171374
0.2206 0.884978 0.171084
0.348379 0.884153 0.165942
0.473808 0.881132 0.162554
0.576944 0.874846 0.158618
0.669673 0.866804 0.154269
0.751278 0.859174 0.15053
0.822705 0.851957 0.147311
0.883391 0.845884 0.145113
0.932708 0.840787 0.14432
0.972839 0.836561 0.144488
1 0.833036 0.144793
1 0.829404 0.144991
1 0.82562 0.145373
1 0.820874 0.145632
1 0.814923 0.145892
1 0.806363 0.146273
1 0.794095 0.14609
1 0.777005 0.145342
1 0.750744 0.143206
1 0.707286 0.138872
1 0.625132 0.129915
0.242374 0.934585 0.184421
0.242344 0.934493 0.184405
0.242344 0.934493 0.184405
0.242329 0.934386 0.18439
0.242298 0.934279 0.184375
0.242267 0.934188 0.18436
0.242252 0.934081 0.184268
0.24213 0.933974 0.184268
0.242084 0.933761 0.184237
0.242023 0.933562 0.184207
0.24184 0.93315 0.184085
0.241642 0.932723 0.183978
0.241428 0.932204 0.183841
0.380026 0.926909 0.176638
0.49482 0.920806 0.171298
0.588632 0.912398 0.165789
0.675135 0.902358 0.159899
0.752255 0.892607 0.154421
0.82031 0.883696 0.149874
0.879042 0.875837 0.146304
0.927703 0.869459 0.143786
0.967712 0.864027 0.142702
1 0.859281 0.142092
1 0.854948 0.141543
1 0.851087 0.141421
1 0.847913 0.142123
1 0.844068 0.142901
1 0.838834 0.143648
1 0.832013 0.144518
1 0.823011 0.145495
1 0.81004 0.146105
1 0.790326 0.145983
1 0.756848 0.143786
0.258274 0.975036 0.194278
0.258183 0.975036 0.194278
0.258167 0.974929 0.194263
0.258167 0.974929 0.194263
0.258137 0.974838 0.194247
0.258122 0.974731 0.194247
0.258122 0.974731 0.194247
0.258076 0.974548 0.194217
0.257969 0.974441 0.194141
0.257923 0.974243 0.19411
0.257877 0.974044 0.194095
0.257725 0.973754 0.193988
0.257679 0.973556 0.193973
0.432837 0.960372 0.181292
0.524071 0.951476 0.174395
0.604257 0.941543 0.167819
0.68162 0.930251 0.161028
0.752194 0.919036 0.154559
0.815381 0.908812 0.148989
0.871305 0.899779 0.14464
0.918959 0.892332 0.141421
0.95877 0.886229 0.13901
0.992599 0.880858 0.137865
1 0.875914 0.136889
1 0.871458 0.136202
1 0.86894 0.136919
1 0.866026 0.137774
1 0.862516 0.138735
1 0.858228 0.139971
1 0.852598 0.141161
1 0.845426 0.14258
1 0.835386 0.144121
1 0.820569 0.145617
0.259037 0.977295 0.194812
0.259037 0.977295 0.194812
0.259037 0.977295 0.194812
0.259037 0.977295 0.194812
0.259037 0.977295 0.194812
0.259037 0.977295 0.194812
0.259037 0.977295 0.194812
0.259037 0.977295 0.194812
0.259037 0.977295 0.194812
0.259037 0.977295 0.194812
0.259037 0.977295 0.194812
0.259037 0.977295 0.194812
0.413367 0.966445 0.183154
0.489326 0.960067 0.177508
0.556756 0.953689 0.171969
0.623133 0.946731 0.165927
0.689982 0.939193 0.159487
0.752987 0.931548 0.152956
0.81059 0.924483 0.146929
0.86247 0.918288 0.141558
0.907927 0.911879 0.137423
0.947372 0.905272 0.134691
0.98117 0.899596 0.132601
1 0.894286 0.131365
1 0.889281 0.130312
1 0.887083 0.130999
1 0.884672 0.131868
1 0.881926 0.132784
1 0.878737 0.133837
1 0.874861 0.135119
1 0.870054 0.136614
1 0.863905 0.138369
1 0.855756 0.140459
0.258885 0.97734 0.199939
0.258885 0.97734 0.199939
0.258885 0.97734 0.199939
0.258885 0.97734 0.199939
0.258885 0.97734 0.199939
0.258885 0.97734 0.199863
0.258885 0.97734 0.199863
0.258885 0.97734 0.199863
0.301564 0.973465 0.192538
0.37377 0.969299 0.18616
0.421027 0.965927 0.182681
0.463661 0.96231 0.179507
0.506401 0.958419 0.17615
0.551186 0.954208 0.172412
0.5991 0.949371 0.168215
0.651377 0.943603 0.163256
0.705821 0.937301 0.157855
0.759518 0.93077 0.1523
0.810468 0.924498 0.146929
0.858427 0.918776 0.141985
0.90164 0.913878 0.137697
0.939574 0.909819 0.134127
0.972412 0.906294 0.131106
1 0.902922 0.128954
1 0.899489 0.127047
1 0.898436 0.126482
1 0.898436 0.126482
1 0.898436 0.126482
1 0.896849 0.127123
1 0.893782 0.128328
1 0.890196 0.129763
1 0.885801 0.131456
1 0.880217 0.133364
0.455314 0.963043 0.181689
0.461662 0.962493 0.181079
0.467811 0.961898 0.180377
0.473686 0.961425 0.179767
0.479423 0.960876 0.179171
0.484871 0.960433 0.178592
0.491554 0.959808 0.177859
0.50042 0.959045 0.176867
0.511559 0.957946 0.175677
0.525338 0.956695 0.174578
0.542168 0.955047 0.173159
0.562585 0.95314 0.171481
0.587091 0.950622 0.169299
0.616342 0.947494 0.166583
0.650584 0.943694 0.163333
0.689342 0.939269 0.159548
0.7308 0.934173 0.1552
0.773663 0.929046 0.15082
0.816999 0.923735 0.146273
0.859129 0.918685 0.141909
0.898741 0.914214 0.137987
0.934707 0.910323 0.134569
