iOSLOG2LUTConverter/Resources/Secondary LUTS/GOLD.cube
TITLE "Generated by Resolve"
LUT_3D_SIZE 9
0.0801862 0.0774243 0.0836194
0.0801862 0.0774243 0.0836194
0.166659 0.0726177 0.0821698
0.366506 0.0606088 0.0747692
0.643137 0.0560311 0.071519
0.832029 0.0664683 0.0807355
0.914427 0.0769513 0.0898756
0.914183 0.0757153 0.0938277
0.913512 0.0725109 0.114397
0.080827 0.0996872 0.0853285
0.0809339 0.0924392 0.0851148
0.173999 0.0746624 0.0821546
0.36611 0.0606546 0.0747997
0.643503 0.0560769 0.0715648
0.83241 0.0664683 0.0807355
0.914427 0.0769513 0.0898756
0.914183 0.0757153 0.0938277
0.913512 0.0725109 0.114397
0.0700694 0.191653 0.0774395
0.0703899 0.188602 0.0776532
0.17528 0.173541 0.075227
0.363409 0.135378 0.0682078
0.637751 0.0559548 0.071458
0.831556 0.0663767 0.0806592
0.914427 0.0769513 0.0898756
0.914183 0.0757153 0.0938277
0.913512 0.0725109 0.114397
0.0685893 0.3411 0.0782483
0.0685893 0.338628 0.0782483
0.0684977 0.335363 0.0781872
0.34313 0.321523 0.0739147
0.643915 0.274876 0.074876
0.837507 0.17258 0.0796368
0.914427 0.0769513 0.0898756
0.914183 0.0757153 0.0938277
0.913512 0.0725109 0.114397
0.0991379 0.583856 0.0973526
0.0986954 0.582193 0.0970779
0.0981765 0.57966 0.0967422
0.261677 0.581674 0.0925917
0.647181 0.569558 0.0951247
0.897597 0.551278 0.109987
0.973281 0.475349 0.111925
0.914427 0.0769513 0.0898756
0.913512 0.0725109 0.114397
0.196796 0.836011 0.156542
0.196414 0.835264 0.156313
0.195956 0.834272 0.156024
0.1944 0.831174 0.155093
0.663935 0.823148 0.144945
0.93283 0.804166 0.14197
1 0.790402 0.145983
1 0.734676 0.14168
0.942977 0.324392 0.0982223
0.259037 0.977295 0.194812
0.259037 0.977295 0.194812
0.259037 0.977295 0.194812
0.413367 0.966445 0.183154
0.689982 0.939193 0.159487
0.907927 0.911879 0.137423
1 0.889281 0.130312
1 0.878737 0.133837
1 0.855756 0.140459
0.688319 0.939406 0.159655
0.695064 0.938628 0.158999
0.705074 0.937392 0.157946
0.733227 0.933913 0.154971
0.798581 0.925994 0.148211
0.905531 0.913405 0.137301
1 0.901518 0.128161
1 0.898436 0.126482
1 0.898436 0.126482
0.923201 0.911467 0.135607
0.92398 0.911376 0.135515
0.925246 0.911269 0.135424
0.928923 0.910872 0.135073
0.939574 0.909819 0.134127
0.965652 0.907057 0.131731
1 0.901091 0.127932
1 0.898436 0.126482
1 0.898436 0.126482
0.0796521 0.0769207 0.0967422
0.0798047 0.0770733 0.0929732
0.166491 0.0715343 0.0984817
0.364782 0.0581826 0.0879072
0.643015 0.0560311 0.0715343
0.832029 0.0664683 0.0807355
0.914427 0.0769513 0.0898756
0.914183 0.0757153 0.0938277
0.913512 0.0725109 0.114397
0.0809491 0.0892805 0.101335
0.0799725 0.078706 0.0958267
0.171817 0.0711986 0.101076
0.362524 0.0589303 0.0835889
0.643503 0.0560769 0.0715648
0.832319 0.0664683 0.0807355
0.914427 0.0769513 0.0898756
0.914183 0.0757153 0.0938277
0.913512 0.0725109 0.114397
0.0709392 0.188022 0.108873
0.0712291 0.184939 0.107347
0.171603 0.170535 0.0907301
0.349859 0.136675 0.0717327
0.638117 0.0560006 0.0715038
0.831556 0.0663767 0.0806592
0.914427 0.0769513 0.0898756
0.914183 0.0757153 0.0938277
0.913512 0.0725109 0.114397
0.0685893 0.339422 0.0782483
0.0684977 0.336934 0.0781872
0.0684215 0.333547 0.0781262
0.342016 0.319234 0.0738689
0.643397 0.272725 0.0747539
0.836912 0.170245 0.0794537
0.914427 0.0769513 0.0898756
0.914183 0.0757153 0.0938277
0.913512 0.0725109 0.114397
0.09897 0.583093 0.0972457
0.0985275 0.58143 0.0969711
0.0980087 0.578897 0.0966354
0.260731 0.580865 0.0925307
0.646937 0.568994 0.095079
0.89749 0.550729 0.10988
0.973037 0.47451 0.111788
0.914427 0.0769513 0.0898756
0.913512 0.0725109 0.114397
0.19675 0.835889 0.156512
0.196368 0.835142 0.156283
0.195804 0.83415 0.155932
0.194247 0.831037 0.155001
0.663767 0.823041 0.14493
0.932723 0.804074 0.14197
1 0.790326 0.145983
1 0.734585 0.14168
0.942809 0.323507 0.098146
0.259037 0.977295 0.194812
0.259037 0.977295 0.194812
0.259037 0.977295 0.194812
0.412711 0.966567 0.183246
0.689845 0.939208 0.159503
0.907958 0.911818 0.137438
1 0.889281 0.130312
1 0.878737 0.133837
1 0.855756 0.140459
0.688197 0.939422 0.15967
0.694942 0.938643 0.159014
0.704952 0.937407 0.157961
0.733227 0.933913 0.154971
0.798581 0.925994 0.148211
0.905455 0.91342 0.137301
1 0.901518 0.128161
1 0.898436 0.126482
1 0.898436 0.126482
0.923201 0.911467 0.135607
0.92398 0.911376 0.135515
0.925155 0.911284 0.135439
0.928923 0.910872 0.135073
0.939574 0.909819 0.134127
0.965576 0.907073 0.131746
1 0.901091 0.127932
1 0.898436 0.126482
1 0.898436 0.126482
0.0770275 0.0730907 0.137423
0.0771344 0.0732433 0.135042
0.168154 0.0717937 0.156252
0.369451 0.057847 0.157321
0.641581 0.0520027 0.137575
0.830762 0.0618601 0.107073
0.914427 0.0769513 0.0898756
0.914183 0.0757153 0.0938277
0.913512 0.0725109 0.114397
0.0770428 0.073106 0.137011
0.0770733 0.0731518 0.136294
0.17145 0.0715496 0.15787
0.370031 0.0578317 0.155871
0.642283 0.0519417 0.136294
0.831113 0.0619364 0.105638
0.914427 0.0769513 0.0898756
0.914183 0.0757153 0.0938277
0.913512 0.0725109 0.114397
0.0721141 0.179034 0.176532
0.0722972 0.175738 0.175769
0.168338 0.161898 0.167407
0.358053 0.108721 0.142061
0.635523 0.0517739 0.129213
0.829633 0.0620127 0.0950484
0.914427 0.0769513 0.0898756
0.914183 0.0757153 0.0938277
0.913512 0.0725109 0.114397
0.0704204 0.336355 0.158297
0.0703746 0.333837 0.157794
0.070161 0.329549 0.157061
0.342016 0.31812 0.142977
0.634333 0.269551 0.12221
0.834791 0.185641 0.0801862
0.914427 0.0769513 0.0898756
0.914183 0.0757153 0.0938277
0.913512 0.0725109 0.114397
0.0994278 0.583154 0.114473
0.0990463 0.581521 0.112123
0.098436 0.578943 0.10869
0.257954 0.580468 0.100221
0.64654 0.56759 0.0948196
0.897032 0.54931 0.109697
0.972717 0.473243 0.111635
0.914427 0.0769513 0.0898756
0.913512 0.0725109 0.114397
0.196414 0.835264 0.156313
0.196094 0.834638 0.156115
0.195575 0.833539 0.15581
0.194064 0.830549 0.154894
0.663157 0.822858 0.144915
0.932692 0.803876 0.141894
1 0.790234 0.145983
1 0.734264 0.141604
0.942657 0.321859 0.0981155
0.259037 0.977295 0.194812
0.259037 0.977295 0.194812
0.259037 0.977295 0.194812
0.411658 0.966613 0.183307
0.689601 0.939239 0.159518
0.907866 0.911833 0.137453
1 0.889281 0.130312
1 0.878676 0.133867
1 0.855695 0.140475
0.68806 0.939437 0.159686
0.69482 0.938659 0.159014
0.704829 0.937423 0.157961
0.733104 0.933928 0.154986
0.798474 0.926009 0.148226
0.905455 0.91342 0.137301
1 0.901534 0.128176
1 0.898436 0.126482
1 0.898436 0.126482
0.923201 0.911467 0.135607
0.92398 0.911376 0.135515
0.925155 0.911284 0.135439
0.928923 0.910872 0.135073
0.939498 0.909834 0.134142
0.965576 0.907073 0.131746
1 0.901091 0.127932
1 0.898436 0.126482
1 0.898436 0.126482
0.0748302 0.0704051 0.224216
0.0748455 0.0704204 0.223606
0.145998 0.0677958 0.248127
0.367086 0.0587015 0.281117
0.639948 0.0543526 0.264607
0.833494 0.0648356 0.255177
0.916335 0.0743877 0.199802
0.914183 0.0757153 0.0938277
0.913512 0.0725109 0.114397
0.0748608 0.0704204 0.223468
0.0748608 0.0704356 0.223163
0.14844 0.0677958 0.24828
0.369787 0.0586099 0.280217
0.641184 0.0543526 0.263905
0.83386 0.0648356 0.254673
0.916213 0.0742809 0.198962
0.914183 0.0757153 0.0938277
0.913512 0.0725109 0.114397
0.0734569 0.130083 0.280613
0.074052 0.124956 0.277531
0.134447 0.0991684 0.267216
0.364385 0.0588083 0.281895
0.636896 0.0543069 0.261784
0.83357 0.0648203 0.253101
0.916182 0.0742657 0.197681
0.914183 0.0757153 0.0938277
0.913512 0.0725109 0.114397
0.0725567 0.317723 0.287938
0.0725261 0.315145 0.287541
0.0724193 0.310552 0.287098
0.339086 0.299825 0.287785
0.643366 0.222461 0.25066
0.826932 0.109483 0.22858
0.915633 0.07393 0.179217
0.914183 0.0757153 0.0938277
0.913512 0.0725109 0.114397
0.103624 0.580468 0.292683
0.103304 0.578805 0.291997
0.102739 0.57612 0.290883
0.232151 0.57763 0.281376
0.652522 0.564492 0.267674
0.900435 0.54168 0.249042
0.978821 0.47863 0.17763
0.914427 0.0769513 0.0898756
0.913512 0.0725109 0.114397
0.2009 0.839673 0.322759
0.200534 0.838926 0.321859
0.199954 0.837903 0.320363
0.198383 0.834745 0.315969
0.649195 0.824384 0.274022
0.930373 0.799298 0.231769
1 0.794278 0.146075
1 0.733516 0.141527
0.941939 0.316915 0.0978561
0.259037 0.977295 0.194812
0.259037 0.977295 0.194812
0.259037 0.977295 0.194812
0.402533 0.9673 0.183917
0.687678 0.939483 0.159716
0.907729 0.911742 0.137514
1 0.889235 0.130343
1 0.87863 0.133898
1 0.855634 0.140505
0.687556 0.939498 0.159731
0.694194 0.938674 0.159106
0.704326 0.937499 0.158022
0.732616 0.934005 0.155047
0.798138 0.926055 0.148257
0.905364 0.913436 0.137316
1 0.901534 0.128176
1 0.898436 0.126482
1 0.898436 0.126482
0.92311 0.911482 0.135607
0.923888 0.911391 0.135531
0.925063 0.911299 0.135439
0.928832 0.910887 0.135088
0.939498 0.909834 0.134142
0.965576 0.907073 0.131746
1 0.901091 0.127932
1 0.898436 0.126482
1 0.898436 0.126482
0.073228 0.0693675 0.384436
0.073228 0.0693675 0.384253
0.0731365 0.069276 0.381491
0.329305 0.0607004 0.459907
0.628199 0.056733 0.44802
0.83299 0.0687877 0.452277
0.925856 0.0811627 0.452293
0.921401 0.0779583 0.345464
0.913512 0.0725109 0.114397
0.073228 0.0693675 0.384161
0.073228 0.0693675 0.384054
0.0784161 0.0678264 0.380682
0.335927 0.0605478 0.459586
0.630198 0.0567941 0.447807
0.833387 0.0688029 0.452186
0.925856 0.0811627 0.452079
0.921386 0.0779583 0.34493
0.913512 0.0725109 0.114397
0.0731823 0.0693217 0.383169
0.0731823 0.0693217 0.383062
0.0730907 0.0692454 0.380407
0.331167 0.0606546 0.4589
0.628702 0.0567178 0.447181
0.833783 0.0688945 0.451896
0.925856 0.0811627 0.451774
0.92137 0.0779431 0.344198
0.913512 0.0725109 0.114397
0.0743572 0.250751 0.466545
0.0742351 0.247868 0.466255
0.0740368 0.242451 0.465888
0.277104 0.20148 0.465751
0.608087 0.13167 0.441978
0.825315 0.0677958 0.44686
0.925719 0.0810559 0.4495
0.921218 0.077821 0.341894
0.913512 0.0725109 0.114397
0.103151 0.553368 0.487205
0.102846 0.551583 0.486839
0.102327 0.54876 0.486152
0.180926 0.544305 0.487236
0.642313 0.534371 0.492058
0.910414 0.484276 0.477806
0.982483 0.390845 0.465736
0.919768 0.0767834 0.30338
0.913512 0.0725109 0.114397
0.201465 0.831937 0.556008
0.201129 0.83122 0.55555
0.20058 0.830137 0.554818
0.199191 0.827161 0.552682
0.608698 0.820905 0.520546
0.926787 0.78677 0.491341
1 0.767163 0.451118
1 0.729046 0.294331
0.939757 0.30071 0.0971084
0.25745 0.977325 0.576715
0.25745 0.977325 0.576516
0.25745 0.977325 0.57612
0.257465 0.97734 0.575006
0.617166 0.939483 0.489738
0.880354 0.897841 0.431693
1 0.870558 0.375586
1 0.880385 0.133288
1 0.855344 0.140536
0.679393 0.940444 0.16054
0.686275 0.939651 0.159869
0.696849 0.938415 0.158801
0.726238 0.934768 0.155703
0.79411 0.926543 0.148669
0.903792 0.913588 0.137453
1 0.901549 0.128176
1 0.898436 0.126482
1 0.898436 0.126482
0.922942 0.911498 0.135622
0.92372 0.911406 0.135546
0.924895 0.911315 0.135454
0.928664 0.910903 0.135103
0.93933 0.90985 0.134157
0.965408 0.907088 0.131762
1 0.901106 0.127932
1 0.898436 0.126482
1 0.898436 0.126482
0.078706 0.0745098 0.560983
0.078706 0.0745098 0.560891
0.078706 0.0745098 0.560891
0.240116 0.0649729 0.609506
0.600107 0.0609903 0.601434
0.830915 0.0740063 0.608515
0.93695 0.0893568 0.625177
0.935637 0.088365 0.611643
0.929397 0.0837415 0.522301
0.078706 0.0745098 0.560891
0.078706 0.0745098 0.560891
0.078706 0.0745098 0.560815
0.248478 0.0649119 0.610666
0.602441 0.0609598 0.601419
0.831312 0.0740215 0.608515
0.93695 0.0893568 0.625177
0.935637 0.088365 0.611643
0.929397 0.0837262 0.522118
0.078706 0.0745098 0.560815
0.078706 0.0745098 0.560815
0.078706 0.0745098 0.560815
0.261494 0.0648356 0.611017
0.606088 0.0610056 0.601267
0.831907 0.0741283 0.608545
0.93695 0.0893568 0.625101
0.935637 0.0883497 0.611566
0.929381 0.0837262 0.52192
0.0786603 0.074464 0.559457
0.0786603 0.074464 0.559457
0.0786603 0.074464 0.559365
0.222644 0.0651255 0.605081
0.589349 0.060914 0.600595
0.827695 0.0735332 0.607233
0.936934 0.0893416 0.624949
0.935622 0.0883497 0.611246
0.929259 0.0836347 0.521157
0.100649 0.481468 0.633448
0.100313 0.479301 0.633158
0.0998398 0.475868 0.63267
0.0983749 0.465293 0.63122
0.580468 0.430838 0.651667
0.886641 0.379065 0.649989
0.955154 0.220539 0.644785
0.935424 0.0881971 0.609079
0.929213 0.0835889 0.518959
0.197116 0.809552 0.707637
0.196735 0.808698 0.707317
0.196277 0.807599 0.706874
0.194614 0.804059 0.705394
0.551369 0.799435 0.703578
0.918761 0.762768 0.682017
1 0.730236 0.672084
1 0.663798 0.65948
0.928145 0.0827955 0.501747
0.25832 0.97821 0.757885
0.25832 0.97821 0.757824
0.25832 0.97821 0.757748
0.25832 0.97821 0.757549
0.55433 0.939574 0.709758
0.853864 0.887816 0.657313
1 0.852842 0.630457
1 0.84271 0.598047
1 0.825284 0.497551
0.563394 0.941604 0.674006
0.571694 0.940566 0.672267
0.584436 0.93904 0.669474
0.620981 0.934508 0.66154
0.706264 0.923247 0.642008
0.848951 0.903639 0.610681
0.9832 0.884703 0.58088
1 0.877592 0.543801
1 0.8878 0.284962
0.902846 0.904616 0.312459
0.9037 0.904494 0.311955
0.905104 0.904372 0.311086
0.909392 0.903883 0.308492
0.921462 0.902663 0.300481
0.951507 0.899947 0.276448
1 0.897353 0.181781
1 0.898436 0.126482
1 0.898436 0.126482
0.0839246 0.0788586 0.671901
0.0839246 0.0788586 0.671901
0.0839246 0.0788586 0.671901
0.0839246 0.0788586 0.671901
0.528588 0.0668956 0.691157
0.823789 0.0789197 0.697032
0.947204 0.0970779 0.717601
0.947173 0.0970626 0.716808
0.946029 0.0961929 0.706905
0.0839246 0.0788586 0.671901
0.0839246 0.0788586 0.671901
0.0839246 0.0788586 0.671901
0.0839246 0.0788586 0.671901
0.53167 0.0668803 0.691112
0.824308 0.0789502 0.697047
0.947204 0.0970779 0.717601
0.947173 0.0970626 0.716808
0.946014 0.0961929 0.706828
0.0839246 0.0788586 0.671901
0.0839246 0.0788586 0.671901
0.0839246 0.0788586 0.671901
0.0839246 0.0788586 0.671824
0.536645 0.0668498 0.690974
0.82504 0.079057 0.697154
0.947204 0.0970779 0.717601
0.947173 0.0970626 0.716808
0.946014 0.0961929 0.706828
0.0839246 0.0788586 0.671824
0.0839246 0.0788586 0.671824
0.0839246 0.0788586 0.671824
0.0839246 0.0788586 0.671824
0.551415 0.0668345 0.690501
0.827222 0.0793317 0.697368
0.947204 0.0970779 0.717601
0.947173 0.0970626 0.716731
0.946014 0.0961929 0.706767
0.0852216 0.252537 0.705943
0.0851606 0.250874 0.705898
0.0848707 0.245823 0.705623
0.0836042 0.226932 0.70428
0.468574 0.136843 0.693751
0.802075 0.076173 0.693355
0.947036 0.0970321 0.715923
0.947158 0.0970474 0.716609
0.946014 0.0961776 0.70663
0.182544 0.755962 0.779187
0.182132 0.754925 0.778836
0.18146 0.753368 0.778317
0.179416 0.748547 0.776822
0.429343 0.740993 0.78526
0.896651 0.707759 0.785733
1 0.672862 0.786725
1 0.55642 0.781506
0.9458 0.096025 0.704402
0.258549 0.97055 0.836164
0.258488 0.970397 0.836118
0.258488 0.970169 0.836133
0.258366 0.969406 0.836072
0.444556 0.941421 0.815625
0.826337 0.87921 0.7738
1 0.838727 0.746334
1 0.821515 0.741802
1 0.793164 0.744503
0.458473 0.951934 0.811276
0.47013 0.950423 0.809888
0.487282 0.948211 0.807843
0.533913 0.942153 0.802304
0.64303 0.927749 0.78407
0.813397 0.904768 0.752575
0.969207 0.883925 0.725734
1 0.87303 0.712764
1 0.873442 0.700343
0.846693 0.901122 0.72253
0.847852 0.900954 0.722286
0.849653 0.900694 0.721965
0.85507 0.900008 0.720882
0.870649 0.897978 0.717906
0.908858 0.893004 0.711345
0.975769 0.883284 0.699641
1 0.873777 0.686732
1 0.874205 0.66775
0.0845502 0.0793622 0.682094
0.0845502 0.0793622 0.682094
0.0845502 0.0793622 0.682094
0.0845502 0.0793622 0.682094
0.160754 0.0700542 0.697139
0.783459 0.0764172 0.715419
0.949432 0.0988022 0.734554
0.949432 0.0988022 0.734554
0.949432 0.0988022 0.734554
0.0845502 0.0793622 0.682094
0.0845502 0.0793622 0.682094
0.0845502 0.0793622 0.682094
0.0845502 0.0793622 0.682094
0.171832 0.0700084 0.700435
0.784115 0.076524 0.715511
0.949432 0.0988022 0.734554
0.949432 0.0988022 0.734554
0.949432 0.0988022 0.734554
0.0845502 0.0793622 0.682094
0.0845502 0.0793622 0.682094
0.0845502 0.0793622 0.682094
0.0845502 0.0793622 0.682094
0.18822 0.0698405 0.704189
0.785077 0.0766155 0.715618
0.949432 0.0988022 0.734554
0.949432 0.0988022 0.734554
0.949432 0.0988022 0.734554
0.0845502 0.0793622 0.682094
0.0845502 0.0793622 0.682094
0.0845502 0.0793622 0.682094
0.0845502 0.0793622 0.682094
0.231205 0.0702068 0.707317
0.788174 0.0768292 0.715831
0.949432 0.0988022 0.734554
0.949432 0.0988022 0.734554
0.949432 0.0988022 0.734554
0.0845502 0.0793622 0.682094
0.0845502 0.0793622 0.682094
0.0845502 0.0793622 0.682094
0.0845502 0.0793622 0.682094
0.339498 0.0695506 0.707301
0.797314 0.0776379 0.716625
0.949432 0.0988022 0.734554
0.949432 0.0988022 0.734554
0.949432 0.0988022 0.734554
0.123186 0.564721 0.741421
0.12311 0.564187 0.74136
0.122683 0.562295 0.741054
0.120897 0.553246 0.739712
0.116304 0.528222 0.736294
0.82179 0.476661 0.762783
1 0.394812 0.76054
0.949432 0.0988022 0.734554
0.949432 0.0988022 0.734554
0.253468 0.941558 0.833738
0.253376 0.94139 0.833677
0.253346 0.940978 0.833677
0.253117 0.939895 0.833555
0.252338 0.936904 0.833082
0.7729 0.867292 0.792859
1 0.81883 0.771267
1 0.796078 0.771191
1 0.751904 0.782315
0.259556 0.978195 0.835584
0.259556 0.978195 0.835584
0.259556 0.978195 0.835584
0.259556 0.978195 0.835584
0.512459 0.94493 0.804852
0.759716 0.911528 0.774472
0.954131 0.885863 0.751446
1 0.87219 0.740414
1 0.87219 0.740414
0.803693 0.905455 0.768963
0.805203 0.905287 0.768811
0.807431 0.904967 0.768521
0.814466 0.904051 0.767681
0.834455 0.901411 0.76527
0.880873 0.895308 0.759686
0.960235 0.884932 0.750668
1 0.87219 0.740414
1 0.87219 0.740414
0.0845502 0.0793622 0.682094
0.0845502 0.0793622 0.682094
0.0845502 0.0793622 0.682094
0.0845502 0.0793622 0.682094
0.0845502 0.0793622 0.682094
0.531304 0.0680705 0.706783
0.938109 0.0970016 0.733074
0.949432 0.0988022 0.734554
0.949432 0.0988022 0.734554
0.0845502 0.0793622 0.682094
0.0845502 0.0793622 0.682094
0.0845502 0.0793622 0.682094
0.0845502 0.0793622 0.682094
0.0845502 0.0793622 0.682094
0.534005 0.0680858 0.706813
0.938216 0.0970016 0.733074
0.949432 0.0988022 0.734554
0.949432 0.0988022 0.734554
0.0845502 0.0793622 0.682094
0.0845502 0.0793622 0.682094
0.0845502 0.0793622 0.682094
0.0845502 0.0793622 0.682094
0.0845502 0.0793622 0.682094
0.538308 0.068101 0.706828
0.938491 0.0970321 0.733089
0.949432 0.0988022 0.734554
0.949432 0.0988022 0.734554
0.0845502 0.0793622 0.682094
0.0845502 0.0793622 0.682094
0.0845502 0.0793622 0.682094
0.0845502 0.0793622 0.682094
0.0845502 0.0793622 0.682094
0.550942 0.0680858 0.706859
0.939193 0.0971695 0.733211
0.949432 0.0988022 0.734554
0.949432 0.0988022 0.734554
0.0845502 0.0793622 0.682094
0.0845502 0.0793622 0.682094
0.0845502 0.0793622 0.682094
0.0845502 0.0793622 0.682094
0.0845502 0.0793622 0.682094
0.586191 0.0681773 0.707118
0.941527 0.0975052 0.733486
0.949432 0.0988022 0.734554
0.949432 0.0988022 0.734554
0.0845502 0.0793622 0.682094
0.0845502 0.0793622 0.682094
0.0845502 0.0793622 0.682094
0.0845502 0.0793622 0.682094
0.0845502 0.0793622 0.682094
0.668299 0.06981 0.708904
0.948455 0.0986343 0.734432
0.949432 0.0988022 0.734554
0.949432 0.0988022 0.734554
0.216724 0.838148 0.808148
0.216724 0.838148 0.808148
0.216693 0.838041 0.808133
0.215351 0.834836 0.807157
0.21117 0.82443 0.804196
0.551156 0.797131 0.799878
1 0.742229 0.788434
1 0.692271 0.787259
1 0.45037 0.769055
0.259556 0.978195 0.835584
0.259556 0.978195 0.835584
0.259556 0.978195 0.835584
0.259556 0.978195 0.835584
0.259556 0.978195 0.835584
0.60174 0.93312 0.794064
0.925872 0.889586 0.754589
1 0.87219 0.740414
1 0.861616 0.7449
0.707713 0.918624 0.780926
0.710094 0.918334 0.780652
0.713863 0.917784 0.780148
0.725048 0.916243 0.778759
0.756176 0.911986 0.774884
0.827573 0.902312 0.766094
0.935225 0.888365 0.753536
1 0.87219 0.740414
1 0.87219 0.740414
