iOSLOG2LUTConverter/Resources/Secondary LUTS/GOLD.cube
TITLE "Generated by Resolve"
LUT_3D_SIZE 5
0.0801862 0.0774243 0.0836194
0.166659 0.0726177 0.0821698
0.643137 0.0560311 0.071519
0.914427 0.0769513 0.0898756
0.913512 0.0725109 0.114397
0.0700694 0.191653 0.0774395
0.17528 0.173541 0.075227
0.637751 0.0559548 0.071458
0.914427 0.0769513 0.0898756
0.913512 0.0725109 0.114397
0.0991379 0.583856 0.0973526
0.0981765 0.57966 0.0967422
0.647181 0.569558 0.0951247
0.973281 0.475349 0.111925
0.913512 0.0725109 0.114397
0.259037 0.977295 0.194812
0.259037 0.977295 0.194812
0.689982 0.939193 0.159487
1 0.889281 0.130312
1 0.855756 0.140459
0.923201 0.911467 0.135607
0.925246 0.911269 0.135424
0.939574 0.909819 0.134127
1 0.901091 0.127932
1 0.898436 0.126482
0.0770275 0.0730907 0.137423
0.168154 0.0717937 0.156252
0.641581 0.0520027 0.137575
0.914427 0.0769513 0.0898756
0.913512 0.0725109 0.114397
0.0721141 0.179034 0.176532
0.168338 0.161898 0.167407
0.635523 0.0517739 0.129213
0.914427 0.0769513 0.0898756
0.913512 0.0725109 0.114397
0.0994278 0.583154 0.114473
0.098436 0.578943 0.10869
0.64654 0.56759 0.0948196
0.972717 0.473243 0.111635
0.913512 0.0725109 0.114397
0.259037 0.977295 0.194812
0.259037 0.977295 0.194812
0.689601 0.939239 0.159518
1 0.889281 0.130312
1 0.855695 0.140475
0.923201 0.911467 0.135607
0.925155 0.911284 0.135439
0.939498 0.909834 0.134142
1 0.901091 0.127932
1 0.898436 0.126482
0.073228 0.0693675 0.384436
0.0731365 0.069276 0.381491
0.628199 0.056733 0.44802
0.925856 0.0811627 0.452293
0.913512 0.0725109 0.114397
0.0731823 0.0693217 0.383169
0.0730907 0.0692454 0.380407
0.628702 0.0567178 0.447181
0.925856 0.0811627 0.451774
0.913512 0.0725109 0.114397
0.103151 0.553368 0.487205
0.102327 0.54876 0.486152
0.642313 0.534371 0.492058
0.982483 0.390845 0.465736
0.913512 0.0725109 0.114397
0.25745 0.977325 0.576715
0.25745 0.977325 0.57612
0.617166 0.939483 0.489738
1 0.870558 0.375586
1 0.855344 0.140536
0.922942 0.911498 0.135622
0.924895 0.911315 0.135454
0.93933 0.90985 0.134157
1 0.901106 0.127932
1 0.898436 0.126482
0.0839246 0.0788586 0.671901
0.0839246 0.0788586 0.671901
0.528588 0.0668956 0.691157
0.947204 0.0970779 0.717601
0.946029 0.0961929 0.706905
0.0839246 0.0788586 0.671901
0.0839246 0.0788586 0.671901
0.536645 0.0668498 0.690974
0.947204 0.0970779 0.717601
0.946014 0.0961929 0.706828
0.0852216 0.252537 0.705943
0.0848707 0.245823 0.705623
0.468574 0.136843 0.693751
0.947036 0.0970321 0.715923
0.946014 0.0961776 0.70663
0.258549 0.97055 0.836164
0.258488 0.970169 0.836133
0.444556 0.941421 0.815625
1 0.838727 0.746334
1 0.793164 0.744503
0.846693 0.901122 0.72253
0.849653 0.900694 0.721965
0.870649 0.897978 0.717906
0.975769 0.883284 0.699641
1 0.874205 0.66775
0.0845502 0.0793622 0.682094
0.0845502 0.0793622 0.682094
0.0845502 0.0793622 0.682094
0.938109 0.0970016 0.733074
0.949432 0.0988022 0.734554
0.0845502 0.0793622 0.682094
0.0845502 0.0793622 0.682094
0.0845502 0.0793622 0.682094
0.938491 0.0970321 0.733089
0.949432 0.0988022 0.734554
0.0845502 0.0793622 0.682094
0.0845502 0.0793622 0.682094
0.0845502 0.0793622 0.682094
0.941527 0.0975052 0.733486
0.949432 0.0988022 0.734554
0.216724 0.838148 0.808148
0.216693 0.838041 0.808133
0.21117 0.82443 0.804196
1 0.742229 0.788434
1 0.45037 0.769055
0.707713 0.918624 0.780926
0.713863 0.917784 0.780148
0.756176 0.911986 0.774884
0.935225 0.888365 0.753536
1 0.87219 0.740414
