iOSLOG2LUTConverter/Resources/Secondary LUTS/KODACHROME.cube
TITLE "Generated by Resolve"
LUT_3D_SIZE 33
0.0214542 0.0213626 0.024155
0.0214542 0.0213626 0.024155
0.0214542 0.0213626 0.024155
0.0214542 0.0213626 0.024155
0.0449989 0.023331 0.026276
0.0652934 0.0252384 0.0283665
0.086183 0.0274968 0.0306554
0.111192 0.0303349 0.0330968
0.136751 0.0338445 0.0356909
0.166888 0.037995 0.0383154
0.208347 0.0442206 0.0412604
0.25275 0.0525063 0.0432746
0.315221 0.060441 0.0431525
0.384176 0.0669261 0.0269932
0.466514 0.0698253 0.0286412
0.550942 0.0571298 0.0391546
0.624887 0.0497139 0.0485237
0.682979 0.0545815 0.053315
0.72694 0.0586709 0.0573281
0.762066 0.0623026 0.0608682
0.790585 0.0653849 0.0638895
0.815381 0.0682078 0.0666361
0.838056 0.0709392 0.0693065
0.848325 0.0721904 0.0705425
0.848325 0.0721904 0.0705425
0.848325 0.0721904 0.0705425
0.848325 0.0721904 0.0705425
0.848295 0.0721141 0.0712444
0.848371 0.0718853 0.0773175
0.848447 0.0716869 0.0823377
0.848493 0.0715038 0.0868696
0.848569 0.0714122 0.0909895
0.848661 0.0713207 0.0950179
0.0214542 0.0213626 0.024155
0.0214542 0.0213626 0.024155
0.0214542 0.0213626 0.024155
0.0214542 0.0213626 0.024155
0.0471656 0.0234379 0.0263981
0.0677501 0.0255741 0.0287327
0.0884718 0.0277409 0.0309148
0.111864 0.030457 0.0332036
0.137407 0.033875 0.0357061
0.167773 0.038056 0.0383307
0.209064 0.0443122 0.0412604
0.253559 0.0526741 0.0433356
0.315999 0.0604868 0.0430762
0.384894 0.0669566 0.0269017
0.467155 0.0697795 0.0286717
0.551583 0.0569009 0.0393378
0.625269 0.0497292 0.0485389
0.683177 0.0545815 0.053315
0.727123 0.0586862 0.0573281
0.762234 0.0623178 0.0608682
0.790661 0.0653849 0.0638895
0.815442 0.0682078 0.0666361
0.838056 0.0709392 0.0693065
0.848325 0.0721904 0.0705425
0.848325 0.0721904 0.0705425
0.848325 0.0721904 0.0705425
0.848325 0.0721904 0.0705425
0.848295 0.0721141 0.0712444
0.848371 0.0718853 0.0773175
0.848447 0.0716869 0.0823377
0.848493 0.0715038 0.0868696
0.848569 0.0714122 0.0909895
0.848661 0.0713207 0.0950179
0.0214542 0.0213626 0.024155
0.0214542 0.0213626 0.024155
0.0214542 0.0213626 0.024155
0.0214542 0.0213626 0.024155
0.0462959 0.0234379 0.0263828
0.0681315 0.0255741 0.028748
0.0897993 0.0278782 0.0310369
0.115053 0.0307622 0.0334325
0.139605 0.0341955 0.0359197
0.16788 0.038056 0.0383307
0.209155 0.044419 0.0413519
0.253681 0.0526894 0.0433356
0.316258 0.060502 0.0430457
0.385046 0.0669566 0.0268864
0.467323 0.0697642 0.028687
0.551751 0.0568246 0.0393683
0.625391 0.0497292 0.0485389
0.683375 0.0545968 0.0533303
0.727275 0.0587472 0.0574044
0.76231 0.0623178 0.0608835
0.790722 0.0653849 0.0638895
0.815442 0.0682078 0.0666361
0.838117 0.0709392 0.0693065
0.848325 0.0721904 0.0705425
0.848325 0.0721904 0.0705425
0.848325 0.0721904 0.0705425
0.848325 0.0721904 0.0705425
0.848295 0.0721141 0.0712444
0.848371 0.0718853 0.0773175
0.848447 0.0716869 0.0823377
0.848493 0.0715038 0.0868696
0.848569 0.0714122 0.0909895
0.848661 0.0713207 0.0950179
0.0227512 0.0444495 0.0265812
0.0226596 0.0429084 0.0264286
0.0225834 0.0411536 0.0262608
0.0223087 0.0378729 0.0258335
0.0415045 0.033814 0.0258793
0.0655985 0.0316625 0.0277714
0.0896925 0.028748 0.0307622
0.116777 0.0310063 0.0336309
0.142367 0.034638 0.0362402
0.174228 0.0389105 0.038819
0.210575 0.0446784 0.0414435
0.25333 0.0526589 0.0433509
0.315877 0.0604715 0.0430915
0.384756 0.0669566 0.0269169
0.467155 0.0697795 0.0286717
0.551751 0.0568246 0.0393683
0.625391 0.0497292 0.0485389
0.683482 0.0545968 0.0533303
0.727367 0.0587625 0.0574044
0.762387 0.0623178 0.0608835
0.790799 0.0653849 0.0638895
0.815503 0.0682078 0.0666361
0.838117 0.0709392 0.0693065
0.848325 0.0721904 0.0705425
0.848325 0.0721904 0.0705425
0.848325 0.0721904 0.0705425
0.848325 0.0721904 0.0705425
0.848295 0.0721141 0.0712444
0.848371 0.0718853 0.0773175
0.848447 0.0716869 0.0823377
0.848493 0.0715038 0.0868696
0.848569 0.0714122 0.0909895
0.848661 0.0713207 0.0950179
0.0246891 0.0671855 0.0293431
0.0246586 0.0658274 0.0292668
0.0246281 0.0662852 0.0292515
0.024445 0.0640269 0.0289921
0.0356909 0.0599832 0.0280156
0.0606851 0.0573892 0.0282444
0.0835431 0.0551461 0.0292668
0.110018 0.0522164 0.0307469
0.136812 0.0480507 0.0330816
0.17229 0.0398871 0.0381476
0.215259 0.0455177 0.0417029
0.258961 0.0535592 0.0435187
0.314977 0.0603342 0.0430762
0.383871 0.0668498 0.0269322
0.466346 0.0697642 0.0285496
0.55111 0.0571145 0.0392462
0.625132 0.0497139 0.0485389
0.683375 0.0545968 0.0533303
0.727367 0.0587625 0.0574044
0.762463 0.0623178 0.0608835
0.79086 0.0654002 0.0638895
0.815564 0.0682078 0.0666514
0.838178 0.0709392 0.0693065
0.848325 0.0721904 0.0705425
0.848325 0.0721904 0.0705425
0.848325 0.0721904 0.0705425
0.848325 0.0721904 0.0705425
0.848295 0.0721141 0.0712444
0.848371 0.0718853 0.0773175
0.848447 0.0716869 0.0823377
0.848493 0.0715038 0.0868696
0.848569 0.0714122 0.0909895
0.848661 0.0713207 0.0950179
0.0259556 0.0864881 0.0321355
0.0259403 0.0854047 0.0320287
0.025803 0.0846113 0.0318303
0.0257572 0.082826 0.0316167
0.0265965 0.0794842 0.0309758
0.0563973 0.0757916 0.0298314
0.0801556 0.0734112 0.0301976
0.106905 0.0708782 0.0308995
0.133425 0.0677195 0.0323339
0.164843 0.0629587 0.0343481
0.208362 0.0562753 0.0380407
0.258961 0.0535592 0.0435187
0.321553 0.0611276 0.0429236
0.382574 0.066804 0.0271
0.465064 0.0698558 0.0284886
0.550149 0.057496 0.0390021
0.624628 0.0496986 0.0485237
0.68307 0.0545815 0.053315
0.727199 0.0587472 0.0574044
0.762387 0.0623178 0.0608835
0.790936 0.0654002 0.0639048
0.815564 0.0682078 0.0666514
0.838178 0.0709392 0.0693065
0.848325 0.0721904 0.0705425
0.848325 0.0721904 0.0705425
0.848325 0.0721904 0.0705425
0.848325 0.0721904 0.0705425
0.848295 0.0721141 0.0712444
0.848371 0.0718853 0.0773175
0.848447 0.0716869 0.0823377
0.848493 0.0715038 0.0868696
0.848585 0.0714122 0.0910658
0.848661 0.0713207 0.0950179
0.026276 0.105425 0.0350958
0.0262913 0.104616 0.0349737
0.0263371 0.103639 0.0348516
0.0263371 0.10222 0.0346227
0.0263676 0.099382 0.034165
0.0491035 0.0950332 0.0322576
0.0752728 0.0922866 0.0318608
0.103166 0.0897688 0.0320745
0.130282 0.0871901 0.0329747
0.161334 0.0835889 0.0341344
0.203967 0.0791485 0.035996
0.249088 0.0726177 0.0383612
0.317678 0.0606546 0.0430152
0.388693 0.0672465 0.026627
0.463127 0.0699168 0.0283207
0.548714 0.0580758 0.0386664
0.623621 0.0496071 0.0484169
0.682475 0.05449 0.0532235
0.72694 0.0586709 0.0573281
0.76231 0.0623178 0.0608835
0.79086 0.0654002 0.0638895
0.815625 0.0682841 0.0667124
0.838239 0.0709392 0.0693065
0.848325 0.0721904 0.0705425
0.848325 0.0721904 0.0705425
0.848325 0.0721904 0.0705425
0.848325 0.0721904 0.0705425
0.848295 0.0721141 0.0712444
0.848371 0.0718853 0.0773175
0.848447 0.0716869 0.0823377
0.848493 0.0715038 0.0868696
0.848585 0.0714122 0.0910658
0.848661 0.0713207 0.0950179
0.0275883 0.126406 0.0388495
0.0274968 0.125841 0.0387274
0.0274357 0.125048 0.0386053
0.0273594 0.124239 0.038468
0.0270237 0.122255 0.0380102
0.0315709 0.118914 0.0369421
0.0666667 0.114748 0.0348821
0.0973373 0.112047 0.0345006
0.126146 0.109682 0.0347143
0.157748 0.106966 0.0354009
0.201129 0.103944 0.0360266
0.24509 0.0998093 0.0366979
0.307515 0.0912795 0.035996
0.377111 0.0764019 0.0224613
0.465385 0.0698405 0.0285039
0.54583 0.0593118 0.0380865
0.621851 0.0494698 0.0482795
0.681361 0.0543832 0.0531167
0.726268 0.0586557 0.0572976
0.761913 0.0623026 0.0608682
0.790722 0.0653849 0.0638895
0.815625 0.0682841 0.0667124
0.8383 0.0709392 0.0693065
0.848325 0.0721904 0.0705425
0.848325 0.0721904 0.0705425
0.848325 0.0721904 0.0705425
0.848325 0.0721904 0.0705425
0.848295 0.0721141 0.0712444
0.848371 0.0718853 0.0773175
0.848447 0.0716869 0.0823377
0.848493 0.0715038 0.0868696
0.848585 0.0714122 0.0910658
0.848661 0.0713207 0.0950179
0.0274205 0.148959 0.0432898
0.0274815 0.148363 0.0431525
0.0275578 0.147677 0.0430304
0.0276646 0.146914 0.0428779
0.0277714 0.146151 0.0427405
0.0280461 0.143679 0.0422217
0.0511788 0.138354 0.0395666
0.0887465 0.134676 0.0379644
0.121126 0.13254 0.0375525
0.153857 0.130861 0.037995
0.198062 0.128878 0.0376745
0.24242 0.126726 0.0376287
0.305226 0.121416 0.0347906
0.373236 0.112428 0.0168765
0.450614 0.0954147 0.0191501
0.541344 0.0612192 0.0371252
0.619196 0.0492409 0.0480507
0.679652 0.0542611 0.0529946
0.725155 0.0585489 0.0571908
0.761044 0.062211 0.0607767
0.790249 0.0653697 0.0638743
0.815442 0.0682078 0.0666361
0.8383 0.0709392 0.0693065
0.848325 0.0721904 0.0705425
0.848325 0.0721904 0.0705425
0.848325 0.0721904 0.0705425
0.848325 0.0721904 0.0705425
0.848295 0.0721141 0.0712444
0.848371 0.0718853 0.0773175
0.848447 0.0716869 0.0823377
0.848493 0.0715038 0.0868696
0.848585 0.0714122 0.0910658
0.848661 0.0713207 0.0950179
0.0198978 0.177157 0.0494087
0.0201114 0.176562 0.0492714
0.0203708 0.175875 0.0491035
0.0206149 0.175189 0.0489509
0.0209201 0.174395 0.0487678
0.0212253 0.173602 0.0486
0.0224918 0.170245 0.0478828
0.0673838 0.162509 0.043183
0.111879 0.15935 0.0416266
0.146395 0.157473 0.0414435
0.192737 0.15555 0.040589
0.239368 0.15436 0.0401617
0.303944 0.150942 0.0358282
0.374212 0.145861 0.014786
0.451499 0.136187 0.0133974
0.530861 0.114794 0.0208743
0.608179 0.0626841 0.0395972
0.678248 0.054139 0.0528878
0.723293 0.0583352 0.0569924
0.759793 0.062089 0.0606699
0.789364 0.0652781 0.0637827
0.814862 0.0681163 0.0666361
0.838056 0.0709392 0.0693065
0.848325 0.0721904 0.0705425
0.848325 0.0721904 0.0705425
0.848325 0.0721904 0.0705425
0.848325 0.0721904 0.0705425
0.848295 0.0720989 0.0713359
0.848371 0.0718853 0.0773175
0.848447 0.0716869 0.0824292
0.848493 0.0715038 0.0868696
0.848585 0.0714122 0.0910658
0.848661 0.0713207 0.0950179
0.0171359 0.208408 0.05626
0.0170596 0.20798 0.0561379
0.0169833 0.207355 0.0560006
0.0169528 0.206806 0.0558633
0.0169223 0.206149 0.0557107
0.0168917 0.205509 0.0555581
0.0168917 0.204669 0.0553902
0.0173342 0.200732 0.0544289
0.0802319 0.193225 0.0482185
0.127459 0.190982 0.046479
0.182071 0.189425 0.0449683
0.233783 0.189059 0.0428321
0.300664 0.186969 0.037171
0.375555 0.183307 0.0145266
0.456016 0.175708 0.0108186
0.537133 0.161471 0.0153201
0.606317 0.131029 0.0237125
0.66862 0.0895247 0.0369879
0.71986 0.0580148 0.056672
0.757824 0.0618906 0.0604562
0.788006 0.065095 0.0636149
0.813764 0.0680247 0.066453
0.837293 0.0708476 0.0692149
0.848325 0.0721904 0.0705425
0.848325 0.0721904 0.0705425
0.848325 0.0721904 0.0705425
0.848325 0.0721904 0.0705425
0.848295 0.0720989 0.0713359
0.848371 0.0718853 0.0773175
0.848447 0.0716869 0.0824292
0.848493 0.0715038 0.0868696
0.848585 0.0714122 0.0910658
0.848661 0.0713207 0.0950179
0.020325 0.242893 0.0628672
0.0202487 0.242405 0.0627604
0.0201877 0.24181 0.0626383
0.0201114 0.241215 0.0625315
0.0201267 0.240604 0.0624857
0.0200656 0.240024 0.0623636
0.0200046 0.239231 0.0622416
0.019852 0.238041 0.0619974
0.0447089 0.231312 0.0582284
0.0943923 0.227634 0.0541085
0.158556 0.225849 0.0511482
0.224338 0.226276 0.0477607
0.29424 0.226825 0.04094
0.375235 0.22649 0.0158541
0.460166 0.224369 0.00877394
0.544701 0.216114 0.0113985
0.613993 0.198138 0.016083
0.674067 0.157244 0.0253452
0.71902 0.119646 0.035462
0.752026 0.0924392 0.0457313
0.786984 0.0650034 0.063508
0.81207 0.0678264 0.0662699
0.835996 0.0706645 0.0690471
0.848325 0.0721904 0.0705425
0.848325 0.0721904 0.0705425
0.848325 0.0721904 0.0705425
0.848325 0.0721904 0.0705425
0.848295 0.0720989 0.0713359
0.848371 0.0718853 0.0773175
0.848447 0.0716869 0.0824292
0.848493 0.0715038 0.0868696
0.848585 0.0714122 0.0910658
0.848661 0.0713207 0.0950179
0.0236515 0.287327 0.0687266
0.0235752 0.286793 0.0686351
0.0235904 0.286244 0.0686198
0.0235142 0.285588 0.0685283
0.0234531 0.285054 0.068452
0.0234684 0.284382 0.0684367
0.0234073 0.283619 0.0683452
0.0232547 0.282536 0.0681468
0.0232853 0.281987 0.0681315
0.069749 0.274617 0.0621653
0.117662 0.27396 0.0583047
0.203265 0.27393 0.0512398
0.280415 0.276081 0.0420081
0.37174 0.277775 0.0136568
0.462654 0.277806 0.00987259
0.552666 0.273625 0.0110628
0.625071 0.262592 0.0131838
0.683055 0.244495 0.016556
0.72433 0.22237 0.0210422
0.757855 0.179187 0.0297398
0.786618 0.127916 0.041413
0.807721 0.0872663 0.0556344
0.834104 0.0704051 0.0687877
0.848325 0.0721904 0.0705425
0.848325 0.0721904 0.0705425
0.848325 0.0721904 0.0705425
0.848325 0.0721904 0.0705425
0.848295 0.0720989 0.0713359
0.848371 0.0718853 0.0773175
0.848447 0.0716869 0.0824292
0.848493 0.0715038 0.0868696
0.848585 0.0714122 0.0910658
0.848661 0.0713207 0.0950179
0.0272526 0.336507 0.0745861
0.0271763 0.33608 0.0744945
0.0271916 0.335531 0.0744793
0.0271153 0.334997 0.0743877
0.0271305 0.334554 0.0743725
0.0270542 0.33402 0.0742809
0.0269932 0.333257 0.0741741
0.0269322 0.332403 0.0740673
0.0267948 0.331106 0.0738689
0.0267948 0.331106 0.0738689
0.0961166 0.327108 0.0647135
0.147509 0.330373 0.0555734
0.255604 0.334508 0.0324712
0.363378 0.341024 0.0102693
0.462364 0.345815 0.00947585
0.558495 0.345647 0.009308
0.635142 0.339162 0.0101167
0.695567 0.326329 0.0119173
0.738125 0.309087 0.0146944
0.770047 0.286687 0.0184176
0.794202 0.259846 0.0229953
0.81265 0.223957 0.0289921
0.83447 0.137423 0.0457923
0.848325 0.0721904 0.0705425
0.848325 0.0721904 0.0705425
0.848325 0.0721904 0.0705425
0.848325 0.0721904 0.0705425
0.848295 0.0720989 0.0713359
0.848371 0.0718853 0.0773175
0.848447 0.0716869 0.0824292
0.848493 0.0715038 0.0868696
0.848585 0.0714122 0.0910658
0.848661 0.0713207 0.0950179
0.0311284 0.391424 0.0757763
0.0310521 0.390951 0.0757458
0.0310826 0.390372 0.0757916
0.0310063 0.389899 0.0757458
0.0310216 0.389441 0.0757916
0.0309453 0.388968 0.0757458
0.030869 0.388281 0.0757305
0.030808 0.387335 0.0757305
0.0307622 0.386175 0.0757458
0.0306249 0.384665 0.0757153
0.0637522 0.383841 0.0700389
0.12488 0.388937 0.054963
0.191623 0.398642 0.0183719
0.345373 0.40737 0.0104372
0.457206 0.416602 0.00753796
0.561486 0.42002 0.00570687
0.644038 0.417502 0.00531014
0.708186 0.408988 0.00686656
0.752865 0.396735 0.00910964
0.785794 0.382147 0.0116732
0.810819 0.365133 0.0144961
0.83064 0.341543 0.0178836
0.846845 0.305196 0.022858
0.840772 0.243717 0.0293584
0.841627 0.119478 0.0507362
0.848325 0.0721904 0.0705425
0.848325 0.0721904 0.0705425
0.848325 0.0721904 0.0705425
0.848386 0.0718853 0.0773938
0.848447 0.0716869 0.0824292
0.848493 0.0715038 0.0868696
0.848585 0.0714122 0.0910658
0.848661 0.0713207 0.0950179
0.0350652 0.449622 0.0700847
0.0349889 0.449165 0.0700999
0.0350042 0.448829 0.0701762
0.0349279 0.448386 0.0701915
0.0349432 0.447944 0.0702983
0.0348669 0.447608 0.0702831
0.0348821 0.447044 0.0704204
0.0348211 0.446265 0.0705119
0.0347753 0.445258 0.0706645
0.034638 0.444038 0.0707713
0.0347753 0.445258 0.0706645
0.102754 0.44831 0.0411078
0.156115 0.463233 0.0194705
0.310674 0.475212 0.0111238
0.443305 0.48957 0.0062562
0.558831 0.49839 0.00393683
0.648814 0.500435 0.00425727
0.717098 0.495171 0.0053254
0.765118 0.485878 0.00648508
0.799786 0.474327 0.00787366
0.826688 0.462089 0.00949111
0.848264 0.446113 0.0114748
0.866484 0.424247 0.0138857
0.863569 0.386419 0.0165866
0.852506 0.328206 0.0209964
0.839384 0.232685 0.0306554
0.848325 0.0721904 0.0705425
0.848325 0.0721904 0.0705425
0.848325 0.0721904 0.0705425
0.848447 0.0716869 0.0824292
0.848493 0.0715038 0.0868696
0.848585 0.0714122 0.0910658
0.848661 0.0713207 0.0950179
0.0396124 0.503304 0.04654
0.0396124 0.502998 0.0467842
0.0395361 0.502693 0.046891
0.0395361 0.502388 0.0471199
0.0394598 0.501976 0.0473182
0.0394598 0.501671 0.0475471
0.0393835 0.501274 0.0477455
0.0393835 0.500771 0.0481422
0.0393072 0.499962 0.0486458
0.0392309 0.499046 0.0492409
0.0390936 0.497719 0.0500191
0.0655222 0.499702 0.0371099
0.137774 0.515572 0.0238041
0.22565 0.534615 0.0175784
0.417121 0.550713 0.00819409
0.545708 0.564752 0.00642405
0.647166 0.572473 0.00602731
0.721767 0.572 0.00613413
0.774334 0.567147 0.00657664
0.811795 0.560006 0.00730907
0.840711 0.553109 0.00810254
0.863859 0.544686 0.00895705
0.883497 0.53167 0.0101167
0.886595 0.507912 0.0112612
0.879347 0.468986 0.0123598
0.868833 0.412772 0.0149233
0.85127 0.319677 0.0217136
0.841627 0.125383 0.0492714
0.848325 0.0721904 0.0705425
0.848325 0.0721904 0.0705425
0.848493 0.0715038 0.0869459
0.848585 0.0714122 0.0910658
0.848661 0.0713207 0.0950179
0.0437934 0.551675 0.0397498
0.0437934 0.551415 0.039765
0.0437171 0.551232 0.0396887
0.0437324 0.550973 0.039704
0.0437324 0.55079 0.0397192
0.0436561 0.55053 0.0396582
0.0436713 0.550256 0.0396735
0.043595 0.549813 0.0396277
0.0436103 0.549294 0.0396582
0.0435492 0.548592 0.0396124
0.0434272 0.547707 0.0395209
0.0433814 0.546471 0.0395056
0.115267 0.558785 0.0293736
0.171832 0.583307 0.0238804
0.379751 0.601678 0.0120089
0.524865 0.620966 0.00854505
0.638529 0.633783 0.0065156
0.720363 0.637858 0.00544747
0.778088 0.636744 0.00503548
0.816449 0.631678 0.00515755
0.84184 0.625254 0.00556954
0.863401 0.618936 0.00601205
0.883558 0.611475 0.00657664
0.894621 0.599359 0.00737011
0.895537 0.579828 0.00836194
0.89482 0.551308 0.00959792
0.884153 0.494865 0.0116732
0.867475 0.406012 0.0152895
0.842359 0.256123 0.0279545
0.848325 0.0721904 0.0705425
0.848325 0.0721904 0.0705425
0.848585 0.0714122 0.0910658
0.848661 0.0713207 0.0950942
0.047776 0.58967 0.0433509
0.0477913 0.589532 0.0433509
0.047715 0.589395 0.0432746
0.047715 0.589181 0.0432898
0.047715 0.589044 0.0432898
0.0477302 0.588907 0.0432898
0.0476539 0.588754 0.0432136
0.0476539 0.588479 0.0432288
0.0475929 0.588129 0.0431678
0.0475166 0.587701 0.0430915
0.0474556 0.58706 0.0430457
0.0473945 0.586358 0.0429847
0.085832 0.591516 0.0367437
0.156695 0.617502 0.0288243
0.332708 0.639399 0.0170901
0.50071 0.662043 0.0104829
0.625956 0.678813 0.00654612
0.713954 0.686595 0.00424201
0.77705 0.688716 0.00285344
0.811154 0.684504 0.00256352
0.835416 0.679637 0.0033875
0.85716 0.675654 0.00428778
0.877195 0.671473 0.00518807
0.891798 0.665599 0.00578317
0.89221 0.654276 0.00581369
0.89279 0.638605 0.00587472
0.894026 0.611032 0.00668345
0.895308 0.568902 0.00888075
0.883909 0.49366 0.0116732
0.857923 0.3579 0.0186007
0.848325 0.0721904 0.0705425
0.848325 0.0721904 0.0705425
0.848661 0.0713207 0.0950942
0.0515908 0.622293 0.0468452
0.0515908 0.622171 0.0468452
0.051606 0.622034 0.0468452
0.051606 0.621973 0.0468605
0.051606 0.621851 0.0468605
0.0515297 0.621698 0.0467842
0.0515297 0.621576 0.0467994
0.051545 0.621378 0.0467994
0.0514687 0.621118 0.0467384
0.0514839 0.620798 0.0466773
0.0514229 0.62034 0.0466926
0.0513619 0.619745 0.0466468
0.0514839 0.620859 0.0467536
0.143709 0.644434 0.0339055
0.27219 0.669932 0.0239414
0.47808 0.692546 0.0125734
0.612741 0.711421 0.00708019
0.704662 0.721294 0.00445563
0.772396 0.725261 0.00335698
0.805631 0.721752 0.00392157
0.830274 0.718029 0.00488289
0.852277 0.715023 0.00576791
0.872251 0.712322 0.00656138
0.890837 0.709117 0.00727855
0.890929 0.703243 0.00682078
0.891081 0.694926 0.00645457
0.89134 0.682322 0.00598154
0.89192 0.661707 0.00576791
0.893278 0.627832 0.00604257
0.895384 0.571313 0.0087892
0.876478 0.453056 0.0129549
0.839475 0.161181 0.0420233
0.848325 0.0721904 0.0705425
0.0552224 0.652201 0.0522774
0.0552377 0.652079 0.0522621
0.0552377 0.652018 0.0522469
0.0552377 0.651911 0.0522316
0.0551614 0.651835 0.0521401
0.0551614 0.651774 0.0521401
0.0551766 0.651652 0.0521096
0.0551766 0.651484 0.0520943
0.0551156 0.651286 0.0519875
0.0551156 0.651041 0.051957
0.0550546 0.650736 0.0518349
0.0549935 0.650309 0.0516976
0.0549325 0.64976 0.0515297
0.134005 0.669642 0.0385443
0.234363 0.696727 0.0295262
0.462135 0.718257 0.0161135
0.600214 0.737621 0.0100557
0.695735 0.748928 0.00688182
0.766247 0.753704 0.00621042
0.80087 0.751019 0.00682078
0.825956 0.747616 0.0075227
0.848173 0.745083 0.00819409
0.868177 0.742977 0.00886549
0.886946 0.740688 0.00947585
0.890593 0.737087 0.0093843
0.890623 0.731914 0.0089723
0.890669 0.724849 0.0084535
0.890776 0.714031 0.00764477
0.891005 0.698756 0.00662242
0.891539 0.675227 0.00590524
0.893095 0.632227 0.00601205
0.893797 0.544869 0.00987259
0.849638 0.308659 0.0226902
0.0581521 0.680156 0.0745098
0.0581674 0.680034 0.0743877
0.0581674 0.679973 0.0743114
0.0581674 0.679896 0.0742504
0.0581826 0.679835 0.0741894
0.0581826 0.679774 0.0741283
0.0581064 0.679713 0.0738994
0.0581216 0.679576 0.0737774
0.0581369 0.679393 0.073579
0.0580758 0.679194 0.073228
0.0580911 0.67895 0.0729686
0.0580453 0.678553 0.0724346
0.0579995 0.678111 0.0718395
0.130968 0.695155 0.0424048
0.228779 0.721279 0.0331273
0.45568 0.740734 0.0193484
0.591928 0.759396 0.0129549
0.688319 0.770947 0.00953689
0.759747 0.77612 0.00891127
0.796735 0.774243 0.00917067
0.82208 0.770977 0.00962844
0.844648 0.768597 0.0100862
0.864759 0.76672 0.0105287
0.88333 0.764935 0.0109865
0.890761 0.762463 0.0110628
0.8907 0.75903 0.0108186
0.890669 0.754696 0.010544
0.890654 0.748302 0.0101472
0.890623 0.739712 0.00953689
0.890639 0.727657 0.0087129
0.890837 0.709728 0.00732433
0.891402 0.679698 0.00593576
0.893935 0.613336 0.00656138
0.0601968 0.70901 0.120378
0.0601968 0.708934 0.120317
0.0602121 0.708873 0.120226
0.0602121 0.708797 0.120134
0.0601511 0.708721 0.11986
0.0601511 0.708721 0.11986
0.0601511 0.708659 0.119768
0.0601663 0.708522 0.1196
0.0601663 0.708385 0.119432
0.0601053 0.708247 0.119051
0.0601205 0.707973 0.118715
0.0600748 0.707698 0.118166
0.06009 0.707362 0.117739
0.1393 0.723949 0.0526284
0.270863 0.744625 0.0335699
0.462913 0.762112 0.0217746
0.589364 0.778592 0.0157321
0.6822 0.789349 0.0125124
0.752773 0.794583 0.0112917
0.793072 0.793698 0.011017
0.818509 0.790188 0.0112764
0.84126 0.787732 0.0115358
0.86157 0.785763 0.0118563
0.880171 0.784039 0.0121309
0.891157 0.782147 0.0122377
0.891112 0.77966 0.0121309
0.89102 0.776593 0.0119326
0.890913 0.772519 0.0117189
0.890852 0.767361 0.0113832
0.89073 0.76051 0.0109255
0.890654 0.751156 0.0103304
0.890608 0.737026 0.009308
0.890791 0.713817 0.00766003
0.0624704 0.737896 0.151705
0.0624704 0.737835 0.151675
0.0623941 0.737819 0.151537
0.0624094 0.737743 0.151507
0.0624094 0.737682 0.151461
0.0624094 0.737682 0.151461
0.0624094 0.737606 0.151415
0.0624094 0.737545 0.151369
0.0624247 0.737408 0.151293
0.0624247 0.73727 0.151064
0.0623636 0.737118 0.151003
0.0623789 0.736919 0.150866
0.0623789 0.736782 0.150637
0.161913 0.756191 0.0708782
0.35584 0.767361 0.030869
0.484031 0.782986 0.0234379
0.594415 0.796262 0.0179904
0.679088 0.805264 0.0149538
0.745907 0.809949 0.0133211
0.789914 0.810147 0.0125887
0.815061 0.8065 0.0126192
0.837842 0.803891 0.0127108
0.858335 0.801816 0.0128176
0.876966 0.800015 0.0129854
0.891676 0.79826 0.0132753
0.8916 0.796277 0.0130465
0.891539 0.794003 0.0129091
0.891417 0.791257 0.0127413
0.89131 0.787778 0.0125582
0.891203 0.783337 0.0123293
0.89102 0.777722 0.0119783
0.890883 0.769924 0.0115358
0.89073 0.75877 0.0108339
0.0625925 0.739574 0.153109
0.0625925 0.739574 0.153109
0.0625925 0.739574 0.153109
0.0625925 0.739574 0.153109
0.0625925 0.739574 0.153109
0.0625925 0.739574 0.153109
0.0625925 0.739574 0.153109
0.0625925 0.739574 0.153109
0.0625925 0.739574 0.153109
0.0625925 0.739574 0.153109
0.0625925 0.739574 0.153109
0.0625925 0.739574 0.153109
0.14931 0.755886 0.0921798
0.270146 0.765805 0.0408026
0.411872 0.777951 0.0280156
0.513039 0.791852 0.0226596
0.606409 0.804837 0.0185397
0.680323 0.814252 0.016144
0.74168 0.820508 0.0146029
0.786938 0.82385 0.0137179
0.81178 0.82153 0.0138552
0.834333 0.818738 0.0140078
0.854841 0.816449 0.0142824
0.873549 0.814435 0.0146181
0.891188 0.812512 0.0149844
0.892195 0.810834 0.0147707
0.892119 0.808865 0.0145418
0.892012 0.806622 0.0143282
0.89192 0.804089 0.0139925
0.891798 0.800977 0.013611
0.891615 0.797162 0.0132143
0.891478 0.792309 0.0128176
0.891234 0.785809 0.0124361
0.062089 0.739864 0.16408
0.062089 0.739864 0.16408
0.062089 0.739864 0.16408
0.062089 0.739864 0.16408
0.062089 0.739864 0.16408
0.062089 0.739864 0.16408
0.062089 0.739864 0.16408
0.062089 0.739864 0.16408
0.0886549 0.741787 0.14905
0.128923 0.749294 0.116747
0.153445 0.757229 0.0874952
0.200702 0.763958 0.0568399
0.312322 0.768277 0.0360571
0.402289 0.77673 0.0285954
0.477226 0.786999 0.0244907
0.553887 0.797482 0.0207523
