iOSLOG2LUTConverter/Resources/Secondary LUTS/KODACHROME.cube
TITLE "Generated by Resolve"
LUT_3D_SIZE 5
0.0214542 0.0213626 0.024155
0.136751 0.0338445 0.0356909
0.624887 0.0497139 0.0485237
0.848325 0.0721904 0.0705425
0.848661 0.0713207 0.0950179
0.0274205 0.148959 0.0432898
0.121126 0.13254 0.0375525
0.619196 0.0492409 0.0480507
0.848325 0.0721904 0.0705425
0.848661 0.0713207 0.0950179
0.0396124 0.503304 0.04654
0.0393072 0.499962 0.0486458
0.647166 0.572473 0.00602731
0.879347 0.468986 0.0123598
0.848661 0.0713207 0.0950179
0.0625925 0.739574 0.153109
0.0625925 0.739574 0.153109
0.606409 0.804837 0.0185397
0.891188 0.812512 0.0149844
0.891234 0.785809 0.0124361
0.820829 0.822354 0.0141451
0.821973 0.822324 0.0141909
0.830442 0.822126 0.0143435
0.878752 0.820874 0.0155489
0.892622 0.820447 0.0159762
0.0263371 0.0292668 0.133669
0.130266 0.0355383 0.132113
0.625727 0.048188 0.112505
0.848325 0.0721904 0.0705425
0.848661 0.0713207 0.0950179
0.0236362 0.137789 0.140032
0.114122 0.121126 0.129061
0.619272 0.0477302 0.104799
0.848325 0.0721904 0.0705425
0.848661 0.0713207 0.0950179
0.0382544 0.502678 0.0770886
0.0381933 0.499275 0.0714885
0.646708 0.570718 0.00598154
0.87895 0.466743 0.0124666
0.848661 0.0713207 0.0950179
0.0625925 0.739574 0.153109
0.0625925 0.739574 0.153109
0.605966 0.804791 0.018555
0.891188 0.812512 0.0149844
0.891249 0.785763 0.0124361
0.820783 0.822354 0.0141451
0.821973 0.822324 0.0141909
0.830442 0.822126 0.0143435
0.878752 0.820874 0.0155489
0.892622 0.820447 0.0159762
0.0285649 0.0277562 0.467094
0.0283818 0.0275731 0.464073
0.626612 0.0508278 0.505974
0.864637 0.0712902 0.516884
0.848661 0.0713207 0.0950179
0.0285191 0.0277104 0.465782
0.028336 0.0275273 0.462974
0.627054 0.0508278 0.504982
0.864591 0.0712749 0.516197
0.848661 0.0713207 0.0950179
0.030396 0.512505 0.548974
0.0302434 0.508553 0.547555
0.591684 0.541848 0.537392
0.855695 0.405768 0.518502
0.848661 0.0713207 0.0950179
0.0540932 0.772229 0.605982
0.0540932 0.772198 0.605447
0.504952 0.812879 0.557122
0.875624 0.812161 0.451667
0.891264 0.785443 0.0124514
0.820645 0.822354 0.0141451
0.821836 0.822293 0.0141909
0.830304 0.822126 0.0143435
0.878706 0.820829 0.0155489
0.892622 0.820447 0.0159762
0.0481422 0.0468147 0.715221
0.0481422 0.0468147 0.715221
0.532799 0.0544137 0.750256
0.890211 0.0788434 0.794034
0.889174 0.0784009 0.783322
0.0481422 0.0468147 0.715221
0.0481422 0.0468147 0.715221
0.54287 0.0548562 0.751217
0.890211 0.0788434 0.794034
0.889174 0.0784009 0.783322
0.0356298 0.168353 0.726802
0.0354467 0.164538 0.72604
0.458259 0.104723 0.741192
0.890043 0.0787671 0.792325
0.889158 0.0784009 0.783062
0.0550851 0.774777 0.824231
0.055024 0.774487 0.824186
0.169894 0.792935 0.818524
0.858885 0.807095 0.7935
0.875044 0.773098 0.783642
0.755596 0.837049 0.777462
0.757839 0.83714 0.777325
0.774334 0.837674 0.776287
0.846372 0.839048 0.772091
0.876646 0.839094 0.754208
0.0488746 0.0475319 0.723918
0.0488746 0.0475319 0.723918
0.0488746 0.0475319 0.723918
0.885298 0.0788128 0.809583
0.891722 0.0795148 0.810437
0.0488746 0.0475319 0.723918
0.0488746 0.0475319 0.723918
0.0488746 0.0475319 0.723918
0.885512 0.0788281 0.809598
0.891722 0.0795148 0.810437
0.0488746 0.0475319 0.723918
0.0488746 0.0475319 0.723918
0.0488746 0.0475319 0.723918
0.887282 0.078996 0.809827
0.891722 0.0795148 0.810437
0.0462348 0.68925 0.813046
0.0461738 0.689174 0.813046
0.0454261 0.681926 0.812024
0.845991 0.727779 0.8009
0.863951 0.472404 0.79028
0.621393 0.830411 0.805432
0.628489 0.830793 0.805371
0.67509 0.833555 0.80531
0.820005 0.838788 0.804883
0.876814 0.839551 0.804868
