iOSLOG2LUTConverter/Resources/Secondary LUTS/KODACHROME.cube
TITLE "Generated by Resolve"
LUT_3D_SIZE 9
0.0214542 0.0213626 0.024155
0.0449989 0.023331 0.026276
0.136751 0.0338445 0.0356909
0.315221 0.060441 0.0431525
0.624887 0.0497139 0.0485237
0.790585 0.0653849 0.0638895
0.848325 0.0721904 0.0705425
0.848371 0.0718853 0.0773175
0.848661 0.0713207 0.0950179
0.0246891 0.0671855 0.0293431
0.0356909 0.0599832 0.0280156
0.136812 0.0480507 0.0330816
0.314977 0.0603342 0.0430762
0.625132 0.0497139 0.0485389
0.79086 0.0654002 0.0638895
0.848325 0.0721904 0.0705425
0.848371 0.0718853 0.0773175
0.848661 0.0713207 0.0950179
0.0274205 0.148959 0.0432898
0.0277714 0.146151 0.0427405
0.121126 0.13254 0.0375525
0.305226 0.121416 0.0347906
0.619196 0.0492409 0.0480507
0.790249 0.0653697 0.0638743
0.848325 0.0721904 0.0705425
0.848371 0.0718853 0.0773175
0.848661 0.0713207 0.0950179
0.0236515 0.287327 0.0687266
0.0234531 0.285054 0.068452
0.0232853 0.281987 0.0681315
0.280415 0.276081 0.0420081
0.625071 0.262592 0.0131838
0.786618 0.127916 0.041413
0.848325 0.0721904 0.0705425
0.848371 0.0718853 0.0773175
0.848661 0.0713207 0.0950179
0.0396124 0.503304 0.04654
0.0394598 0.501976 0.0473182
0.0393072 0.499962 0.0486458
0.137774 0.515572 0.0238041
0.647166 0.572473 0.00602731
0.840711 0.553109 0.00810254
0.879347 0.468986 0.0123598
0.848325 0.0721904 0.0705425
0.848661 0.0713207 0.0950179
0.0552224 0.652201 0.0522774
0.0551614 0.651835 0.0521401
0.0551156 0.651286 0.0519875
0.0549325 0.64976 0.0515297
0.600214 0.737621 0.0100557
0.825956 0.747616 0.0075227
0.890593 0.737087 0.0093843
0.891005 0.698756 0.00662242
0.849638 0.308659 0.0226902
0.0625925 0.739574 0.153109
0.0625925 0.739574 0.153109
0.0625925 0.739574 0.153109
0.14931 0.755886 0.0921798
0.606409 0.804837 0.0185397
0.81178 0.82153 0.0138552
0.891188 0.812512 0.0149844
0.89192 0.804089 0.0139925
0.891234 0.785809 0.0124361
0.604334 0.804562 0.0186313
0.612406 0.805676 0.0183566
0.62443 0.807294 0.0179294
0.657801 0.811566 0.0168765
0.729442 0.819348 0.0148623
0.810666 0.822675 0.013962
0.876554 0.82092 0.0154421
0.892622 0.820447 0.0159762
0.892622 0.820447 0.0159762
0.820829 0.822354 0.0141451
0.821256 0.822324 0.0141299
0.821973 0.822324 0.0141909
0.824155 0.822263 0.0142061
0.830442 0.822126 0.0143435
0.84654 0.821759 0.0146639
0.878752 0.820874 0.0155489
0.892622 0.820447 0.0159762
0.892622 0.820447 0.0159762
0.0230716 0.024155 0.0683909
0.0388952 0.0242618 0.0635538
0.1346 0.033753 0.0675517
0.314839 0.0600443 0.0617227
0.624628 0.0496986 0.0485237
0.790585 0.0653849 0.0638895
0.848325 0.0721904 0.0705425
0.848371 0.0718853 0.0773175
0.848661 0.0713207 0.0950179
0.0235599 0.0582589 0.0667887
0.0297398 0.0508125 0.0644846
0.138186 0.0356298 0.0693828
0.312535 0.0598001 0.057145
0.625132 0.0497139 0.0485389
0.79086 0.0654002 0.0638895
0.848325 0.0721904 0.0705425
0.848371 0.0718853 0.0773175
0.848661 0.0713207 0.0950179
0.0263218 0.14548 0.0737621
0.0268101 0.142657 0.0721141
0.118227 0.129412 0.0594797
0.289967 0.121355 0.0417334
0.619577 0.0493172 0.0481422
0.790249 0.0653697 0.0638743
0.848325 0.0721904 0.0705425
0.848371 0.0718853 0.0773175
0.848661 0.0713207 0.0950179
0.0235142 0.285801 0.0685435
0.0233158 0.283406 0.0682536
0.0231632 0.280217 0.0679332
0.279149 0.273747 0.0426184
0.624323 0.260426 0.0132601
0.786419 0.12665 0.0416876
0.848325 0.0721904 0.0705425
0.848371 0.0718853 0.0773175
0.848661 0.0713207 0.0950179
0.0395361 0.502693 0.046891
0.0394598 0.501381 0.0477913
0.0392309 0.499352 0.0489967
0.137316 0.514839 0.0237888
0.646967 0.571969 0.00604257
0.84062 0.552575 0.00808728
0.879164 0.468086 0.0123598
0.848325 0.0721904 0.0705425
0.848661 0.0713207 0.0950179
0.0552224 0.65214 0.0522621
0.0551614 0.651774 0.0521401
0.0551156 0.651225 0.0519722
0.0549477 0.649699 0.0515297
0.600031 0.73753 0.010071
0.825956 0.747555 0.0075227
0.890608 0.737026 0.009308
0.891005 0.69868 0.00662242
0.8495 0.3075 0.0228275
0.0625925 0.739574 0.153109
0.0625925 0.739574 0.153109
0.0625925 0.739574 0.153109
0.148974 0.755764 0.092546
0.606271 0.804822 0.0185397
0.811734 0.82153 0.0138552
0.891188 0.812512 0.0149844
0.89192 0.804059 0.0139925
0.891234 0.785809 0.0124361
0.604166 0.804532 0.0186313
0.612268 0.805661 0.0183566
0.62443 0.807294 0.0179294
0.657664 0.811551 0.0168765
0.729335 0.819333 0.0148623
0.810666 0.822675 0.013962
0.876554 0.82092 0.0154421
0.892622 0.820447 0.0159762
0.892622 0.820447 0.0159762
0.820829 0.822354 0.0141451
0.821256 0.822324 0.0141299
0.821973 0.822324 0.0141909
0.824155 0.822263 0.0142061
0.830442 0.822126 0.0143435
0.84654 0.821759 0.0146639
0.878752 0.820874 0.0155489
0.892622 0.820447 0.0159762
0.892622 0.820447 0.0159762
0.0263371 0.0292668 0.133669
0.0261692 0.0289311 0.130205
0.130266 0.0355383 0.132113
0.314687 0.0604868 0.131853
0.625727 0.048188 0.112505
0.790906 0.0644694 0.0903334
0.848325 0.0721904 0.0705425
0.848371 0.0718853 0.0773175
0.848661 0.0713207 0.0950179
0.0263371 0.0292515 0.133104
0.0262455 0.0291142 0.132052
0.132952 0.035996 0.133623
0.315465 0.060502 0.130434
0.626322 0.0482338 0.111437
0.791165 0.0644999 0.0892958
0.848325 0.0721904 0.0705425
0.848371 0.0718853 0.0773175
0.848661 0.0713207 0.0950179
0.0236362 0.137789 0.140032
0.0239414 0.134905 0.139086
0.114122 0.121126 0.129061
0.299763 0.106722 0.120424
0.619272 0.0477302 0.104799
0.789761 0.0645304 0.0824445
0.848325 0.0721904 0.0705425
0.848371 0.0718853 0.0773175
0.848661 0.0713207 0.0950179
0.0214084 0.283848 0.143526
0.0212406 0.281468 0.142763
0.0209506 0.277272 0.141588
0.277272 0.272465 0.120104
0.615442 0.261097 0.0632792
0.782757 0.142092 0.0384375
0.848325 0.0721904 0.0705425
0.848371 0.0718853 0.0773175
0.848661 0.0713207 0.0950179
0.0382544 0.502678 0.0770886
0.0381933 0.501396 0.0748608
0.0381933 0.499275 0.0714885
0.135988 0.514153 0.0348516
0.646708 0.570718 0.00598154
0.840269 0.551125 0.0081178
0.87895 0.466743 0.0124666
0.848325 0.0721904 0.0705425
0.848661 0.0713207 0.0950179
0.0551614 0.651835 0.0521401
0.0551766 0.65153 0.0520943
0.0551156 0.65098 0.0519417
0.0548714 0.649454 0.0514076
0.599313 0.737316 0.0100252
0.82591 0.747494 0.0075227
0.890608 0.736965 0.00932326
0.890974 0.698528 0.00656138
0.849226 0.30576 0.0229648
0.0625925 0.739574 0.153109
0.0625925 0.739574 0.153109
0.0625925 0.739574 0.153109
0.148501 0.755596 0.0930343
0.605966 0.804791 0.018555
0.811734 0.82153 0.0138552
0.891188 0.812512 0.0149844
0.89192 0.804059 0.0139925
0.891249 0.785763 0.0124361
0.603998 0.804517 0.0186465
0.612116 0.805631 0.0183719
0.62414 0.807263 0.0179446
0.657526 0.811536 0.0168765
0.729335 0.819333 0.0148623
0.810605 0.822675 0.013962
0.876509 0.82092 0.0154421
0.892622 0.820447 0.0159762
0.892622 0.820447 0.0159762
0.820783 0.822354 0.0141451
0.821256 0.822324 0.0141299
0.821973 0.822324 0.0141909
0.824155 0.822263 0.0142061
0.830442 0.822126 0.0143435
0.84654 0.821759 0.0146639
0.878752 0.820874 0.0155489
0.892622 0.820447 0.0159762
0.892622 0.820447 0.0159762
0.0184482 0.0369726 0.258762
0.0185245 0.0368811 0.258
0.113405 0.0373999 0.2533
0.307759 0.0603037 0.263493
0.625238 0.0479286 0.279133
0.793347 0.0627604 0.270207
0.849454 0.0699321 0.178744
0.848371 0.0718853 0.0773175
0.848661 0.0713207 0.0950179
0.0185702 0.0368811 0.257786
0.0186618 0.0368811 0.257343
0.11577 0.0376593 0.252537
0.310567 0.0605173 0.262776
0.626474 0.0479591 0.278416
0.793591 0.0628367 0.269505
0.849454 0.0699474 0.177203
0.848371 0.0718853 0.0773175
0.848661 0.0713207 0.0950179
0.0122072 0.100481 0.261265
0.0120394 0.0958572 0.260105
0.0926375 0.0763561 0.249744
0.305104 0.060029 0.26424
0.621942 0.0476234 0.275441
0.793256 0.0627756 0.267414
0.849454 0.0699779 0.175021
0.848371 0.0718853 0.0773175
0.848661 0.0713207 0.0950179
0.0199588 0.271366 0.282582
0.0198062 0.268544 0.281682
0.0195621 0.263737 0.28014
0.259327 0.256046 0.269703
0.613611 0.217655 0.251728
0.784634 0.0959487 0.237476
0.849805 0.0703288 0.150408
0.848371 0.0718853 0.0773175
0.848661 0.0713207 0.0950179
0.0328832 0.513497 0.303838
0.0328679 0.512139 0.303105
0.0327153 0.510048 0.301793
0.122103 0.518242 0.296071
0.627131 0.557626 0.220203
0.826398 0.543999 0.12604
0.880308 0.479301 0.0731212
0.848325 0.0721904 0.0705425
0.848661 0.0713207 0.0950179
0.0479438 0.663005 0.3066
0.0478981 0.662531 0.305486
0.0478828 0.66183 0.303746
0.0478065 0.659831 0.298436
0.567132 0.725155 0.138293
0.822293 0.742473 0.0848859
0.890623 0.739757 0.00953689
0.89102 0.697932 0.0065919
0.848417 0.300114 0.0235142
0.0625925 0.739574 0.153109
0.0625925 0.739574 0.153109
0.0625925 0.739574 0.153109
0.143938 0.754025 0.0981613
0.603494 0.80444 0.0186618
0.811643 0.821439 0.0138552
0.891188 0.812467 0.0149844
0.891936 0.804013 0.0139925
0.891249 0.785672 0.0124361
0.603143 0.804395 0.018677
0.611383 0.805539 0.0184024
0.62356 0.807187 0.0179599
0.656992 0.811475 0.0168307
0.729 0.819303 0.0148775
0.810559 0.822675 0.013962
0.876509 0.82092 0.0154421
0.892622 0.820447 0.0159762
0.892622 0.820447 0.0159762
0.820783 0.822354 0.0141451
0.82121 0.822324 0.0141299
0.821927 0.822278 0.0141909
0.824094 0.822263 0.0142061
0.830396 0.822126 0.0143435
0.846494 0.821759 0.0146639
0.878752 0.820874 0.0155489
0.892622 0.820447 0.0159762
0.892622 0.820447 0.0159762
0.0285649 0.0277562 0.467094
0.0285496 0.0277409 0.466865
0.0283818 0.0275731 0.464073
0.286168 0.0329747 0.478096
0.626612 0.0508278 0.505974
0.80325 0.0648051 0.519905
0.864637 0.0712902 0.516884
0.856413 0.06981 0.387106
0.848661 0.0713207 0.0950179
0.0285496 0.0277409 0.466758
0.0285496 0.0277409 0.466651
0.0399176 0.0261387 0.461967
0.293431 0.0332952 0.478553
0.628687 0.0509499 0.505898
0.80351 0.0648203 0.519814
0.864622 0.0712902 0.516655
0.856397 0.069749 0.386587
0.848661 0.0713207 0.0950179
0.0285191 0.0277104 0.465782
0.0285191 0.0277104 0.46566
0.028336 0.0275273 0.462974
0.288014 0.0329747 0.477165
0.627054 0.0508278 0.504982
0.803738 0.0648814 0.519356
0.864591 0.0712749 0.516197
0.856352 0.069749 0.385641
0.848661 0.0713207 0.0950179
0.0241703 0.167163 0.482185
0.0240635 0.164752 0.481575
0.0238346 0.161517 0.480522
0.215351 0.181811 0.474586
0.601114 0.105165 0.494774
0.797436 0.0641642 0.513603
0.864424 0.0712749 0.513634
0.856214 0.069749 0.382681
0.848661 0.0713207 0.0950179
0.030396 0.512505 0.548974
0.0303807 0.510979 0.548424
0.0302434 0.508553 0.547555
0.087541 0.506981 0.54757
0.591684 0.541848 0.537392
0.808972 0.506767 0.53228
0.855695 0.405768 0.518502
0.853773 0.0694591 0.331884
0.848661 0.0713207 0.0950179
0.0441749 0.68162 0.589563
0.0441138 0.681239 0.589181
0.0440528 0.680659 0.588586
0.0439155 0.678996 0.586801
0.485283 0.735714 0.561517
0.800198 0.744152 0.53434
0.878294 0.73463 0.487037
0.886336 0.692943 0.146105
0.84593 0.28249 0.0252079
0.0540932 0.772229 0.605982
0.0540932 0.772213 0.605798
0.0540932 0.772198 0.605447
0.0541085 0.772107 0.60444
0.504952 0.812879 0.557122
0.779171 0.822217 0.513542
0.875624 0.812161 0.451667
0.891966 0.805402 0.0141146
0.891264 0.785443 0.0124514
0.59205 0.802838 0.0191348
0.601465 0.804166 0.0187686
0.614618 0.805966 0.018265
0.649805 0.810651 0.0171054
0.724651 0.81886 0.0149691
0.809659 0.82269 0.0139925
0.876463 0.82092 0.0154574
0.892622 0.820447 0.0159762
0.892622 0.820447 0.0159762
0.820645 0.822354 0.0141451
0.821118 0.822339 0.0141299
0.821836 0.822293 0.0141909
0.824002 0.822278 0.0142061
0.830304 0.822126 0.0143435
0.846403 0.821759 0.0146792
0.878706 0.820829 0.0155489
0.892622 0.820447 0.0159762
0.892622 0.820447 0.0159762
0.0405585 0.0394293 0.624811
0.0405585 0.0394293 0.624811
0.0405585 0.0394293 0.624735
0.171344 0.037995 0.628931
0.60853 0.0542306 0.668101
0.810895 0.0683604 0.688579
0.880217 0.0755474 0.702708
0.878965 0.0751049 0.688899
0.870527 0.0727398 0.594293
0.0405585 0.0394293 0.624811
0.0405585 0.0394293 0.624735
0.0405585 0.0394293 0.624735
0.176486 0.0382544 0.629328
0.610986 0.0543526 0.668254
0.811185 0.0683604 0.688609
0.880217 0.0755474 0.702708
0.878965 0.0751049 0.688823
0.870527 0.0727398 0.594186
0.0405585 0.0394293 0.624735
0.0405585 0.0394293 0.624659
0.0404517 0.0394293 0.624659
0.184237 0.0385595 0.629862
0.614633 0.0545663 0.668574
0.811582 0.0684367 0.688548
0.880217 0.0755474 0.702632
0.878965 0.0751049 0.688731
0.870497 0.0727398 0.593881
0.0404364 0.0393072 0.623606
0.0404364 0.0393072 0.623529
0.0404364 0.0393072 0.623529
0.160494 0.0374762 0.626871
0.596765 0.0535592 0.665843
0.808438 0.068101 0.687266
0.880201 0.0755474 0.702419
0.87895 0.0751049 0.688502
0.870451 0.0727398 0.593164
0.0307469 0.441993 0.691478
0.0307164 0.439612 0.690913
0.0306706 0.435584 0.689891
0.0306096 0.422843 0.686854
0.543755 0.450629 0.695827
0.7953 0.388479 0.701579
0.865003 0.152773 0.711513
0.878737 0.0750134 0.686244
0.870222 0.0726482 0.590723
0.0433814 0.674357 0.737575
0.0433204 0.673915 0.737438
0.0432746 0.67332 0.737209
0.043122 0.671443 0.736538
0.276539 0.727459 0.731868
0.783719 0.734585 0.719158
0.874464 0.723583 0.71902
0.872908 0.673564 0.704997
0.868757 0.072282 0.571847
0.0547646 0.779171 0.764248
0.0547646 0.779171 0.764202
0.0547646 0.779171 0.764157
0.0547646 0.779156 0.763943
0.345556 0.813382 0.740993
0.753155 0.822507 0.722896
0.865125 0.816541 0.713314
0.876234 0.809201 0.684367
0.877165 0.785382 0.571191
0.380423 0.81532 0.71397
0.404013 0.815808 0.712947
0.434409 0.816892 0.71165
0.503243 0.820768 0.708919
0.620508 0.828885 0.703761
0.755993 0.835691 0.693309
0.851514 0.837659 0.681743
0.87715 0.836622 0.65391
0.882933 0.818662 0.337255
0.803098 0.820508 0.359152
0.803769 0.820478 0.35848
0.804852 0.820493 0.357351
0.808179 0.820401 0.353872
0.816327 0.819837 0.342809
0.834562 0.817502 0.306157
0.875242 0.815503 0.0643168
0.892622 0.820447 0.0159762
0.892622 0.820447 0.0159762
0.0481422 0.0468147 0.715221
0.0481422 0.0468147 0.715221
0.0481422 0.0468147 0.715221
0.0481422 0.0468147 0.715221
0.532799 0.0544137 0.750256
0.810666 0.0707866 0.777234
0.890211 0.0788434 0.794034
0.89015 0.0788434 0.79321
0.889174 0.0784009 0.783322
0.0481422 0.0468147 0.715221
0.0481422 0.0468147 0.715221
0.0481422 0.0468147 0.715221
0.0481422 0.0468147 0.715221
0.536675 0.054551 0.750637
0.811017 0.0708019 0.777325
0.890211 0.0788434 0.794034
0.89015 0.0788434 0.79321
0.889174 0.0784009 0.783322
0.0481422 0.0468147 0.715221
0.0481422 0.0468147 0.715221
0.0481422 0.0468147 0.715221
0.048127 0.0468147 0.715145
0.54287 0.0548562 0.751217
0.811505 0.0708782 0.777356
0.890211 0.0788434 0.794034
0.89015 0.0788434 0.79321
0.889174 0.0784009 0.783322
0.048127 0.0468147 0.715145
0.048127 0.0468147 0.715145
0.048127 0.0468147 0.715145
0.048127 0.0468147 0.715145
0.560235 0.0555734 0.752804
0.813046 0.070985 0.7776
0.890211 0.0788434 0.794034
0.89015 0.0788434 0.793149
0.889174 0.0784009 0.783261
0.0356298 0.168353 0.726802
0.0355383 0.167391 0.726574
0.0354467 0.164538 0.72604
0.0351568 0.15346 0.723735
0.458259 0.104723 0.741192
0.794934 0.0693675 0.773724
0.890043 0.0787671 0.792325
0.890089 0.0788281 0.793027
0.889158 0.0784009 0.783062
0.0418708 0.647272 0.804181
0.0418097 0.646677 0.804105
0.0417792 0.645899 0.803922
0.0415045 0.643427 0.803418
0.182757 0.678904 0.806821
0.769818 0.698466 0.794079
0.87303 0.679088 0.799634
0.869184 0.57496 0.795819
0.888899 0.0783093 0.780835
0.0550851 0.774777 0.824231
0.0550851 0.774655 0.824186
0.055024 0.774487 0.824186
0.0549783 0.773907 0.82414
0.169894 0.792935 0.818524
0.726833 0.813596 0.799466
0.858885 0.807095 0.7935
0.875471 0.796933 0.789609
0.875044 0.773098 0.783642
0.178134 0.807721 0.819013
0.183932 0.809766 0.818524
0.192554 0.812924 0.817792
0.28484 0.816632 0.811566
0.538064 0.82472 0.802014
0.727993 0.836194 0.794995
0.842206 0.839094 0.789197
0.876738 0.839429 0.786206
0.876677 0.839353 0.777691
0.755596 0.837049 0.777462
0.756436 0.83711 0.777401
0.757839 0.83714 0.777325
0.762158 0.837263 0.77705
0.774334 0.837674 0.776287
0.801648 0.838361 0.774716
0.846372 0.839048 0.772091
0.876692 0.839292 0.768078
0.876646 0.839094 0.754208
0.0488746 0.0475319 0.723918
0.0488746 0.0475319 0.723918
0.0488746 0.0475319 0.723918
0.0488746 0.0475319 0.723918
0.116304 0.0440986 0.723674
0.782696 0.0692149 0.796277
0.891722 0.0795148 0.810437
0.891722 0.0795148 0.810437
0.891722 0.0795148 0.810437
0.0488746 0.0475319 0.723918
0.0488746 0.0475319 0.723918
0.0488746 0.0475319 0.723918
0.0488746 0.0475319 0.723918
0.124895 0.0440681 0.724361
0.783169 0.0692302 0.796292
0.891722 0.0795148 0.810437
0.891722 0.0795148 0.810437
0.891722 0.0795148 0.810437
0.0488746 0.0475319 0.723918
0.0488746 0.0475319 0.723918
0.0488746 0.0475319 0.723918
0.0488746 0.0475319 0.723918
0.136736 0.0442206 0.725429
0.783978 0.0693065 0.796399
0.891722 0.0795148 0.810437
0.891722 0.0795148 0.810437
0.891722 0.0795148 0.810437
0.0488746 0.0475319 0.723918
0.0488746 0.0475319 0.723918
0.0488746 0.0475319 0.723918
0.0488746 0.0475319 0.723918
0.166155 0.0447395 0.727962
0.786374 0.0694896 0.796658
0.891722 0.0795148 0.810437
0.891722 0.0795148 0.810437
0.891722 0.0795148 0.810437
0.0488746 0.0475319 0.723918
0.0488746 0.0475319 0.723918
0.0488746 0.0475319 0.723918
0.0488746 0.0475319 0.723918
0.297169 0.046952 0.738323
0.792996 0.0700389 0.797482
0.891722 0.0795148 0.810437
0.891722 0.0795148 0.810437
0.891722 0.0795148 0.810437
0.0348669 0.523659 0.790997
0.0347906 0.523339 0.790967
0.0347143 0.521767 0.790707
0.0344854 0.514763 0.78967
0.0339055 0.49276 0.785962
0.743145 0.505089 0.78793
0.86099 0.418158 0.787015
0.891722 0.0795148 0.810437
0.891722 0.0795148 0.810437
0.052842 0.750896 0.820981
0.0528572 0.750713 0.820981
0.052781 0.750439 0.82092
0.0527504 0.749554 0.820783
0.0524758 0.74725 0.820508
0.671122 0.795422 0.803204
0.852247 0.789075 0.802899
0.874998 0.775769 0.802396
0.874357 0.739696 0.801434
0.0558022 0.78172 0.824872
0.0558022 0.78172 0.824872
0.0558022 0.78172 0.824872
0.0558022 0.78172 0.824872
0.210819 0.81709 0.816281
0.678996 0.833753 0.80528
0.832395 0.838987 0.804852
0.876814 0.839551 0.804868
0.876814 0.839551 0.804868
0.719493 0.835874 0.805249
0.720806 0.83592 0.805234
0.722866 0.836042 0.805249
0.729061 0.836286 0.805219
0.745541 0.836896 0.805158
0.78204 0.838056 0.80502
0.836515 0.839048 0.804837
0.876814 0.839551 0.804868
0.876814 0.839551 0.804868
0.0488746 0.0475319 0.723918
0.0488746 0.0475319 0.723918
0.0488746 0.0475319 0.723918
0.0488746 0.0475319 0.723918
0.0488746 0.0475319 0.723918
0.537041 0.0554208 0.767483
0.885298 0.0788128 0.809583
0.891722 0.0795148 0.810437
0.891722 0.0795148 0.810437
0.0488746 0.0475319 0.723918
0.0488746 0.0475319 0.723918
0.0488746 0.0475319 0.723918
0.0488746 0.0475319 0.723918
0.0488746 0.0475319 0.723918
0.540413 0.0555428 0.767865
0.885359 0.0788128 0.809583
0.891722 0.0795148 0.810437
0.891722 0.0795148 0.810437
0.0488746 0.0475319 0.723918
0.0488746 0.0475319 0.723918
0.0488746 0.0475319 0.723918
0.0488746 0.0475319 0.723918
0.0488746 0.0475319 0.723918
0.545815 0.0557717 0.768505
0.885512 0.0788281 0.809598
0.891722 0.0795148 0.810437
0.891722 0.0795148 0.810437
0.0488746 0.0475319 0.723918
0.0488746 0.0475319 0.723918
0.0488746 0.0475319 0.723918
0.0488746 0.0475319 0.723918
0.0488746 0.0475319 0.723918
0.560723 0.0564279 0.770306
0.885939 0.0789044 0.809613
0.891722 0.0795148 0.810437
0.891722 0.0795148 0.810437
0.0488746 0.0475319 0.723918
0.0488746 0.0475319 0.723918
0.0488746 0.0475319 0.723918
0.0488746 0.0475319 0.723918
0.0488746 0.0475319 0.723918
0.600748 0.0582895 0.775143
0.887282 0.078996 0.809827
0.891722 0.0795148 0.810437
0.891722 0.0795148 0.810437
0.0488746 0.0475319 0.723918
0.0488746 0.0475319 0.723918
0.0488746 0.0475319 0.723918
0.0488746 0.0475319 0.723918
0.0488746 0.0475319 0.723918
0.685512 0.0626993 0.785168
0.891127 0.0794995 0.81033
0.891722 0.0795148 0.810437
0.891722 0.0795148 0.810437
0.0462348 0.68925 0.813046
0.0461585 0.689235 0.813046
0.0461738 0.689174 0.813046
0.0460212 0.687419 0.812818
0.0454261 0.681926 0.812024
0.266056 0.728603 0.806317
0.845991 0.727779 0.8009
0.873503 0.693782 0.80032
0.863951 0.472404 0.79028
0.0558022 0.78172 0.824872
0.0558022 0.78172 0.824872
0.0558022 0.78172 0.824872
0.0558022 0.78172 0.824872
0.0558022 0.78172 0.824872
0.469917 0.820356 0.805905
0.813703 0.838697 0.804898
0.876814 0.839551 0.804868
0.876478 0.830961 0.804471
0.621393 0.830411 0.805432
0.62417 0.830564 0.805402
0.628489 0.830793 0.805371
0.641566 0.831601 0.805356
0.67509 0.833555 0.80531
0.739864 0.836713 0.805203
0.820005 0.838788 0.804883
0.876814 0.839551 0.804868
0.876814 0.839551 0.804868
