iOSLOG2LUTConverter/Resources/Secondary LUTS/NO COUNTRY FOR OLD MEN.cube
TITLE "Generated by Resolve"
LUT_3D_SIZE 33
0 0 0
0.017792 0.00015259 4.57771e-05
0.0355383 0.000320439 9.15541e-05
0.0630503 0.00221256 0.000167849
0.0956741 0.00462348 0.000381476
0.131899 0.00819409 0.000595102
0.170413 0.012314 0.000946059
0.209232 0.0169528 0.00201419
0.24802 0.0220188 0.00363165
0.286961 0.0274357 0.00578317
0.326192 0.0332799 0.00859083
0.365377 0.0394751 0.0117189
0.404715 0.0461128 0.0153658
0.443793 0.0529793 0.0191958
0.482048 0.0601816 0.0234531
0.520195 0.0675669 0.027863
0.556649 0.0758221 0.0327306
0.593118 0.0842908 0.0376898
0.627268 0.0926528 0.0430457
0.661158 0.100999 0.0485237
0.693049 0.109239 0.0543069
0.724346 0.117403 0.0602731
0.753979 0.12546 0.0663005
0.782681 0.133455 0.0727245
0.810056 0.14136 0.0792401
0.83563 0.14963 0.0858167
0.859144 0.157977 0.0924392
0.881621 0.166308 0.0991073
0.902449 0.174609 0.105791
0.921416 0.182834 0.112474
0.940276 0.190997 0.119158
0.95758 0.199054 0.125887
0.974227 0.207111 0.132601
0.0019379 0.016434 0.000122072
0.0196841 0.0167239 0.00015259
0.0373999 0.0170138 0.000198367
0.0645609 0.0187076 0.000274662
0.096849 0.0208133 0.000457771
0.132815 0.0239719 0.000717174
0.171176 0.0276493 0.00109865
0.209812 0.0319066 0.00225834
0.248447 0.0366522 0.00396735
0.287343 0.0417792 0.00619516
0.326528 0.047425 0.00900282
0.365682 0.0534066 0.0121309
0.40499 0.0598611 0.0157473
0.443976 0.0666972 0.0195926
0.482292 0.0745861 0.0238956
0.520363 0.0825513 0.0283207
0.556878 0.0906844 0.0331884
0.593271 0.0988785 0.0381323
0.62739 0.106935 0.043473
0.661341 0.115053 0.0489509
0.693126 0.123033 0.0547189
0.724422 0.130968 0.0606546
0.754055 0.138811 0.0666667
0.782757 0.147082 0.0731518
0.810132 0.155306 0.0797131
0.835737 0.163516 0.0862745
0.859251 0.171725 0.0928817
0.881666 0.179873 0.0995193
0.902495 0.188037 0.106188
0.921447 0.196124 0.112856
0.940307 0.204196 0.119539
0.957595 0.212177 0.126238
0.974243 0.220478 0.132982
0.00389105 0.0328832 0.000228885
0.021561 0.0332799 0.000259403
0.0392309 0.0337072 0.00030518
0.0660716 0.0351873 0.000381476
0.0980087 0.0370184 0.000549325
0.133745 0.0397345 0.000839246
0.171862 0.0429847 0.0012665
0.210391 0.0468452 0.00250248
0.248966 0.0512703 0.00433356
0.287785 0.0561379 0.0065919
0.326955 0.0616007 0.00941482
0.366094 0.068101 0.0125887
0.405295 0.0750896 0.0162509
0.444266 0.0823224 0.0200961
0.482551 0.0899367 0.0243839
0.520592 0.0977035 0.0287938
0.557046 0.105562 0.0336461
0.5935 0.113451 0.0385748
0.627588 0.121279 0.0439155
0.661433 0.129107 0.0493782
0.693278 0.136828 0.0551308
0.724575 0.145037 0.0611124
0.754131 0.153124 0.067155
0.782834 0.161257 0.07364
0.810208 0.169329 0.0801709
0.835798 0.177401 0.0867323
0.859297 0.185412 0.0933089
0.881712 0.193439 0.0999313
0.902525 0.20145 0.106569
0.921477 0.209461 0.113237
0.940322 0.217716 0.119951
0.957626 0.22591 0.126696
0.974273 0.234134 0.133425
0.0109102 0.0572671 0.000488289
0.0277104 0.0576028 0.000549325
0.0445258 0.0579538 0.000610361
0.0709697 0.0592966 0.000839246
0.10193 0.0609293 0.00115969
0.137057 0.0635538 0.00175479
0.174533 0.0667582 0.002533
0.212543 0.0706645 0.00396735
0.250797 0.0751965 0.00588998
0.289357 0.0802777 0.00823987
0.328298 0.0859541 0.0110781
0.3673 0.0919661 0.0142367
0.406394 0.098436 0.0178225
0.445182 0.105165 0.0216373
0.483391 0.112169 0.025864
0.521279 0.11931 0.0302281
0.557733 0.126528 0.0350347
0.594064 0.133883 0.0399329
0.628061 0.141558 0.0452735
0.661875 0.149233 0.0507668
0.69369 0.156909 0.0565347
0.724926 0.164523 0.0624552
0.754452 0.172152 0.0684825
0.783123 0.179843 0.0749371
0.810468 0.187457 0.0814069
0.835966 0.195087 0.087892
0.859449 0.202777 0.0944228
0.88188 0.21059 0.10103
0.902647 0.218509 0.107652
0.921599 0.226566 0.114366
0.940429 0.234531 0.121019
0.957687 0.242512 0.127749
0.974334 0.250416 0.134447
0.0191653 0.0863508 0.00105287
0.0350805 0.0866255 0.00114443
0.0509651 0.0869001 0.00122072
0.0770886 0.087953 0.00161746
0.106813 0.0891737 0.00210575
0.141039 0.0914321 0.00300603
0.177707 0.0941634 0.0041352
0.215061 0.0976577 0.00575265
0.252934 0.101732 0.00773632
0.291157 0.106294 0.0101167
0.329839 0.111528 0.0129244
0.368597 0.117021 0.0160372
0.407568 0.122972 0.0195773
0.446265 0.129183 0.023331
0.484321 0.135912 0.0275578
0.522148 0.142763 0.0319219
0.55845 0.149676 0.0367132
0.594705 0.156634 0.0416114
0.628672 0.163638 0.0469062
0.66244 0.170672 0.0523537
0.694133 0.177722 0.0580606
0.725307 0.184817 0.0639353
0.754803 0.191897 0.0699779
0.783429 0.199069 0.0763561
0.810681 0.206271 0.0827649
0.83621 0.213703 0.08925
0.859678 0.221256 0.0957656
0.882048 0.22887 0.102342
0.9028 0.2365 0.108919
0.921706 0.24416 0.115572
0.940505 0.251789 0.122179
0.957763 0.259434 0.128847
0.974395 0.267124 0.135576
0.0292668 0.11873 0.00375372
0.0444343 0.118959 0.00386053
0.0595712 0.119173 0.00396735
0.085771 0.120043 0.00444038
0.114305 0.120989 0.00497444
0.147417 0.122957 0.00598154
0.182696 0.125277 0.00720226
0.219211 0.128542 0.00888075
0.256413 0.132372 0.0108797
0.294194 0.136767 0.0132601
0.33254 0.141772 0.0160525
0.370977 0.147097 0.0191348
0.409613 0.152773 0.0226291
0.448112 0.158663 0.0263523
0.485939 0.164675 0.0304723
0.523629 0.17084 0.0347295
0.559716 0.17705 0.0394446
0.595773 0.183291 0.0442664
0.629618 0.189609 0.0495155
0.663294 0.195941 0.0548867
0.694911 0.202335 0.0605173
0.725978 0.208988 0.0663157
0.755413 0.215671 0.0724498
0.783902 0.222461 0.0787518
0.811185 0.229297 0.0850996
0.836591 0.236225 0.0914626
0.859998 0.243214 0.0979019
0.882322 0.250324 0.104372
0.902998 0.257435 0.110872
0.921904 0.264622 0.117433
0.940673 0.271839 0.12398
0.9579 0.27921 0.130617
0.974517 0.286625 0.137362
0.0405432 0.154635 0.00750744
0.0551156 0.154772 0.00762951
0.0703593 0.154986 0.00776684
0.0961318 0.155703 0.00828565
0.123293 0.156558 0.00886549
0.155077 0.158068 0.0099031
0.188769 0.159792 0.0111086
0.224109 0.162554 0.0127718
0.260578 0.165972 0.0147097
0.297734 0.16994 0.0170443
0.335668 0.174411 0.0197452
0.373648 0.179126 0.0227359
0.412039 0.184237 0.0261234
0.450217 0.189471 0.0297398
0.487816 0.194797 0.033753
0.525277 0.200381 0.0379644
0.561227 0.206043 0.042649
0.597055 0.211749 0.047425
0.630793 0.217548 0.0526436
0.664286 0.223362 0.0579843
0.695827 0.229236 0.0635233
0.726726 0.235157 0.0692454
0.756085 0.24126 0.0753338
0.784527 0.247364 0.0815137
0.811673 0.25359 0.0877089
0.837064 0.259922 0.0939803
0.860365 0.266331 0.100313
0.882643 0.272877 0.106676
0.903243 0.279606 0.11313
0.922118 0.286519 0.119646
0.940887 0.2934 0.126162
0.958068 0.300374 0.132708
0.974685 0.307378 0.139467
0.0528572 0.191165 0.0124056
0.0669871 0.191272 0.0125277
0.0833143 0.191485 0.0127108
0.107805 0.192096 0.0132296
0.133501 0.192767 0.0137942
0.164294 0.193973 0.014847
0.196506 0.195315 0.0160372
0.23064 0.197574 0.0176699
0.266056 0.200458 0.0195773
0.302373 0.203906 0.0218509
0.339757 0.208042 0.0244755
0.37731 0.212421 0.0274052
0.415305 0.217105 0.0307164
0.453071 0.221973 0.0342565
0.490349 0.226947 0.0382086
0.527581 0.232074 0.0423133
0.563195 0.237156 0.0469062
0.59884 0.242344 0.0515908
0.632334 0.247532 0.0566873
0.665599 0.252674 0.0618753
0.696941 0.257984 0.067277
0.72781 0.263279 0.0730602
0.757 0.268696 0.0789654
0.785351 0.274357 0.0850233
0.812375 0.280079 0.0911269
0.837659 0.285969 0.0972915
0.860899 0.29192 0.103517
0.883101 0.298039 0.109804
0.903609 0.304204 0.116136
0.922423 0.310582 0.12253
0.941146 0.316945 0.128923
0.958282 0.323476 0.135393
0.974868 0.329976 0.142123
0.0665141 0.228122 0.0184634
0.0816205 0.228229 0.0186007
0.0976425 0.228428 0.0187686
0.120684 0.228885 0.0192569
0.145327 0.22948 0.0198215
0.174777 0.230472 0.0208133
0.205631 0.231632 0.0219425
0.238514 0.233417 0.0234989
0.272526 0.235554 0.0252842
0.307851 0.238483 0.0274662
0.344594 0.242435 0.0299992
0.381567 0.246509 0.0328069
0.419059 0.250935 0.0360113
0.456413 0.255451 0.0394141
0.493309 0.260029 0.0432593
0.530114 0.264668 0.0472572
0.56553 0.269352 0.0517891
0.600824 0.274067 0.0564126
0.634089 0.278828 0.0614023
0.667185 0.283543 0.0664683
0.698405 0.288289 0.0719463
0.729091 0.293156 0.0775921
0.758114 0.298085 0.08336
0.786282 0.303151 0.0892195
0.813275 0.308309 0.09514
0.838346 0.313603 0.101137
0.861494 0.31899 0.107195
0.883635 0.324514 0.113359
0.904005 0.330114 0.119554
0.922774 0.335943 0.125811
0.941436 0.341848 0.132097
0.958526 0.347936 0.138628
0.975067 0.354009 0.145266
0.0812238 0.265507 0.0252079
0.0966506 0.265614 0.0253605
0.112093 0.265797 0.0255131
0.133822 0.266194 0.0259709
0.157717 0.266651 0.0265354
0.185855 0.267521 0.0274815
0.215625 0.268482 0.0285801
0.24741 0.269917 0.0300603
0.280278 0.271519 0.0317693
0.314611 0.273991 0.0338598
0.350362 0.277333 0.0363012
0.386526 0.281071 0.0390326
0.423468 0.285252 0.0421759
0.460288 0.289479 0.0455024
0.496803 0.293767 0.0492866
0.533227 0.2981 0.053193
0.568215 0.302403 0.0575875
0.603265 0.306737 0.0620432
0.63624 0.310994 0.0668498
0.669078 0.315267 0.0719158
0.700053 0.319554 0.0772869
0.730526 0.323888 0.0827192
0.759426 0.328267 0.0882734
0.787457 0.332799 0.0939345
0.814267 0.337392 0.0996719
0.839124 0.342184 0.105516
0.862181 0.347143 0.111452
0.884245 0.352193 0.117479
0.904494 0.357321 0.123552
0.923201 0.362753 0.129732
0.941802 0.368109 0.135897
0.958816 0.373754 0.142428
0.975326 0.379309 0.148928
0.0972457 0.303304 0.0329595
0.112093 0.303471 0.0331121
0.126955 0.303563 0.0332341
0.148013 0.303929 0.0337072
0.170993 0.304341 0.0342565
0.19794 0.305119 0.0351415
0.22678 0.30602 0.0362097
0.257572 0.307134 0.0375982
0.289708 0.308583 0.0392462
0.322896 0.310475 0.0412299
0.357214 0.312963 0.043534
0.392279 0.315969 0.0461433
0.428595 0.319997 0.0491951
0.464836 0.323964 0.0524147
0.500816 0.328023 0.0560922
0.536736 0.332067 0.0598611
0.57145 0.336049 0.0641031
0.606058 0.340047 0.0684062
0.638743 0.343954 0.0733043
0.67129 0.347814 0.0782177
0.702007 0.35172 0.0833753
0.73225 0.355657 0.0886091
0.760998 0.359655 0.0939651
0.788815 0.363729 0.099443
0.815503 0.367941 0.105013
0.840085 0.372229 0.110674
0.86302 0.376669 0.116442
0.884947 0.381201 0.122301
0.905074 0.38587 0.128191
0.923705 0.390707 0.134188
0.942229 0.395605 0.140383
0.959182 0.400717 0.146746
0.975647 0.405783 0.153109
0.112963 0.341238 0.0412146
0.127321 0.341314 0.0413367
0.141649 0.341466 0.0414893
0.162493 0.341817 0.0419471
0.184375 0.342184 0.0424811
0.210163 0.342809 0.0433204
0.238148 0.343557 0.0443427
0.26807 0.344625 0.0457008
0.299413 0.345769 0.0472877
0.331731 0.34728 0.0491798
0.364889 0.349111 0.0514076
0.398871 0.351537 0.0538949
0.434363 0.355093 0.0568704
0.46981 0.358694 0.0599832
0.505333 0.362524 0.0635538
0.540734 0.366369 0.0672007
0.57496 0.370031 0.0714122
0.609186 0.373724 0.0757153
0.64152 0.377218 0.080354
0.673686 0.380774 0.0850233
0.704204 0.384253 0.0899367
0.734173 0.387732 0.0949111
0.762676 0.391318 0.100053
0.790265 0.394995 0.105318
0.816724 0.398718 0.110674
0.841154 0.402579 0.116152
0.863905 0.406531 0.121736
0.88574 0.410666 0.127443
0.905699 0.414878 0.133211
0.924254 0.419303 0.139178
0.942702 0.423728 0.145281
0.959564 0.428397 0.151507
0.975998 0.433051 0.157733
0.128527 0.379385 0.0505226
0.142473 0.379461 0.0506447
0.157092 0.379538 0.0507973
0.177234 0.379858 0.0512551
0.198199 0.380179 0.0517586
0.223301 0.380774 0.0525978
0.25034 0.381445 0.0535744
0.279301 0.382345 0.0548562
0.310002 0.383413 0.0564126
0.341512 0.384771 0.0581979
0.374029 0.386328 0.0603342
0.407156 0.38822 0.0626688
0.441215 0.39089 0.0654459
0.475532 0.393698 0.0683909
0.510399 0.397284 0.071931
0.545266 0.400854 0.0755627
0.578988 0.404242 0.0796063
0.612711 0.407706 0.0836805
0.644709 0.41088 0.0880903
0.676509 0.414054 0.0925307
0.706661 0.417212 0.0972152
0.736416 0.420432 0.102007
0.76466 0.423636 0.10695
0.79205 0.426963 0.112032
0.81828 0.430335 0.117205
0.842405 0.433768 0.122484
0.864958 0.437354 0.127871
0.886641 0.441047 0.133379
0.906386 0.444862 0.139055
0.92488 0.44889 0.145006
0.943252 0.452857 0.150927
0.960037 0.457038 0.156954
0.976425 0.46128 0.162982
0.143862 0.417365 0.0601663
0.157961 0.417426 0.0603037
0.172564 0.417502 0.0604562
0.191897 0.417777 0.0608835
0.211948 0.418082 0.0613718
0.236469 0.418555 0.0621805
0.262516 0.419165 0.0631266
0.290761 0.419989 0.0643778
0.320714 0.420951 0.0658579
0.351415 0.422034 0.0675517
0.383383 0.423407 0.0697185
0.415564 0.424857 0.0720073
0.448508 0.42681 0.0747692
0.481697 0.428962 0.0776226
0.515892 0.432242 0.0809644
0.550042 0.435508 0.0843519
0.58323 0.438605 0.0881514
0.616495 0.441718 0.0919661
0.648035 0.444648 0.0961318
0.67953 0.447517 0.100328
0.709285 0.45034 0.104799
0.73875 0.453178 0.109346
0.76672 0.456107 0.114092
0.793835 0.459022 0.118929
0.819898 0.462028 0.123888
0.843687 0.46511 0.128985
0.866072 0.468238 0.134173
0.887572 0.47155 0.139605
0.907118 0.474907 0.145205
0.925521 0.478584 0.150973
0.943832 0.4822 0.156725
0.960525 0.486 0.162615
0.976867 0.489738 0.168475
0.159457 0.454795 0.0707408
0.173709 0.454856 0.0709087
0.188006 0.454932 0.071046
0.206638 0.455192 0.0714733
0.226322 0.455482 0.0719768
0.250004 0.455909 0.0727855
0.27509 0.456474 0.0737011
0.302602 0.45716 0.0749371
0.331731 0.45803 0.0763867
0.361746 0.459007 0.0780804
0.393042 0.460227 0.0800793
0.424582 0.46154 0.0822461
0.456886 0.463142 0.0848096
0.489296 0.464942 0.0874495
0.522362 0.467445 0.0905623
0.555474 0.470039 0.0937057
0.588098 0.472862 0.0973068
0.620798 0.475746 0.100908
0.651911 0.47834 0.10486
0.682857 0.480903 0.108858
0.712352 0.483528 0.11313
0.741405 0.486076 0.117464
0.769131 0.488655 0.121981
0.795895 0.49131 0.126635
0.821683 0.49395 0.13138
0.845182 0.496727 0.136294
0.867353 0.499626 0.141466
0.888685 0.502525 0.146822
0.908019 0.505577 0.152224
0.926284 0.508827 0.157794
0.944472 0.512093 0.163378
0.961089 0.515541 0.16907
0.977386 0.518929 0.174746
0.175387 0.492164 0.0818952
0.189364 0.492226 0.0820325
0.203326 0.492271 0.0821851
0.221363 0.492515 0.0825818
0.240681 0.492729 0.0830243
0.2636 0.493202 0.0837873
0.287785 0.493645 0.0846265
0.31458 0.49427 0.0858015
0.342809 0.494972 0.087129
0.372183 0.495872 0.088716
0.402731 0.496986 0.0905776
0.433707 0.4981 0.0925917
0.465293 0.499443 0.0949569
0.497002 0.500923 0.0974441
0.52903 0.50277 0.100313
0.560998 0.504646 0.103212
0.593103 0.507164 0.106615
0.625208 0.509773 0.110002
0.655802 0.512078 0.113756
0.686336 0.514443 0.11751
0.715389 0.516701 0.121569
0.744198 0.519036 0.125689
0.771511 0.521294 0.129992
0.798032 0.523583 0.134417
0.823545 0.525979 0.13904
0.846677 0.528435 0.143938
0.868666 0.530953 0.148943
0.889815 0.533532 0.15407
0.908904 0.536233 0.159289
0.927062 0.539147 0.16466
0.945144 0.542077 0.170031
0.961654 0.545113 0.17554
0.977905 0.54815 0.181048
0.191241 0.528191 0.0933242
0.204913 0.528237 0.0934615
0.218631 0.528283 0.0935988
0.236591 0.52845 0.0939651
0.255329 0.52871 0.0944228
0.277317 0.529076 0.0950942
0.300938 0.529564 0.0959335
0.326848 0.530068 0.0970016
0.354101 0.530709 0.0982223
0.382788 0.531548 0.099733
0.412573 0.532494 0.101457
0.442817 0.533532 0.103365
0.473747 0.534752 0.105577
0.504845 0.536049 0.107897
0.536156 0.537621 0.110597
0.567559 0.539223 0.113344
0.59884 0.541344 0.116518
0.630045 0.54345 0.119707
0.660182 0.54548 0.123262
0.690196 0.54757 0.126833
0.718898 0.549645 0.130694
0.747265 0.551629 0.1346
0.774212 0.553628 0.13875
0.800397 0.555703 0.14316
0.825605 0.557824 0.147707
0.848371 0.560021 0.152422
0.87013 0.562264 0.157214
0.891066 0.564553 0.162158
0.909926 0.566979 0.167178
0.927993 0.569604 0.172351
0.945968 0.572168 0.177523
0.962325 0.574899 0.182849
0.9785 0.577707 0.188174
0.206897 0.564141 0.104753
0.220356 0.564263 0.104875
0.23418 0.564324 0.105013
0.251743 0.564462 0.105364
0.269856 0.564691 0.105791
0.291112 0.565011 0.106432
0.314092 0.565393 0.107225
0.339101 0.565866 0.108202
0.365637 0.566461 0.109361
0.393454 0.567147 0.11075
0.422415 0.568017 0.112367
0.452033 0.568963 0.114168
0.482307 0.570001 0.116243
0.51281 0.571176 0.118441
0.543465 0.572503 0.120958
0.574151 0.573846 0.123537
0.604593 0.575463 0.126497
0.63505 0.577157 0.129488
0.664668 0.578912 0.13283
0.69424 0.580743 0.136202
0.722484 0.582544 0.13994
0.750484 0.584283 0.143816
0.77705 0.586084 0.147906
0.802869 0.587808 0.152071
0.827771 0.58967 0.156405
0.85005 0.591577 0.160906
0.871595 0.593606 0.165515
0.892363 0.595621 0.17023
0.910948 0.597757 0.175051
0.928908 0.600076 0.180026
0.946761 0.602335 0.185016
0.962997 0.604761 0.190143
0.979095 0.607187 0.195254
0.22237 0.598444 0.116381
0.236027 0.598505 0.116503
0.249851 0.598566 0.116655
0.266941 0.598688 0.116991
0.284474 0.598886 0.117372
0.305348 0.599191 0.117998
0.327459 0.599542 0.118715
0.351583 0.59997 0.119646
0.377386 0.600534 0.120775
0.404303 0.60116 0.122057
0.432471 0.601877 0.123583
0.46125 0.602747 0.125277
0.490806 0.603693 0.127214
0.520577 0.604715 0.129274
0.550591 0.605936 0.131655
0.580667 0.607095 0.134081
0.610513 0.60856 0.136873
0.640375 0.61004 0.139773
0.669566 0.611643 0.143084
0.698634 0.61326 0.14641
0.726452 0.614832 0.150027
0.753964 0.616312 0.153704
0.780072 0.617868 0.157565
0.805539 0.61944 0.161593
0.830121 0.621057 0.165713
0.852003 0.622705 0.170031
0.873243 0.624475 0.174426
0.893751 0.626245 0.178973
0.912139 0.628138 0.183597
0.929946 0.630182 0.188373
0.947677 0.632258 0.193164
0.963775 0.634424 0.198108
0.979812 0.636591 0.203006
0.238178 0.632578 0.128023
0.25182 0.632624 0.128161
0.265476 0.632685 0.128298
0.282032 0.632807 0.128603
0.299168 0.633005 0.128969
0.319493 0.633204 0.129564
0.34078 0.633509 0.13022
0.364141 0.633967 0.131121
0.389181 0.634409 0.132158
0.415213 0.634989 0.133379
0.442603 0.63566 0.134829
0.470603 0.636378 0.136385
0.499413 0.637247 0.138247
0.528481 0.638117 0.140246
0.55787 0.639231 0.14258
0.58735 0.640314 0.144976
0.616602 0.641581 0.147723
0.645884 0.642863 0.150484
0.674479 0.644312 0.153613
0.703029 0.645701 0.156756
0.730419 0.647028 0.160174
0.757443 0.648325 0.163653
0.7832 0.649653 0.167361
0.808255 0.651011 0.171176
0.832517 0.652445 0.175128
0.853925 0.653834 0.179217
0.874937 0.65536 0.183413
0.895109 0.656947 0.187762
0.913329 0.658595 0.192218
0.930999 0.660319 0.19678
0.948592 0.66212 0.201373
0.964569 0.664027 0.206119
0.980529 0.665995 0.210971
0.253941 0.665171 0.139879
0.267353 0.665232 0.140002
0.280827 0.665278 0.140139
0.297032 0.665461 0.140459
0.314046 0.665568 0.14081
0.333669 0.665812 0.141405
0.354238 0.66601 0.142031
0.376959 0.666377 0.142916
0.401144 0.666865 0.143954
0.426291 0.667338 0.145129
0.452979 0.667948 0.146532
0.480064 0.66862 0.148058
0.508186 0.669429 0.149889
0.536461 0.670207 0.151766
0.565194 0.671183 0.153948
0.593942 0.672175 0.156207
0.622599 0.67335 0.158816
0.651301 0.674479 0.161425
0.679423 0.675746 0.16437
0.707469 0.677043 0.167361
0.734508 0.678309 0.170626
0.761196 0.679545 0.173953
0.78648 0.680781 0.177478
0.811215 0.68191 0.181094
0.834882 0.683116 0.184848
0.856031 0.684291 0.188769
0.876768 0.685588 0.192767
0.896574 0.686961 0.196948
0.914611 0.688441 0.201175
0.932143 0.689998 0.20557
0.949538 0.691554 0.210101
0.965423 0.693233 0.214786
0.981308 0.694957 0.219471
0.26952 0.697444 0.152132
0.282826 0.697475 0.152255
0.296071 0.69752 0.152361
0.3122 0.697612 0.152667
0.328801 0.69778 0.153033
0.347768 0.697932 0.153567
0.367788 0.698192 0.154192
0.389899 0.698543 0.155047
0.413138 0.698924 0.155978
0.437552 0.699443 0.157107
0.463371 0.699947 0.158389
0.489662 0.700542 0.159838
0.517037 0.701228 0.161563
0.544518 0.701946 0.163333
0.572595 0.702831 0.165408
0.600687 0.703731 0.167544
0.628733 0.704768 0.170001
0.65687 0.705806 0.172488
0.684459 0.706996 0.175296
0.711971 0.708217 0.178134
0.738689 0.709377 0.181231
0.765087 0.710613 0.184344
0.789929 0.711666 0.187701
0.814191 0.712642 0.191119
0.837308 0.713634 0.194705
0.858152 0.714672 0.198459
0.878614 0.715755 0.202289
0.89807 0.716976 0.206271
0.915923 0.718227 0.210468
0.933318 0.719539 0.214771
0.9505 0.720867 0.21912
0.966308 0.722377 0.223651
0.982101 0.723888 0.228138
0.28484 0.728557 0.16437
0.297932 0.728603 0.164477
0.311437 0.728634 0.164614
0.327245 0.728725 0.16492
0.343374 0.728817 0.16524
0.361837 0.72903 0.165759
0.381415 0.72929 0.166369
0.402747 0.72961 0.167163
0.425238 0.729961 0.168048
0.448951 0.730373 0.169116
0.47393 0.730831 0.170336
0.499413 0.73138 0.17171
0.52607 0.732021 0.173312
0.552758 0.732677 0.175021
0.580118 0.733425 0.176974
0.607523 0.734203 0.178958
0.634974 0.735149 0.181277
0.662501 0.73611 0.183642
0.689525 0.737224 0.186297
0.716579 0.738293 0.188998
0.742779 0.739483 0.191928
0.768765 0.740612 0.194888
0.79324 0.741634 0.198077
0.817197 0.74258 0.201343
0.839826 0.743511 0.204746
0.860365 0.74435 0.208377
0.880537 0.745312 0.212177
0.899641 0.746334 0.216098
0.917311 0.747387 0.220081
0.934554 0.748562 0.224231
0.951537 0.749691 0.228382
0.967254 0.750973 0.2327
0.982986 0.752346 0.237034
0.299886 0.759014 0.176608
0.313237 0.75906 0.17673
0.32665 0.759182 0.176883
0.342107 0.759274 0.177172
0.35787 0.75935 0.177478
0.375982 0.759564 0.177981
0.394965 0.759731 0.178531
0.415625 0.760021 0.179263
0.43743 0.760357 0.180102
0.460472 0.760723 0.18114
0.484611 0.761135 0.1823
0.509361 0.761669 0.183597
0.53518 0.762188 0.185122
0.561135 0.762798 0.186709
0.587793 0.7635 0.18854
0.614527 0.764218 0.190433
0.641321 0.765087 0.19263
0.668238 0.765972 0.194858
0.694682 0.766918 0.197375
0.721187 0.76791 0.199924
0.74696 0.768978 0.202716
0.772488 0.770138 0.20557
0.796613 0.77116 0.208652
0.820279 0.772152 0.211872
0.84239 0.772992 0.215228
0.862608 0.773739 0.218753
0.882536 0.774517 0.222339
0.901228 0.775418 0.226108
0.91873 0.776349 0.229908
0.935821 0.777356 0.233906
0.952605 0.778363 0.237873
0.968246 0.779431 0.242008
0.983902 0.780575 0.246128
0.314992 0.788754 0.188861
0.328298 0.7888 0.188968
0.341558 0.788846 0.18909
0.35671 0.788922 0.189364
0.372259 0.789075 0.189685
0.390005 0.789212 0.190158
0.408484 0.789425 0.190677
0.428428 0.789624 0.191348
0.449714 0.789929 0.192172
0.471977 0.79028 0.193133
0.495323 0.790661 0.194232
0.519432 0.791165 0.195483
0.544457 0.791653 0.196918
0.569635 0.792218 0.198398
0.595636 0.792874 0.200153
0.621637 0.793545 0.201938
0.647807 0.794278 0.204013
0.674098 0.795026 0.206088
0.699977 0.795911 0.20853
0.725917 0.796826 0.211032
0.751186 0.797833 0.213764
0.776135 0.798871 0.216571
0.799878 0.799893 0.219562
0.823285 0.800977 0.222629
0.844877 0.801816 0.225864
0.864851 0.802579 0.229175
0.88452 0.803311 0.232593
0.902861 0.804044 0.236179
0.92018 0.804791 0.239811
0.937133 0.805707 0.243626
0.953719 0.806607 0.247456
0.969284 0.807538 0.251377
0.984863 0.808408 0.255299
0.329854 0.817746 0.201022
0.342992 0.817777 0.201114
0.35613 0.817807 0.201251
0.371038 0.817945 0.201511
0.386587 0.818021 0.201816
0.403845 0.818128 0.202258
0.421805 0.818326 0.202762
0.441245 0.818509 0.203418
0.461875 0.818814 0.204166
0.483452 0.81915 0.205081
0.506142 0.819501 0.206119
0.529503 0.819883 0.207355
0.553765 0.820401 0.208774
0.578302 0.820874 0.210224
0.60354 0.821485 0.211933
0.628794 0.82208 0.213657
0.654429 0.822766 0.215686
0.680018 0.823438 0.217746
0.705333 0.824186 0.220035
0.730709 0.82504 0.222431
0.755535 0.825956 0.224994
0.779889 0.826917 0.227665
0.80322 0.827893 0.230518
0.826169 0.828885 0.233463
0.847272 0.829816 0.236515
0.867109 0.83064 0.239719
0.88661 0.831434 0.242985
0.90457 0.831983 0.246387
0.921706 0.832624 0.249882
0.938491 0.833356 0.253498
0.954864 0.834089 0.25713
0.970382 0.834882 0.260899
0.985885 0.83563 0.264637
0.344396 0.845975 0.213443
0.357488 0.846006 0.21355
0.37052 0.846021 0.213642
0.385443 0.846082 0.213916
0.400641 0.846159 0.214221
0.417517 0.846326 0.214649
0.434943 0.846433 0.215137
0.454063 0.846693 0.215793
0.474052 0.846906 0.21651
0.494911 0.847211 0.21738
0.517037 0.847547 0.218433
0.539651 0.847898 0.219577
0.563165 0.848371 0.22092
0.58706 0.848798 0.222309
0.611612 0.849287 0.223896
0.636118 0.849836 0.225544
0.661082 0.850462 0.227466
0.686046 0.851102 0.229404
