iOSLOG2LUTConverter/Resources/Secondary LUTS/NO COUNTRY FOR OLD MEN.cube
TITLE "Generated by Resolve"
LUT_3D_SIZE 9
0 0 0
0.0956741 0.00462348 0.000381476
0.24802 0.0220188 0.00363165
0.404715 0.0461128 0.0153658
0.556649 0.0758221 0.0327306
0.693049 0.109239 0.0543069
0.810056 0.14136 0.0792401
0.902449 0.174609 0.105791
0.974227 0.207111 0.132601
0.0191653 0.0863508 0.00105287
0.106813 0.0891737 0.00210575
0.252934 0.101732 0.00773632
0.407568 0.122972 0.0195773
0.55845 0.149676 0.0367132
0.694133 0.177722 0.0580606
0.810681 0.206271 0.0827649
0.9028 0.2365 0.108919
0.974395 0.267124 0.135576
0.0665141 0.228122 0.0184634
0.145327 0.22948 0.0198215
0.272526 0.235554 0.0252842
0.419059 0.250935 0.0360113
0.56553 0.269352 0.0517891
0.698405 0.288289 0.0719463
0.813275 0.308309 0.09514
0.904005 0.330114 0.119554
0.975067 0.354009 0.145266
0.128527 0.379385 0.0505226
0.198199 0.380179 0.0517586
0.310002 0.383413 0.0564126
0.441215 0.39089 0.0654459
0.578988 0.404242 0.0796063
0.706661 0.417212 0.0972152
0.81828 0.430335 0.117205
0.906386 0.444862 0.139055
0.976425 0.46128 0.162982
0.191241 0.528191 0.0933242
0.255329 0.52871 0.0944228
0.354101 0.530709 0.0982223
0.473747 0.534752 0.105577
0.59884 0.541344 0.116518
0.718898 0.549645 0.130694
0.825605 0.557824 0.147707
0.909926 0.566979 0.167178
0.9785 0.577707 0.188174
0.253941 0.665171 0.139879
0.314046 0.665568 0.14081
0.401144 0.666865 0.143954
0.508186 0.669429 0.149889
0.622599 0.67335 0.158816
0.734508 0.678309 0.170626
0.834882 0.683116 0.184848
0.914611 0.688441 0.201175
0.981308 0.694957 0.219471
0.314992 0.788754 0.188861
0.372259 0.789075 0.189685
0.449714 0.789929 0.192172
0.544457 0.791653 0.196918
0.647807 0.794278 0.204013
0.751186 0.797833 0.213764
0.844877 0.801816 0.225864
0.92018 0.804791 0.239811
0.984863 0.808408 0.255299
0.372412 0.89929 0.238331
0.427893 0.899504 0.239063
0.497917 0.900099 0.241123
0.582101 0.901137 0.245014
0.6748 0.902785 0.250935
0.769131 0.905043 0.258869
0.85452 0.907835 0.268711
0.926436 0.910796 0.280491
0.98912 0.912413 0.293614
0.424292 0.989425 0.286702
0.478218 0.989548 0.287312
0.543023 0.989868 0.289097
0.618936 0.990494 0.292317
0.702266 0.991424 0.297169
0.787396 0.992721 0.303761
0.864622 0.99443 0.312047
0.932296 0.996658 0.32192
0.996674 0.998871 0.333364
0.00077821 0.000244144 0.0467231
0.0964981 0.00570687 0.0480049
0.248341 0.0226902 0.0542763
0.404898 0.0466163 0.0672313
0.556817 0.0762951 0.0851148
0.69308 0.10959 0.106844
0.810101 0.141619 0.130678
0.902495 0.174868 0.156527
0.974258 0.207385 0.182986
0.0202792 0.0869306 0.0507515
0.10753 0.0896925 0.0520333
0.253254 0.101183 0.0580148
0.407721 0.121263 0.0698558
0.558541 0.147433 0.0871595
0.69427 0.175952 0.108827
0.810788 0.205142 0.132906
0.902815 0.236118 0.158999
0.974395 0.267231 0.185702
0.0671244 0.228412 0.0692912
0.144961 0.229755 0.0701152
0.272694 0.23566 0.0755169
0.419242 0.250385 0.0863203
0.565621 0.268284 0.102342
0.698405 0.287251 0.122194
0.813306 0.307637 0.145068
0.904021 0.329915 0.169497
0.975082 0.354147 0.19498
0.128908 0.379522 0.102174
0.197192 0.380392 0.102464
0.30959 0.383597 0.107042
0.441367 0.390967 0.116075
0.57908 0.403998 0.129625
0.706783 0.416907 0.147082
0.818296 0.430091 0.16701
0.906401 0.444846 0.188861
0.97644 0.46154 0.212634
0.191531 0.528283 0.144198
0.25449 0.528801 0.144457
0.353628 0.530861 0.14815
0.473686 0.534829 0.155413
0.598901 0.54139 0.166308
0.719036 0.549569 0.180423
0.825742 0.557778 0.197147
0.909972 0.567071 0.216663
0.978515 0.577859 0.237736
0.254139 0.665263 0.189975
0.313832 0.665644 0.190524
0.400992 0.666941 0.193515
0.508186 0.66949 0.199313
0.622644 0.673411 0.208209
0.734539 0.678462 0.220005
0.834913 0.683192 0.234257
0.914626 0.688518 0.25069
0.981323 0.695064 0.268833
0.315221 0.7888 0.238361
0.372488 0.78912 0.239139
0.449866 0.78999 0.241657
0.544579 0.791699 0.246326
0.647959 0.794339 0.253483
0.751217 0.797894 0.263035
0.844953 0.801907 0.275029
0.920241 0.804944 0.289082
0.984894 0.808591 0.304585
0.372641 0.899382 0.287434
0.428229 0.89955 0.288304
0.498253 0.90013 0.29041
0.582376 0.901198 0.294255
0.675013 0.9028 0.30016
0.769268 0.905074 0.30808
0.854582 0.907866 0.317983
0.926467 0.910857 0.329671
0.98912 0.91252 0.342733
0.424414 0.989471 0.335622
0.478599 0.989548 0.336416
0.543343 0.989883 0.338186
0.619181 0.990509 0.34139
0.702464 0.991424 0.346258
0.787533 0.992782 0.352834
0.864698 0.994461 0.361135
0.932311 0.996628 0.371038
0.996704 0.998856 0.382528
0.00762951 0.00520333 0.126909
0.101259 0.010071 0.128176
0.249912 0.0255589 0.134539
0.405753 0.0487221 0.148562
0.55726 0.0780652 0.165896
0.69337 0.110918 0.184207
0.810208 0.142702 0.2038
0.902556 0.175769 0.225162
0.974289 0.208148 0.248203
0.0249638 0.0904707 0.130694
0.11075 0.092195 0.131991
0.254734 0.1028 0.137911
0.408545 0.121843 0.150561
0.55906 0.147494 0.166979
0.694545 0.175952 0.185153
0.810941 0.205447 0.205142
0.902892 0.236606 0.227085
0.974456 0.267964 0.250584
0.0697948 0.22977 0.14728
0.146654 0.231067 0.148135
0.273671 0.236484 0.152438
0.419928 0.248478 0.161868
0.566064 0.264698 0.175601
0.698741 0.28397 0.193057
0.813504 0.305776 0.213306
0.904112 0.329641 0.235584
0.975113 0.355108 0.259449
0.13051 0.380179 0.177493
0.197772 0.381048 0.177539
0.3084 0.384253 0.179644
0.44181 0.391287 0.187457
0.579553 0.403143 0.199466
0.70695 0.415793 0.214893
0.818509 0.429465 0.233051
0.906493 0.445029 0.253422
0.976501 0.462501 0.275853
0.192615 0.528695 0.21471
0.254917 0.529274 0.214618
0.352148 0.531273 0.216114
0.47335 0.53521 0.222492
0.599237 0.54165 0.232441
0.719219 0.549584 0.245441
0.825849 0.557961 0.261173
0.910033 0.567575 0.2795
0.978546 0.578744 0.299504
0.254994 0.665537 0.25539
0.314351 0.665934 0.255726
0.400671 0.667216 0.257801
0.508125 0.669779 0.263188
0.622904 0.673671 0.271458
0.734783 0.678645 0.282506
0.835035 0.683482 0.29601
0.914687 0.689006 0.311635
0.981369 0.695796 0.329
0.315892 0.789014 0.299779
0.373129 0.789288 0.300511
0.450675 0.790219 0.303029
0.54522 0.791928 0.307485
0.648402 0.794553 0.314275
0.751568 0.798169 0.3234
0.84506 0.802136 0.334829
0.920302 0.805249 0.348257
0.984955 0.809079 0.36318
0.373114 0.899519 0.345968
0.42884 0.899672 0.346883
0.499413 0.900236 0.349477
0.583307 0.90135 0.353231
0.675654 0.902937 0.358862
0.769696 0.905135 0.366461
0.85478 0.907973 0.375998
0.926528 0.910979 0.387274
0.989166 0.912703 0.399893
0.424842 0.989532 0.392264
0.479133 0.989639 0.393118
0.544472 0.98996 0.395438
0.620142 0.990555 0.398596
0.703166 0.991516 0.40325
0.787961 0.992844 0.409644
0.864912 0.994553 0.41767
0.932387 0.996658 0.427314
0.99678 0.998947 0.438514
0.0188907 0.0137789 0.232822
0.110643 0.0175631 0.233692
0.256535 0.0310979 0.237354
0.407385 0.0528878 0.248066
0.558312 0.0817121 0.26421
0.693965 0.113603 0.27921
0.810529 0.1449 0.293889
0.902739 0.177584 0.310094
0.97438 0.209674 0.328557
0.0329595 0.0974594 0.235294
0.117021 0.0971695 0.236316
0.260319 0.107164 0.240085
0.410239 0.125444 0.250187
0.560037 0.150546 0.265492
0.695033 0.178363 0.28011
0.811246 0.207523 0.295033
0.903075 0.238361 0.311681
0.974548 0.269474 0.330587
0.0766918 0.235142 0.246326
0.151797 0.235706 0.247395
0.276539 0.238956 0.251209
0.421469 0.249058 0.259174
0.566979 0.264332 0.27126
0.69929 0.283757 0.285084
0.81384 0.306188 0.30071
0.90425 0.330709 0.318471
0.975235 0.356741 0.338415
0.133913 0.381765 0.270298
0.200778 0.382574 0.270787
0.309316 0.385718 0.272831
0.442924 0.392065 0.278584
0.580407 0.402319 0.288228
0.707515 0.414893 0.300954
0.818814 0.429603 0.31635
0.90663 0.446494 0.334218
0.976577 0.46511 0.353902
0.194873 0.52961 0.301946
0.257084 0.530159 0.302113
0.35256 0.532143 0.302937
0.473396 0.53608 0.307362
0.599954 0.542306 0.315785
0.719768 0.54995 0.327123
0.826169 0.558679 0.341009
0.910201 0.569009 0.357076
0.978653 0.580896 0.374914
0.256718 0.666117 0.33637
0.316014 0.666484 0.336751
0.401617 0.667781 0.338277
0.508782 0.670283 0.342718
0.623514 0.674189 0.34995
0.735256 0.679225 0.359716
0.835325 0.684184 0.371679
0.914855 0.690059 0.385733
0.98146 0.697292 0.401602
0.317174 0.789395 0.374304
0.374395 0.789731 0.374975
0.452049 0.79057 0.377401
0.546853 0.792294 0.381933
0.649454 0.794919 0.388037
0.752163 0.798489 0.396399
0.845304 0.802533 0.406729
0.920409 0.80589 0.418936
0.985031 0.809995 0.432624
0.374075 0.899733 0.415457
0.42977 0.899901 0.416312
0.500801 0.900496 0.41915
0.585229 0.901518 0.423438
0.677012 0.903181 0.428595
0.770413 0.905394 0.435569
0.8551 0.908202 0.444343
0.92665 0.911208 0.454765
0.989227 0.913146 0.466606
0.42565 0.989731 0.457877
0.479912 0.989807 0.458762
0.545647 0.990082 0.461463
0.621866 0.990677 0.46537
0.704433 0.991623 0.469718
0.788769 0.992981 0.47567
0.865339 0.994705 0.483177
0.932555 0.996796 0.492226
0.996963 0.9991 0.502815
0.032578 0.0244602 0.348501
0.12311 0.0275425 0.349142
0.267964 0.0393835 0.351797
0.413916 0.0595102 0.357351
0.559884 0.0872663 0.369696
0.694896 0.117815 0.382818
0.811154 0.148409 0.394247
0.903014 0.180484 0.406287
0.974502 0.21207 0.420127
0.0441749 0.107134 0.350423
0.126192 0.104784 0.351095
0.269978 0.113924 0.353796
0.416251 0.131365 0.359258
0.561624 0.155291 0.371115
0.695979 0.182193 0.383841
0.811841 0.210788 0.395315
0.903319 0.241154 0.407645
0.974716 0.271809 0.42179
0.0863508 0.244038 0.357443
0.159014 0.243412 0.35848
0.281315 0.24303 0.361929
0.425559 0.252567 0.367254
0.568536 0.26746 0.377172
0.700252 0.28658 0.388434
0.814374 0.30869 0.400031
0.904524 0.332982 0.413153
0.975372 0.35877 0.428214
0.140948 0.386618 0.374365
0.206699 0.387091 0.375051
0.313054 0.388998 0.377676
0.445167 0.394156 0.382773
0.581781 0.403616 0.3906
0.70837 0.416251 0.400656
0.819303 0.431601 0.41268
0.906905 0.449088 0.426642
0.97673 0.468177 0.44242
0.198535 0.530999 0.400092
0.260487 0.531502 0.400504
0.355306 0.533501 0.402075
0.474922 0.537469 0.405859
0.60119 0.543511 0.412634
0.720516 0.551263 0.421881
0.826642 0.560723 0.43331
0.91043 0.571893 0.446784
0.978805 0.584543 0.461997
0.259388 0.667018 0.428885
0.318517 0.667369 0.429267
0.403754 0.668635 0.430701
0.510521 0.671168 0.434531
0.624872 0.675044 0.440726
0.73611 0.68011 0.448951
0.835767 0.685435 0.459174
0.915068 0.691951 0.47126
0.981613 0.699611 0.484962
0.319203 0.790021 0.460212
0.376349 0.790234 0.460792
0.453712 0.791196 0.462821
0.548852 0.792905 0.467338
0.651286 0.795514 0.473243
0.753216 0.799115 0.480369
0.845655 0.803174 0.489296
0.920607 0.806882 0.499947
0.985153 0.811368 0.512001
0.37557 0.900099 0.495232
0.43125 0.900313 0.495933
0.502068 0.900862 0.498375
0.587228 0.901946 0.50309
0.678981 0.903548 0.508446
0.771618 0.90576 0.514611
0.855604 0.908522 0.522408
0.926848 0.91162 0.531868
0.989349 0.913817 0.54258
0.426703 0.989914 0.532723
0.480995 0.98999 0.533471
0.546746 0.99028 0.535927
0.623667 0.990906 0.540429
0.706462 0.991852 0.545357
0.789944 0.993149 0.550744
0.86595 0.994904 0.557549
0.932845 0.997024 0.565805
0.997208 0.999298 0.575479
0.0482948 0.0368658 0.467857
0.136751 0.0395209 0.46836
0.278721 0.0500496 0.470375
0.424094 0.068574 0.474357
0.564065 0.0948959 0.480995
0.696223 0.123583 0.491188
0.811902 0.153338 0.500298
0.903365 0.184512 0.509178
0.974746 0.215534 0.519203
0.0583505 0.118181 0.469368
0.137819 0.114687 0.469825
0.279515 0.122942 0.47187
0.425452 0.13959 0.475837
0.565606 0.161868 0.482414
0.697383 0.187488 0.492287
0.812619 0.21532 0.501289
0.903731 0.244984 0.510292
0.974914 0.275044 0.520546
0.0958724 0.252842 0.474754
0.167056 0.25124 0.475532
0.287312 0.248508 0.477943
0.431769 0.257404 0.481865
0.571618 0.271962 0.488167
0.701579 0.290562 0.496834
0.815198 0.312261 0.50544
0.904921 0.336095 0.514809
0.975586 0.361547 0.525902
0.151064 0.393759 0.485359
0.215137 0.393744 0.486046
0.318425 0.393912 0.488716
0.4486 0.397314 0.493721
0.583978 0.40647 0.49955
0.709667 0.418997 0.507073
0.82005 0.434104 0.515618
0.907286 0.451423 0.525673
0.976928 0.470268 0.537438
0.205341 0.533852 0.505592
0.266651 0.534279 0.506096
0.360021 0.535805 0.507805
0.477943 0.539376 0.511421
0.603021 0.545373 0.516945
0.721736 0.553384 0.524163
0.82739 0.563333 0.532967
0.910826 0.574975 0.543557
0.979004 0.587991 0.555657
0.263249 0.668254 0.529168
0.322255 0.668559 0.529549
0.406897 0.669871 0.530968
0.512901 0.672404 0.534173
0.626825 0.676295 0.539467
0.737179 0.681407 0.546304
0.836393 0.687388 0.554726
0.915404 0.694545 0.564767
0.981811 0.702922 0.576333
0.321996 0.790799 0.554665
0.37908 0.79115 0.555138
0.456092 0.791989 0.556802
0.550729 0.793698 0.560403
0.653376 0.796323 0.565972
0.754528 0.799863 0.572412
0.846204 0.804089 0.57995
0.920913 0.80827 0.58912
0.985367 0.813291 0.599634
0.377707 0.900633 0.583551
0.433295 0.900832 0.584161
0.503883 0.90135 0.586114
0.588754 0.90248 0.590036
0.681132 0.904067 0.595834
0.773266 0.906279 0.601816
0.856306 0.909056 0.608637
0.927108 0.9122 0.616831
0.989578 0.914702 0.626261
0.428351 0.990219 0.615686
0.482536 0.990311 0.616327
0.548135 0.990555 0.618387
0.624887 0.991196 0.622324
0.708385 0.992172 0.627894
0.791577 0.993484 0.633371
0.866804 0.995148 0.63946
0.933242 0.997269 0.646815
0.997604 0.999359 0.655497
0.065919 0.0509499 0.586557
0.151278 0.053315 0.586954
0.287861 0.0626078 0.588449
0.431373 0.0804913 0.591455
0.569589 0.104341 0.596124
0.698268 0.130892 0.60264
0.813031 0.159625 0.609888
0.903868 0.189746 0.616205
0.975036 0.220096 0.62324
0.0747997 0.130098 0.587701
0.15172 0.12636 0.588052
0.288151 0.134127 0.589593
0.432242 0.149447 0.592615
0.570642 0.170092 0.597299
0.699306 0.194278 0.603784
0.813642 0.221225 0.610773
0.904204 0.249989 0.617197
0.975189 0.279301 0.624369
0.10808 0.260304 0.591959
0.177676 0.258503 0.592554
0.294484 0.2551 0.594125
0.436942 0.263584 0.597147
0.575235 0.277684 0.601801
0.703243 0.295766 0.608103
0.816236 0.316884 0.614557
0.905409 0.340185 0.620996
0.975891 0.365209 0.628702
0.157916 0.399435 0.599176
0.221576 0.3991 0.6
0.323613 0.398337 0.602564
0.452735 0.401282 0.60621
0.586404 0.410315 0.610773
0.711116 0.422507 0.616785
0.821118 0.437446 0.622873
0.907759 0.454444 0.629694
0.977218 0.473045 0.638056
0.215991 0.536767 0.612924
0.276112 0.537026 0.613382
0.367071 0.538201 0.615076
0.481819 0.541527 0.618906
0.60528 0.547707 0.624445
0.72314 0.555795 0.630213
0.82829 0.565591 0.636515
0.911238 0.577173 0.644022
0.979278 0.590082 0.653056
0.269993 0.66949 0.633875
0.328466 0.669856 0.634272
0.411948 0.671046 0.635599
0.516442 0.67364 0.63827
0.629053 0.677638 0.642451
0.738537 0.683024 0.648081
0.837125 0.689525 0.65481
0.915816 0.697215 0.662913
0.982071 0.705943 0.672267
0.325948 0.791943 0.6551
0.382818 0.792187 0.655497
0.459388 0.793133 0.656825
0.553262 0.794736 0.659571
0.655253 0.797406 0.663905
0.756161 0.800931 0.669688
0.846967 0.80531 0.676143
0.921279 0.81004 0.68394
0.985595 0.815671 0.692897
0.38056 0.901305 0.678492
0.435996 0.901549 0.678965
0.506294 0.902068 0.680629
0.590692 0.903136 0.68365
0.682719 0.904723 0.68838
0.775036 0.90692 0.694484
0.857191 0.909712 0.700511
0.927459 0.912902 0.707576
0.989822 0.915831 0.715801
0.430488 0.9906 0.705272
0.484611 0.990677 0.705837
0.54995 0.991012 0.707485
0.626413 0.991623 0.710765
0.709758 0.992508 0.715618
0.793286 0.993851 0.721706
0.867842 0.995529 0.727428
0.933745 0.997696 0.733928
0.998123 0.99942 0.741604
0.085832 0.066331 0.702876
0.166278 0.0685588 0.703166
0.296162 0.0776226 0.704402
0.436652 0.0937057 0.706676
0.573037 0.115114 0.710338
0.700236 0.139544 0.715465
0.814237 0.167285 0.721599
0.904524 0.196155 0.725887
0.975372 0.225757 0.730465
0.0942245 0.143297 0.703731
0.167025 0.140108 0.704051
0.296574 0.147005 0.705303
0.437324 0.160769 0.707622
0.573861 0.179721 0.711254
0.701091 0.202396 0.716365
0.814969 0.228412 0.722438
0.904845 0.256107 0.726802
0.975555 0.284688 0.731395
0.122255 0.267445 0.70724
0.190097 0.265736 0.707607
0.302892 0.262898 0.708873
0.441688 0.271092 0.711177
0.577874 0.284703 0.71487
0.704479 0.302113 0.719951
0.817472 0.322606 0.725826
0.90605 0.345327 0.730068
0.976242 0.369741 0.735058
0.166644 0.403784 0.713069
0.229953 0.403342 0.713832
0.330632 0.402564 0.715663
0.457649 0.406027 0.718364
0.588769 0.415 0.72195
0.711986 0.426978 0.726955
0.822263 0.441505 0.732754
0.908354 0.458213 0.737102
0.977554 0.476417 0.742565
0.222873 0.539345 0.722103
0.28249 0.539559 0.722759
0.371984 0.540566 0.724697
0.48571 0.543938 0.728588
0.608057 0.550622 0.732952
0.724285 0.558679 0.737713
0.829435 0.568399 0.74345
0.911833 0.579782 0.748486
0.979599 0.592477 0.754726
0.280247 0.66981 0.738109
0.337957 0.670222 0.738537
0.419623 0.671458 0.739666
0.521843 0.674296 0.742168
0.631968 0.679072 0.746548
0.740185 0.684947 0.752316
0.838071 0.691447 0.7579
0.916335 0.699107 0.763668
0.982361 0.707851 0.770611
0.332967 0.792767 0.758755
0.389349 0.793057 0.759091
0.464851 0.794003 0.760143
0.557427 0.795789 0.762234
0.658091 0.798489 0.765484
0.7579 0.802182 0.770184
0.847807 0.806714 0.775708
0.921736 0.811963 0.782177
0.985916 0.818082 0.789639
0.384253 0.902144 0.778393
0.439506 0.902373 0.778775
0.509453 0.902922 0.779904
0.593271 0.903975 0.782238
0.684657 0.905547 0.785809
0.776379 0.907744 0.790616
0.858228 0.910475 0.79646
0.927886 0.913741 0.802655
0.990188 0.917235 0.809842
0.433051 0.99115 0.800336
0.487098 0.991165 0.800763
0.5523 0.991501 0.802075
0.628351 0.992096 0.804669
0.711223 0.993027 0.808621
0.794415 0.994308 0.813764
0.86894 0.996033 0.819699
0.934356 0.998123 0.825544
0.998718 1 0.83238
0.106477 0.0840467 0.816541
0.181827 0.0861067 0.816724
0.304524 0.0937514 0.817685
0.440986 0.107744 0.819547
0.575128 0.126787 0.822568
0.700862 0.149615 0.826673
0.81416 0.175906 0.831891
0.905104 0.203494 0.837125
0.97583 0.23241 0.839902
0.113481 0.156939 0.817243
0.183124 0.154696 0.817487
0.305165 0.160845 0.818448
0.441749 0.173144 0.820371
0.575952 0.190417 0.823285
0.701549 0.211749 0.82739
0.814801 0.236545 0.832746
0.90544 0.263142 0.837858
0.976028 0.291142 0.840665
0.137469 0.274815 0.820066
0.203769 0.273457 0.82031
0.31252 0.271901 0.821317
0.446647 0.279866 0.823209
0.579904 0.292744 0.82623
0.704829 0.309453 0.830304
0.817121 0.329183 0.835569
0.906615 0.351324 0.840711
0.976654 0.375158 0.843732
0.177478 0.407507 0.825071
0.240421 0.407248 0.825635
0.339071 0.407095 0.826902
0.463325 0.411627 0.829099
0.591318 0.420523 0.832044
0.712489 0.432151 0.836057
0.821988 0.446326 0.84123
0.908904 0.462577 0.846357
0.977981 0.480583 0.849851
0.229145 0.541192 0.831907
0.288808 0.541466 0.83267
0.377783 0.542596 0.834485
0.490623 0.546578 0.837674
0.611292 0.554116 0.841047
0.725444 0.562112 0.845014
0.82948 0.571694 0.850034
0.912322 0.582849 0.855253
0.980011 0.595438 0.859434
0.287343 0.670008 0.842985
0.344472 0.670451 0.843458
0.424781 0.671885 0.844968
0.525322 0.675181 0.847822
0.634485 0.680583 0.852476
0.742092 0.68716 0.85716
0.838651 0.69369 0.862074
0.916838 0.701183 0.867338
0.982757 0.709895 0.872435
0.342123 0.791745 0.860227
0.397803 0.792004 0.860578
0.472099 0.793164 0.86154
0.56286 0.79527 0.863386
0.661723 0.798611 0.86659
0.759991 0.803082 0.871199
0.848692 0.80824 0.876997
0.922225 0.813474 0.882429
0.986297 0.819715 0.888243
0.391318 0.902693 0.880415
0.446082 0.902876 0.880751
0.51519 0.903487 0.881636
0.597848 0.90454 0.883299
0.688029 0.906203 0.885939
0.778607 0.908446 0.889403
0.859251 0.911284 0.894347
0.928389 0.914763 0.900236
0.99057 0.918624 0.906508
0.436591 0.99173 0.899351
0.490501 0.991806 0.899702
0.555352 0.992081 0.90071
0.630915 0.992706 0.902739
0.713191 0.993637 0.905745
0.795697 0.994919 0.909728
0.869749 0.996658 0.914748
0.934951 0.998642 0.920226
0.999481 1 0.926116
