iOSLOG2LUTConverter/Resources/Secondary LUTS/NO COUNTRY FOR OLD MEN.cube
TITLE "Generated by Resolve"
LUT_3D_SIZE 5
0 0 0
0.24802 0.0220188 0.00363165
0.556649 0.0758221 0.0327306
0.810056 0.14136 0.0792401
0.974227 0.207111 0.132601
0.0665141 0.228122 0.0184634
0.272526 0.235554 0.0252842
0.56553 0.269352 0.0517891
0.813275 0.308309 0.09514
0.975067 0.354009 0.145266
0.191241 0.528191 0.0933242
0.354101 0.530709 0.0982223
0.59884 0.541344 0.116518
0.825605 0.557824 0.147707
0.9785 0.577707 0.188174
0.314992 0.788754 0.188861
0.449714 0.789929 0.192172
0.647807 0.794278 0.204013
0.844877 0.801816 0.225864
0.984863 0.808408 0.255299
0.424292 0.989425 0.286702
0.543023 0.989868 0.289097
0.702266 0.991424 0.297169
0.864622 0.99443 0.312047
0.996674 0.998871 0.333364
0.00762951 0.00520333 0.126909
0.249912 0.0255589 0.134539
0.55726 0.0780652 0.165896
0.810208 0.142702 0.2038
0.974289 0.208148 0.248203
0.0697948 0.22977 0.14728
0.273671 0.236484 0.152438
0.566064 0.264698 0.175601
0.813504 0.305776 0.213306
0.975113 0.355108 0.259449
0.192615 0.528695 0.21471
0.352148 0.531273 0.216114
0.599237 0.54165 0.232441
0.825849 0.557961 0.261173
0.978546 0.578744 0.299504
0.315892 0.789014 0.299779
0.450675 0.790219 0.303029
0.648402 0.794553 0.314275
0.84506 0.802136 0.334829
0.984955 0.809079 0.36318
0.424842 0.989532 0.392264
0.544472 0.98996 0.395438
0.703166 0.991516 0.40325
0.864912 0.994553 0.41767
0.99678 0.998947 0.438514
0.032578 0.0244602 0.348501
0.267964 0.0393835 0.351797
0.559884 0.0872663 0.369696
0.811154 0.148409 0.394247
0.974502 0.21207 0.420127
0.0863508 0.244038 0.357443
0.281315 0.24303 0.361929
0.568536 0.26746 0.377172
0.814374 0.30869 0.400031
0.975372 0.35877 0.428214
0.198535 0.530999 0.400092
0.355306 0.533501 0.402075
0.60119 0.543511 0.412634
0.826642 0.560723 0.43331
0.978805 0.584543 0.461997
0.319203 0.790021 0.460212
0.453712 0.791196 0.462821
0.651286 0.795514 0.473243
0.845655 0.803174 0.489296
0.985153 0.811368 0.512001
0.426703 0.989914 0.532723
0.546746 0.99028 0.535927
0.706462 0.991852 0.545357
0.86595 0.994904 0.557549
0.997208 0.999298 0.575479
0.065919 0.0509499 0.586557
0.287861 0.0626078 0.588449
0.569589 0.104341 0.596124
0.813031 0.159625 0.609888
0.975036 0.220096 0.62324
0.10808 0.260304 0.591959
0.294484 0.2551 0.594125
0.575235 0.277684 0.601801
0.816236 0.316884 0.614557
0.975891 0.365209 0.628702
0.215991 0.536767 0.612924
0.367071 0.538201 0.615076
0.60528 0.547707 0.624445
0.82829 0.565591 0.636515
0.979278 0.590082 0.653056
0.325948 0.791943 0.6551
0.459388 0.793133 0.656825
0.655253 0.797406 0.663905
0.846967 0.80531 0.676143
0.985595 0.815671 0.692897
0.430488 0.9906 0.705272
0.54995 0.991012 0.707485
0.709758 0.992508 0.715618
0.867842 0.995529 0.727428
0.998123 0.99942 0.741604
0.106477 0.0840467 0.816541
0.304524 0.0937514 0.817685
0.575128 0.126787 0.822568
0.81416 0.175906 0.831891
0.97583 0.23241 0.839902
0.137469 0.274815 0.820066
0.31252 0.271901 0.821317
0.579904 0.292744 0.82623
0.817121 0.329183 0.835569
0.976654 0.375158 0.843732
0.229145 0.541192 0.831907
0.377783 0.542596 0.834485
0.611292 0.554116 0.841047
0.82948 0.571694 0.850034
0.980011 0.595438 0.859434
0.342123 0.791745 0.860227
0.472099 0.793164 0.86154
0.661723 0.798611 0.86659
0.848692 0.80824 0.876997
0.986297 0.819715 0.888243
0.436591 0.99173 0.899351
0.555352 0.992081 0.90071
0.713191 0.993637 0.905745
0.869749 0.996658 0.914748
0.999481 1 0.926116
