iOSLOG2LUTConverter/Resources/Secondary LUTS/PARASITE.cube
TITLE "Generated by Resolve"
LUT_3D_SIZE 5
0.00392157 0 0
0.11693 0.00784314 0.0172274
0.414099 0.00392157 0.0509804
0.790845 0.00349432 0.113725
0.988235 0.109804 0.203922
0.00163272 0.138613 0.0827497
0.152834 0.140185 0.0402075
0.452201 0.122942 0.000915541
0.809842 0.117433 0.0677043
0.99443 0.233646 0.191546
0.00106813 0.549783 0.27718
0.00355535 0.556924 0.252567
0.502831 0.562875 0.0953994
0.827176 0.530419 0.00292973
0.997269 0.5364 0
0.356802 0.874144 0.585153
0.349691 0.873777 0.573587
0.417121 0.889204 0.530556
0.809674 0.877638 0.400992
0.994324 0.84802 0.366461
0.724178 0.996735 0.822217
0.71284 0.996078 0.811765
0.729412 0.996078 0.796078
0.842054 1 0.759045
1 1 0.709804
0.0329137 0.0373846 0.0844739
0.111147 0.00274662 0.0973983
0.423621 0 0.116548
0.792096 4.57771e-05 0.0962692
0.989944 0.146883 0.209491
0.0857404 0.12079 0.139223
0.14258 0.141985 0.155062
0.458 0.136919 0.136461
0.807843 0.164446 0.0872816
1 0.248371 0.18143
0.0360266 0.543725 0.353292
0.000991836 0.551125 0.318425
0.499428 0.56437 0.197482
0.824445 0.534798 0.157763
0.99823 0.543725 0.120195
0.409079 0.873274 0.607065
0.394888 0.875395 0.594583
0.434501 0.883619 0.547707
0.806836 0.878065 0.436423
0.999939 0.850431 0.417197
0.72961 1 0.827649
0.729519 1 0.819715
0.729473 1 0.799969
0.848219 1 0.769543
1 0.99971 0.72491
0.095613 0.145647 0.283925
0.134752 0.112886 0.313344
0.420691 3.0518e-05 0.330114
0.792309 0 0.34612
0.987625 0.281697 0.379492
0.217716 0.269535 0.311574
0.214603 0.246311 0.340917
0.456428 0.125811 0.365332
0.798428 0.220111 0.369467
0.976852 0.346197 0.38822
0.316579 0.494331 0.448493
0.348028 0.512993 0.464271
0.485908 0.565469 0.46894
0.793896 0.574792 0.451164
0.98262 0.587854 0.432013
0.524987 0.861234 0.689662
0.539635 0.86363 0.687907
0.54023 0.876829 0.657862
0.800229 0.880781 0.574228
0.986481 0.857984 0.56141
0.781003 0.991073 0.868986
0.778759 0.993942 0.868955
0.764782 0.998154 0.848966
0.850629 0.998459 0.807797
1 0.996078 0.764706
0.303151 0.389975 0.575235
0.317082 0.369802 0.585336
0.500771 0.186542 0.650339
0.798199 0.000320439 0.618326
0.985031 0.157473 0.600549
0.366522 0.48394 0.588388
0.366461 0.462959 0.590753
0.509392 0.314366 0.648676
0.804242 0.116197 0.634287
0.981674 0.304845 0.615656
0.542718 0.671336 0.606256
0.550088 0.679194 0.61268
0.547082 0.672694 0.664088
0.776303 0.586496 0.671305
0.946227 0.629496 0.669947
0.614954 0.834455 0.742992
0.620295 0.837369 0.746761
0.670344 0.85539 0.76112
0.791333 0.879591 0.758785
0.967819 0.871885 0.753368
0.797177 0.982605 0.901961
0.8 0.984314 0.905882
0.823529 0.992386 0.913268
0.862745 0.996078 0.892027
1 1 0.854444
0.517662 0.666682 0.774655
0.519081 0.653376 0.782345
0.579812 0.544732 0.81474
0.900313 0.00125124 0.866911
1 0 0.800122
0.552026 0.709697 0.772152
0.551095 0.697505 0.784054
0.587304 0.612146 0.811063
0.901778 0.00352483 0.875578
0.99826 0.034165 0.80737
0.677104 0.81912 0.768627
0.674479 0.821073 0.776059
0.65893 0.793469 0.808392
0.841291 0.590219 0.870192
0.97731 0.574716 0.820401
0.756985 0.895903 0.841001
0.762585 0.898207 0.843854
0.782635 0.9028 0.844938
0.819211 0.905638 0.872358
0.954925 0.878706 0.884642
0.831373 0.972549 0.933333
0.842618 0.97203 0.929931
0.86215 0.979797 0.940581
0.928923 0.995911 0.972381
1 0.996078 0.94583
