iOSLOG2LUTConverter/Resources/Secondary LUTS/PARASITE.cube
TITLE "Generated by Resolve"
LUT_3D_SIZE 33
0.00392157 0 0
0.0131991 0 0.00309758
0.0156863 0 0.00392157
0.0186923 0 0.00541695
0.0342412 0 0.00427253
0.054139 0.00547799 0.00704967
0.0684825 0.00192264 0.00392157
0.0949111 0.00567636 0.0139315
0.11693 0.00784314 0.0172274
0.14406 0.0130007 0.026215
0.165499 0.00862135 0.0290227
0.199466 0.00392157 0.0390021
0.22678 0 0.0282597
0.272633 0 0.0372778
0.314961 0 0.0420691
0.360265 0.00112917 0.0470588
0.414099 0.00392157 0.0509804
0.46833 0.00111391 0.057145
0.518349 0 0.0666667
0.568521 0.00238041 0.0682078
0.629541 0 0.0784314
0.669856 0 0.084123
0.715816 0.00355535 0.0941176
0.757351 0 0.100252
0.790845 0.00349432 0.113725
0.82414 0.00109865 0.124392
0.862806 0 0.139239
0.894087 0 0.151629
0.914534 0.0021973 0.162051
0.941939 0.000381476 0.173312
0.959014 0.0263981 0.190387
0.980911 0.0841688 0.203922
0.988235 0.109804 0.203922
0.00393683 0.00309758 0.00306706
0.00834669 0.00550851 0.00131228
0.0166476 0.00616464 0.00262455
0.0248722 0.00735485 0.0030518
0.0375982 0.00643931 0.000915541
0.0590677 0.0104219 0.00643931
0.0746929 0.00965896 0.00538643
0.0960098 0.0135348 0.0149691
0.115099 0.0140078 0.0178988
0.146166 0.0172122 0.0241093
0.168643 0.0116884 0.0271916
0.202762 0.0101472 0.0300908
0.23357 0.00552377 0.031342
0.274159 0 0.0388495
0.317708 0 0.045182
0.362051 0.00242618 0.0448768
0.414099 0.00392157 0.0509804
0.473686 0.000244144 0.0606546
0.521935 0 0.060502
0.574029 0.000503548 0.0694285
0.624277 0.000183108 0.0782483
0.669856 0 0.0813458
0.7131 0.00077821 0.0907759
0.755154 0.00306706 0.100725
0.791241 0.00210575 0.112367
0.829404 0.000244144 0.124392
0.863615 0 0.13695
0.894057 0 0.147524
0.91632 0.00047303 0.162097
0.939773 0.00158694 0.173617
0.96318 0.0366979 0.191485
0.981109 0.0843824 0.19881
0.991302 0.112871 0.213107
0.00619516 0.0106966 0.00840772
0.00927749 0.0137942 0.00531014
0.0166018 0.0159152 0.00416571
0.0251774 0.0157473 0.00328069
0.0385443 0.0145418 0.00225834
0.0599985 0.0162661 0.00404364
0.0785992 0.0140536 0.00468452
0.0975357 0.0169375 0.0120089
0.116838 0.0179446 0.0158236
0.14667 0.022858 0.0205997
0.170855 0.0165713 0.0217746
0.201358 0.0162814 0.0296635
0.235035 0.00749218 0.0321965
0.274632 0.00224308 0.035935
0.316503 0 0.0401923
0.364843 0.0011902 0.0436255
0.416938 0.00167849 0.0509804
0.475776 0 0.054612
0.522972 0 0.0581064
0.575647 0 0.0680095
0.622766 9.15541e-05 0.0736248
0.672984 0 0.0836347
0.714549 0 0.0898451
0.756207 0.00231937 0.0992447
0.791348 0.00172427 0.107515
0.830945 0 0.119936
0.863813 0.000549325 0.131838
0.8934 0.00224308 0.145678
0.916793 0 0.160113
0.943038 0.00646983 0.173739
0.963592 0.0456092 0.191852
0.981216 0.095201 0.201434
0.992157 0.118166 0.213458
0.00489815 0.0186923 0.0102693
0.00798047 0.0217746 0.00952163
0.0150912 0.0240024 0.00704967
0.0242008 0.0231174 0.00540169
0.0413062 0.022385 0.00677501
0.0596475 0.0225834 0.00205997
0.0795758 0.0201572 0.00315862
0.0993362 0.0223392 0.00759899
0.118868 0.0225834 0.0126802
0.148653 0.0252079 0.0184024
0.172534 0.0222934 0.0171969
0.20412 0.021149 0.0283055
0.237339 0.0134737 0.0333715
0.276875 0.004654 0.0348516
0.316991 0.00129702 0.0367132
0.366964 0.00146487 0.0425269
0.420478 0 0.0501869
0.476768 0 0.0493629
0.523217 0 0.0578012
0.575647 0 0.0666667
0.622675 0 0.0703136
0.674617 0 0.0823224
0.714824 0 0.0885176
0.755383 0.00112917 0.0980392
0.791424 0.00170901 0.104173
0.830533 0 0.116152
0.863859 0.000579843 0.131426
0.894301 0.0024567 0.14609
0.918471 0 0.157961
0.943297 0.0146334 0.170687
0.963928 0.0574197 0.188388
0.981109 0.103548 0.201633
0.990692 0.124514 0.2103
0.0106203 0.0341497 0.0184634
0.0109255 0.0344549 0.0187686
0.0160372 0.0366064 0.0165408
0.022858 0.0380713 0.0135195
0.042298 0.0380713 0.018265
0.0653697 0.0359045 0.00999466
0.0837415 0.0327611 0.00726329
0.103838 0.0367285 0.00750744
0.120836 0.0358892 0.0116121
0.153155 0.0341497 0.0170291
0.177707 0.0322271 0.0192111
0.204517 0.0305943 0.0200656
0.245274 0.0234379 0.0290074
0.273579 0.0200046 0.0285344
0.329351 0.00166323 0.031632
0.372335 0.000396735 0.0440223
0.425727 0.000793469 0.0445106
0.476524 0 0.0543374
0.529595 0 0.0552377
0.582803 0 0.0638743
0.629786 0 0.0704051
0.671687 0 0.0744182
0.715679 0.000289921 0.0859846
0.750957 0.00260929 0.0920272
0.791974 0.00216678 0.104646
0.8309 0 0.116472
0.863905 0.000823987 0.12929
0.894453 0.00115969 0.143053
0.917342 0.0016022 0.158465
0.935454 0.0343328 0.172229
0.959792 0.0841382 0.181643
0.977981 0.117769 0.197467
0.991745 0.13994 0.214862
0.0101625 0.0579232 0.0274052
0.0101625 0.0579232 0.0248569
0.0124666 0.0565499 0.0242313
0.0178378 0.0565347 0.0242313
0.0395361 0.0594034 0.0220951
0.0670787 0.0571908 0.0148623
0.0835431 0.0543526 0.013611
0.105211 0.054902 0.0117647
0.133242 0.0506905 0.0108949
0.156344 0.0501259 0.0101625
0.182696 0.0500343 0.0165866
0.213245 0.0516365 0.0234989
0.25182 0.0421759 0.0229801
0.291783 0.034287 0.0251774
0.327352 0.022858 0.0302281
0.379171 0.0101015 0.0355688
0.427588 0.000503548 0.0373236
0.481102 0.00112917 0.0426795
0.532891 0.00195315 0.0523537
0.582132 0 0.0570535
0.632822 0.0021973 0.0682078
0.676417 0 0.0724193
0.718898 0.002121 0.0880903
0.759899 0.000488289 0.0908827
0.790936 0.00190738 0.0956588
0.828763 0.000442512 0.11342
0.869993 0.000534066 0.12813
0.891142 0.00437934 0.141024
0.916945 0.0282597 0.152773
0.945983 0.0695048 0.165331
0.960571 0.107607 0.177874
0.982086 0.135927 0.197772
0.994446 0.151308 0.210132
0.00808728 0.0780499 0.0466926
0.00955215 0.0796674 0.0404974
0.0146029 0.0777295 0.0390021
0.0201572 0.0769818 0.0382544
0.0327611 0.079942 0.0335088
0.0581674 0.0800641 0.0280156
0.0875105 0.0809491 0.026154
0.116808 0.0771191 0.0225223
0.139956 0.0755474 0.0177157
0.164523 0.0727703 0.0121614
0.191699 0.0718547 0.00817884
0.221347 0.0722362 0.00784314
0.257404 0.0682994 0.014725
0.297307 0.0634165 0.0148013
0.340948 0.0547189 0.0214237
0.385657 0.0438544 0.0223087
0.43888 0.0274815 0.032639
0.484306 0.0113375 0.0341955
0.539452 0.00230411 0.0464027
0.591928 0 0.0468299
0.636378 0.00015259 0.0550393
0.680735 0 0.0617685
0.720012 0 0.0743114
0.760678 0 0.0787518
0.801236 0.000885023 0.0911269
0.833509 0.000549325 0.104616
0.865141 0.0146487 0.116716
0.895232 0.0437171 0.131426
0.92195 0.0807355 0.150118
0.944671 0.110964 0.159869
0.964508 0.137957 0.171771
0.984924 0.163226 0.193011
0.993988 0.172305 0.20209
0.00967422 0.102495 0.0628977
0.00967422 0.103944 0.0599985
0.00967422 0.104295 0.0568093
0.0104372 0.105898 0.0542916
0.0190738 0.106493 0.0550088
0.0420844 0.106737 0.0514382
0.0745098 0.111299 0.0451667
0.113756 0.108827 0.0325017
0.155825 0.104295 0.03122
0.180041 0.0979934 0.0252537
0.20383 0.100725 0.0217288
0.23946 0.0964523 0.0175174
0.26865 0.0966659 0.0168002
0.304463 0.0945449 0.0115511
0.35169 0.085069 0.016144
0.396429 0.0834821 0.0148318
0.443534 0.0751049 0.0220493
0.50103 0.063386 0.0228885
0.544671 0.0471351 0.0264286
0.596643 0.0347295 0.0348669
0.634897 0.0229496 0.0443122
0.684947 0.020676 0.0478523
0.724437 0.020676 0.0602731
0.766766 0.025452 0.0710002
0.80293 0.0349432 0.0813611
0.839567 0.0587778 0.0952773
0.866987 0.0810864 0.113054
0.895644 0.103685 0.12578
0.92195 0.126635 0.138735
0.944686 0.149248 0.156207
0.965774 0.174151 0.172549
0.985061 0.19324 0.18497
0.990524 0.202075 0.19379
0.00163272 0.138613 0.0827497
0.00163272 0.140414 0.0765698
0.000640879 0.141817 0.0751507
0 0.141512 0.0735332
0.00308232 0.143877 0.0684825
0.0231174 0.141421 0.0648356
0.0510872 0.143954 0.0652781
0.10103 0.144472 0.0569162
0.152834 0.140185 0.0402075
0.190707 0.138018 0.0292058
0.225055 0.137453 0.0274052
0.247135 0.132891 0.029099
0.290776 0.130175 0.0282444
0.327871 0.126558 0.0208286
0.361944 0.127916 0.0177157
0.406928 0.125582 0.0089723
0.452201 0.122942 0.000915541
0.509606 0.115038 0.00289921
0.556985 0.111955 0.00308232
0.598779 0.107713 0.0108034
0.648646 0.102342 0.0154116
0.693309 0.103243 0.025864
0.729534 0.108186 0.0378882
0.768795 0.110689 0.0504463
0.809842 0.117433 0.0677043
0.840238 0.129854 0.0820478
0.871275 0.146197 0.100282
0.895567 0.161837 0.114824
0.929305 0.17319 0.136217
0.95053 0.187884 0.156756
0.968597 0.207385 0.165789
0.986755 0.221485 0.18088
0.99443 0.233646 0.191546
0.00517281 0.172351 0.100618
0.0030518 0.173419 0.100618
0.00181582 0.174472 0.0997787
0.00077821 0.175525 0.097612
0.00242618 0.175067 0.0892042
0.00514229 0.177569 0.0818647
0.0269932 0.178866 0.0777142
0.078645 0.178988 0.0704967
0.133806 0.18349 0.0623941
0.186786 0.176379 0.0452888
0.234928 0.176547 0.0377508
0.265507 0.172168 0.0315404
0.299687 0.167666 0.0325628
0.336767 0.164553 0.0306554
0.378866 0.164614 0.0187991
0.421042 0.162249 0.0178531
0.466407 0.159762 0.00985733
0.519188 0.161807 0.00228885
0.56524 0.160983 0
0.607935 0.160449 0
0.648203 0.161608 0
0.691356 0.163012 0.00135805
0.731517 0.163012 0.00552377
0.772274 0.166613 0.0158389
0.810834 0.174212 0.0350042
0.840803 0.182681 0.0583658
0.872663 0.192813 0.0789044
0.898009 0.201144 0.094316
0.927886 0.213779 0.118212
0.94786 0.227237 0.140017
0.968322 0.242435 0.155215
0.986893 0.257771 0.170428
0.997452 0.262531 0.174136
0.00387579 0.2112 0.119722
0.00317388 0.211917 0.11902
0.00302129 0.21207 0.118853
0.00302129 0.214633 0.117571
0.000137331 0.215228 0.111238
0.0019379 0.217594 0.10576
0.00421149 0.225101 0.100603
0.034226 0.221164 0.0935378
0.10631 0.223987 0.0846265
0.17052 0.220737 0.0678264
0.226276 0.222446 0.0535439
0.27689 0.216999 0.0391089
0.31252 0.215442 0.0328069
0.35433 0.209598 0.0373846
0.385336 0.207538 0.0271
0.434012 0.204532 0.016968
0.482841 0.205844 0.0080415
0.528115 0.206546 0.00292973
0.57792 0.20679 0
0.61593 0.206653 0.000793469
0.66038 0.214023 0.000167849
0.69984 0.213016 0.000457771
0.739513 0.214969 0.000244144
0.773709 0.219577 0.0040589
0.811719 0.222492 0.00648508
0.841718 0.229084 0.0202487
0.876768 0.23682 0.0518502
0.903578 0.246754 0.0747997
0.924712 0.259129 0.100099
0.946883 0.266667 0.117891
0.968383 0.280186 0.142153
0.989166 0.29395 0.157259
0.996994 0.298283 0.170459
0 0.26862 0.144335
0 0.26862 0.143954
0 0.268788 0.139437
0.00158694 0.267292 0.136553
0.00015259 0.261677 0.125719
0 0.261769 0.122377
0.00180056 0.268879 0.124514
0.00321965 0.270237 0.112276
0.0576791 0.275242 0.105272
0.136889 0.269093 0.0888533
0.209751 0.269627 0.0789197
0.260548 0.276188 0.057496
0.325231 0.26157 0.0403449
0.372396 0.257282 0.0422065
0.409598 0.257328 0.0273899
0.445624 0.256382 0.0222171
0.492546 0.250584 0.0130312
0.537316 0.252369 0.00164797
0.585702 0.252903 0
0.622614 0.257298 0.00015259
0.673671 0.261143 0.0041352
0.710979 0.257389 0
0.747356 0.265187 3.0518e-05
0.781613 0.270314 0.0024567
0.813413 0.276616 0
0.845167 0.280934 0.00300603
0.878752 0.281727 0.00846876
0.908934 0.287343 0.0378576
0.932738 0.298711 0.0675364
0.950759 0.309514 0.0904402
0.969284 0.318868 0.120195
0.993042 0.321492 0.143435
1 0.325216 0.156863
0.00328069 0.310994 0.165988
0.00328069 0.310491 0.165988
0.00534066 0.312856 0.167651
0.00512703 0.314031 0.164324
0.000122072 0.311742 0.151232
0.00328069 0.314733 0.149111
0.00656138 0.317937 0.14966
0.00141909 0.317845 0.140475
0.00454719 0.325216 0.12549
0.0856947 0.324987 0.11548
0.170001 0.327306 0.105516
0.242679 0.325429 0.0860456
0.31458 0.321477 0.0631266
0.371405 0.320577 0.0310063
0.419211 0.311177 0.0316472
0.461982 0.308537 0.0248569
0.506203 0.308537 0.0184634
0.552392 0.307057 0.00805676
0.59556 0.302434 0.000701915
0.63444 0.30573 0.00062562
0.672389 0.309026 0.00326543
0.714412 0.311284 0.00495918
0.748333 0.316716 0.00376898
0.7841 0.317906 0.000411994
0.819318 0.324712 0.000381476
0.848753 0.325338 0.000137331
0.880217 0.335088 0.00062562
0.904997 0.336919 0
0.932235 0.344625 0.0281376
0.950835 0.350408 0.0548104
0.970535 0.358144 0.0914626
0.990341 0.364767 0.124743
0.996704 0.371145 0.138033
0.00579843 0.365606 0.190021
0.00244144 0.367285 0.190021
0.00201419 0.370108 0.190021
0.00117494 0.370596 0.189075
0 0.371466 0.18378
0 0.374121 0.177249
0.00213626 0.375463 0.176684
0.00177005 0.375006 0.166705
0.00117494 0.381994 0.157809
0.0213779 0.378058 0.142367
0.118456 0.382681 0.131701
0.206043 0.384985 0.111055
0.284916 0.383505 0.0962539
0.357839 0.38201 0.0632944
0.422812 0.377096 0.0359655
0.47097 0.369711 0.0257267
0.515602 0.365682 0.0160067
0.559365 0.36286 0.00924697
0.60737 0.362997 0
0.646494 0.361456 0.000976577
0.684123 0.363607 0.00607309
0.724392 0.360784 0.00105287
0.758144 0.359625 0.00178531
0.789776 0.368246 0.00294499
0.820264 0.376013 0.00296025
0.851911 0.377432 0
0.883635 0.37969 0.000335698
0.909102 0.382498 0.00177005
0.932723 0.392447 0.00196841
0.951476 0.393729 0.0043946
0.972885 0.401266 0.0370642
0.991592 0.407263 0.0873579
1 0.408804 0.104524
0 0.430152 0.223774
0 0.430152 0.223774
0.00204471 0.428107 0.217655
0.00350958 0.427298 0.213886
9.15541e-05 0.423865 0.203433
0.00105287 0.429587 0.201129
0.000411994 0.431296 0.198932
0.00437934 0.434073 0.198108
0.00447089 0.438849 0.190616
0 0.441108 0.174762
0.0177462 0.442542 0.164172
0.163729 0.442679 0.151843
0.254322 0.446372 0.131838
0.334279 0.441352 0.104524
0.407889 0.443 0.0692149
0.478813 0.433692 0.0351415
0.518837 0.431556 0.0191501
0.563622 0.422202 0.0116884
0.609857 0.420096 0.000747692
0.652323 0.41825 0
0.687083 0.419776 0.00390631
0.72224 0.419791 0
0.760449 0.418952 0
0.792096 0.419913 0.00259403
0.821332 0.42295 0.00225834
0.855024 0.421271 0
0.887236 0.431403 0.0011902
0.907835 0.43537 0.00463874
0.931517 0.435874 0.00155642
0.952743 0.436728 0
0.974929 0.444862 0.01149
0.990402 0.448386 0.0376593
1 0.451148 0.0547341
0 0.48777 0.242832
0 0.48777 0.242832
0 0.488365 0.243412
0 0.487709 0.242908
0 0.489525 0.236011
0 0.488975 0.234379
0.00169375 0.493919 0.233967
0.0043183 0.492836 0.225284
0.000289921 0.499245 0.218067
0 0.50103 0.209247
0.000900282 0.498863 0.203357
0.0634623 0.503548 0.179553
0.212833 0.506737 0.170367
0.293919 0.507164 0.144976
0.373449 0.505623 0.126253
0.455146 0.503944 0.0831006
0.523644 0.496559 0.0319829
0.578317 0.488563 0.0182193
0.615106 0.480003 0.00517281
0.654765 0.476402 0.0043946
0.691264 0.475898 0
0.731365 0.472694 0.00158694
0.764401 0.478935 3.0518e-05
0.798505 0.475608 0
0.826902 0.475364 0.000564584
0.856153 0.475212 0
0.886915 0.477699 0
0.911482 0.47895 0
0.93695 0.482414 0.0027924
0.954025 0.486061 0.00303655
0.973388 0.486793 0.000885023
0.992691 0.4934 0.000411994
0.996078 0.496788 0.00303655
0.00106813 0.549783 0.27718
0.00015259 0.548867 0.276265
0.000762951 0.549752 0.274571
0.00062562 0.548836 0.272511
0.00114443 0.547127 0.271015
0.000793469 0.550256 0.265507
0.00276188 0.552636 0.264439
0.00102235 0.553796 0.251728
0.00355535 0.556924 0.252567
0 0.558373 0.240299
0.00207523 0.561746 0.231754
0.00361639 0.56379 0.226139
0.132815 0.564248 0.208453
0.251789 0.559716 0.190173
0.34255 0.563699 0.165499
0.425086 0.563714 0.136934
0.502831 0.562875 0.0953994
0.579248 0.552102 0.037232
0.61944 0.544915 0.0249638
0.656535 0.537469 0.0216526
0.690532 0.532845 0.00932326
0.733272 0.5308 0.00337224
0.764599 0.529015 0.0027924
0.794079 0.52842 0.0012665
0.827176 0.530419 0.00292973
0.864347 0.526253 0.00297551
0.886717 0.52723 0.00320439
0.907073 0.52932 0
0.932326 0.530282 0.00341802
0.956085 0.533623 0.00549325
0.974746 0.533318 0.00392157
0.989532 0.538811 0.00234989
0.997269 0.5364 0
0.000534066 0.607233 0.321645
0.00535592 0.60618 0.322316
0.00410468 0.606012 0.317815
0.00306706 0.606012 0.315435
1.5259e-05 0.609064 0.309331
0 0.612131 0.30454
0.000366217 0.611811 0.299184
0 0.614939 0.295583
0 0.612985 0.285786
0 0.61799 0.281865
0 0.62237 0.269825
0.000793469 0.623209 0.257435
0.0295872 0.624201 0.245609
0.200305 0.621714 0.236774
0.292988 0.620737 0.215335
0.381369 0.621347 0.19205
0.465827 0.626902 0.164126
0.555474 0.621302 0.117281
0.614557 0.612634 0.0710918
0.660731 0.60238 0.0552377
0.698421 0.595438 0.0495308
0.732677 0.588067 0.04654
0.767666 0.584634 0.048188
0.795972 0.583474 0.0321508
0.82768 0.581796 0.0212863
0.857374 0.581277 0.0120241
0.89041 0.578225 0.0118257
0.913649 0.577386 0.0028687
0.933989 0.581521 0.00723278
0.957763 0.584634 0.00335698
0.976806 0.587854 0.000228885
0.992859 0.587991 0.000915541
0.996902 0.585351 0.00619516
0.00112917 0.654612 0.346578
0.00273136 0.658427 0.34966
0.000991836 0.66038 0.349508
0 0.661067 0.347784
0 0.661997 0.345281
0 0.661707 0.345922
0.00125124 0.664271 0.336889
0.00445563 0.664378 0.333639
0.00209049 0.663188 0.325078
0.00231937 0.66598 0.318975
0.00062562 0.665751 0.311818
0.000518807 0.673304 0.300938
0.000839246 0.671519 0.28452
0.134615 0.673854 0.278553
0.260853 0.67248 0.265461
0.353658 0.67715 0.242847
0.434531 0.670466 0.21326
0.515801 0.669947 0.182544
0.5897 0.672877 0.154131
0.654017 0.659648 0.109316
0.703365 0.646265 0.0934157
0.735714 0.638575 0.0883345
0.765652 0.635416 0.0893721
0.796338 0.636713 0.0875257
0.830106 0.628626 0.0847334
0.856764 0.630549 0.0831617
0.889525 0.631037 0.0797742
0.910094 0.630549 0.0717784
0.934752 0.628016 0.0721447
0.955947 0.630549 0.0657816
0.977859 0.630549 0.0571603
0.992447 0.62742 0.0489052
0.994049 0.626627 0.047303
0 0.706661 0.387778
0 0.70454 0.385657
0 0.707866 0.383551
0.00131228 0.70695 0.382605
3.0518e-05 0.709529 0.380163
0.00117494 0.706416 0.380514
0.00158694 0.707591 0.37673
0 0.709834 0.364797
0.00270085 0.708095 0.362997
0.00210575 0.708675 0.361074
0.000381476 0.712993 0.350256
0.00508125 0.713634 0.34081
0.00224308 0.717327 0.337026
0.0697185 0.719707 0.320165
0.218662 0.719814 0.31078
0.321904 0.716976 0.295415
0.405753 0.721325 0.275471
0.486366 0.71696 0.25034
0.557809 0.714458 0.218753
0.632761 0.713985 0.186252
0.689738 0.705135 0.139162
0.728725 0.693355 0.135546
0.769894 0.68455 0.13431
0.803906 0.681193 0.132525
0.83032 0.679835 0.129473
0.859648 0.677134 0.13254
0.890639 0.675425 0.134173
0.908843 0.672999 0.133898
0.933196 0.67216 0.127489
0.953063 0.673457 0.123461
0.97821 0.6692 0.127474
0.996963 0.669444 0.131792
1 0.672724 0.133043
0.000350958 0.74995 0.425605
0.00300603 0.753048 0.428687
0.00106813 0.751553 0.426032
0 0.749035 0.42298
0 0.750668 0.424506
0 0.750668 0.417105
0.000335698 0.750332 0.41677
0 0.750286 0.409491
0 0.751247 0.409491
0.00263981 0.749157 0.403876
0.000823987 0.754482 0.398108
0 0.757946 0.3888
0.0102388 0.754955 0.37998
0.0794232 0.758511 0.370581
0.202365 0.758968 0.358618
0.305165 0.757763 0.346441
0.378912 0.75552 0.331518
0.454871 0.759091 0.310964
0.532967 0.75642 0.293904
0.603418 0.75787 0.257008
0.673045 0.750607 0.231952
0.723461 0.748791 0.191226
0.768856 0.734234 0.174762
0.799954 0.723873 0.177523
0.828443 0.725185 0.178546
0.854688 0.722683 0.178653
0.884657 0.715877 0.175586
0.908125 0.718212 0.18172
0.930098 0.715587 0.184344
0.960311 0.714183 0.184543
0.976928 0.71693 0.17879
0.989593 0.719142 0.181308
0.993317 0.718654 0.180819
0.0343481 0.785931 0.468437
0.0354772 0.784817 0.468437
0.0373388 0.782956 0.465003
0.0366979 0.782162 0.462745
0.0322881 0.782223 0.461997
0.0250248 0.785687 0.458564
0.0189364 0.788586 0.455177
0.0163882 0.788464 0.450156
0.0188144 0.784695 0.444327
0.0287633 0.787579 0.444694
0.0472267 0.792294 0.440879
0.10045 0.787823 0.430686
0.122667 0.794644 0.427527
0.167346 0.794263 0.421057
0.211475 0.792538 0.411017
0.292775 0.796536 0.393179
0.370474 0.79556 0.384573
0.443366 0.792874 0.369345
0.509483 0.797711 0.34641
0.578393 0.795682 0.323568
0.6448 0.792538 0.297963
0.706523 0.791653 0.2766
0.763638 0.78201 0.239582
0.800717 0.770642 0.218585
0.829236 0.763333 0.21976
0.860487 0.763607 0.227573
0.892027 0.756405 0.231342
0.911665 0.751629 0.223026
0.931731 0.753872 0.22649
0.952071 0.751263 0.231098
0.971084 0.753246 0.233371
0.987289 0.752087 0.237263
0.994675 0.753246 0.238422
0.195666 0.817395 0.508156
0.194507 0.817395 0.506996
0.194369 0.817395 0.506859
0.192752 0.819013 0.506859
0.193347 0.81677 0.506127
0.187915 0.820584 0.506127
0.182132 0.818647 0.503288
0.164126 0.820752 0.494514
0.173266 0.822217 0.489281
0.180743 0.821851 0.484154
0.196399 0.829053 0.478584
0.201892 0.822721 0.481926
0.223224 0.820935 0.467918
0.240604 0.823545 0.465232
0.259602 0.82916 0.454475
0.309041 0.831144 0.444434
0.375097 0.829038 0.430961
0.439704 0.828367 0.420783
0.504479 0.829831 0.404425
0.56495 0.830671 0.377676
0.619455 0.828412 0.357687
0.682338 0.828687 0.339391
0.746349 0.82443 0.307515
0.793439 0.814603 0.279957
0.830457 0.80322 0.269749
0.860822 0.794995 0.268498
0.887572 0.793927 0.267231
0.909209 0.789899 0.271183
0.935058 0.786313 0.27689
0.952132 0.789746 0.275364
0.972045 0.78677 0.280812
0.985168 0.784115 0.27863
0.988983 0.789899 0.275425
0.284916 0.848493 0.545739
0.284916 0.848493 0.540688
0.28542 0.849012 0.540642
0.285267 0.848859 0.541222
0.283467 0.849226 0.547982
0.281147 0.851545 0.547982
0.278447 0.85069 0.540978
0.27013 0.850217 0.533272
0.271946 0.847333 0.532738
0.277501 0.850309 0.532372
0.278767 0.851835 0.520729
0.285542 0.853101 0.521035
0.297749 0.854398 0.513939
0.306447 0.853239 0.50663
0.32253 0.857053 0.50338
0.338918 0.855833 0.489799
0.390646 0.863371 0.481407
0.449088 0.853101 0.473655
0.497459 0.857725 0.448524
0.549218 0.8551 0.434577
0.614664 0.854765 0.413977
0.665324 0.855665 0.399237
0.721706 0.856214 0.378531
0.776043 0.854398 0.354223
0.821424 0.8448 0.329244
0.853361 0.832197 0.307408
0.890593 0.823468 0.307698
0.908553 0.822797 0.307317
0.929305 0.825162 0.313252
0.953048 0.820951 0.318044
0.973144 0.818967 0.324086
0.989731 0.81857 0.329686
0.996078 0.819135 0.33286
0.356802 0.874144 0.585153
0.356802 0.874144 0.581781
0.35581 0.875395 0.58143
0.35761 0.874815 0.58143
0.3579 0.871992 0.57966
0.360494 0.870695 0.57966
0.352972 0.877684 0.579004
0.345663 0.874708 0.572381
0.349691 0.873777 0.573587
0.349691 0.875212 0.567224
0.351156 0.872724 0.560678
0.360235 0.881437 0.563973
0.365866 0.87921 0.561868
0.371603 0.880049 0.554559
0.384817 0.879789 0.540398
0.389181 0.881727 0.535439
0.417121 0.889204 0.530556
0.462821 0.883711 0.514687
0.512566 0.883772 0.505074
0.561044 0.883818 0.49366
0.611109 0.885573 0.480232
0.656825 0.882979 0.46244
0.713024 0.879789 0.441169
0.76173 0.879225 0.426551
0.809674 0.877638 0.400992
0.854459 0.871321 0.376333
0.888426 0.858518 0.356558
0.914839 0.853071 0.350973
0.936172 0.851102 0.352758
0.95552 0.848508 0.353033
0.973617 0.847166 0.359075
0.991165 0.846601 0.36788
0.994324 0.84802 0.366461
0.423239 0.896513 0.622187
0.419471 0.896513 0.622187
0.41912 0.896513 0.622187
0.418326 0.895705 0.621393
0.416663 0.898833 0.617334
0.413428 0.895598 0.614099
0.416541 0.895872 0.615335
0.412497 0.895567 0.609247
0.412406 0.899245 0.602457
0.413794 0.898894 0.602975
0.410864 0.895125 0.604105
0.415625 0.903914 0.595254
0.420645 0.900542 0.600336
0.431373 0.902815 0.594736
0.432303 0.905165 0.58204
0.442237 0.906523 0.578882
0.454704 0.906325 0.569345
0.487358 0.904265 0.565637
0.525994 0.908263 0.553155
0.568826 0.907973 0.539742
0.615549 0.906889 0.527977
0.657649 0.906767 0.513893
0.706722 0.905089 0.497093
0.751568 0.902144 0.485405
0.793851 0.901976 0.461845
0.840803 0.901579 0.437171
0.886107 0.896208 0.414984
0.9131 0.885573 0.396674
0.937758 0.878096 0.394018
0.957519 0.874617 0.395926
0.976837 0.870405 0.403143
0.994415 0.869871 0.406668
1 0.869871 0.401648
0.478172 0.916594 0.656046
0.480156 0.918578 0.65803
0.480323 0.918746 0.658213
0.481071 0.918013 0.658213
0.477897 0.916289 0.655436
0.479225 0.917342 0.650675
0.479957 0.92163 0.654963
0.476646 0.916671 0.648295
0.468879 0.920623 0.647211
0.471855 0.923781 0.64741
0.477607 0.920439 0.646693
0.478401 0.920455 0.638621
0.481407 0.924422 0.636545
0.485557 0.924468 0.632654
0.494606 0.925185 0.62182
0.498787 0.928283 0.619577
0.50367 0.931151 0.614466
0.522606 0.931624 0.602213
0.552453 0.929107 0.596963
0.589227 0.93228 0.589685
0.627771 0.929107 0.580987
0.669245 0.926207 0.572244
0.709255 0.925612 0.555062
0.748409 0.927382 0.546227
0.785931 0.925139 0.529747
0.829892 0.92871 0.505257
0.877317 0.923033 0.485191
0.911315 0.920348 0.466453
