iOSLOG2LUTConverter/Resources/Secondary LUTS/PARASITE.cube
TITLE "Generated by Resolve"
LUT_3D_SIZE 9
0.00392157 0 0
0.0342412 0 0.00427253
0.11693 0.00784314 0.0172274
0.22678 0 0.0282597
0.414099 0.00392157 0.0509804
0.629541 0 0.0784314
0.790845 0.00349432 0.113725
0.914534 0.0021973 0.162051
0.988235 0.109804 0.203922
0.0106203 0.0341497 0.0184634
0.042298 0.0380713 0.018265
0.120836 0.0358892 0.0116121
0.245274 0.0234379 0.0290074
0.425727 0.000793469 0.0445106
0.629786 0 0.0704051
0.791974 0.00216678 0.104646
0.917342 0.0016022 0.158465
0.991745 0.13994 0.214862
0.00163272 0.138613 0.0827497
0.00308232 0.143877 0.0684825
0.152834 0.140185 0.0402075
0.290776 0.130175 0.0282444
0.452201 0.122942 0.000915541
0.648646 0.102342 0.0154116
0.809842 0.117433 0.0677043
0.929305 0.17319 0.136217
0.99443 0.233646 0.191546
0.00328069 0.310994 0.165988
0.000122072 0.311742 0.151232
0.00454719 0.325216 0.12549
0.31458 0.321477 0.0631266
0.506203 0.308537 0.0184634
0.672389 0.309026 0.00326543
0.819318 0.324712 0.000381476
0.932235 0.344625 0.0281376
0.996704 0.371145 0.138033
0.00106813 0.549783 0.27718
0.00114443 0.547127 0.271015
0.00355535 0.556924 0.252567
0.132815 0.564248 0.208453
0.502831 0.562875 0.0953994
0.690532 0.532845 0.00932326
0.827176 0.530419 0.00292973
0.932326 0.530282 0.00341802
0.997269 0.5364 0
0.000350958 0.74995 0.425605
0 0.750668 0.424506
0 0.751247 0.409491
0.0102388 0.754955 0.37998
0.378912 0.75552 0.331518
0.673045 0.750607 0.231952
0.828443 0.725185 0.178546
0.930098 0.715587 0.184344
0.993317 0.718654 0.180819
0.356802 0.874144 0.585153
0.3579 0.871992 0.57966
0.349691 0.873777 0.573587
0.365866 0.87921 0.561868
0.417121 0.889204 0.530556
0.611109 0.885573 0.480232
0.809674 0.877638 0.400992
0.936172 0.851102 0.352758
0.994324 0.84802 0.366461
0.578912 0.948913 0.717433
0.57084 0.954192 0.717342
0.567681 0.953552 0.712932
0.571939 0.953597 0.698482
0.58677 0.962646 0.686
0.664912 0.963058 0.660594
0.794217 0.960525 0.617746
0.931975 0.955306 0.563226
1 0.938293 0.520974
0.724178 0.996735 0.822217
0.717647 1 0.815686
0.71284 0.996078 0.811765
0.717647 1 0.811765
0.729412 0.996078 0.796078
0.758144 0.996506 0.783886
0.842054 1 0.759045
0.942885 0.996078 0.738781
1 1 0.709804
0.00836194 0.00788891 0.0278935
0.0383154 0.00202945 0.0281529
0.114015 0.0122683 0.0274357
0.232929 0.0138094 0.0320439
0.417151 0.000442512 0.0475013
0.622995 0 0.0701915
0.790799 0.000915541 0.105226
0.915557 0.000946059 0.160403
0.996078 0.117693 0.21178
0.0273289 0.0307164 0.0391089
0.0402075 0.039826 0.0451362
0.122438 0.0433509 0.0449989
0.242954 0.0395361 0.0422675
0.426657 0.000350958 0.0387884
0.628992 0 0.0612039
0.792172 0 0.100374
0.913771 0.0144961 0.148684
0.992081 0.14818 0.208225
0.0409247 0.139193 0.110246
0.0345922 0.137911 0.0988327
0.150515 0.140627 0.0702983
0.284581 0.130449 0.0585641
0.45594 0.125124 0.0413825
0.64567 0.118273 0.00868238
0.807218 0.13315 0.0614176
0.925994 0.180987 0.127016
0.998886 0.238651 0.189105
0.00236515 0.310155 0.18761
0 0.313207 0.179065
0.0101015 0.322316 0.14696
0.313863 0.327108 0.0952773
0.502953 0.310338 0.0585184
0.671366 0.310658 0.0103609
0.817304 0.323827 0.00239567
0.929824 0.347936 0.0210269
0.996567 0.376684 0.132647
0 0.549096 0.297108
0.00270085 0.547539 0.289494
0.00277714 0.553643 0.26717
0.141054 0.560601 0.220356
0.497276 0.564752 0.119966
0.697597 0.534386 0.0632944
0.831128 0.526741 0.024918
0.935607 0.531884 0.00234989
1 0.538338 0.000228885
0.000366217 0.749508 0.440452
1.5259e-05 0.746883 0.432868
0.000122072 0.750683 0.411307
0.0349737 0.756481 0.390478
0.384695 0.759197 0.341817
0.669718 0.753857 0.229465
0.829084 0.724971 0.193362
0.932387 0.713817 0.199527
0.998901 0.715434 0.207477
0.369085 0.873823 0.588342
0.368002 0.873793 0.584695
0.354055 0.875563 0.576181
0.374289 0.879225 0.561273
0.419684 0.885756 0.532692
0.611139 0.885588 0.478523
0.80798 0.881086 0.404837
0.933043 0.852003 0.360891
0.996078 0.848295 0.375814
0.576333 0.954086 0.720531
0.578515 0.949203 0.71754
0.570123 0.94995 0.710063
0.573297 0.95697 0.704082
0.591577 0.959304 0.689052
0.665461 0.961959 0.662181
0.796002 0.959762 0.62118
0.932738 0.953918 0.568521
1 0.934569 0.519936
0.718242 1 0.816205
0.714565 0.996414 0.812268
0.713832 0.996185 0.808774
0.720623 0.998505 0.811765
0.725917 1 0.78851
0.768811 0.999542 0.786999
0.845991 0.997101 0.758923
0.943145 1 0.730877
0.996078 0.996078 0.713146
0.0329137 0.0373846 0.0844739
0.0390021 0.0260014 0.0886854
0.111147 0.00274662 0.0973983
0.234195 0.00552377 0.102144
0.423621 0 0.116548
0.628916 0 0.111131
0.792096 4.57771e-05 0.0962692
0.919264 0.031342 0.149691
0.989944 0.146883 0.209491
0.058732 0.064332 0.0902571
0.0599374 0.0601663 0.10338
0.12134 0.0395514 0.111528
0.24361 0.0366522 0.113634
0.427161 0.022858 0.125093
0.632746 0 0.110369
0.792126 0 0.0911727
0.920378 0.0841688 0.147066
0.991577 0.168856 0.200778
0.0857404 0.12079 0.139223
0.0959487 0.127108 0.148089
0.14258 0.141985 0.155062
0.277485 0.141482 0.145296
0.458 0.136919 0.136461
0.648981 0.138201 0.122545
0.807843 0.164446 0.0872816
0.926085 0.205066 0.119692
1 0.248371 0.18143
0.0974746 0.301747 0.248814
0.10341 0.30222 0.244038
0.0981308 0.322774 0.22005
0.310094 0.32607 0.175204
0.497398 0.313954 0.158648
0.670039 0.314672 0.133593
0.816907 0.334356 0.112871
0.927321 0.357382 0.064683
1 0.379294 0.13695
0.0360266 0.543725 0.353292
0.0235904 0.544182 0.347051
0.000991836 0.551125 0.318425
0.160754 0.559884 0.280064
0.499428 0.56437 0.197482
0.689296 0.532372 0.169177
0.824445 0.534798 0.157763
0.932631 0.539559 0.140642
0.99823 0.543725 0.120195
0.169268 0.746151 0.479927
0.164553 0.746639 0.471458
0.10222 0.750088 0.451179
0.164569 0.75552 0.422766
0.393957 0.752834 0.379767
0.674952 0.75491 0.287724
0.824445 0.726421 0.261952
0.930571 0.719722 0.267735
0.992599 0.720104 0.262623
0.409079 0.873274 0.607065
0.403845 0.871656 0.608454
0.394888 0.875395 0.594583
0.396887 0.876783 0.583017
0.434501 0.883619 0.547707
0.609567 0.883909 0.507668
0.806836 0.878065 0.436423
0.936278 0.85185 0.39765
0.999939 0.850431 0.417197
0.595422 0.948104 0.738903
0.594965 0.951827 0.733196
0.587671 0.950423 0.727077
0.587381 0.952163 0.710597
0.600336 0.959609 0.698466
0.669932 0.963577 0.674739
0.792874 0.960845 0.633524
0.936584 0.956146 0.585077
1 0.935927 0.541253
0.72961 1 0.827649
0.730037 0.999374 0.819944
0.729519 1 0.819715
0.725429 0.996124 0.811841
0.729473 1 0.799969
0.758877 0.996582 0.785107
0.848219 1 0.769543
0.944274 1 0.748867
1 0.99971 0.72491
0.0540932 0.0751812 0.164431
0.0591135 0.0675364 0.17528
0.119585 0.0322576 0.20383
0.230365 3.0518e-05 0.198108
0.416861 0.000198367 0.207187
0.627573 4.57771e-05 0.208911
0.788968 0.0538338 0.228382
0.91165 0.126894 0.21445
0.998901 0.162051 0.208774
0.0845197 0.104204 0.180255
0.0847791 0.103853 0.185626
0.124636 0.0696574 0.209186
0.241169 0.0206607 0.207523
0.42649 0.000183108 0.212177
0.626322 0.000183108 0.222736
0.788602 0.0998398 0.228641
0.918624 0.151873 0.214786
0.996139 0.188388 0.205402
0.157046 0.175814 0.199756
0.16437 0.177478 0.204273
0.168627 0.181247 0.235019
0.276005 0.141848 0.243824
0.451179 0.151049 0.245533
0.644358 0.186465 0.254673
0.801236 0.214694 0.248295
0.920363 0.244236 0.226078
0.994812 0.265782 0.206561
0.180529 0.275471 0.283192
0.18819 0.283558 0.282872
0.220539 0.299718 0.295796
0.298955 0.331518 0.302251
0.490455 0.327581 0.289204
0.668467 0.338933 0.276371
0.810391 0.362768 0.265309
0.92192 0.384619 0.246235
0.994202 0.395666 0.225071
0.215351 0.52401 0.411872
0.219806 0.529671 0.407507
0.252049 0.538628 0.412604
0.248508 0.559655 0.376715
0.498558 0.561028 0.325353
0.677836 0.547494 0.317647
0.814145 0.548089 0.300267
0.92163 0.551324 0.288518
0.996063 0.557733 0.277714
0.328191 0.735576 0.54165
0.331838 0.732631 0.536126
0.337301 0.738979 0.524544
0.301091 0.749584 0.49398
0.404501 0.759075 0.450294
0.669383 0.758144 0.389334
0.813703 0.732479 0.369192
0.922866 0.728099 0.371344
0.988632 0.730922 0.370474
0.491691 0.866606 0.656641
0.48426 0.865431 0.649332
0.476295 0.870192 0.646571
0.458076 0.874266 0.621241
0.476219 0.880461 0.594125
0.617365 0.880735 0.559457
0.804379 0.878874 0.498909
0.926909 0.856901 0.469764
0.99234 0.854383 0.47895
0.629786 0.945068 0.757641
0.629191 0.947936 0.755474
0.624308 0.948791 0.749157
0.61146 0.955764 0.737255
0.623133 0.960662 0.721691
0.673442 0.96051 0.69543
0.795239 0.961105 0.66569
0.933623 0.956771 0.61622
0.999481 0.937804 0.576867
0.752178 0.995315 0.84921
0.752178 0.99556 0.842542
0.749111 0.992248 0.832654
0.740215 0.996445 0.827558
0.741176 1 0.819608
0.76614 1 0.805249
0.846967 1 0.78352
0.942 0.99971 0.760754
1 0.997055 0.743145
0.095613 0.145647 0.283925
0.102968 0.138125 0.291752
0.134752 0.112886 0.313344
0.278813 0.00102235 0.351797
0.420691 3.0518e-05 0.330114
0.624292 0.00369268 0.336904
0.792309 0 0.34612
0.914168 0.137209 0.350866
0.987625 0.281697 0.379492
0.129686 0.172366 0.298466
0.125795 0.164691 0.302525
0.152087 0.139406 0.323491
0.281163 0.0399481 0.361959
0.428321 3.0518e-05 0.340581
0.628199 0.00015259 0.343877
0.794568 0.0319829 0.347112
0.912306 0.178637 0.358389
0.980224 0.296193 0.385702
0.217716 0.269535 0.311574
0.222812 0.263767 0.318929
0.214603 0.246311 0.340917
0.294148 0.176928 0.381857
0.456428 0.125811 0.365332
0.63917 0.1608 0.366262
0.798428 0.220111 0.369467
0.907408 0.322698 0.391226
0.976852 0.346197 0.38822
0.287541 0.347356 0.356008
0.295323 0.353368 0.357031
0.313726 0.369757 0.369543
0.337133 0.376257 0.408545
0.473762 0.341222 0.413458
0.645701 0.372396 0.407599
0.787198 0.424506 0.426535
0.902434 0.43711 0.413931
0.984314 0.44567 0.395789
0.316579 0.494331 0.448493
0.318013 0.495827 0.446235
0.348028 0.512993 0.464271
0.392065 0.538216 0.471336
0.485908 0.565469 0.46894
0.65745 0.565713 0.461845
0.793896 0.574792 0.451164
0.908812 0.58439 0.441855
0.98262 0.587854 0.432013
0.391608 0.721508 0.580468
0.400473 0.721157 0.580377
0.418494 0.725399 0.580362
0.449622 0.737392 0.586999
0.460777 0.756863 0.552346
0.661723 0.753307 0.504662
0.802014 0.738872 0.494041
0.908827 0.740627 0.48954
0.976699 0.743084 0.491249
0.524987 0.861234 0.689662
0.529656 0.861631 0.693019
0.539635 0.86363 0.687907
0.557061 0.868391 0.689021
0.54023 0.876829 0.657862
0.626993 0.88278 0.624079
0.800229 0.880781 0.574228
0.918944 0.86099 0.558618
0.986481 0.857984 0.56141
0.664912 0.945785 0.788922
0.664866 0.94522 0.78764
0.673625 0.949081 0.792477
0.670649 0.950759 0.78056
0.654826 0.956832 0.758007
0.683284 0.963348 0.739055
0.79823 0.960632 0.707774
0.932067 0.958038 0.664347
0.999252 0.9402 0.636408
0.781003 0.991073 0.868986
0.780804 0.992157 0.867491
0.778759 0.993942 0.868955
0.777539 0.997147 0.858091
0.764782 0.998154 0.848966
0.777752 1 0.827085
0.850629 0.998459 0.807797
0.94197 0.99736 0.786801
1 0.996078 0.764706
0.188785 0.254856 0.434867
0.193469 0.248264 0.440116
0.212802 0.226795 0.449821
0.294026 0.16614 0.483238
0.49546 7.62951e-05 0.527459
0.62594 7.62951e-05 0.474342
0.7888 0.00262455 0.485054
0.915999 0.0961013 0.487114
0.984756 0.199817 0.489677
0.216083 0.277333 0.439399
0.213489 0.270954 0.442313
0.226123 0.251087 0.45539
0.298024 0.19173 0.488685
0.500175 7.62951e-05 0.532326
0.631693 1.5259e-05 0.487816
0.79292 0 0.490425
0.913695 0.14403 0.491005
0.987579 0.229831 0.489067
0.289937 0.372152 0.454597
0.285466 0.365637 0.455909
0.286305 0.34609 0.467491
0.32987 0.291554 0.500267
0.510491 0.128466 0.548058
0.640681 0.111604 0.497826
0.794186 0.205356 0.49984
0.909148 0.282155 0.496834
0.977203 0.327443 0.500389
0.396246 0.477531 0.456825
0.397116 0.475837 0.463935
0.392004 0.483558 0.480049
0.390066 0.463172 0.517388
0.498482 0.372213 0.561242
0.649866 0.351644 0.530663
0.785275 0.400793 0.53637
0.896605 0.45069 0.538659
0.968353 0.478065 0.53283
0.439231 0.567361 0.5243
0.439261 0.567803 0.524666
0.454582 0.578332 0.529168
0.480644 0.599405 0.541421
0.508064 0.606775 0.577661
0.635843 0.58352 0.580484
0.767697 0.606409 0.576394
0.877684 0.633524 0.593881
0.944549 0.639094 0.580728
0.47129 0.700572 0.614588
0.474205 0.700877 0.614862
0.486625 0.701717 0.611734
0.522042 0.714672 0.62768
0.563897 0.73698 0.638575
0.646326 0.759075 0.627237
0.784573 0.753323 0.616526
0.888289 0.758282 0.614725
0.961212 0.75346 0.610483
0.570214 0.84947 0.719493
0.570855 0.849363 0.719432
0.576471 0.851362 0.723003
0.596841 0.854765 0.723323
0.627649 0.870939 0.731106
0.639475 0.88127 0.701396
0.800061 0.8804 0.667979
0.909392 0.866239 0.661646
0.976989 0.870375 0.660273
0.67689 0.940124 0.811749
0.675715 0.938354 0.810285
0.685573 0.941573 0.812146
0.696376 0.94287 0.810956
0.728283 0.948562 0.820249
0.719692 0.960174 0.790143
0.798947 0.962463 0.761547
0.928878 0.958572 0.724865
1 0.942504 0.708721
0.776471 0.991455 0.879835
0.774014 0.986511 0.882338
0.783459 0.991424 0.881559
0.800046 0.98909 0.886717
0.817746 0.996307 0.880674
0.809995 0.999741 0.869993
0.852293 0.997528 0.845762
0.944076 0.998856 0.824277
1 0.99881 0.804257
0.303151 0.389975 0.575235
0.302724 0.38233 0.577127
0.317082 0.369802 0.585336
0.358892 0.318013 0.61004
0.500771 0.186542 0.650339
0.715999 0.000442512 0.670954
0.798199 0.000320439 0.618326
0.908568 0.00187686 0.600534
0.985031 0.157473 0.600549
0.321233 0.411734 0.576288
0.314717 0.404898 0.577447
0.32192 0.386191 0.585443
0.371725 0.336461 0.6094
0.501396 0.212024 0.646845
0.72192 4.57771e-05 0.681178
0.796872 7.62951e-05 0.61648
0.914794 0.0525978 0.605615
0.977172 0.192767 0.606256
0.366522 0.48394 0.588388
0.366003 0.479622 0.586725
0.366461 0.462959 0.590753
0.395132 0.42388 0.617624
0.509392 0.314366 0.648676
0.721035 0.000289921 0.676707
0.804242 0.116197 0.634287
0.90605 0.242634 0.615976
0.981674 0.304845 0.615656
0.459129 0.592676 0.591119
0.457496 0.590799 0.589731
0.464317 0.589441 0.60499
0.452888 0.559121 0.62475
0.507179 0.490593 0.658091
0.712383 0.329534 0.693904
0.799832 0.365454 0.646464
0.895354 0.431174 0.635889
0.962142 0.461723 0.629328
0.542718 0.671336 0.606256
0.543236 0.671305 0.607324
0.550088 0.679194 0.61268
0.561242 0.688899 0.62678
0.547082 0.672694 0.664088
0.680995 0.579095 0.70132
0.776303 0.586496 0.671305
0.881834 0.616129 0.667811
0.946227 0.629496 0.669947
0.574807 0.746181 0.669841
0.576257 0.747723 0.672267
0.582177 0.750561 0.673228
0.59913 0.756878 0.682841
0.627665 0.769757 0.691752
0.659861 0.778439 0.721141
0.763333 0.766598 0.717342
0.871397 0.777081 0.717113
0.93492 0.785733 0.717357
0.614954 0.834455 0.742992
0.615915 0.835508 0.744015
0.620295 0.837369 0.746761
0.638422 0.842344 0.7514
0.670344 0.85539 0.76112
0.708171 0.873884 0.772808
0.791333 0.879591 0.758785
0.897627 0.875502 0.754772
0.967819 0.871885 0.753368
0.713069 0.929717 0.836591
0.714931 0.928405 0.835508
0.717876 0.93286 0.837125
0.725994 0.934508 0.842023
0.744472 0.940322 0.84863
0.783047 0.951675 0.851667
0.800916 0.960906 0.823667
0.926207 0.959854 0.797162
0.993469 0.948623 0.786618
0.797177 0.982605 0.901961
0.79736 0.981674 0.903243
0.8 0.984314 0.905882
0.807477 0.986267 0.90898
0.823529 0.992386 0.913268
0.865248 0.994644 0.916121
0.862745 0.996078 0.892027
0.938369 0.999557 0.870954
1 1 0.854444
0.413535 0.539239 0.689418
0.416495 0.533852 0.687861
0.42475 0.519585 0.69926
0.451621 0.481315 0.713237
0.534493 0.380209 0.742351
0.713558 0.0499123 0.768597
0.873411 0.00335698 0.780209
0.930205 0.00227359 0.716121
0.992935 0.000427253 0.703944
0.425254 0.554665 0.690272
0.421317 0.547631 0.691051
0.433677 0.532036 0.701534
0.45742 0.494392 0.71191
0.530526 0.401679 0.73904
0.708507 0.105806 0.773861
0.872557 0 0.774197
0.924651 0.00233463 0.714992
0.999619 0.0286717 0.714427
0.465507 0.607507 0.695796
0.465629 0.602167 0.698604
0.466529 0.589227 0.699748
0.473213 0.558526 0.714092
0.542016 0.473838 0.742519
0.699733 0.268162 0.775784
0.86833 0 0.779767
0.933242 0.128786 0.72546
0.984009 0.240558 0.709041
0.532921 0.689799 0.688716
0.535378 0.692195 0.691417
0.532815 0.684932 0.702815
0.527672 0.657603 0.714763
0.55436 0.60705 0.742596
0.684596 0.467643 0.775051
0.857206 0.327718 0.783642
0.910964 0.384131 0.728939
0.976135 0.426413 0.719463
0.62623 0.756451 0.683452
0.622202 0.761273 0.685191
0.615427 0.75964 0.692042
0.612222 0.759014 0.715526
0.601999 0.735256 0.740215
0.666362 0.663645 0.770611
0.833188 0.565423 0.791104
0.89276 0.5953 0.751278
0.956695 0.611521 0.746426
0.65687 0.809232 0.735286
0.655222 0.807523 0.73341
0.658518 0.810437 0.736461
0.673121 0.811063 0.743816
0.696223 0.819074 0.747631
0.687938 0.821088 0.78262
0.798093 0.756924 0.809491
0.871473 0.769543 0.783444
0.935225 0.776013 0.780896
0.680568 0.861555 0.783658
0.681392 0.86186 0.784253
0.690013 0.860716 0.785657
0.699504 0.861784 0.790448
0.722164 0.86807 0.796338
0.755688 0.877897 0.810788
0.795224 0.882826 0.82948
0.880919 0.88455 0.831357
0.953704 0.885008 0.829099
0.736675 0.921599 0.850706
0.737682 0.918425 0.849149
0.741283 0.923064 0.852842
0.749432 0.927581 0.849149
0.771618 0.932403 0.863035
0.809873 0.93875 0.87686
0.845212 0.956191 0.893416
0.926787 0.957076 0.864805
0.989334 0.95198 0.860197
0.818586 0.97937 0.922408
0.824582 0.976776 0.922621
0.825208 0.977584 0.923247
0.834119 0.977646 0.922957
0.85098 0.984314 0.92726
0.874937 0.990326 0.939498
0.909026 1 0.94464
0.942336 0.996506 0.918761
1 0.997589 0.898039
0.517662 0.666682 0.774655
0.519783 0.665141 0.775616
0.519081 0.653376 0.782345
0.531655 0.61915 0.78967
0.579812 0.544732 0.81474
0.706706 0.35877 0.842023
0.900313 0.00125124 0.866911
0.999344 0.00218204 0.856184
1 0 0.800122
0.522576 0.671656 0.774868
0.521798 0.670817 0.774639
0.525673 0.660288 0.781125
0.536385 0.628962 0.791913
0.583078 0.556878 0.812894
0.705165 0.381369 0.843641
0.900114 0.00204471 0.871473
0.998184 3.0518e-05 0.856352
0.996048 0.00198367 0.79617
0.552026 0.709697 0.772152
0.552804 0.708507 0.774914
0.551095 0.697505 0.784054
0.555138 0.671229 0.79115
0.587304 0.612146 0.811063
0.703426 0.457496 0.844663
0.901778 0.00352483 0.875578
0.99678 0.000457771 0.855039
0.99826 0.034165 0.80737
0.612879 0.767498 0.775906
0.612482 0.766995 0.775402
0.605646 0.758587 0.78352
0.595468 0.739239 0.789334
0.608042 0.697459 0.811139
0.687892 0.594034 0.838529
0.88043 0.327718 0.871061
0.986358 0.30695 0.858213
0.999313 0.351202 0.814054
0.677104 0.81912 0.768627
0.676677 0.818143 0.768704
0.674479 0.821073 0.776059
0.670665 0.815869 0.790265
0.65893 0.793469 0.808392
0.687709 0.733135 0.83917
0.841291 0.590219 0.870192
0.954635 0.553765 0.856886
0.97731 0.574716 0.820401
0.732876 0.859693 0.794324
0.731624 0.858488 0.793103
0.731853 0.858808 0.793378
0.740398 0.86389 0.796994
0.754925 0.864927 0.806226
0.732998 0.849683 0.841993
0.793362 0.790433 0.871183
0.912398 0.75108 0.866484
0.945312 0.756451 0.839841
0.756985 0.895903 0.841001
0.756771 0.895689 0.840787
0.762585 0.898207 0.843854
0.76878 0.900206 0.843397
0.782635 0.9028 0.844938
0.808728 0.908141 0.85449
0.819211 0.905638 0.872358
0.899321 0.875685 0.883101
0.954925 0.878706 0.884642
0.785306 0.932738 0.882551
0.784665 0.932143 0.881926
0.793713 0.933181 0.883223
0.798871 0.934646 0.881163
0.811582 0.935943 0.885527
0.837659 0.943908 0.898878
0.871366 0.950561 0.915282
0.919844 0.954253 0.921691
0.981796 0.954971 0.916976
0.831373 0.972549 0.933333
0.832532 0.971969 0.927581
0.842618 0.97203 0.929931
0.847059 0.975586 0.936492
0.86215 0.979797 0.940581
0.891646 0.986175 0.954589
0.928923 0.995911 0.972381
0.953277 0.996078 0.965209
1 0.996078 0.94583
