iOSLOG2LUTConverter/Resources/Secondary LUTS/PEAKY BLINDERS.cube
TITLE "Generated by Resolve"
LUT_3D_SIZE 9
0.00199893 0.00242618 0.0375677
0.0284886 0.0155184 0.0493172
0.13994 0.0452583 0.0608072
0.261677 0.073579 0.0712444
0.37586 0.0990463 0.0857252
0.488487 0.124254 0.105348
0.598215 0.150088 0.126558
0.698116 0.177981 0.149569
0.775692 0.206516 0.173678
0.0041352 0.0846876 0.0594797
0.028397 0.0888533 0.0611582
0.145129 0.0995346 0.0645304
0.268025 0.11397 0.0701762
0.381384 0.129381 0.0813764
0.493309 0.147417 0.099733
0.601267 0.16788 0.12108
0.699596 0.192538 0.145388
0.776867 0.219837 0.172137
0.0109255 0.195575 0.0991684
0.0351568 0.197482 0.0994583
0.143511 0.203967 0.0980087
0.27744 0.211872 0.0889296
0.394125 0.218631 0.0899367
0.505104 0.225071 0.100984
0.609506 0.233127 0.118151
0.704906 0.245823 0.137987
0.780148 0.272496 0.176333
0.0487678 0.3066 0.155001
0.0771954 0.308965 0.156558
0.157748 0.317754 0.158236
0.276844 0.3308 0.154025
0.40763 0.33637 0.136629
0.526452 0.337652 0.124483
0.627894 0.339773 0.133867
0.716335 0.344167 0.151461
0.790585 0.368444 0.199725
0.101106 0.423072 0.224857
0.123049 0.425208 0.226184
0.190234 0.434928 0.230106
0.294087 0.448402 0.229679
0.411658 0.46009 0.223713
0.540734 0.462898 0.198032
0.650217 0.459052 0.174609
0.735576 0.456031 0.175128
0.807034 0.47805 0.236194
0.157015 0.538506 0.299336
0.174334 0.5402 0.30045
0.233707 0.547417 0.303517
0.327794 0.559365 0.305943
0.436912 0.571038 0.30248
0.546044 0.579217 0.29604
0.659144 0.577996 0.268803
0.752483 0.57084 0.239429
0.822538 0.588235 0.298558
0.224445 0.649638 0.369985
0.238468 0.650721 0.370901
0.289387 0.655695 0.37348
0.375204 0.664881 0.375647
0.476646 0.674189 0.373571
0.574411 0.681315 0.369497
0.666529 0.685756 0.365774
0.760403 0.684337 0.348516
0.833356 0.693904 0.384985
0.310353 0.753826 0.431571
0.322972 0.755032 0.432319
0.367437 0.758556 0.433906
0.43714 0.76376 0.435599
0.520607 0.7691 0.434485
0.607065 0.774258 0.431785
0.688106 0.777996 0.429374
0.767742 0.780606 0.430579
0.839445 0.787884 0.467262
0.397879 0.844556 0.496284
0.407019 0.844984 0.496864
0.440955 0.847211 0.498985
0.496162 0.850248 0.501595
0.562493 0.853559 0.503777
0.634165 0.856672 0.504753
0.707622 0.859953 0.503655
0.778424 0.863081 0.507149
0.843275 0.868528 0.544579
0.0027924 0.0114137 0.122011
0.0271305 0.0242008 0.128344
0.125628 0.0520027 0.135882
0.252003 0.0780346 0.140764
0.370413 0.102785 0.147677
0.485435 0.128344 0.159304
0.597955 0.154849 0.17377
0.698848 0.183017 0.190921
0.776272 0.210742 0.209506
0.00453193 0.0905165 0.133089
0.0273136 0.0949721 0.135729
0.131991 0.105791 0.139483
0.257633 0.120256 0.141726
0.374624 0.135393 0.146517
0.490364 0.152132 0.155673
0.601343 0.172702 0.169665
0.700481 0.197314 0.186801
0.777462 0.223972 0.207736
0.0112764 0.199741 0.157977
0.0349889 0.201801 0.159915
0.136995 0.207263 0.15874
0.271855 0.215167 0.150301
0.390799 0.221942 0.147936
0.505852 0.226062 0.150118
0.612085 0.231922 0.158602
0.707149 0.246174 0.173541
0.781033 0.276036 0.210483
0.0494087 0.310979 0.199741
0.0764324 0.312123 0.201343
0.152239 0.319417 0.203342
0.272511 0.332174 0.198123
0.404974 0.338048 0.18201
0.526604 0.338994 0.16791
0.629557 0.338994 0.168704
0.717876 0.342275 0.180621
0.791287 0.370764 0.22977
0.100649 0.426383 0.258015
0.121477 0.427924 0.259876
0.185367 0.435508 0.26363
0.286931 0.449195 0.263523
0.409125 0.461479 0.257099
0.540475 0.465095 0.23209
0.651072 0.460731 0.206317
0.736584 0.457496 0.203967
0.807507 0.481056 0.264164
0.155489 0.540551 0.323674
0.172168 0.541894 0.32517
0.229145 0.548074 0.328725
0.322545 0.560189 0.33138
0.434256 0.572366 0.328099
0.546593 0.580957 0.321309
0.660151 0.57995 0.293904
0.753048 0.573327 0.266087
0.822843 0.590799 0.320912
0.223255 0.65098 0.388174
0.236912 0.651957 0.389364
0.287861 0.657038 0.392477
0.373358 0.665873 0.394507
0.475456 0.675334 0.392554
0.574716 0.682567 0.388586
0.667262 0.687053 0.384192
0.760662 0.686076 0.367666
0.833204 0.695552 0.402243
0.309163 0.754589 0.44509
0.321996 0.75581 0.446067
0.366842 0.759182 0.448173
0.436591 0.764508 0.450004
0.520348 0.770138 0.449134
0.607141 0.775143 0.445991
0.688746 0.778759 0.443397
0.768017 0.781781 0.445579
0.839063 0.788754 0.480125
0.397787 0.845014 0.507607
0.407172 0.845747 0.508507
0.440909 0.847684 0.510567
0.49601 0.850797 0.513161
0.562615 0.854276 0.515694
0.634043 0.857466 0.516899
0.707485 0.860487 0.515496
0.778164 0.863706 0.518837
0.843305 0.86894 0.554482
0.00421149 0.0340734 0.212696
0.026978 0.0442359 0.216831
0.103182 0.0643015 0.225162
0.231388 0.088777 0.232715
0.354314 0.112078 0.237629
0.475975 0.137911 0.246387
0.595834 0.166873 0.258808
0.69984 0.197086 0.272374
0.778164 0.224857 0.286671
0.00560006 0.100893 0.222629
0.0269017 0.104158 0.223758
0.108492 0.114412 0.230335
0.235584 0.131151 0.236637
0.357427 0.146517 0.239765
0.479896 0.164263 0.246647
0.598825 0.185763 0.256916
0.701381 0.211582 0.269642
0.779431 0.237781 0.28481
0.0116732 0.205127 0.241428
0.0334478 0.207813 0.243305
0.122133 0.214725 0.248203
0.248951 0.225437 0.249897
0.373327 0.235492 0.250477
0.495171 0.244236 0.253223
0.609903 0.253513 0.259113
0.70808 0.264958 0.266606
0.783429 0.290776 0.288243
0.0480049 0.316579 0.275212
0.0758526 0.318791 0.277104
0.145129 0.325063 0.282536
0.253727 0.33608 0.282124
0.395575 0.344854 0.270008
0.522744 0.348898 0.262119
0.630991 0.349142 0.259846
0.720729 0.351629 0.265095
0.793561 0.381369 0.302754
0.100465 0.431418 0.323796
0.12079 0.433799 0.32575
0.177615 0.439292 0.331228
0.269718 0.45034 0.333593
0.401038 0.465034 0.328328
0.539513 0.470634 0.307469
0.652064 0.467658 0.285588
0.738415 0.465492 0.282612
0.808591 0.489662 0.331075
0.155444 0.545068 0.377798
0.170947 0.546578 0.379324
0.221622 0.551476 0.384756
0.307774 0.561105 0.388525
0.425711 0.574807 0.386496
0.54725 0.584436 0.379431
0.662333 0.583993 0.352316
0.754131 0.580041 0.331502
0.822995 0.597192 0.376425
0.223346 0.654871 0.43212
0.23621 0.655894 0.43331
0.284627 0.659831 0.437461
0.368521 0.667826 0.440314
0.472084 0.678004 0.439536
0.57435 0.685588 0.435416
0.669627 0.68983 0.429435
0.761257 0.690013 0.4159
0.832837 0.699428 0.44651
0.307668 0.756924 0.48127
0.319799 0.757778 0.482124
0.364233 0.760586 0.485298
0.434485 0.765728 0.487984
0.518563 0.771954 0.487907
0.606348 0.777234 0.484443
0.68925 0.780697 0.481147
0.767895 0.78436 0.487556
0.8383 0.790768 0.515099
0.39823 0.84651 0.53933
0.407309 0.847166 0.540215
0.440711 0.848692 0.542504
0.495323 0.851652 0.545312
0.561746 0.855268 0.548135
0.633143 0.858549 0.549645
0.706447 0.861601 0.548547
0.777646 0.865049 0.551049
0.842954 0.869917 0.581918
0.00621042 0.0581216 0.299687
0.0277867 0.0637369 0.302556
0.0995499 0.0785077 0.309743
0.215457 0.101335 0.3205
0.335302 0.129473 0.33167
0.458335 0.155108 0.340978
0.587625 0.183841 0.354467
0.698817 0.217517 0.370809
0.779644 0.245212 0.382406
0.00735485 0.113207 0.309133
0.027924 0.115175 0.309377
0.104112 0.123903 0.314534
0.215686 0.140673 0.324788
0.336996 0.163012 0.335317
0.461234 0.182879 0.343526
0.589944 0.205127 0.355215
0.699977 0.233021 0.369665
0.781079 0.258381 0.381079
0.0133974 0.213413 0.329198
0.0367132 0.215854 0.331014
0.120287 0.221057 0.333532
0.22182 0.235386 0.34493
0.347143 0.252399 0.354131
0.477653 0.265232 0.358618
0.603189 0.27808 0.364813
0.707439 0.291188 0.372519
0.785504 0.312154 0.384405
0.0473793 0.32314 0.35964
0.0756695 0.325567 0.361532
0.143389 0.331975 0.366796
0.230106 0.344259 0.376211
0.365698 0.360372 0.381247
0.508736 0.370596 0.378347
0.627268 0.37612 0.378882
0.723125 0.382101 0.38262
0.796551 0.402502 0.399237
0.0996109 0.437461 0.401648
0.119829 0.439826 0.403616
0.175692 0.44654 0.409323
0.252888 0.456214 0.417578
0.381704 0.470115 0.417868
0.536355 0.478996 0.401679
0.652399 0.478355 0.387961
0.740291 0.481239 0.390585
0.809583 0.50338 0.420249
0.155764 0.549477 0.447379
0.171206 0.55111 0.448631
0.220951 0.557549 0.45388
0.295644 0.56553 0.460868
0.412161 0.578531 0.462394
0.543099 0.590204 0.456962
0.663478 0.590463 0.432227
0.754376 0.591409 0.423865
0.822705 0.6065 0.455802
0.22536 0.658824 0.493492
0.238407 0.66041 0.494499
0.284596 0.664973 0.498024
0.363317 0.671458 0.503166
0.466224 0.6813 0.504875
0.571054 0.689967 0.501289
0.670741 0.694133 0.494987
0.760983 0.695811 0.487205
0.831647 0.704295 0.50985
0.306859 0.75967 0.535714
0.318715 0.760723 0.536492
0.361273 0.76379 0.538964
0.43151 0.768215 0.544335
0.516548 0.774411 0.546471
0.604425 0.780179 0.543481
0.688151 0.784085 0.540276
0.765743 0.78822 0.55407
0.83714 0.793393 0.567956
0.398825 0.848173 0.587655
0.408042 0.848981 0.588571
0.44123 0.850706 0.590738
0.494972 0.853208 0.593973
0.56051 0.856687 0.597055
0.631861 0.860319 0.599191
0.704753 0.863493 0.598932
0.776501 0.866835 0.599924
0.842115 0.871214 0.624567
0.00877394 0.0782483 0.384405
0.0294957 0.0826581 0.386908
0.104265 0.0951247 0.393668
0.208042 0.114794 0.403204
0.32282 0.143191 0.418555
0.445823 0.175982 0.434485
0.574273 0.204974 0.44712
0.691661 0.237171 0.464042
0.77792 0.266819 0.47895
0.00973526 0.126207 0.393072
0.0299535 0.12813 0.393378
0.109499 0.136782 0.398871
0.208835 0.15169 0.408057
0.322972 0.175189 0.422995
0.4477 0.203433 0.438331
0.576516 0.228107 0.45005
0.692653 0.254322 0.464469
0.779141 0.28072 0.478447
0.0187533 0.22356 0.415412
0.0468299 0.225422 0.416938
0.125429 0.230472 0.419303
0.215015 0.24213 0.428077
0.326894 0.262165 0.442634
0.459159 0.285634 0.45687
0.590356 0.303288 0.46537
0.702495 0.318044 0.474418
0.78471 0.335668 0.484367
0.0557717 0.332036 0.446723
0.0821546 0.334401 0.448585
0.146883 0.340429 0.4533
0.225772 0.350454 0.459739
0.337224 0.370657 0.474296
0.482979 0.391211 0.485496
0.615351 0.401236 0.487678
0.719707 0.407813 0.490517
0.796216 0.424384 0.501442
0.100252 0.443763 0.482628
0.120424 0.446235 0.484504
0.175708 0.452705 0.489815
0.249516 0.462699 0.497978
0.358175 0.478401 0.507897
0.515587 0.494469 0.509544
0.643107 0.499748 0.503853
0.736584 0.504738 0.506554
0.808408 0.5205 0.522225
0.156451 0.555077 0.522301
0.171862 0.556741 0.523629
0.220935 0.562737 0.528496
0.293843 0.571984 0.535851
0.399908 0.584085 0.543175
0.537743 0.596185 0.541619
0.662562 0.59881 0.524468
0.750622 0.604746 0.528145
0.820401 0.616236 0.546914
0.227909 0.662959 0.563195
0.240604 0.664408 0.564279
0.284871 0.66862 0.567666
0.35964 0.676219 0.572854
0.458366 0.685481 0.57879
0.566125 0.694469 0.578485
0.666896 0.700114 0.575402
0.757198 0.703105 0.572824
0.829602 0.709804 0.58468
0.307469 0.762295 0.601495
0.319066 0.763363 0.602319
0.360433 0.766522 0.604623
0.428656 0.771786 0.609155
0.513436 0.777371 0.614878
0.601602 0.783261 0.615
0.684962 0.787808 0.612711
0.761944 0.792432 0.626169
0.835431 0.796613 0.631083
0.401038 0.850065 0.645548
0.410132 0.850782 0.646296
0.442817 0.852537 0.647898
0.496132 0.855497 0.650752
0.560052 0.858824 0.654169
0.630198 0.861936 0.65658
0.702571 0.865354 0.657526
0.775006 0.868894 0.658076
0.84094 0.872831 0.676585
0.0118105 0.0994888 0.469062
0.0333715 0.103166 0.471351
0.114305 0.113817 0.477531
0.209995 0.132753 0.487312
0.31667 0.159075 0.501503
0.438346 0.192782 0.522713
0.566659 0.229603 0.543252
0.684764 0.261982 0.561425
0.77229 0.289586 0.576425
0.0133059 0.141649 0.476661
0.0367742 0.143984 0.477623
0.118654 0.152041 0.482994
0.211048 0.166918 0.492332
0.315999 0.189441 0.506584
0.438941 0.219516 0.527276
0.568261 0.252705 0.547112
0.686229 0.280735 0.563577
0.773968 0.304646 0.577096
0.0319982 0.235111 0.499443
0.0614786 0.236912 0.50106
0.133577 0.243091 0.504814
0.216892 0.25478 0.513283
0.318303 0.273487 0.527687
0.447089 0.299977 0.547417
0.57995 0.326635 0.56495
0.695567 0.345159 0.576761
0.780865 0.360082 0.585611
0.0682841 0.343587 0.533242
0.0930343 0.345998 0.535195
0.154833 0.35227 0.540978
0.229984 0.361257 0.546426
0.328084 0.377554 0.558724
0.464225 0.401297 0.576211
0.599435 0.420935 0.58909
0.710994 0.43183 0.596078
0.791852 0.444724 0.603311
0.107668 0.452552 0.567788
0.127077 0.454978 0.569711
0.181262 0.461646 0.575814
0.252674 0.471214 0.584283
0.352163 0.484703 0.592203
0.491493 0.504692 0.605356
0.624628 0.518563 0.612833
0.727291 0.525307 0.616129
0.803632 0.537057 0.623194
0.157839 0.56051 0.601907
0.173297 0.562295 0.60351
0.222141 0.5682 0.608316
0.293172 0.577035 0.615732
0.393149 0.589471 0.624231
0.521691 0.603922 0.631022
0.648142 0.612451 0.631693
0.741115 0.618875 0.63415
0.815351 0.626932 0.64152
0.228489 0.667094 0.637827
0.241047 0.668605 0.638972
0.284169 0.672801 0.642527
0.356039 0.680232 0.64802
0.451698 0.690196 0.654322
0.558694 0.699428 0.65977
0.661662 0.705409 0.660624
0.751904 0.709667 0.658351
0.826123 0.715709 0.664469
0.305272 0.765194 0.671839
0.316426 0.765988 0.672526
0.357397 0.769162 0.674876
0.425528 0.774365 0.679088
0.509728 0.780804 0.684367
0.597116 0.786374 0.688807
0.680247 0.791302 0.689036
0.758556 0.796048 0.696239
0.833387 0.799863 0.698634
0.401617 0.851957 0.706294
0.410666 0.852552 0.706859
0.443732 0.854276 0.708492
0.497383 0.857542 0.711391
0.56083 0.860929 0.714611
0.629145 0.863981 0.717784
0.70042 0.867308 0.719982
0.772793 0.870741 0.720913
0.83949 0.874311 0.733257
0.0185245 0.122408 0.553063
0.0471962 0.12575 0.554971
0.126619 0.136309 0.562417
0.215549 0.15436 0.574319
0.315969 0.180316 0.591241
0.434363 0.212299 0.613397
0.564431 0.250217 0.638315
0.683207 0.286809 0.658717
0.770275 0.314168 0.673136
0.0246281 0.15996 0.560754
0.054902 0.162417 0.562158
0.129946 0.170901 0.568689
0.215351 0.185916 0.580026
0.314824 0.208515 0.596689
0.434241 0.23711 0.617685
0.565377 0.272084 0.641596
0.684367 0.305364 0.661128
0.772076 0.329534 0.674571
0.0491951 0.249287 0.585687
0.0774395 0.25153 0.587991
0.143435 0.258564 0.593011
0.221836 0.270451 0.602579
0.317266 0.288838 0.617838
0.44062 0.313008 0.636316
0.574594 0.341985 0.656977
0.69218 0.366506 0.673014
0.7785 0.382971 0.683177
0.0822919 0.356237 0.621912
0.105776 0.358709 0.624125
0.164569 0.365118 0.630518
0.236683 0.373465 0.635676
0.329625 0.388632 0.646708
0.457069 0.409461 0.662577
0.591226 0.432334 0.67866
0.704936 0.449226 0.690532
0.788342 0.461295 0.697887
0.119799 0.463584 0.656046
0.138247 0.465965 0.65803
0.190692 0.472465 0.664088
0.260517 0.481392 0.67245
0.355566 0.493019 0.677836
0.484367 0.510201 0.688975
0.612818 0.527306 0.701106
0.719341 0.538735 0.709331
0.798886 0.549187 0.714366
0.166781 0.568383 0.686122
0.181903 0.570382 0.687861
0.229419 0.575845 0.692424
0.29865 0.584192 0.699565
0.392386 0.595285 0.70782
0.516365 0.609049 0.712901
0.634882 0.621271 0.721553
0.732555 0.629755 0.726574
0.810162 0.637156 0.730159
0.230991 0.671229 0.714961
0.243412 0.672724 0.716167
0.285679 0.676997 0.719371
0.355001 0.684062 0.724849
0.448218 0.693584 0.730587
0.553994 0.703502 0.735744
0.653651 0.71133 0.740444
0.745525 0.717189 0.742367
0.821729 0.722606 0.745892
0.302327 0.767865 0.742367
0.312901 0.768444 0.743008
0.353185 0.77174 0.745235
0.420905 0.776959 0.748775
0.506584 0.783566 0.75317
0.594369 0.790066 0.757504
0.67628 0.794934 0.761028
0.756146 0.799268 0.764324
0.831067 0.802915 0.766415
0.400656 0.854078 0.768429
0.409262 0.854383 0.768643
0.442496 0.856352 0.77026
0.496483 0.859342 0.772854
0.560723 0.862791 0.775982
0.629572 0.866087 0.779187
0.699886 0.869307 0.782452
0.770657 0.87248 0.784466
0.838453 0.875822 0.791592
0.0393835 0.148104 0.642786
0.0705119 0.151263 0.644892
0.140642 0.161959 0.654185
0.22266 0.179141 0.667414
0.317556 0.203372 0.684688
0.432822 0.233997 0.704219
0.560922 0.269291 0.725475
0.68307 0.306996 0.747906
0.770504 0.335668 0.762051
0.0465248 0.181125 0.650721
0.0757763 0.183764 0.652552
0.143191 0.192645 0.660563
0.223102 0.207584 0.673045
0.317174 0.229206 0.689265
0.433387 0.257374 0.708202
0.561837 0.289494 0.728328
0.683864 0.324071 0.749752
0.772076 0.350301 0.763378
0.0674144 0.266697 0.677165
0.0932784 0.268925 0.679362
0.155016 0.275578 0.684215
0.230213 0.287419 0.693797
0.321004 0.304768 0.707408
0.44062 0.328069 0.723659
0.570382 0.353964 0.741314
0.690333 0.380972 0.759197
0.777935 0.400565 0.770947
0.0982223 0.370092 0.711055
0.120134 0.372503 0.713344
0.175586 0.378042 0.718807
0.244816 0.386374 0.723751
0.334386 0.40029 0.733196
0.456611 0.419654 0.746365
0.587015 0.440208 0.760433
0.70135 0.459937 0.77377
0.786801 0.474266 0.782788
0.134752 0.475471 0.742702
0.152132 0.477501 0.744533
0.203296 0.483452 0.749615
0.271916 0.491493 0.756832
0.362753 0.502297 0.761288
0.48603 0.517769 0.769726
0.609094 0.533181 0.780499
0.715328 0.54667 0.7897
0.796902 0.55761 0.795651
0.181964 0.578576 0.769848
0.196414 0.580163 0.770962
0.242954 0.58526 0.774823
0.311131 0.593057 0.780758
0.402441 0.603265 0.787655
0.518959 0.615152 0.791562
0.631678 0.625498 0.798413
0.728267 0.635233 0.804181
0.807218 0.643885 0.80827
0.239536 0.677791 0.792416
0.251484 0.679072 0.793301
0.293172 0.683177 0.796033
0.360021 0.689662 0.800397
0.450065 0.698116 0.805035
0.552712 0.707485 0.809445
0.651423 0.71545 0.813138
0.740764 0.722728 0.818189
0.818036 0.729107 0.821744
0.302281 0.770474 0.811948
0.312642 0.770993 0.812314
0.352514 0.774121 0.814267
0.420996 0.779431 0.817014
0.506615 0.785748 0.820157
0.593393 0.79237 0.823972
0.674891 0.797971 0.827787
0.75404 0.802869 0.831281
0.829282 0.807385 0.834318
0.398856 0.856062 0.830991
0.407477 0.856443 0.83125
0.440803 0.858396 0.832547
0.494316 0.861372 0.834623
0.558587 0.864408 0.836973
0.62855 0.867765 0.839765
0.700236 0.871321 0.842893
0.770397 0.874342 0.845792
0.838148 0.87744 0.85008
0.0599374 0.170977 0.722316
0.0878767 0.174075 0.72462
0.152453 0.183719 0.732357
0.229648 0.200031 0.744579
0.319249 0.222889 0.75964
0.432746 0.252872 0.77731
0.560632 0.287007 0.796567
0.682017 0.321538 0.816037
0.770947 0.349584 0.830732
0.0652934 0.2009 0.730983
0.0923629 0.203693 0.732708
0.155032 0.212131 0.739467
0.230549 0.226886 0.750896
0.319539 0.247333 0.76492
0.433661 0.274571 0.781796
0.561807 0.305745 0.800046
0.682658 0.337514 0.81854
0.77258 0.36376 0.832868
0.0836194 0.282658 0.7561
0.108309 0.285222 0.75848
0.166598 0.291661 0.762646
0.238392 0.302861 0.77113
0.325002 0.318868 0.782635
0.442222 0.341161 0.796857
0.571374 0.3664 0.81236
0.689097 0.391211 0.827848
0.778515 0.411948 0.840391
0.113069 0.382376 0.787442
0.133349 0.384695 0.789334
0.186419 0.390021 0.794263
0.254917 0.398703 0.800366
0.341176 0.411582 0.808698
0.461204 0.429221 0.818998
0.589075 0.448905 0.830625
0.701045 0.466758 0.841901
0.786938 0.482414 0.850523
0.149065 0.485298 0.816373
0.165682 0.487144 0.817746
0.215457 0.492988 0.822217
0.283589 0.500954 0.829526
0.372686 0.511574 0.836057
0.491768 0.525368 0.842954
0.611154 0.539269 0.850126
0.7149 0.551308 0.85687
0.796139 0.563134 0.861891
0.196353 0.586816 0.840955
0.210208 0.588266 0.841886
0.254566 0.593133 0.845594
0.321157 0.600427 0.850675
0.409644 0.609934 0.856458
0.521828 0.621286 0.861402
0.631952 0.631189 0.865751
0.727108 0.639261 0.869917
0.805814 0.64802 0.873472
0.249805 0.684306 0.861219
0.261295 0.685405 0.861753
0.301152 0.689067 0.864088
0.365972 0.695232 0.867323
0.452598 0.703029 0.871275
0.552956 0.712032 0.875273
0.651759 0.719722 0.878538
0.739681 0.725536 0.881865
0.816175 0.732021 0.884947
0.313527 0.774639 0.877256
0.323583 0.775341 0.877424
0.361425 0.778164 0.878874
0.424598 0.782742 0.881071
0.503151 0.788525 0.884092
0.589059 0.795056 0.887343
0.672984 0.800504 0.890303
0.753826 0.805508 0.89305
0.827848 0.810071 0.896223
0.402701 0.857618 0.891691
0.411093 0.858213 0.89189
0.443015 0.86009 0.892897
0.495201 0.862593 0.894499
0.558633 0.865797 0.896345
0.627863 0.868894 0.898146
0.699321 0.872465 0.900542
0.770184 0.875532 0.903029
0.838636 0.879362 0.906218
