iOSLOG2LUTConverter/Resources/Secondary LUTS/PEAKY BLINDERS.cube
TITLE "Generated by Resolve"
LUT_3D_SIZE 5
0.00199893 0.00242618 0.0375677
0.13994 0.0452583 0.0608072
0.37586 0.0990463 0.0857252
0.598215 0.150088 0.126558
0.775692 0.206516 0.173678
0.0109255 0.195575 0.0991684
0.143511 0.203967 0.0980087
0.394125 0.218631 0.0899367
0.609506 0.233127 0.118151
0.780148 0.272496 0.176333
0.101106 0.423072 0.224857
0.190234 0.434928 0.230106
0.411658 0.46009 0.223713
0.650217 0.459052 0.174609
0.807034 0.47805 0.236194
0.224445 0.649638 0.369985
0.289387 0.655695 0.37348
0.476646 0.674189 0.373571
0.666529 0.685756 0.365774
0.833356 0.693904 0.384985
0.397879 0.844556 0.496284
0.440955 0.847211 0.498985
0.562493 0.853559 0.503777
0.707622 0.859953 0.503655
0.843275 0.868528 0.544579
0.00421149 0.0340734 0.212696
0.103182 0.0643015 0.225162
0.354314 0.112078 0.237629
0.595834 0.166873 0.258808
0.778164 0.224857 0.286671
0.0116732 0.205127 0.241428
0.122133 0.214725 0.248203
0.373327 0.235492 0.250477
0.609903 0.253513 0.259113
0.783429 0.290776 0.288243
0.100465 0.431418 0.323796
0.177615 0.439292 0.331228
0.401038 0.465034 0.328328
0.652064 0.467658 0.285588
0.808591 0.489662 0.331075
0.223346 0.654871 0.43212
0.284627 0.659831 0.437461
0.472084 0.678004 0.439536
0.669627 0.68983 0.429435
0.832837 0.699428 0.44651
0.39823 0.84651 0.53933
0.440711 0.848692 0.542504
0.561746 0.855268 0.548135
0.706447 0.861601 0.548547
0.842954 0.869917 0.581918
0.00877394 0.0782483 0.384405
0.104265 0.0951247 0.393668
0.32282 0.143191 0.418555
0.574273 0.204974 0.44712
0.77792 0.266819 0.47895
0.0187533 0.22356 0.415412
0.125429 0.230472 0.419303
0.326894 0.262165 0.442634
0.590356 0.303288 0.46537
0.78471 0.335668 0.484367
0.100252 0.443763 0.482628
0.175708 0.452705 0.489815
0.358175 0.478401 0.507897
0.643107 0.499748 0.503853
0.808408 0.5205 0.522225
0.227909 0.662959 0.563195
0.284871 0.66862 0.567666
0.458366 0.685481 0.57879
0.666896 0.700114 0.575402
0.829602 0.709804 0.58468
0.401038 0.850065 0.645548
0.442817 0.852537 0.647898
0.560052 0.858824 0.654169
0.702571 0.865354 0.657526
0.84094 0.872831 0.676585
0.0185245 0.122408 0.553063
0.126619 0.136309 0.562417
0.315969 0.180316 0.591241
0.564431 0.250217 0.638315
0.770275 0.314168 0.673136
0.0491951 0.249287 0.585687
0.143435 0.258564 0.593011
0.317266 0.288838 0.617838
0.574594 0.341985 0.656977
0.7785 0.382971 0.683177
0.119799 0.463584 0.656046
0.190692 0.472465 0.664088
0.355566 0.493019 0.677836
0.612818 0.527306 0.701106
0.798886 0.549187 0.714366
0.230991 0.671229 0.714961
0.285679 0.676997 0.719371
0.448218 0.693584 0.730587
0.653651 0.71133 0.740444
0.821729 0.722606 0.745892
0.400656 0.854078 0.768429
0.442496 0.856352 0.77026
0.560723 0.862791 0.775982
0.699886 0.869307 0.782452
0.838453 0.875822 0.791592
0.0599374 0.170977 0.722316
0.152453 0.183719 0.732357
0.319249 0.222889 0.75964
0.560632 0.287007 0.796567
0.770947 0.349584 0.830732
0.0836194 0.282658 0.7561
0.166598 0.291661 0.762646
0.325002 0.318868 0.782635
0.571374 0.3664 0.81236
0.778515 0.411948 0.840391
0.149065 0.485298 0.816373
0.215457 0.492988 0.822217
0.372686 0.511574 0.836057
0.611154 0.539269 0.850126
0.796139 0.563134 0.861891
0.249805 0.684306 0.861219
0.301152 0.689067 0.864088
0.452598 0.703029 0.871275
0.651759 0.719722 0.878538
0.816175 0.732021 0.884947
0.402701 0.857618 0.891691
0.443015 0.86009 0.892897
0.558633 0.865797 0.896345
0.699321 0.872465 0.900542
0.838636 0.879362 0.906218
