iOSLOG2LUTConverter/Resources/Secondary LUTS/PEAKY BLINDERS.cube
TITLE "Generated by Resolve"
LUT_3D_SIZE 33
0.00199893 0.00242618 0.0375677
0.00555428 0.00399786 0.0400092
0.010544 0.00653086 0.0429847
0.0181582 0.0108186 0.0462959
0.0284886 0.0155184 0.0493172
0.0488441 0.0216373 0.0520943
0.0700084 0.0278782 0.0548562
0.104982 0.0365759 0.0578317
0.13994 0.0452583 0.0608072
0.170611 0.0527504 0.0636149
0.200992 0.0601358 0.0662547
0.231327 0.0669261 0.0687724
0.261677 0.073579 0.0712444
0.291157 0.0800946 0.0742046
0.320226 0.0865644 0.077409
0.348653 0.0929274 0.0813153
0.37586 0.0990463 0.0857252
0.403357 0.105272 0.090425
0.430945 0.111604 0.0955215
0.458976 0.117922 0.100526
0.488487 0.124254 0.105348
0.51751 0.130571 0.110201
0.544839 0.137072 0.11545
0.572396 0.143618 0.12076
0.598215 0.150088 0.126558
0.624048 0.156542 0.132357
0.649134 0.163455 0.137957
0.674113 0.170413 0.143465
0.698116 0.177981 0.149569
0.721309 0.185611 0.155749
0.743328 0.193698 0.162585
0.764614 0.202121 0.169894
0.775692 0.206516 0.173678
0.00216678 0.0138857 0.0404212
0.0056611 0.0152895 0.0424964
0.0105898 0.0176699 0.0449836
0.018204 0.0215 0.047715
0.0284886 0.0255436 0.0503853
0.0494698 0.0310979 0.052842
0.0713817 0.0368048 0.0554055
0.106203 0.0444343 0.0583047
0.141024 0.051957 0.0610971
0.171679 0.0586252 0.0636759
0.201785 0.0651102 0.0662242
0.232105 0.0713817 0.0685893
0.262669 0.0776226 0.0710002
0.292088 0.0838178 0.0739147
0.321065 0.0899367 0.0770123
0.349172 0.0959182 0.0808576
0.376562 0.101869 0.0853132
0.403784 0.107836 0.0900282
0.431373 0.113985 0.0951705
0.459632 0.120195 0.100206
0.488899 0.126329 0.104875
0.517906 0.132479 0.109651
0.545357 0.138888 0.115023
0.572564 0.145266 0.120378
0.598611 0.151675 0.126207
0.62443 0.158053 0.13196
0.64947 0.164874 0.137575
0.674403 0.171756 0.143175
0.698177 0.179187 0.149248
0.721538 0.186816 0.15552
0.743511 0.194873 0.162417
0.764569 0.203204 0.169665
0.775799 0.20763 0.173526
0.002533 0.0306554 0.0451209
0.00581369 0.0319066 0.0462654
0.0105135 0.0335393 0.0475624
0.0180514 0.0366522 0.0496223
0.0283513 0.040116 0.0516365
0.050248 0.0448768 0.0538643
0.0727855 0.0498207 0.0562295
0.107393 0.0555581 0.0587625
0.142031 0.0614176 0.061326
0.172473 0.0668803 0.0636759
0.202823 0.0723583 0.0659648
0.233112 0.0778668 0.0682689
0.263615 0.0834211 0.0706493
0.292943 0.0890211 0.0733654
0.321782 0.0946517 0.0762951
0.349828 0.100267 0.0800336
0.376898 0.105837 0.0845808
0.404303 0.111543 0.0893873
0.432105 0.11751 0.0946059
0.46009 0.123369 0.0995956
0.489357 0.129274 0.104082
0.51838 0.135225 0.108736
0.545663 0.141451 0.11429
0.572946 0.147707 0.11986
0.598764 0.153903 0.125551
0.624567 0.160113 0.131243
0.649348 0.166751 0.136873
0.674189 0.173526 0.142535
0.698161 0.180911 0.14876
0.721477 0.188449 0.155093
0.743435 0.196414 0.16199
0.764416 0.204685 0.169284
0.775952 0.209232 0.173281
0.00320439 0.0548714 0.0516213
0.0062562 0.0556649 0.0521553
0.0106203 0.0569009 0.0528267
0.0181888 0.0592203 0.0540475
0.0281376 0.0617533 0.0553902
0.0510262 0.0654002 0.057023
0.0741283 0.0690318 0.0585489
0.108827 0.0734569 0.0605631
0.143542 0.0778668 0.062562
0.174228 0.0822919 0.0644083
0.205005 0.0867933 0.0664225
0.235279 0.0914168 0.0683909
0.265476 0.0961013 0.0703746
0.294774 0.100893 0.0726787
0.323552 0.105745 0.0751202
0.351339 0.110582 0.0786297
0.378836 0.115511 0.083299
0.406256 0.120562 0.0880293
0.433921 0.125887 0.0930037
0.461692 0.131197 0.0978408
0.491005 0.13669 0.102312
0.519875 0.142153 0.106889
0.546975 0.147921 0.112428
0.574075 0.153689 0.117937
0.599786 0.159594 0.123781
0.625452 0.165515 0.129625
0.650111 0.171908 0.135348
0.675013 0.1785 0.141192
0.69868 0.185595 0.147402
0.721889 0.192935 0.15378
0.74374 0.200732 0.160876
0.764538 0.208896 0.168475
0.776318 0.213474 0.172808
0.0041352 0.0846876 0.0594797
0.00689708 0.0851453 0.0597391
0.0109865 0.0858778 0.06009
0.0184634 0.0872969 0.0605783
0.028397 0.0888533 0.0611582
0.0518196 0.0910201 0.0615549
0.0751507 0.0931868 0.0620584
0.11014 0.0963607 0.0632944
0.145129 0.0995346 0.0645304
0.17673 0.103029 0.065919
0.207324 0.106523 0.0672465
0.237644 0.110201 0.0686503
0.268025 0.11397 0.0701762
0.297078 0.117754 0.07187
0.325826 0.121492 0.0737163
0.354116 0.125521 0.0769055
0.381384 0.129381 0.0813764
0.408637 0.133455 0.0859236
0.436515 0.138018 0.0906233
0.464576 0.142641 0.0952621
0.493309 0.147417 0.099733
0.522148 0.15227 0.104311
0.54905 0.157351 0.109636
0.575753 0.162387 0.114916
0.601267 0.16788 0.12108
0.626703 0.173419 0.127275
0.651591 0.179553 0.133288
0.676081 0.185748 0.139147
0.699596 0.192538 0.145388
0.722637 0.199573 0.151797
0.744137 0.20708 0.159121
0.764706 0.215106 0.1673
0.776867 0.219837 0.172137
0.0053254 0.113313 0.0679484
0.00787366 0.113787 0.0682689
0.0116579 0.114199 0.0683909
0.0189975 0.115084 0.0684062
0.0283513 0.116014 0.0683909
0.0518044 0.117388 0.0682994
0.0752728 0.118761 0.0681926
0.110582 0.120867 0.068513
0.145998 0.1234 0.0689708
0.178012 0.126146 0.0695048
0.209461 0.128954 0.0700542
0.240101 0.131899 0.0708019
0.27039 0.134676 0.0715801
0.300084 0.137926 0.0726482
0.328908 0.140978 0.0738079
0.356725 0.144015 0.0764782
0.383886 0.147082 0.0809186
0.411307 0.150347 0.0853132
0.439261 0.154009 0.089601
0.467323 0.157733 0.0938888
0.496025 0.161669 0.0980697
0.524147 0.165576 0.102266
0.550881 0.169894 0.107347
0.577615 0.174212 0.112444
0.602975 0.179126 0.118669
0.628229 0.1841 0.124987
0.652781 0.189624 0.130877
0.677134 0.1953 0.136645
0.700496 0.201617 0.142809
0.723354 0.208179 0.149187
0.744869 0.215686 0.157015
0.765332 0.223865 0.166293
0.777508 0.228733 0.171832
0.00688182 0.141009 0.0775616
0.00917067 0.14139 0.0777447
0.012665 0.141695 0.0778058
0.0198215 0.142458 0.0777447
0.0286717 0.143053 0.0775921
0.0513313 0.144381 0.0774243
0.073991 0.145937 0.077348
0.109957 0.147906 0.0768139
0.145663 0.149874 0.0762951
0.178653 0.152193 0.0758221
0.211078 0.154574 0.0753643
0.242069 0.156786 0.0750744
0.273396 0.159487 0.0749676
0.30312 0.161944 0.0751965
0.331823 0.164355 0.0756695
0.359884 0.166842 0.0778668
0.386786 0.169207 0.0822309
0.414008 0.171771 0.0864118
0.441932 0.174578 0.090135
0.469902 0.177234 0.0938125
0.49839 0.180011 0.0973983
0.526314 0.182635 0.100969
0.552865 0.186114 0.10576
0.579416 0.189609 0.110552
0.6047 0.193881 0.116564
0.629847 0.198077 0.122713
0.654322 0.202823 0.128298
0.678584 0.20763 0.133761
0.701823 0.213336 0.139666
0.724666 0.219623 0.145861
0.745937 0.226978 0.154452
0.765774 0.235401 0.165194
0.778271 0.240604 0.171969
0.00865187 0.16849 0.0877394
0.0107729 0.168811 0.0879072
0.0140993 0.168811 0.0878462
0.021561 0.169497 0.0877699
0.030396 0.17023 0.0876783
0.0527047 0.171542 0.0874952
0.0752575 0.173098 0.0873884
0.109728 0.174884 0.0864424
0.14493 0.176471 0.085359
0.178546 0.178546 0.0840772
0.211826 0.180667 0.0827344
0.243961 0.182925 0.0815442
0.275853 0.184955 0.0801862
0.306081 0.186694 0.0793774
0.335027 0.188602 0.0791028
0.363226 0.190616 0.0806897
0.390112 0.192935 0.0848554
0.417273 0.194949 0.0886854
0.445197 0.196765 0.0917678
0.473075 0.198398 0.0948348
0.50106 0.20032 0.0979477
0.528984 0.202274 0.101091
0.555566 0.205173 0.105699
0.581903 0.207858 0.110231
0.606775 0.211139 0.115923
0.631708 0.214343 0.121782
0.656046 0.218265 0.127001
0.680171 0.222354 0.132021
0.70341 0.227543 0.137697
0.725795 0.233051 0.143679
0.746685 0.240024 0.152773
0.766445 0.248875 0.165164
0.77911 0.254551 0.173098
0.0109255 0.195575 0.0991684
0.0129549 0.195666 0.0992599
0.0164034 0.19588 0.099321
0.0251316 0.196536 0.0993515
0.0351568 0.197482 0.0994583
0.0579995 0.198627 0.0992142
0.0806897 0.199985 0.0990768
0.111849 0.201953 0.098558
0.143511 0.203967 0.0980087
0.176974 0.206134 0.0963149
0.21088 0.20856 0.0944991
0.244282 0.210178 0.0917983
0.27744 0.211872 0.0889296
0.308705 0.213504 0.0869612
0.338384 0.215076 0.0857404
0.36701 0.21677 0.0864424
0.394125 0.218631 0.0899367
0.4215 0.220371 0.0931106
0.449546 0.221866 0.0954604
0.477531 0.223377 0.0979019
0.505104 0.225071 0.100984
0.532876 0.22678 0.104112
0.558907 0.228779 0.108522
0.58471 0.230762 0.112902
0.609506 0.233127 0.118151
0.634119 0.235538 0.123522
0.658152 0.238514 0.128222
0.682216 0.241886 0.132723
0.704906 0.245823 0.137987
0.726925 0.250477 0.143771
0.747616 0.257252 0.153338
0.767239 0.266438 0.167208
0.780148 0.272496 0.176333
0.0147555 0.222568 0.111025
0.0168917 0.222873 0.111254
0.0204623 0.223072 0.111376
0.030396 0.223728 0.111559
0.0412757 0.224445 0.111635
0.0641947 0.225879 0.111574
0.0869154 0.227314 0.111513
0.114931 0.229465 0.11133
0.143374 0.231662 0.111131
0.176089 0.233982 0.109331
0.209949 0.236332 0.107103
0.24419 0.238148 0.10367
0.27863 0.239673 0.0995956
0.310948 0.241062 0.096437
0.341604 0.242313 0.0940871
0.370855 0.243687 0.0936904
0.398138 0.245243 0.0961318
0.425849 0.246708 0.0983444
0.454108 0.247852 0.0997787
0.482246 0.249042 0.101411
0.509712 0.250507 0.104372
0.53695 0.251957 0.107317
0.562448 0.253346 0.111589
0.588174 0.254749 0.115892
0.61265 0.256336 0.12076
0.636927 0.257954 0.125719
0.660639 0.260121 0.130007
0.684138 0.262486 0.134051
0.706706 0.265751 0.139071
0.728176 0.269566 0.144656
0.748837 0.27599 0.154681
0.768505 0.285573 0.170077
0.781521 0.291905 0.180209
0.0246586 0.250263 0.124941
0.0272068 0.250584 0.125277
0.0311284 0.250767 0.125444
0.0420081 0.251484 0.125689
0.0532998 0.252247 0.125978
0.0741741 0.253635 0.12604
0.0951553 0.255253 0.126238
0.12137 0.257755 0.126223
0.147585 0.260044 0.125994
0.177829 0.262776 0.125002
0.209186 0.265614 0.123781
0.242695 0.267887 0.120775
0.277424 0.269825 0.116777
0.31107 0.27129 0.112749
0.343175 0.272282 0.108751
0.373632 0.27332 0.106294
0.402075 0.274464 0.10631
0.430549 0.275303 0.106233
0.459327 0.276402 0.106249
0.487877 0.277287 0.106493
0.515251 0.278477 0.108919
0.542397 0.279637 0.111345
0.567666 0.280766 0.115587
0.593057 0.281666 0.11986
0.617273 0.283299 0.124681
0.641199 0.284764 0.129549
0.664439 0.286534 0.133852
0.687388 0.288441 0.137926
0.709331 0.290837 0.142901
0.730556 0.293965 0.148577
0.751217 0.300282 0.159106
0.770764 0.310018 0.175357
0.7841 0.316457 0.186404
0.03505 0.278279 0.139269
0.0378271 0.27837 0.139437
0.0420386 0.278569 0.139635
0.0536965 0.279347 0.140063
0.0654307 0.279911 0.140352
0.0845197 0.281712 0.140795
0.103838 0.283757 0.141405
0.127764 0.286122 0.141268
0.152026 0.288533 0.1411
0.179904 0.291371 0.140673
0.208942 0.294667 0.140337
0.241566 0.297383 0.137865
0.276661 0.300053 0.134218
0.310857 0.301656 0.12961
0.344198 0.302205 0.124025
0.376318 0.302998 0.119677
0.405768 0.303746 0.117281
0.435447 0.304723 0.115221
0.464454 0.305287 0.113603
0.493492 0.305882 0.112276
0.520775 0.306508 0.11397
0.547662 0.307378 0.11574
0.57319 0.308476 0.119936
0.598367 0.309316 0.124147
0.622217 0.310506 0.128756
0.645609 0.311772 0.13344
0.66833 0.312917 0.137697
0.690745 0.314366 0.141817
0.712474 0.316625 0.146944
0.733288 0.319097 0.152712
0.753567 0.324788 0.163455
0.772992 0.33463 0.18056
0.786831 0.341436 0.192721
0.0487678 0.3066 0.155001
0.0515602 0.306981 0.155322
0.0553445 0.307225 0.155535
0.0660868 0.307851 0.155871
0.0771954 0.308965 0.156558
0.0949874 0.310948 0.157259
0.112795 0.312932 0.157977
0.135073 0.315435 0.158221
0.157748 0.317754 0.158236
0.184634 0.320882 0.157961
0.21323 0.324483 0.157702
0.24419 0.327672 0.156207
0.276844 0.3308 0.154025
0.309941 0.332891 0.150408
0.343481 0.334371 0.145663
0.376272 0.335546 0.140978
0.40763 0.33637 0.136629
0.438727 0.336873 0.132204
0.468971 0.337179 0.128344
0.498772 0.337499 0.124743
0.526452 0.337652 0.124483
0.553948 0.338079 0.124346
0.579232 0.338704 0.127153
0.604334 0.339101 0.130053
0.627894 0.339773 0.133867
0.650858 0.340276 0.137819
0.673167 0.341176 0.141939
0.695232 0.342412 0.146212
0.716335 0.344167 0.151461
0.736797 0.346563 0.15761
0.756863 0.351705 0.168566
0.77641 0.36141 0.186633
0.790585 0.368444 0.199725
0.062623 0.335164 0.170932
0.0651865 0.335348 0.171084
0.0686656 0.335637 0.171283
0.0789044 0.336843 0.17203
0.0889448 0.337789 0.172625
0.105333 0.339712 0.173465
0.121859 0.341878 0.174411
0.142382 0.344503 0.175006
0.163775 0.347219 0.17554
0.189899 0.350683 0.175479
0.217502 0.35404 0.174929
0.246601 0.357671 0.174365
0.277394 0.361288 0.173556
0.3093 0.36437 0.171374
0.342504 0.366506 0.167346
0.376181 0.368383 0.1626
0.4094 0.368734 0.155886
0.442191 0.36875 0.149142
0.473167 0.368811 0.143069
0.504219 0.368872 0.137179
0.532387 0.369085 0.13521
0.560265 0.369039 0.13312
0.585443 0.368719 0.134386
0.610452 0.368658 0.135988
0.633539 0.368811 0.138949
0.656565 0.369039 0.142351
0.678431 0.369711 0.146334
0.699702 0.37026 0.150561
0.720333 0.371496 0.155962
0.740459 0.373816 0.162478
0.760342 0.378943 0.173846
0.779858 0.388418 0.192752
0.794324 0.395438 0.20676
0.0753338 0.364446 0.188617
0.0777752 0.36463 0.188785
0.0811475 0.365148 0.189166
0.0905776 0.365896 0.189593
0.10013 0.366888 0.190173
0.11577 0.368963 0.191073
0.131563 0.371084 0.192004
0.151507 0.374044 0.192996
0.172152 0.376867 0.193805
0.197162 0.379889 0.193652
0.223835 0.383276 0.193347
0.252399 0.386877 0.192767
0.282445 0.390631 0.192035
0.313054 0.394125 0.190677
0.344579 0.396536 0.187961
0.376486 0.398703 0.184512
0.409171 0.399756 0.179034
0.441596 0.400626 0.173251
0.474311 0.400702 0.16585
0.507164 0.401022 0.158709
0.536233 0.400427 0.153994
0.565332 0.400092 0.149462
0.590982 0.399695 0.148425
0.616068 0.399298 0.147768
0.639597 0.398901 0.148714
0.662409 0.398764 0.15021
0.68397 0.398367 0.152621
0.704967 0.398337 0.155657
0.725383 0.399451 0.16083
0.745235 0.401679 0.168078
0.764843 0.406577 0.180194
0.784024 0.415915 0.200397
0.798581 0.422995 0.215686
0.0880293 0.393759 0.206332
0.0903639 0.393942 0.206561
0.0933242 0.394186 0.20679
0.102281 0.395193 0.20734
0.111406 0.396216 0.207874
0.126223 0.39823 0.208743
0.141299 0.400275 0.209644
0.160357 0.403067 0.210681
0.18027 0.406012 0.211749
0.204532 0.409323 0.212009
0.230533 0.412787 0.211902
0.25832 0.416327 0.211368
0.287633 0.419928 0.210498
0.31693 0.423331 0.209552
0.346502 0.426474 0.20853
0.376837 0.429221 0.206546
0.408682 0.430976 0.202411
0.441108 0.432486 0.197559
0.475593 0.432578 0.18883
0.509712 0.432639 0.180209
0.540047 0.432029 0.173175
0.570382 0.431418 0.166125
0.59649 0.430701 0.162722
0.622095 0.429969 0.159777
0.645472 0.429038 0.158648
0.668147 0.428061 0.158099
0.689418 0.427298 0.159014
0.710124 0.426688 0.160815
0.730465 0.42742 0.165682
0.750057 0.429557 0.173693
0.76939 0.434226 0.186526
0.788235 0.443442 0.208026
0.802792 0.450355 0.224598
0.101106 0.423072 0.224857
0.103273 0.423239 0.225055
0.105882 0.423484 0.225269
0.114519 0.42446 0.225818
0.123049 0.425208 0.226184
0.13756 0.427375 0.227192
0.152239 0.429343 0.228046
0.170779 0.432044 0.229053
0.190234 0.434928 0.230106
0.213306 0.438132 0.230594
0.238651 0.441566 0.230869
0.265599 0.444984 0.230533
0.294087 0.448402 0.229679
0.322774 0.451743 0.228809
0.351766 0.454948 0.227878
0.381125 0.457649 0.226291
0.411658 0.46009 0.223713
0.442542 0.462104 0.220371
0.475837 0.462913 0.213458
0.508858 0.463722 0.206607
0.540734 0.462898 0.198032
0.572335 0.462333 0.189776
0.599634 0.461509 0.183917
0.626307 0.460349 0.178149
0.650217 0.459052 0.174609
0.673167 0.45771 0.171847
0.694545 0.45658 0.170825
0.71516 0.455344 0.170871
0.735576 0.456031 0.175128
0.754757 0.45803 0.18352
0.773846 0.462394 0.196658
0.792386 0.47126 0.218769
0.807034 0.47805 0.236194
0.114107 0.452125 0.243305
0.116136 0.452323 0.243519
0.118471 0.452537 0.243702
0.126818 0.453727 0.244419
0.135134 0.454673 0.244968
0.149035 0.456489 0.245762
0.163394 0.458381 0.246586
0.181369 0.460746 0.247379
0.200259 0.463508 0.248341
0.222797 0.466896 0.249256
0.246769 0.470207 0.249882
0.272831 0.473487 0.249775
0.30071 0.476509 0.248829
0.328908 0.479744 0.247944
0.357534 0.482948 0.246921
0.386206 0.486229 0.245991
0.414908 0.488838 0.244663
0.444007 0.491325 0.242924
0.475731 0.492714 0.238102
0.507729 0.494362 0.233417
0.540871 0.493935 0.224125
0.57377 0.493736 0.215061
0.602365 0.492302 0.206317
0.630243 0.4907 0.19765
0.654734 0.488807 0.191485
0.677806 0.487144 0.186496
0.699763 0.485908 0.183581
0.720409 0.484565 0.181949
0.740337 0.484703 0.185138
0.759411 0.486366 0.193957
0.778241 0.49041 0.207294
0.796506 0.498909 0.229938
0.811307 0.50602 0.248356
0.127947 0.481117 0.262074
0.129854 0.4813 0.262226
0.131975 0.481514 0.262425
0.13994 0.482612 0.263096
0.147601 0.483238 0.263462
0.160876 0.484916 0.264225
0.174701 0.486686 0.264973
0.19237 0.489143 0.265888
0.211231 0.492042 0.267018
0.233066 0.495064 0.267857
0.256535 0.498085 0.268498
0.281666 0.501244 0.268635
0.30901 0.504417 0.268086
0.336614 0.507576 0.267384
0.365118 0.510979 0.266453
0.393332 0.513802 0.265217
0.42118 0.516503 0.26421
0.449302 0.519127 0.262989
0.479255 0.52108 0.259937
0.509728 0.523293 0.257069
0.541863 0.523491 0.2495
0.573526 0.523384 0.241733
0.602777 0.522148 0.232593
0.63151 0.520653 0.223163
0.656901 0.518791 0.215106
0.681422 0.51696 0.20766
0.703761 0.515175 0.202365
0.724636 0.513344 0.198611
0.744686 0.513268 0.200412
0.763668 0.515084 0.209033
0.782361 0.518807 0.221988
0.800397 0.527031 0.244846
0.815213 0.533379 0.263447
0.141939 0.509758 0.28072
0.143984 0.510414 0.281178
0.145846 0.510369 0.281163
0.153124 0.511131 0.281651
0.160403 0.511894 0.282155
0.172992 0.51342 0.282841
0.186221 0.515053 0.283574
0.203494 0.517357 0.284459
0.222049 0.51989 0.285389
0.24361 0.52282 0.28629
0.266773 0.525979 0.287175
0.291508 0.529107 0.287541
0.317922 0.532189 0.287373
0.344884 0.535271 0.286839
0.373175 0.538399 0.28571
0.401251 0.541436 0.284581
0.428595 0.544121 0.283497
0.455802 0.546731 0.282399
0.484245 0.548852 0.280735
0.512474 0.550973 0.279057
0.542565 0.551934 0.274189
0.572747 0.55285 0.269184
0.60238 0.55201 0.260487
0.631632 0.550805 0.251118
0.658671 0.548974 0.24126
0.684215 0.546288 0.230777
0.707362 0.544198 0.223102
0.728618 0.542397 0.217487
0.748882 0.542107 0.21767
0.767987 0.544106 0.226001
0.786358 0.547265 0.238132
0.80412 0.554681 0.260731
0.819059 0.560922 0.279744
0.157015 0.538506 0.299336
0.15874 0.538674 0.299458
0.160479 0.538842 0.29958
0.167407 0.539528 0.300023
0.174334 0.5402 0.30045
0.186282 0.541573 0.301106
0.1991 0.543038 0.301808
0.215641 0.545113 0.302632
0.233707 0.547417 0.303517
0.254704 0.550179 0.304433
0.277653 0.553262 0.305348
0.301976 0.556527 0.306035
0.327794 0.559365 0.305943
0.354253 0.562402 0.305669
0.381918 0.565423 0.304692
0.409689 0.568399 0.30367
0.436912 0.571038 0.30248
0.464179 0.573877 0.301442
0.490913 0.575769 0.300191
0.517723 0.577874 0.299107
0.546044 0.579217 0.29604
0.574472 0.580499 0.292851
0.603449 0.580285 0.286015
0.632288 0.57969 0.27837
0.659144 0.577996 0.268803
0.685374 0.575753 0.258167
0.709392 0.573571 0.249012
0.731487 0.571435 0.241123
0.752483 0.57084 0.239429
0.77145 0.572503 0.246876
0.789868 0.57554 0.258045
0.80737 0.582345 0.279759
0.822538 0.588235 0.298558
0.172519 0.566812 0.317586
0.174136 0.566949 0.317708
0.175784 0.567102 0.317845
0.182376 0.567697 0.318196
0.189105 0.568322 0.318578
0.200565 0.569512 0.319188
0.212711 0.570809 0.319844
0.228656 0.572625 0.320623
0.246082 0.574655 0.321447
0.266407 0.577203 0.322316
0.288808 0.580133 0.323232
0.312581 0.583124 0.323842
0.338247 0.586191 0.324132
0.364096 0.589166 0.324102
0.391455 0.592126 0.323415
0.418799 0.594995 0.322606
0.446342 0.59762 0.321233
0.47335 0.600153 0.31989
0.499107 0.602182 0.318883
0.52488 0.604196 0.317861
0.551461 0.605661 0.31606
0.578347 0.607065 0.314168
0.605493 0.607553 0.310018
0.632532 0.607797 0.305303
0.659342 0.60679 0.297429
0.685878 0.605112 0.287877
0.710704 0.602991 0.277943
0.734112 0.600427 0.267597
0.755718 0.599512 0.263966
0.774838 0.601083 0.270649
0.793332 0.6038 0.280674
0.810559 0.609979 0.300984
0.825788 0.615427 0.318929
0.18883 0.594583 0.335348
0.190494 0.594919 0.335607
0.191913 0.594812 0.335592
0.19826 0.595575 0.33608
0.204685 0.596139 0.3364
0.215579 0.597208 0.336996
0.227222 0.598367 0.337636
0.242405 0.599771 0.338231
0.259236 0.601617 0.339025
0.279011 0.604166 0.340002
0.300816 0.606867 0.340841
0.324117 0.609689 0.341466
0.349264 0.612451 0.341665
0.375006 0.615381 0.341741
0.402182 0.618433 0.341375
0.429068 0.621195 0.340703
0.455894 0.623652 0.339345
0.482872 0.626108 0.338003
0.507942 0.628031 0.336965
0.533013 0.629969 0.335912
0.558389 0.63151 0.334859
0.583551 0.63299 0.333806
0.608942 0.633875 0.331487
0.634668 0.634623 0.328771
0.660594 0.634043 0.322774
0.686702 0.633249 0.315358
0.711666 0.631571 0.306325
0.735531 0.629221 0.295857
0.757961 0.628214 0.291203
0.777295 0.629236 0.296208
0.796231 0.631495 0.304631
0.813458 0.637247 0.323674
0.828672 0.642145 0.340322
0.206226 0.622263 0.352911
0.207797 0.622599 0.353185
0.209247 0.62269 0.353292
0.215045 0.623178 0.353628
0.221057 0.623667 0.353979
0.231174 0.624414 0.354421
0.24239 0.625498 0.355032
0.257343 0.627268 0.355932
0.273671 0.628977 0.35671
0.292515 0.631052 0.357458
0.313664 0.633433 0.358206
0.33637 0.635798 0.358602
0.361471 0.638636 0.358846
0.387259 0.641657 0.35903
0.413626 0.644343 0.358557
0.439796 0.646952 0.357992
0.466148 0.649012 0.356664
0.492576 0.651286 0.355489
0.517296 0.653132 0.354314
0.542107 0.655177 0.353292
0.566339 0.656748 0.352514
0.590219 0.658061 0.351659
0.61416 0.659098 0.350317
0.638376 0.659983 0.348745
0.66302 0.66041 0.345373
0.687861 0.660197 0.340597
0.712322 0.659327 0.33402
0.736355 0.657511 0.325292
0.759045 0.656733 0.320912
0.779171 0.657481 0.324163
0.798795 0.659358 0.330709
0.815763 0.664103 0.347478
0.831159 0.668177 0.362524
0.224445 0.649638 0.369985
0.225986 0.649943 0.37023
0.227207 0.649821 0.370199
0.232685 0.650263 0.370535
0.238468 0.650721 0.370901
0.248325 0.651637 0.371435
0.259449 0.652903 0.372183
0.273747 0.654322 0.372869
0.289387 0.655695 0.37348
0.307759 0.657588 0.374182
0.328283 0.659709 0.374853
0.350393 0.662043 0.375326
0.375204 0.664881 0.375647
0.399863 0.667231 0.37554
0.425254 0.669673 0.375097
0.450889 0.672084 0.374578
0.476646 0.674189 0.373571
0.502693 0.676493 0.372702
0.526802 0.678218 0.371496
0.551049 0.679774 0.370138
0.574411 0.681315 0.369497
0.597192 0.682811 0.368963
0.620096 0.683955 0.368277
0.643198 0.685176 0.367697
0.666529 0.685756 0.365774
0.689937 0.685878 0.362982
0.71368 0.685634 0.358541
0.737499 0.684764 0.352117
0.760403 0.684337 0.348516
0.780941 0.685039 0.350729
0.800717 0.686061 0.355322
0.817533 0.690105 0.370611
0.833356 0.693904 0.384985
0.244007 0.676463 0.386252
0.24538 0.67657 0.386343
0.246769 0.676661 0.386435
0.25211 0.677119 0.38674
0.257877 0.677592 0.387076
0.267689 0.678492 0.387594
0.278584 0.679515 0.388144
0.292531 0.680858 0.388769
0.308278 0.682368 0.389425
0.326177 0.684108 0.390066
0.346395 0.686305 0.390829
0.367193 0.688136 0.39115
0.390448 0.690394 0.391348
0.413855 0.692592 0.391379
0.437995 0.694682 0.390936
0.462425 0.696757 0.390433
0.487648 0.698894 0.3897
0.512291 0.700587 0.388693
0.536141 0.702235 0.387625
0.559976 0.703883 0.386557
0.58262 0.705318 0.385809
0.605051 0.706737 0.385122
0.627207 0.707912 0.384634
0.649012 0.70898 0.384207
0.671031 0.709682 0.383047
0.693523 0.710109 0.381353
0.716213 0.710231 0.378531
0.739178 0.709972 0.374334
0.761532 0.710018 0.372137
0.782071 0.710704 0.374197
0.801938 0.711925 0.378714
0.818845 0.715404 0.393439
0.83505 0.718532 0.40734
0.264317 0.70277 0.402014
0.265858 0.703105 0.402228
0.267247 0.703212 0.402319
0.272435 0.703655 0.402594
0.278096 0.704128 0.402884
0.287694 0.704997 0.403326
0.298466 0.705974 0.403845
0.312078 0.707225 0.404395
0.327489 0.708629 0.40499
0.34493 0.710231 0.405585
0.363943 0.711986 0.406134
0.384054 0.713802 0.406577
0.405951 0.715709 0.40679
0.427817 0.717556 0.406851
0.450843 0.719142 0.406302
0.474403 0.721141 0.405951
0.498451 0.722881 0.405188
0.522286 0.724605 0.404456
0.545556 0.726131 0.403525
0.568795 0.727657 0.402609
0.591134 0.729015 0.401785
0.613062 0.730327 0.400977
0.634241 0.731487 0.400565
0.654948 0.73257 0.400336
0.676112 0.733349 0.399756
