iOSLOG2LUTConverter/Resources/Secondary LUTS/RICH UMBER.cube
TITLE "Generated by Resolve"
LUT_3D_SIZE 5
0.00376898 0.00321965 0.0040589
0.132876 0.0245212 0.0202487
0.378866 0.0537423 0.0342718
0.696941 0.0999161 0.0573892
0.927718 0.12166 0.0763409
0.0298466 0.105318 0.0142367
0.161242 0.138048 0.0225986
0.442588 0.205966 0.0383154
0.736782 0.277546 0.0640879
0.939284 0.305928 0.0863203
0.0899062 0.255818 0.0317082
0.253513 0.305669 0.0336767
0.485481 0.392111 0.0552224
0.768429 0.486641 0.0828412
0.954818 0.503075 0.103578
0.229938 0.457191 0.0712444
0.386786 0.502602 0.0679789
0.552316 0.574578 0.0582437
0.762875 0.652857 0.0799115
0.961013 0.712093 0.138842
0.361898 0.646937 0.118547
0.518151 0.691341 0.0958724
0.655634 0.766049 0.0708934
0.785901 0.841947 0.0837873
0.939071 0.889418 0.144472
0.00755322 0.0117342 0.082063
0.105196 0.0253605 0.105364
0.337255 0.0424659 0.134554
0.655055 0.0808118 0.191241
0.913619 0.107454 0.228031
0.014435 0.109972 0.111147
0.12459 0.134173 0.128923
0.440604 0.183734 0.147799
0.742229 0.2309 0.173816
0.943618 0.24564 0.183566
0.0518044 0.25182 0.138766
0.205341 0.293416 0.131456
0.47628 0.399329 0.166079
0.775158 0.485725 0.201297
0.95433 0.49778 0.223499
0.147417 0.436255 0.180835
0.333516 0.482383 0.162722
0.533913 0.570962 0.161685
0.756161 0.66125 0.17792
0.960037 0.718273 0.267033
0.288396 0.634958 0.217243
0.485451 0.684977 0.200641
0.639658 0.759884 0.187213
0.782849 0.845518 0.173312
0.943236 0.900313 0.244022
0.014313 0.0303349 0.179446
0.0852369 0.0395819 0.199557
0.248127 0.0603342 0.234241
0.541695 0.0744488 0.288304
0.863996 0.11249 0.394751
0.0152132 0.133837 0.220935
0.0850233 0.146563 0.241169
0.322652 0.184771 0.29044
0.64892 0.204746 0.344961
0.916274 0.233936 0.420401
0.0319371 0.286473 0.292653
0.111147 0.312612 0.319677
0.405158 0.405035 0.380346
0.766659 0.448783 0.415229
0.949325 0.456565 0.421241
0.098909 0.458839 0.370748
0.200183 0.488685 0.375509
0.482185 0.573663 0.359823
0.759213 0.686595 0.400732
0.964157 0.716747 0.439979
0.199252 0.653712 0.413169
0.373297 0.692668 0.370001
0.617517 0.765072 0.349279
0.784726 0.855573 0.345449
0.947265 0.9131 0.362051
0.0204776 0.0552529 0.286259
0.0801556 0.0634775 0.301717
0.191379 0.0870527 0.340734
0.446113 0.0970779 0.361593
0.728069 0.116014 0.449042
0.0220951 0.165667 0.335927
0.0820935 0.175723 0.352819
0.20618 0.223255 0.422858
0.527626 0.229114 0.431373
0.818769 0.256641 0.526421
0.0252842 0.342428 0.429099
0.0926833 0.36257 0.45687
0.229129 0.431937 0.541207
0.658167 0.476539 0.579919
0.904646 0.477684 0.629038
0.0841382 0.541299 0.57142
0.152773 0.56228 0.595315
0.290089 0.62359 0.648066
0.724208 0.701122 0.65481
0.952895 0.716457 0.683818
0.136446 0.733852 0.6692
0.23357 0.756191 0.673869
0.470878 0.801114 0.659709
0.759625 0.857679 0.626963
0.947265 0.921263 0.603387
0.0244755 0.0909743 0.40676
0.0822309 0.098146 0.419059
0.169192 0.136263 0.474189
0.432868 0.1664 0.514214
0.662684 0.155795 0.508186
0.0263371 0.212085 0.46978
0.0840009 0.223667 0.487892
0.17409 0.268086 0.550729
0.473091 0.317968 0.606699
0.74197 0.312657 0.59295
0.0261997 0.401587 0.581048
0.0916915 0.420569 0.605234
0.18793 0.473915 0.665843
0.529992 0.530465 0.736904
0.824353 0.53283 0.71928
0.0604105 0.631022 0.727687
0.129915 0.64686 0.745068
0.253651 0.682567 0.788342
0.638483 0.732525 0.815641
0.880156 0.742992 0.814817
0.14255 0.80238 0.846494
0.22681 0.817319 0.859144
0.339986 0.837659 0.872129
0.705837 0.874022 0.858259
0.905486 0.897063 0.859358
