iOSLOG2LUTConverter/Resources/Secondary LUTS/RICH UMBER.cube
TITLE "Generated by Resolve"
LUT_3D_SIZE 9
0.00376898 0.00321965 0.0040589
0.0580148 0.0126497 0.0126497
0.132876 0.0245212 0.0202487
0.243565 0.0380865 0.0269169
0.378866 0.0537423 0.0342718
0.534524 0.0749523 0.0432441
0.696941 0.0999161 0.0573892
0.830411 0.11603 0.0724651
0.927718 0.12166 0.0763409
0.0117189 0.0497444 0.00762951
0.065568 0.0607919 0.0144961
0.148425 0.0760052 0.0217594
0.271031 0.0976425 0.0262913
0.409537 0.1196 0.0348211
0.565225 0.15227 0.0453803
0.719676 0.183215 0.0615549
0.844831 0.20325 0.0768749
0.935012 0.210986 0.0852064
0.0298466 0.105318 0.0142367
0.0794385 0.11603 0.0179446
0.161242 0.138048 0.0225986
0.30042 0.176043 0.028809
0.442588 0.205966 0.0383154
0.592248 0.244129 0.0500191
0.736782 0.277546 0.0640879
0.854612 0.298528 0.0772106
0.939284 0.305928 0.0863203
0.0524453 0.17116 0.0224765
0.104646 0.183551 0.023331
0.19176 0.212604 0.0262303
0.327214 0.25861 0.035523
0.469062 0.303746 0.0485695
0.613886 0.345602 0.0597848
0.752392 0.379919 0.0715343
0.865614 0.397848 0.0813764
0.946532 0.401862 0.0886702
0.0899062 0.255818 0.0317082
0.160174 0.273442 0.0315557
0.253513 0.305669 0.0336767
0.361669 0.347524 0.0399176
0.485481 0.392111 0.0552224
0.629892 0.445289 0.0702983
0.768429 0.486641 0.0828412
0.878584 0.503258 0.0929122
0.954818 0.503075 0.103578
0.155642 0.356207 0.0498512
0.235431 0.375128 0.0480659
0.32285 0.405325 0.0482948
0.412909 0.443473 0.0516365
0.511086 0.480842 0.0563058
0.633478 0.526436 0.0685435
0.774273 0.581186 0.0877394
0.88806 0.607843 0.106462
0.961364 0.607706 0.12546
0.229938 0.457191 0.0712444
0.306813 0.475334 0.0694896
0.386786 0.502602 0.0679789
0.469139 0.538674 0.0656291
0.552316 0.574578 0.0582437
0.646571 0.606394 0.0612345
0.762875 0.652857 0.0799115
0.881331 0.700938 0.107851
0.961013 0.712093 0.138842
0.294835 0.549569 0.0929274
0.371496 0.567956 0.0889296
0.449805 0.594842 0.083711
0.527916 0.630594 0.0751049
0.603067 0.669505 0.0619974
0.677714 0.704143 0.0575418
0.764401 0.735042 0.0702831
0.861082 0.780133 0.102892
0.94966 0.809918 0.143328
0.361898 0.646937 0.118547
0.443091 0.664439 0.107637
0.518151 0.691341 0.0958724
0.587991 0.725872 0.0837415
0.655634 0.766049 0.0708934
0.721553 0.806119 0.0651102
0.785901 0.841947 0.0837873
0.858564 0.867552 0.109895
0.939071 0.889418 0.144472
0.00489815 0.00610361 0.0413672
0.0512703 0.0130617 0.0501411
0.12221 0.0233158 0.0621195
0.230243 0.0328679 0.0715038
0.363058 0.0442969 0.0813916
0.516365 0.0618296 0.096376
0.681422 0.0862898 0.121096
0.82266 0.102296 0.138537
0.923384 0.100557 0.131273
0.00831617 0.0515755 0.051133
0.0575723 0.060502 0.0575723
0.142382 0.0727092 0.0668498
0.267628 0.0868086 0.0701915
0.40737 0.104433 0.0774395
0.563622 0.131624 0.0903029
0.719432 0.157305 0.108583
0.844694 0.17525 0.12343
0.936339 0.182437 0.124865
0.019791 0.104341 0.0577859
0.066804 0.114015 0.060029
0.152255 0.136889 0.0671092
0.301472 0.173587 0.0755474
0.447913 0.200992 0.084062
0.60032 0.236255 0.0966812
0.74403 0.265492 0.112047
0.85861 0.283207 0.125368
0.941726 0.287816 0.130632
0.0398566 0.168948 0.0648356
0.0893721 0.179568 0.0634318
0.178012 0.209491 0.0661021
0.323659 0.260151 0.0776074
0.470603 0.305699 0.0974441
0.619242 0.344747 0.108766
0.757671 0.37615 0.120378
0.868238 0.391974 0.130632
0.947112 0.395636 0.138674
0.069337 0.249271 0.0729534
0.138735 0.265919 0.0717479
0.237858 0.299336 0.0721904
0.353353 0.3458 0.078996
0.481544 0.393973 0.0993515
0.630671 0.447852 0.120775
0.771023 0.487068 0.133944
0.879683 0.502113 0.144961
0.954299 0.502586 0.159457
0.125551 0.347066 0.0947738
0.2094 0.366079 0.0904402
0.306172 0.397955 0.0897078
0.403067 0.439536 0.0918746
0.504173 0.480858 0.097673
0.629435 0.529412 0.112902
0.774182 0.584131 0.13727
0.887007 0.610529 0.161898
0.959792 0.610407 0.186877
0.192981 0.446143 0.115343
0.278614 0.466041 0.112322
0.369589 0.494713 0.11017
0.458381 0.533578 0.108064
0.544411 0.574075 0.102907
0.641474 0.607721 0.100374
0.760723 0.655192 0.121126
0.878538 0.705379 0.161227
0.959884 0.715373 0.199756
0.262943 0.541741 0.138521
0.349065 0.561807 0.134356
0.435752 0.58909 0.129015
0.51722 0.626001 0.122774
0.596201 0.667308 0.109758
0.674632 0.704982 0.098024
0.761761 0.737499 0.109209
0.858763 0.783581 0.148684
0.949615 0.812863 0.197696
0.336049 0.644099 0.164614
0.423835 0.663432 0.155947
0.506569 0.688563 0.145769
0.578546 0.723018 0.136965
0.649866 0.763867 0.122332
0.719478 0.806424 0.111238
0.78471 0.844022 0.12459
0.858534 0.870649 0.149706
0.941176 0.894682 0.191669
0.00755322 0.0117342 0.082063
0.0466468 0.0160678 0.0912184
0.105196 0.0253605 0.105364
0.207004 0.0340124 0.119783
0.337255 0.0424659 0.134554
0.488472 0.0563821 0.156161
0.655055 0.0808118 0.191241
0.806058 0.100816 0.220356
0.913619 0.107454 0.228031
0.00961318 0.0575265 0.0972
0.0492714 0.0626688 0.10457
0.114626 0.0730297 0.117693
0.236271 0.0829633 0.129412
0.38027 0.0937972 0.140551
0.535088 0.11339 0.158511
0.694148 0.136538 0.187366
0.830594 0.153048 0.20795
0.928832 0.152605 0.202228
0.014435 0.109972 0.111147
0.0534218 0.116716 0.116106
0.12459 0.134173 0.128923
0.282933 0.162539 0.143404
0.440604 0.183734 0.147799
0.59649 0.209964 0.158999
0.742229 0.2309 0.173816
0.859083 0.244816 0.18526
0.943618 0.24564 0.183566
0.0276036 0.173098 0.124117
0.0686961 0.181476 0.126284
0.14725 0.206287 0.130922
0.309926 0.261646 0.146471
0.471809 0.306798 0.170321
0.624552 0.337011 0.17435
0.763012 0.362615 0.181201
0.870939 0.375357 0.190051
0.948425 0.377249 0.195651
0.0518044 0.25182 0.138766
0.104158 0.261845 0.135027
0.205341 0.293416 0.131456
0.336568 0.344411 0.139406
0.47628 0.399329 0.166079
0.631983 0.451408 0.191836
0.775158 0.485725 0.201297
0.881392 0.498024 0.21059
0.95433 0.49778 0.223499
0.0945296 0.342611 0.159091
0.163714 0.356786 0.148486
0.271641 0.388785 0.14461
0.384405 0.433387 0.147982
0.495216 0.481422 0.156817
0.624033 0.535348 0.177951
0.774395 0.590692 0.206943
0.887053 0.61323 0.232181
0.95964 0.610681 0.254139
0.147417 0.436255 0.180835
0.224598 0.452934 0.167391
0.333516 0.482383 0.162722
0.438926 0.524071 0.161425
0.533913 0.570962 0.161685
0.632349 0.611322 0.159594
0.756161 0.66125 0.17792
0.877806 0.711177 0.22565
0.960037 0.718273 0.267033
0.205814 0.52784 0.194736
0.29984 0.551171 0.187289
0.40296 0.578363 0.18117
0.499962 0.617029 0.176425
0.584222 0.662165 0.171954
0.667185 0.705562 0.158373
0.756542 0.74139 0.159457
0.857633 0.788281 0.2009
0.9505 0.816373 0.258122
0.288396 0.634958 0.217243
0.387243 0.659266 0.209934
0.485451 0.684977 0.200641
0.565347 0.718303 0.194842
0.639658 0.759884 0.187213
0.713756 0.805081 0.172259
0.782849 0.845518 0.173312
0.858549 0.87422 0.193713
0.943236 0.900313 0.244022
0.0108186 0.0201114 0.128283
0.0450752 0.0233005 0.136492
0.0924849 0.0308843 0.151247
0.170275 0.0412604 0.168872
0.298344 0.0477302 0.185214
0.443046 0.0563973 0.209155
0.607691 0.0756695 0.248859
0.773327 0.098024 0.293065
0.896147 0.113741 0.322271
0.0122988 0.0653697 0.145678
0.0460059 0.0684672 0.152544
0.0938735 0.0766918 0.166232
0.183902 0.0888685 0.184482
0.332509 0.0960403 0.198276
0.48365 0.108904 0.222217
0.647532 0.129915 0.260487
0.801862 0.150164 0.299474
0.915282 0.161379 0.31754
0.0128176 0.121447 0.166049
0.0460517 0.125765 0.172824
0.0965133 0.137331 0.188174
0.210422 0.15938 0.211749
0.395499 0.175616 0.226627
0.556161 0.191577 0.24686
0.710307 0.207294 0.275914
0.84152 0.220142 0.300008
0.935729 0.220035 0.301152
0.0207065 0.186023 0.190585
0.0540017 0.193271 0.195834
0.108156 0.21181 0.210727
0.250568 0.254108 0.23714
0.454902 0.297688 0.264424
0.616648 0.312856 0.267079
0.756313 0.327184 0.271275
0.867002 0.337133 0.28043
0.947173 0.339788 0.282353
0.0371252 0.262318 0.215061
0.0747387 0.271794 0.218845
0.146304 0.293584 0.228107
0.289433 0.343572 0.238117
0.468421 0.40972 0.267277
0.635264 0.451057 0.293431
0.776562 0.473732 0.29868
0.88159 0.48304 0.302449
0.954467 0.483818 0.306569
0.068986 0.348775 0.240726
0.11635 0.35993 0.243091
0.206455 0.385885 0.237064
0.341405 0.429847 0.235676
0.481971 0.486442 0.249439
0.623316 0.545037 0.277836
0.775708 0.597848 0.313313
0.888731 0.612421 0.325505
0.960342 0.6065 0.332982
0.118303 0.441169 0.268147
0.170275 0.453498 0.264042
0.262989 0.477577 0.245579
0.399573 0.518532 0.24007
0.520531 0.570718 0.245869
0.627604 0.620462 0.254307
0.753719 0.674342 0.274586
0.881056 0.718425 0.311696
0.961929 0.71989 0.344869
0.172534 0.534798 0.290455
0.23125 0.54612 0.274662
0.33669 0.572747 0.256382
0.468269 0.611093 0.247288
0.570901 0.659007 0.248661
0.659998 0.709224 0.249119
0.754131 0.751949 0.244297
0.860822 0.796811 0.267185
0.953063 0.820661 0.327214
0.240253 0.634867 0.304692
0.32575 0.65391 0.27982
0.444099 0.68423 0.267124
0.547387 0.716991 0.26067
0.629679 0.757855 0.259037
0.707759 0.804746 0.251316
0.782696 0.848737 0.240665
0.860502 0.879911 0.246494
0.944884 0.90631 0.300877
0.014313 0.0303349 0.179446
0.0457923 0.0331731 0.186099
0.0852369 0.0395819 0.199557
0.145998 0.0502022 0.216632
0.248127 0.0603342 0.234241
0.38822 0.0638132 0.252445
0.541695 0.0744488 0.288304
0.713405 0.0948806 0.344198
0.863996 0.11249 0.394751
0.0158846 0.0754406 0.196933
0.0464179 0.0779278 0.20264
0.0846113 0.0850996 0.215
0.149111 0.0991684 0.235523
0.271748 0.110216 0.25362
0.422858 0.114061 0.268986
0.57705 0.127291 0.305943
0.745251 0.147463 0.360418
0.888334 0.166934 0.407553
0.0152132 0.133837 0.220935
0.0466621 0.137026 0.227756
0.0850233 0.146563 0.241169
0.156771 0.167346 0.26865
0.322652 0.184771 0.29044
0.491981 0.193164 0.310018
0.64892 0.204746 0.344961
0.799146 0.219455 0.389151
0.916274 0.233936 0.420401
0.0161746 0.207462 0.250248
0.0479591 0.213291 0.258412
0.0894331 0.227375 0.277378
0.173556 0.257832 0.311833
0.375708 0.293309 0.345205
0.568154 0.310765 0.364096
0.718425 0.314534 0.386831
0.844846 0.319585 0.411231
0.93492 0.330053 0.424475
0.0319371 0.286473 0.292653
0.0643778 0.294102 0.299733
0.111147 0.312612 0.319677
0.202716 0.350393 0.352956
0.405158 0.405035 0.380346
0.61883 0.443519 0.404837
0.766659 0.448783 0.415229
0.874266 0.451728 0.418341
0.949325 0.456565 0.421241
0.0605173 0.369589 0.335851
0.0963302 0.378515 0.341665
0.148928 0.399268 0.35462
0.249104 0.435065 0.370123
0.432471 0.490257 0.373114
0.619806 0.557382 0.401724
0.778714 0.595209 0.435706
0.889387 0.599161 0.440909
0.959564 0.593393 0.437125
0.098909 0.458839 0.370748
0.139315 0.468681 0.372427
0.200183 0.488685 0.375509
0.305913 0.522087 0.368643
0.482185 0.573663 0.359823
0.624109 0.631601 0.375616
0.759213 0.686595 0.400732
0.886473 0.721813 0.42826
0.964157 0.716747 0.439979
0.14403 0.553643 0.396201
0.189593 0.562478 0.39234
0.264485 0.582284 0.382391
0.392096 0.615869 0.358877
0.549813 0.663859 0.350561
0.656825 0.717494 0.361669
0.758511 0.766857 0.364126
0.868284 0.808164 0.369345
0.957336 0.824277 0.412039
0.199252 0.653712 0.413169
0.268711 0.668315 0.400626
0.373297 0.692668 0.370001
0.510491 0.727855 0.350729
0.617517 0.765072 0.349279
0.703868 0.810056 0.352972
0.784726 0.855573 0.345449
0.865599 0.88954 0.329549
0.947265 0.9131 0.362051
0.0175937 0.0421302 0.232502
0.047425 0.044831 0.238254
0.0813306 0.0505684 0.249561
0.132876 0.0608225 0.266468
0.212604 0.0719615 0.283635
0.344305 0.0763561 0.298665
0.480232 0.0816968 0.31873
0.637385 0.0950637 0.369192
0.803464 0.112459 0.43566
0.0188907 0.0879835 0.249714
0.0484932 0.0904555 0.255039
0.0814069 0.0970474 0.265934
0.132509 0.111742 0.287587
0.224979 0.127291 0.310033
0.372854 0.129229 0.318196
0.512047 0.132372 0.337575
0.668101 0.147723 0.389105
0.833936 0.169299 0.45832
0.019501 0.147997 0.277134
0.049012 0.151568 0.282918
0.0815747 0.159442 0.294453
0.134112 0.178805 0.323171
0.248768 0.203647 0.357565
0.431907 0.209247 0.363516
0.576516 0.209705 0.38323
0.727962 0.221118 0.431052
0.876738 0.2439 0.492134
0.0179141 0.226642 0.312154
0.0480049 0.232242 0.31931
0.0823835 0.243885 0.335409
0.139223 0.268406 0.370993
0.277028 0.302693 0.417731
0.494377 0.321996 0.431128
0.660288 0.323323 0.451926
0.799588 0.325628 0.48838
0.910735 0.341817 0.523461
0.0280308 0.315755 0.360403
0.0590372 0.322606 0.368292
0.098558 0.339284 0.389731
0.160586 0.371435 0.428641
0.295949 0.413657 0.47361
0.544884 0.446845 0.494179
0.722728 0.455589 0.512932
0.846784 0.451789 0.534432
0.934249 0.455802 0.545815
0.0572976 0.403372 0.421271
0.0895094 0.410376 0.428748
0.130892 0.427024 0.446662
0.194095 0.459846 0.478614
0.32987 0.506828 0.512703
0.573083 0.55935 0.522972
0.759197 0.591516 0.553872
0.878477 0.587167 0.563043
0.954955 0.578408 0.552956
0.0926375 0.49247 0.476127
0.125795 0.500725 0.481865
0.16788 0.51783 0.492256
0.234577 0.545983 0.509316
0.373541 0.586038 0.517571
0.595926 0.64155 0.509789
0.755245 0.69778 0.538476
0.88661 0.721569 0.566278
0.964141 0.708125 0.556664
0.123308 0.58822 0.515663
0.159884 0.596323 0.517525
0.209934 0.611215 0.520272
0.296559 0.636439 0.519692
0.462165 0.676051 0.50074
0.637324 0.725795 0.495415
0.759701 0.776486 0.507485
0.873686 0.815122 0.511604
0.961578 0.824842 0.529976
0.162188 0.689296 0.543923
0.212909 0.699138 0.538384
0.289235 0.71577 0.527703
0.415 0.745556 0.504891
0.570443 0.781857 0.482155
0.689662 0.816571 0.483238
0.781491 0.858412 0.485069
0.867475 0.896605 0.459663
0.949722 0.919951 0.463081
0.0204776 0.0552529 0.286259
0.0494698 0.0578927 0.291554
0.0801556 0.0634775 0.301717
0.122881 0.0745708 0.319936
0.191379 0.0870527 0.340734
0.311925 0.094667 0.354253
0.446113 0.0970779 0.361593
0.579599 0.103258 0.390448
0.728069 0.116014 0.449042
0.0217288 0.103288 0.305272
0.0507057 0.105714 0.310201
0.0814527 0.112047 0.320409
0.122606 0.126665 0.342611
0.196475 0.14725 0.37348
0.339666 0.151843 0.383734
0.473991 0.148226 0.383413
0.604547 0.153536 0.409506
0.762783 0.173907 0.476661
0.0220951 0.165667 0.335927
0.0510414 0.169039 0.341833
0.0820935 0.175723 0.352819
0.124804 0.192767 0.380056
0.20618 0.223255 0.422858
0.377218 0.236011 0.440528
0.527626 0.229114 0.431373
0.661402 0.229557 0.454505
0.818769 0.256641 0.526421
0.0201724 0.246601 0.377157
0.0500649 0.251469 0.385245
0.0818189 0.260853 0.399619
0.126635 0.281453 0.428412
0.21529 0.318166 0.48069
0.407523 0.344182 0.510979
0.602029 0.346273 0.504265
0.737728 0.340749 0.527031
0.86656 0.360861 0.580453
0.0252842 0.342428 0.429099
0.0566567 0.348623 0.438102
0.0926833 0.36257 0.45687
0.142229 0.39176 0.490501
0.229129 0.431937 0.541207
0.435981 0.463188 0.579507
0.658167 0.476539 0.579919
0.798688 0.471794 0.599954
0.904646 0.477684 0.629038
0.0506142 0.442237 0.496635
0.0829633 0.450278 0.505821
0.120851 0.466758 0.526162
0.171664 0.499107 0.561944
0.256519 0.538628 0.602899
0.475807 0.576349 0.630884
0.700938 0.600809 0.635676
0.840421 0.602365 0.65156
0.934234 0.594827 0.659648
0.0841382 0.541299 0.57142
0.116365 0.549065 0.57995
0.152773 0.56228 0.595315
0.197772 0.588251 0.618296
0.290089 0.62359 0.648066
0.520104 0.663874 0.655604
0.724208 0.701122 0.65481
0.866987 0.722637 0.682994
0.952895 0.716457 0.683818
0.110185 0.640131 0.632654
0.141985 0.647288 0.637034
0.178347 0.659236 0.644694
0.231754 0.678553 0.656321
0.353735 0.707637 0.666987
0.570596 0.744106 0.649073
0.740307 0.782223 0.644251
0.866087 0.820676 0.655711
0.960632 0.832197 0.671107
0.136446 0.733852 0.6692
0.176104 0.742947 0.67155
0.23357 0.756191 0.673869
0.326116 0.775555 0.673777
0.470878 0.801114 0.659709
0.63772 0.829938 0.636896
0.759625 0.857679 0.626963
0.858579 0.89337 0.611597
0.947265 0.921263 0.603387
0.0229038 0.0713664 0.343786
0.0514687 0.0736248 0.348318
0.0809186 0.0789349 0.357717
0.117113 0.0907149 0.376196
0.176471 0.109102 0.406851
0.286473 0.121996 0.42855
0.434638 0.119707 0.429297
0.554818 0.122332 0.433799
0.675639 0.12874 0.466056
0.0238804 0.121981 0.365301
0.0525978 0.124331 0.370153
0.0827649 0.130831 0.380362
0.117983 0.144396 0.401541
0.177386 0.170642 0.440497
0.309377 0.185946 0.464408
0.457938 0.176806 0.461906
0.58204 0.176913 0.453895
0.70956 0.188342 0.494972
0.0245212 0.186908 0.399893
0.0531319 0.190234 0.406348
0.0834974 0.196628 0.417548
0.120989 0.212741 0.442206
0.181552 0.244297 0.486137
0.325307 0.2701 0.520699
0.497993 0.265858 0.513649
0.629694 0.256382 0.5028
0.763653 0.273854 0.547494
0.0231327 0.268666 0.446769
0.0526284 0.273472 0.454536
0.082948 0.283009 0.46746
0.121096 0.30132 0.491402
0.188052 0.336446 0.540536
0.332601 0.371298 0.591058
0.547631 0.381247 0.589029
0.692393 0.371847 0.576532
0.815503 0.383398 0.61117
0.0246586 0.370123 0.501961
0.0560006 0.376318 0.511376
0.0898146 0.388617 0.527687
0.133181 0.412757 0.557565
0.197421 0.450706 0.60116
0.351171 0.487449 0.65275
0.591058 0.502647 0.659388
0.749783 0.502174 0.651896
0.860105 0.505287 0.675151
0.0434119 0.483757 0.576364
0.0767224 0.491707 0.587015
0.111696 0.506691 0.6038
0.155215 0.53344 0.632197
0.221012 0.564828 0.669062
0.390494 0.599161 0.702998
0.636164 0.617639 0.711681
0.790356 0.622553 0.708782
0.893629 0.621302 0.724498
0.0704967 0.591882 0.656794
0.103746 0.599588 0.665873
0.138872 0.611994 0.679927
0.183536 0.633326 0.702708
0.259464 0.661357 0.731426
0.454734 0.692729 0.754513
0.68043 0.716976 0.747936
0.820447 0.728893 0.750607
0.918471 0.734829 0.765667
0.102312 0.688579 0.731823
0.134874 0.695735 0.737011
0.170092 0.706142 0.744121
0.218677 0.722179 0.756466
0.303227 0.745068 0.774685
0.504906 0.772 0.779767
0.705089 0.797482 0.762646
0.833921 0.817395 0.763729
0.935286 0.83447 0.791302
0.13341 0.776745 0.772946
0.172351 0.784268 0.777249
0.222293 0.795071 0.783566
0.282124 0.807752 0.790326
0.382239 0.822675 0.79292
0.550927 0.842313 0.778378
0.724041 0.865156 0.758862
0.838849 0.885847 0.758999
0.932967 0.914824 0.77142
0.0244755 0.0909743 0.40676
0.0531777 0.0925002 0.410101
0.0822309 0.098146 0.419059
0.115908 0.111864 0.43801
0.169192 0.136263 0.474189
0.274434 0.159442 0.512749
0.432868 0.1664 0.514214
0.557916 0.154147 0.517342
0.662684 0.155795 0.508186
0.0250401 0.144228 0.430335
0.0538796 0.146883 0.436042
0.0841535 0.154009 0.447257
0.117281 0.167407 0.466606
0.170382 0.195987 0.506706
0.286427 0.225086 0.551263
0.451881 0.232288 0.551217
0.589456 0.222034 0.545739
0.697566 0.222461 0.544472
0.0263371 0.212085 0.46978
0.0546426 0.216052 0.476646
0.0840009 0.223667 0.487892
0.11931 0.23888 0.509422
0.17409 0.268086 0.550729
0.286427 0.304356 0.603525
0.473091 0.317968 0.606699
0.629236 0.310445 0.604089
0.74197 0.312657 0.59295
0.0244297 0.295659 0.518349
0.0537881 0.300847 0.52636
0.0842298 0.311406 0.53991
0.121157 0.329305 0.563226
0.180621 0.362097 0.60621
0.290105 0.399588 0.66099
0.499809 0.420905 0.6748
0.674281 0.421698 0.663569
0.782727 0.417273 0.65481
0.0261997 0.401587 0.581048
0.0581521 0.40827 0.590173
0.0916915 0.420569 0.605234
0.130434 0.44123 0.62855
0.18793 0.473915 0.665843
0.305608 0.510262 0.713863
0.529992 0.530465 0.736904
0.718532 0.538598 0.726101
0.824353 0.53283 0.71928
0.0391089 0.52311 0.654917
0.0714733 0.530495 0.663706
0.106706 0.541588 0.678141
0.14789 0.560357 0.699809
0.206806 0.585443 0.727092
0.336599 0.615122 0.760754
0.58053 0.637308 0.782162
0.754696 0.645869 0.776852
0.853956 0.641489 0.769726
0.0604105 0.631022 0.727687
0.0943313 0.63743 0.734997
0.129915 0.64686 0.745068
0.175799 0.661723 0.76318
0.253651 0.682567 0.788342
0.420142 0.708629 0.812955
0.638483 0.732525 0.815641
0.784543 0.741054 0.814618
0.880156 0.742992 0.814817
0.0951705 0.721904 0.795132
0.131258 0.727474 0.801236
0.173205 0.735805 0.810254
0.230396 0.748562 0.824231
0.310842 0.765743 0.842115
0.478676 0.787045 0.853452
0.683864 0.810162 0.845487
0.81033 0.821851 0.842786
0.896742 0.828489 0.84445
0.14255 0.80238 0.846494
0.184039 0.808957 0.853193
0.22681 0.817319 0.859144
0.274235 0.827024 0.865965
0.339986 0.837659 0.872129
0.504967 0.853574 0.872023
0.705837 0.874022 0.858259
0.826154 0.887327 0.85417
0.905486 0.897063 0.859358
