iOSLOG2LUTConverter/Resources/Secondary LUTS/RICH UMBER.cube
TITLE "Generated by Resolve"
LUT_3D_SIZE 33
0.00376898 0.00321965 0.0040589
0.0174868 0.00549325 0.0061799
0.0305486 0.00787366 0.00833143
0.0433661 0.0100862 0.0102998
0.0580148 0.0126497 0.0126497
0.0735332 0.0153506 0.0146181
0.0905928 0.0181735 0.0165713
0.110674 0.0213321 0.0185397
0.132876 0.0245212 0.0202487
0.157458 0.0277409 0.0218357
0.184298 0.0311284 0.0234531
0.212604 0.0344549 0.0251011
0.243565 0.0380865 0.0269169
0.275517 0.0417639 0.0285954
0.308904 0.0456855 0.0305486
0.34258 0.049485 0.0322271
0.378866 0.0537423 0.0342718
0.414832 0.0581369 0.0363012
0.454047 0.0633097 0.0384222
0.493187 0.0686503 0.0404822
0.534524 0.0749523 0.0432441
0.576226 0.0816358 0.0460365
0.617044 0.0879683 0.0493172
0.657893 0.0943923 0.0533913
0.696941 0.0999161 0.0573892
0.733913 0.104891 0.0615854
0.768704 0.109071 0.065568
0.800137 0.112703 0.0692302
0.830411 0.11603 0.0724651
0.857069 0.118502 0.074464
0.883299 0.120699 0.0762036
0.905608 0.121187 0.0762798
0.927718 0.12166 0.0763409
0.00518807 0.015259 0.00491341
0.0186465 0.0174563 0.00672923
0.0316014 0.0197604 0.00875868
0.0446174 0.0219425 0.0106966
0.0595407 0.0247044 0.0130617
0.0755627 0.0272374 0.0150454
0.09337 0.0302281 0.0169833
0.114031 0.0334325 0.018677
0.136599 0.0367132 0.0202945
0.161898 0.0401312 0.0218051
0.189563 0.0436713 0.0233463
0.218433 0.0472419 0.0248264
0.24979 0.0510719 0.0267185
0.281956 0.0551003 0.0284733
0.315541 0.0591135 0.0302281
0.349676 0.0631418 0.0320134
0.386023 0.0679637 0.0340276
0.422263 0.0730602 0.0359808
0.461585 0.0790875 0.0378882
0.50103 0.0855421 0.0401923
0.542107 0.0930037 0.0430762
0.583352 0.100404 0.0464179
0.623972 0.107576 0.0501411
0.664424 0.114183 0.0543069
0.703197 0.119875 0.0585336
0.739681 0.124849 0.0628672
0.773999 0.12929 0.067155
0.80499 0.133043 0.070985
0.834791 0.136492 0.0744335
0.861082 0.138888 0.0767224
0.886824 0.141039 0.078645
0.908797 0.141649 0.0791028
0.930343 0.14226 0.0795453
0.00663767 0.0265354 0.00579843
0.019913 0.0288396 0.00750744
0.0327764 0.0312505 0.00915541
0.0461433 0.0336004 0.0112459
0.0613107 0.0363622 0.0134737
0.0777142 0.0389105 0.01561
0.0961013 0.0419623 0.0174716
0.117723 0.0452735 0.0190738
0.140612 0.0487373 0.0202792
0.166522 0.0522927 0.0217288
0.194812 0.0560769 0.0231785
0.22446 0.0600595 0.0247807
0.256214 0.0643626 0.0266117
0.288975 0.0689097 0.0282902
0.32282 0.073518 0.0300145
0.357015 0.0781872 0.0319066
0.393606 0.0840162 0.0339971
0.430076 0.0899214 0.0360571
0.469383 0.0970016 0.0382086
0.508934 0.104112 0.0407263
0.549599 0.112047 0.0437018
0.590463 0.119814 0.0472572
0.630854 0.127031 0.0512245
0.671016 0.133852 0.0555581
0.709361 0.139956 0.0599832
0.745449 0.145571 0.0644846
0.779553 0.150607 0.0688945
0.810346 0.154803 0.0729076
0.839689 0.15845 0.0765698
0.865476 0.161013 0.0790723
0.890425 0.163516 0.0812238
0.911788 0.164248 0.0820325
0.933028 0.164858 0.0828412
0.00891127 0.0378882 0.00669871
0.021973 0.0401617 0.00819409
0.0345769 0.0425727 0.00994888
0.0480964 0.0452277 0.0118715
0.063386 0.0480354 0.0140383
0.0799268 0.0508125 0.0157931
0.0987716 0.0542153 0.0175784
0.120806 0.0580301 0.0193637
0.14461 0.0618753 0.0209659
0.171496 0.0660563 0.0223239
0.200488 0.0704051 0.0236362
0.230762 0.0750439 0.0251011
0.263462 0.0804456 0.0265812
0.296544 0.085481 0.0281834
0.330449 0.0904402 0.0301213
0.364828 0.0956436 0.0322271
0.401389 0.101701 0.0343481
0.43801 0.108049 0.0364538
0.477348 0.115526 0.0387274
0.516991 0.12314 0.0413672
0.557214 0.131228 0.0444495
0.597894 0.139727 0.048249
0.638102 0.147631 0.0524453
0.677836 0.15491 0.0569314
0.715084 0.16144 0.0612192
0.750393 0.1673 0.0653239
0.783566 0.172564 0.0694285
0.813687 0.176837 0.0731212
0.842298 0.180682 0.0765087
0.867582 0.183383 0.0791485
0.892149 0.18587 0.0815747
0.9131 0.186984 0.0827802
0.933883 0.18793 0.0840009
0.0117189 0.0497444 0.00762951
0.0246281 0.0522774 0.00915541
0.0371252 0.0548562 0.0107271
0.0504311 0.0577554 0.012604
0.065568 0.0607919 0.0144961
0.0817884 0.0640116 0.0161288
0.100832 0.0679332 0.0179446
0.123568 0.071931 0.0199588
0.148425 0.0760052 0.0217594
0.176486 0.0807813 0.0227359
0.20621 0.0860609 0.0238804
0.237675 0.0916304 0.0251164
0.271031 0.0976425 0.0262913
0.30399 0.102678 0.0281529
0.338048 0.107546 0.0304417
0.372747 0.112978 0.0326238
0.409537 0.1196 0.0348211
0.44625 0.126238 0.0368353
0.485603 0.134646 0.0393835
0.525231 0.14342 0.0421454
0.565225 0.15227 0.0453803
0.605173 0.160845 0.0491951
0.644465 0.168963 0.0531167
0.683101 0.176471 0.0572976
0.719676 0.183215 0.0615549
0.754391 0.189319 0.0655985
0.786969 0.194598 0.0696574
0.816526 0.199222 0.0733349
0.844831 0.20325 0.0768749
0.869795 0.206104 0.0795911
0.893828 0.20856 0.0822156
0.914473 0.209873 0.083711
0.935012 0.210986 0.0852064
0.0156405 0.0632639 0.00895705
0.0281529 0.0656291 0.0104067
0.0404517 0.0680552 0.0119326
0.0536507 0.0709697 0.0135653
0.0681468 0.073991 0.0151217
0.084062 0.0773175 0.0164492
0.102846 0.0815137 0.0184939
0.126284 0.085832 0.020737
0.152178 0.0903792 0.0224765
0.181262 0.0961318 0.0232395
0.212146 0.102419 0.0240787
0.244282 0.108797 0.0248722
0.278538 0.115648 0.0259098
0.311589 0.120363 0.0283055
0.345861 0.12549 0.0311437
0.381079 0.132174 0.0331884
0.41796 0.139498 0.0354467
0.454734 0.147051 0.0376745
0.493904 0.156024 0.0402075
0.532891 0.165286 0.0430152
0.572442 0.174182 0.0462654
0.611856 0.183154 0.0499275
0.650446 0.191241 0.0538186
0.688411 0.198917 0.0579385
0.724285 0.205829 0.0619821
0.758404 0.212222 0.0659342
0.79057 0.21767 0.0699626
0.819654 0.222461 0.073579
0.847517 0.226551 0.0771038
0.871992 0.229389 0.0798047
0.895582 0.231861 0.0825818
0.915953 0.233219 0.0842756
0.936049 0.234516 0.0860609
0.0200656 0.076936 0.0103914
0.0321508 0.0792248 0.0117647
0.0440986 0.0814527 0.0130159
0.0572061 0.0841688 0.0144808
0.0711376 0.0871443 0.0157321
0.0864424 0.0905928 0.0168612
0.105104 0.095079 0.0193027
0.129 0.0998093 0.0212558
0.155581 0.105409 0.0225528
0.185931 0.112413 0.0233768
0.218143 0.119905 0.0247501
0.251835 0.127871 0.0254978
0.286976 0.135653 0.0264744
0.320165 0.140383 0.0293584
0.354543 0.146105 0.0320287
0.389853 0.153155 0.0339055
0.426505 0.160769 0.0361639
0.46302 0.168719 0.0383307
0.50193 0.178058 0.041001
0.540551 0.187381 0.0439002
0.579522 0.196582 0.0472114
0.618296 0.205661 0.050782
0.656413 0.214084 0.0545663
0.693507 0.221881 0.0585031
0.728664 0.229084 0.0624094
0.762219 0.235721 0.0663005
0.793774 0.241337 0.0700694
0.822416 0.24622 0.0735332
0.849867 0.250446 0.0771191
0.873869 0.253132 0.0798505
0.897032 0.255695 0.0825818
0.917067 0.257008 0.084535
0.936934 0.258473 0.0863355
0.0249027 0.0909133 0.0122683
0.0365759 0.0930495 0.0133974
0.0482338 0.0952468 0.0145571
0.0612955 0.0979934 0.0157321
0.0749371 0.101061 0.0168917
0.0900435 0.104707 0.0179904
0.10869 0.109545 0.0200809
0.132052 0.114778 0.0215
0.158679 0.121767 0.0223392
0.189807 0.13022 0.0239567
0.224216 0.13904 0.025742
0.259159 0.147845 0.0264897
0.293721 0.155581 0.0276036
0.327398 0.161425 0.029984
0.362692 0.168154 0.032166
0.397986 0.174929 0.0343786
0.434424 0.182666 0.0366827
0.470832 0.190982 0.038941
0.509285 0.200809 0.041825
0.547524 0.210529 0.044892
0.586099 0.22005 0.0484016
0.624384 0.22945 0.0518654
0.661738 0.237858 0.0557565
0.698329 0.246098 0.0595102
0.733043 0.253315 0.0633097
0.765988 0.259754 0.0669566
0.796902 0.265476 0.0705119
0.82533 0.270191 0.0738842
0.852094 0.274372 0.0771496
0.875761 0.276997 0.0797436
0.898405 0.279316 0.0823835
0.918425 0.280735 0.0843366
0.937926 0.282155 0.0863813
0.0298466 0.105318 0.0142367
0.0411383 0.107424 0.0152438
0.0528725 0.109819 0.0161593
0.0658122 0.112657 0.0170138
0.0794385 0.11603 0.0179446
0.0947433 0.120027 0.0191653
0.113313 0.124895 0.0206912
0.135363 0.130556 0.0216526
0.161242 0.138048 0.0225986
0.192828 0.146899 0.0250553
0.228962 0.156603 0.0274968
0.265141 0.167224 0.0277104
0.30042 0.176043 0.028809
0.33521 0.183566 0.0306401
0.370916 0.191012 0.0328832
0.406241 0.197818 0.0355993
0.442588 0.205966 0.0383154
0.478523 0.214694 0.0407416
0.516777 0.224903 0.0437324
0.55436 0.234516 0.0467994
0.592248 0.244129 0.0500191
0.630076 0.253498 0.0534371
0.667002 0.262257 0.057084
0.702739 0.270314 0.0606699
0.736782 0.277546 0.0640879
0.769299 0.284276 0.0675822
0.799863 0.290043 0.070985
0.827909 0.29456 0.0741588
0.854612 0.298528 0.0772106
0.878035 0.301122 0.0797131
0.900328 0.303349 0.0822766
0.919951 0.304524 0.0842756
0.939284 0.305928 0.0863203
0.0351873 0.120684 0.0162051
0.0462501 0.122667 0.016907
0.0579843 0.125093 0.0176852
0.0708019 0.128084 0.0184176
0.0844739 0.131487 0.0191806
0.0999466 0.135882 0.0203708
0.118486 0.140856 0.0212558
0.139666 0.146899 0.0220798
0.165057 0.154986 0.023331
0.197284 0.16434 0.0258946
0.234577 0.175723 0.0276188
0.27129 0.188281 0.0282444
0.30779 0.198077 0.0302129
0.343801 0.20763 0.0318761
0.379355 0.214649 0.0346227
0.414099 0.221363 0.0377661
0.450233 0.230243 0.0403754
0.485893 0.239399 0.042771
0.523659 0.249409 0.0456703
0.560693 0.258915 0.0486305
0.598093 0.268727 0.0517739
0.635279 0.278294 0.055024
0.671565 0.286961 0.0585794
0.706905 0.295262 0.0620737
0.740841 0.302708 0.065507
0.7729 0.309285 0.0689708
0.803342 0.314855 0.0720684
0.830854 0.319265 0.0750744
0.857252 0.322957 0.0779583
0.880323 0.325277 0.0801862
0.902296 0.32723 0.0825055
0.921691 0.328389 0.084535
0.94081 0.329519 0.0864881
0.0406653 0.136812 0.0185397
0.0514382 0.138888 0.0189975
0.0634928 0.141421 0.019501
0.0763561 0.144549 0.0202029
0.0899367 0.148013 0.0209049
0.105699 0.152743 0.0219272
0.124529 0.158206 0.0225376
0.145464 0.164874 0.0230869
0.170718 0.173098 0.0243534
0.20354 0.182681 0.026627
0.240574 0.195758 0.0276188
0.277348 0.209308 0.0290227
0.314641 0.218784 0.0321813
0.350729 0.228733 0.0345922
0.386297 0.236545 0.0373693
0.421347 0.245304 0.0399176
0.457099 0.254856 0.0424659
0.492561 0.264439 0.0450904
0.529778 0.27451 0.0480964
0.566461 0.284276 0.0510872
0.603555 0.294026 0.0542763
0.640543 0.303685 0.0574807
0.676326 0.312566 0.0607767
0.711238 0.32079 0.0639963
0.744823 0.328038 0.0672923
0.776532 0.334524 0.0703746
0.806638 0.340032 0.0732586
0.833814 0.344137 0.0759747
0.859876 0.347723 0.0784161
0.882658 0.349645 0.0804761
0.904295 0.351492 0.0826276
0.923629 0.352331 0.0844282
0.942504 0.353216 0.0864118
0.0461433 0.153628 0.0209201
0.0570535 0.155642 0.0212863
0.0691844 0.158129 0.0214694
0.0824598 0.161456 0.0218357
0.0961624 0.165133 0.0224613
0.113024 0.170474 0.0230259
0.132448 0.176379 0.023331
0.153811 0.183505 0.023621
0.180011 0.191974 0.0251621
0.211933 0.202106 0.0268864
0.247257 0.214954 0.0278935
0.283085 0.227359 0.0307927
0.321126 0.238361 0.0342718
0.356603 0.249424 0.0367742
0.39237 0.259297 0.0396429
0.427634 0.269718 0.0424353
0.463447 0.279896 0.0453346
0.498665 0.289799 0.0482185
0.535775 0.299886 0.051194
0.572198 0.309834 0.0541543
0.609186 0.319814 0.0570382
0.645441 0.329244 0.0599374
0.680812 0.338155 0.0629282
0.715343 0.346334 0.0660563
0.748425 0.35375 0.0690318
0.780163 0.359991 0.0720836
0.810025 0.365484 0.0749218
0.836896 0.369497 0.0773175
0.862684 0.372671 0.0797589
0.885237 0.374472 0.08159
0.906477 0.37586 0.0834974
0.925582 0.376608 0.0852216
0.944381 0.377401 0.0871595
0.0524453 0.17116 0.0224765
0.06421 0.173541 0.0225223
0.0766766 0.176181 0.0226596
0.0903487 0.179675 0.0229038
0.104646 0.183551 0.023331
0.122683 0.189334 0.0236667
0.142229 0.195834 0.0241245
0.164218 0.203479 0.0246128
0.19176 0.212604 0.0262303
0.222751 0.223499 0.0275425
0.255741 0.235706 0.0290532
0.290486 0.246845 0.0322271
0.327214 0.25861 0.035523
0.361807 0.270161 0.0384833
0.398001 0.281575 0.041886
0.433326 0.29279 0.0454261
0.469062 0.303746 0.0485695
0.50457 0.314641 0.0516976
0.541344 0.325216 0.0543374
0.577401 0.335607 0.057084
0.613886 0.345602 0.0597848
0.649744 0.355215 0.0626841
0.68481 0.364263 0.0655528
0.719295 0.372641 0.0686198
0.752392 0.379919 0.0715343
0.783841 0.386038 0.0743572
0.813458 0.391272 0.0769513
0.840131 0.394934 0.0792554
0.865614 0.397848 0.0813764
0.887846 0.399558 0.0831311
0.90898 0.400809 0.0849622
0.927962 0.401144 0.0866102
0.946532 0.401862 0.0886702
0.0593729 0.190295 0.0242161
0.0716716 0.192798 0.024094
0.085008 0.195956 0.0242466
0.0988479 0.199573 0.0244602
0.114549 0.204257 0.0248722
0.133669 0.2103 0.0251774
0.15404 0.216983 0.0254673
0.176867 0.224826 0.0262608
0.204685 0.23444 0.0274968
0.23444 0.245426 0.0285039
0.265461 0.256291 0.0305333
0.298878 0.267262 0.0334936
0.334188 0.279286 0.0362707
0.367681 0.2907 0.0399634
0.403845 0.303334 0.0443275
0.437964 0.315435 0.0476844
0.473854 0.327764 0.050782
0.509316 0.33933 0.0540475
0.546258 0.350408 0.0570535
0.582315 0.361089 0.0601968
0.61857 0.371527 0.0628824
0.654108 0.381308 0.0657511
0.68893 0.390448 0.0684215
0.723369 0.398764 0.0713817
0.756222 0.406043 0.0740215
0.787549 0.412039 0.0766613
0.817075 0.417166 0.0791028
0.843366 0.420584 0.0812848
0.868406 0.423392 0.0832837
0.890623 0.424811 0.0849928
0.911299 0.425803 0.086717
0.93019 0.426032 0.0884413
0.948562 0.426459 0.0905623
0.0676738 0.211322 0.0264439
0.0810254 0.214145 0.0261845
0.094789 0.217227 0.0263066
0.109529 0.221256 0.0264744
0.127367 0.226169 0.0267033
0.147417 0.232364 0.0268711
0.168688 0.239063 0.0271305
0.193286 0.247578 0.0280156
0.220005 0.257694 0.0287633
0.248051 0.26865 0.0294041
0.278264 0.27921 0.031632
0.310201 0.289998 0.0344701
0.34284 0.301396 0.0372168
0.374426 0.312352 0.0412451
0.408408 0.324849 0.0450294
0.441306 0.336675 0.0484474
0.477546 0.349676 0.0524147
0.513207 0.361929 0.056611
0.550607 0.374136 0.0601358
0.587106 0.385718 0.0633249
0.623194 0.396796 0.0659648
0.658686 0.407324 0.0686351
0.693324 0.416831 0.0712749
0.727459 0.425589 0.0741436
0.760266 0.433097 0.0769818
0.791379 0.439277 0.0796674
0.82089 0.444236 0.0821393
0.84686 0.447501 0.0842603
0.871946 0.450019 0.086244
0.893751 0.451118 0.0881056
0.914321 0.451804 0.0899825
0.932891 0.451728 0.0916915
0.950774 0.451804 0.0942245
0.0770886 0.232242 0.0283055
0.0913558 0.235325 0.0283818
0.105364 0.238376 0.028336
0.12221 0.24303 0.0283818
0.141558 0.248356 0.0285954
0.163104 0.255055 0.028809
0.185275 0.262196 0.0291142
0.209995 0.271443 0.0298924
0.236194 0.281514 0.0305943
0.263096 0.291951 0.0317235
0.291951 0.302205 0.0339666
0.321172 0.312963 0.0360113
0.351064 0.323507 0.0385595
0.38117 0.334188 0.0421149
0.413169 0.346014 0.0455024
0.444678 0.357168 0.0494392
0.481346 0.371099 0.0543221
0.516808 0.384314 0.0588846
0.554162 0.397833 0.0621195
0.590723 0.410269 0.0653086
0.627253 0.42237 0.0682994
0.662806 0.433402 0.0711833
0.697627 0.443351 0.0741894
0.731579 0.452384 0.0772259
0.764355 0.460121 0.0801099
0.795422 0.466316 0.0827802
0.82475 0.471412 0.0853437
0.850568 0.474388 0.0874189
0.875517 0.476799 0.0892653
0.896895 0.477516 0.0914321
0.917342 0.477714 0.0934768
0.935622 0.477348 0.0955215
0.952834 0.477073 0.0983291
0.0899062 0.255818 0.0317082
0.104906 0.259144 0.031632
0.120485 0.262882 0.0315862
0.139773 0.267979 0.0316014
0.160174 0.273442 0.0315557
0.18175 0.279728 0.0315709
0.204135 0.287327 0.0320592
0.228458 0.296407 0.0327459
0.253513 0.305669 0.0336767
0.279469 0.315511 0.0349584
0.306569 0.326253 0.0363165
0.333623 0.337118 0.037705
0.361669 0.347524 0.0399176
0.390051 0.357504 0.0428779
0.420325 0.368017 0.0461891
0.450813 0.378637 0.0507057
0.485481 0.392111 0.0552224
0.518639 0.404425 0.059205
0.556237 0.418753 0.0628824
0.59295 0.432013 0.0666667
0.629892 0.445289 0.0702983
0.666224 0.457633 0.0737926
0.701183 0.468666 0.0767987
0.735454 0.478416 0.0798505
0.768429 0.486641 0.0828412
0.799298 0.493034 0.0856031
0.828443 0.49807 0.0881971
0.854078 0.500938 0.0906691
0.878584 0.503258 0.0929122
0.899733 0.503944 0.0955062
0.91989 0.504097 0.0979629
0.938064 0.503609 0.10042
0.954818 0.503075 0.103578
0.103838 0.279942 0.0352178
0.1196 0.283391 0.0350958
0.137758 0.287694 0.0348669
0.157763 0.292821 0.0347601
0.17818 0.297963 0.034638
0.200031 0.304494 0.034638
0.222629 0.312367 0.0352636
0.246418 0.320867 0.0359045
0.270817 0.330282 0.0365759
0.295552 0.34023 0.0374456
0.32076 0.350698 0.0384527
0.346365 0.361166 0.0397345
0.373236 0.370886 0.0423438
0.399878 0.380652 0.0450904
0.427848 0.390173 0.0480659
0.456901 0.400214 0.0519417
0.489052 0.412757 0.0555428
0.52047 0.424292 0.059205
0.558404 0.439597 0.0635843
0.594781 0.453727 0.0677501
0.631571 0.46833 0.0711376
0.668254 0.481926 0.0745556
0.703914 0.493782 0.0782635
0.738918 0.504341 0.0817578
0.772122 0.513054 0.0852522
0.803128 0.51957 0.0884413
0.831983 0.524773 0.0912947
0.857343 0.527443 0.0939956
0.88159 0.529702 0.0965744
0.902373 0.530114 0.099443
0.922545 0.530419 0.102464
0.940475 0.529656 0.105196
0.956725 0.528786 0.109041
0.119036 0.304799 0.0397803
0.136736 0.308934 0.0396277
0.156237 0.313222 0.0392462
0.176455 0.318257 0.0389105
0.196979 0.323445 0.0385748
0.218799 0.330358 0.0388495
0.241352 0.337911 0.0392615
0.264378 0.346212 0.0396582
0.28809 0.355261 0.0401007
0.311971 0.364813 0.0409705
0.336675 0.374884 0.0420081
0.361501 0.385107 0.0434119
0.386358 0.394934 0.0454871
0.411337 0.4047 0.0474403
0.437766 0.414633 0.0496986
0.465126 0.424109 0.0527657
0.495247 0.434821 0.0558022
0.525399 0.445274 0.0592355
0.561227 0.4598 0.0633555
0.595499 0.473274 0.0668193
0.632151 0.488212 0.0706188
0.668833 0.502602 0.0747997
0.705104 0.515816 0.0793317
0.740703 0.527794 0.0836194
0.774243 0.53724 0.0872511
0.805524 0.544717 0.0906996
0.83473 0.550469 0.0939956
0.860121 0.553567 0.0971847
0.884489 0.556085 0.10042
0.904875 0.556588 0.103761
0.924788 0.556878 0.107195
0.942763 0.555917 0.110384
0.95848 0.554955 0.114534
0.136629 0.330388 0.0446479
0.155825 0.33463 0.0442206
0.175296 0.338903 0.0438087
0.195178 0.343694 0.0433509
0.216144 0.349294 0.0431373
0.237919 0.356023 0.0432441
0.259785 0.36286 0.0433967
0.282521 0.371008 0.0433204
0.305577 0.380133 0.0438697
0.328817 0.389502 0.0445869
0.352468 0.399558 0.0455024
0.375769 0.409659 0.046891
0.398993 0.419623 0.0481422
0.42269 0.429221 0.0496223
0.448249 0.438636 0.0517128
0.474144 0.447578 0.0538949
0.502281 0.456977 0.0561379
0.530602 0.466407 0.0590677
0.563928 0.479576 0.0623789
0.595972 0.491951 0.0654002
0.632227 0.507652 0.0698558
0.668711 0.522911 0.0745708
0.704814 0.537346 0.079118
0.740795 0.550317 0.0834821
0.775097 0.560708 0.0876173
0.806897 0.569039 0.091783
0.836713 0.57557 0.0960098
0.862333 0.579385 0.0999619
0.886793 0.582284 0.103914
0.907149 0.582818 0.107942
0.926833 0.583261 0.111772
0.94461 0.582269 0.115389
0.960067 0.581231 0.12015
0.155642 0.356207 0.0498512
0.174548 0.360311 0.0493324
0.193683 0.364508 0.0488136
0.21474 0.369528 0.0482185
0.235431 0.375128 0.0480659
0.256992 0.381521 0.0480812
0.278462 0.388479 0.047776
0.300771 0.396643 0.0478065
0.32285 0.405325 0.0482948
0.345083 0.414435 0.0487984
0.367636 0.424186 0.0496681
0.38996 0.4336 0.0506294
0.412909 0.443473 0.0516365
0.435996 0.453193 0.0530098
0.460288 0.462638 0.0542611
0.484779 0.471489 0.0552071
0.511086 0.480842 0.0563058
0.538109 0.489677 0.0586252
0.569055 0.500771 0.0612345
0.5991 0.511849 0.0642405
0.633478 0.526436 0.0685435
0.667521 0.540856 0.0729381
0.703258 0.555566 0.077821
0.739315 0.569284 0.0826886
0.774273 0.581186 0.0877394
0.806851 0.59115 0.0925917
0.837064 0.599069 0.0972457
0.863127 0.603952 0.101869
0.88806 0.607843 0.106462
0.908553 0.60885 0.111299
0.92845 0.609583 0.115785
0.946197 0.608789 0.119905
0.961364 0.607706 0.12546
0.174868 0.382101 0.0548714
0.1935 0.38616 0.0541848
0.213291 0.390509 0.0536812
0.234058 0.39556 0.0532998
0.2542 0.40058 0.0531014
0.274968 0.40679 0.0528725
0.296254 0.41384 0.0524453
0.317494 0.421454 0.0526284
0.339117 0.429526 0.0527504
0.360693 0.438544 0.0532082
0.382681 0.448035 0.0538643
0.404639 0.457801 0.0543984
0.427008 0.467796 0.0551766
0.44918 0.477684 0.0561227
0.471839 0.487297 0.0561837
0.495247 0.495979 0.0561837
0.520424 0.504524 0.056672
0.546197 0.512612 0.0580758
0.574792 0.521752 0.0599374
0.602472 0.531228 0.062501
0.634455 0.54461 0.0665446
0.666423 0.557733 0.070634
0.701213 0.572793 0.0760357
0.737285 0.587762 0.0815747
0.771984 0.601236 0.0868238
0.805371 0.612894 0.0918593
0.83621 0.622095 0.0971695
0.862974 0.62797 0.102556
0.888502 0.632761 0.108034
0.909072 0.634501 0.113771
0.929213 0.63592 0.119265
0.94699 0.635203 0.123903
0.962081 0.634134 0.129931
0.193332 0.407477 0.0599527
0.21239 0.411749 0.0594339
0.2327 0.415808 0.0589456
0.252384 0.420584 0.0586862
0.272007 0.425406 0.0582742
0.29247 0.431662 0.0577554
0.31342 0.438422 0.0574807
0.334386 0.44596 0.057496
0.355352 0.454398 0.0575875
0.376852 0.463554 0.0578317
0.39823 0.472908 0.0581674
0.419272 0.482094 0.0583047
0.440681 0.492027 0.058793
0.462043 0.501488 0.058793
0.484413 0.510399 0.0581369
0.507347 0.518868 0.0577096
0.53138 0.52755 0.0575113
0.555306 0.535546 0.0577859
0.581613 0.544106 0.0584421
0.607691 0.55285 0.0607919
0.637293 0.564095 0.0646067
0.667201 0.575814 0.0687724
0.700435 0.590204 0.0740978
0.73463 0.604974 0.0796521
0.769146 0.619104 0.0850538
0.802594 0.63183 0.0901656
0.834012 0.642466 0.0961471
0.861616 0.650004 0.102556
0.887526 0.656458 0.109087
0.908446 0.659175 0.115679
0.929061 0.661448 0.122042
0.947127 0.66125 0.127535
0.962585 0.660426 0.134234
0.211505 0.432883 0.0657816
0.231525 0.436881 0.0651408
0.250462 0.44094 0.0648356
0.269749 0.445396 0.0644083
0.289433 0.450706 0.0638285
0.310155 0.457069 0.0634623
0.330419 0.463462 0.0631876
0.350698 0.470771 0.0628977
0.371344 0.479042 0.0628824
0.392081 0.487465 0.0627298
0.412863 0.496239 0.0623941
0.433433 0.505257 0.0625315
0.454582 0.514916 0.0623789
0.4757 0.524269 0.0613565
0.497856 0.533272 0.060029
0.5196 0.542321 0.0588693
0.54168 0.551125 0.0578622
0.564446 0.558892 0.0568856
0.588846 0.567056 0.0567941
0.613825 0.575036 0.0594034
0.641382 0.584466 0.0629435
0.669001 0.5944 0.066865
0.70016 0.607752 0.0721447
0.732052 0.621424 0.0769055
0.765545 0.635645 0.0824903
0.799054 0.649775 0.0881971
0.830228 0.662089 0.0942397
0.858335 0.671504 0.101518
0.884855 0.679744 0.109117
0.906508 0.68336 0.11632
0.927581 0.686625 0.123507
0.946181 0.686809 0.129503
0.96202 0.686427 0.136614
0.229938 0.457191 0.0712444
0.249256 0.461158 0.0707561
0.267643 0.46508 0.0704814
0.286839 0.469993 0.0699016
0.306813 0.475334 0.0694896
0.326818 0.481132 0.0691234
0.346654 0.487144 0.0687877
0.366613 0.49482 0.0683757
0.386786 0.502602 0.0679789
0.407218 0.510842 0.0675059
0.427665 0.519677 0.0670024
0.448112 0.529152 0.0666972
0.469139 0.538674 0.0656291
0.490013 0.547768 0.063798
0.511147 0.556893 0.0618601
0.531655 0.566094 0.06009
0.552316 0.574578 0.0582437
0.574411 0.582162 0.0569619
0.597513 0.589975 0.0572518
0.620813 0.597787 0.0588388
0.646571 0.606394 0.0612345
0.672251 0.615244 0.064622
0.701228 0.626673 0.069337
0.731304 0.638819 0.0742657
0.762875 0.652857 0.0799115
0.795239 0.667262 0.0857557
0.82623 0.680705 0.0920729
0.85449 0.691417 0.0992142
0.881331 0.700938 0.107851
0.903731 0.705989 0.116045
0.925368 0.710643 0.124269
0.944396 0.711666 0.131151
0.961013 0.712093 0.138842
0.247074 0.480873 0.0768139
0.265385 0.48484 0.076524
0.283848 0.489219 0.0760815
0.303746 0.494194 0.075639
0.323354 0.499199 0.0752117
0.342977 0.504662 0.0746624
0.362585 0.511254 0.0741283
0.382406 0.518822 0.0736248
0.402533 0.526436 0.0727092
0.422614 0.53431 0.0716869
0.44271 0.543343 0.0710613
0.463142 0.552468 0.0701457
0.483787 0.561669 0.0680858
0.504112 0.570901 0.0661021
0.524605 0.58027 0.0634775
0.544182 0.589136 0.0614328
0.56466 0.597116 0.0591897
0.585031 0.605142 0.0573129
0.606302 0.613382 0.0570535
0.628199 0.621134 0.0573587
0.652415 0.629343 0.058793
0.677012 0.637675 0.0626078
0.704021 0.647318 0.0671244
0.731624 0.657679 0.0720073
0.761212 0.670451 0.0775616
0.791867 0.684092 0.082826
0.821744 0.697719 0.0888991
0.85008 0.709926 0.0966201
0.876554 0.72134 0.106661
0.899489 0.728374 0.11606
0.921538 0.7346 0.1252
0.941314 0.736584 0.132891
0.958923 0.737881 0.140795
0.263157 0.504112 0.0823072
