iOSLOG2LUTConverter/Resources/Secondary LUTS/SICARIO CHASE.cube
TITLE "Generated by Resolve"
LUT_3D_SIZE 5
0.00314336 0.00393683 0.00401312
0.130388 0.0239414 0.0185092
0.373968 0.0661631 0.04271
0.616358 0.118013 0.0662852
0.800229 0.152041 0.0865187
0.0168002 0.124605 0.0370642
0.152193 0.157855 0.0395209
0.414343 0.223316 0.0634928
0.649195 0.272282 0.0869001
0.82385 0.295964 0.10338
0.0767834 0.365057 0.103334
0.190112 0.38703 0.0974289
0.467994 0.459953 0.110643
0.706371 0.475914 0.131106
0.853086 0.485435 0.14432
0.169131 0.635645 0.199496
0.272557 0.644007 0.183886
0.500648 0.683635 0.178927
0.747646 0.703502 0.182513
0.893462 0.670619 0.185626
0.2383 0.832593 0.27837
0.334325 0.836545 0.26125
0.506294 0.8486 0.238041
0.765362 0.870039 0.2851
0.892134 0.867353 0.262837
0.00677501 0.0176394 0.0907301
0.122179 0.0277104 0.111406
0.385687 0.0590829 0.138949
0.6215 0.0992294 0.152117
0.800198 0.130602 0.160983
0.0198978 0.142229 0.12842
0.14847 0.1635 0.143633
0.410636 0.207782 0.153109
0.650523 0.252781 0.166903
0.8271 0.277562 0.176623
0.0770275 0.37055 0.193851
0.197513 0.40412 0.2056
0.464317 0.460319 0.207553
0.704295 0.475532 0.227207
0.859922 0.484352 0.23035
0.167666 0.637201 0.293309
0.283268 0.656931 0.292607
0.494835 0.689296 0.26978
0.745449 0.706432 0.276051
0.890776 0.677455 0.281727
0.234867 0.833051 0.368688
0.329458 0.835828 0.3608
0.484794 0.84892 0.322713
0.764019 0.871275 0.371786
0.891539 0.870481 0.356573
0.0124514 0.0365454 0.208286
0.114061 0.0445258 0.243153
0.365469 0.0775464 0.285786
0.614694 0.116823 0.323033
0.794461 0.134981 0.326299
0.0275883 0.187457 0.27306
0.137362 0.191226 0.282445
0.423453 0.212467 0.31371
0.663844 0.240055 0.331044
0.8262 0.252323 0.326467
0.0919509 0.423774 0.347585
0.209155 0.4448 0.361288
0.481361 0.485451 0.369009
0.706081 0.484871 0.37084
0.861799 0.485786 0.366674
0.166094 0.651987 0.418692
0.278721 0.669215 0.425971
0.51841 0.711391 0.429648
0.749737 0.717144 0.42211
0.889128 0.688563 0.425101
0.227756 0.836057 0.477699
0.315618 0.837858 0.474861
0.4598 0.848432 0.46389
0.76257 0.874617 0.485359
0.891524 0.87631 0.485145
0.0235294 0.0664073 0.347601
0.117525 0.0745861 0.382605
0.352453 0.104707 0.4318
0.598352 0.147112 0.473182
0.776349 0.168719 0.482139
0.0392309 0.23444 0.417395
0.142443 0.235538 0.42826
0.379034 0.246235 0.467918
0.650233 0.273945 0.495293
0.814221 0.279194 0.494713
0.0971084 0.471901 0.509316
0.20322 0.481117 0.516625
0.443946 0.508522 0.534371
0.721752 0.517876 0.537423
0.868421 0.510506 0.523156
0.163775 0.68658 0.572213
0.269123 0.698268 0.579873
0.510246 0.728389 0.596658
0.756268 0.737377 0.591455
0.884108 0.722881 0.589227
0.220401 0.844648 0.60621
0.300603 0.846159 0.606058
0.419486 0.852232 0.604868
0.759808 0.88127 0.618647
0.889128 0.884367 0.63505
0.0366064 0.108904 0.485512
0.130465 0.113237 0.508522
0.308736 0.131426 0.572824
0.573495 0.169039 0.596094
0.768963 0.201755 0.625772
0.0512703 0.271397 0.544167
0.143801 0.279057 0.562905
0.319997 0.281651 0.60708
0.603143 0.29514 0.626001
0.792584 0.313115 0.645685
0.0955062 0.488563 0.631876
0.179263 0.496483 0.642802
0.394888 0.53019 0.677928
0.665705 0.527367 0.689876
0.852781 0.534997 0.690593
0.148913 0.688228 0.694041
0.227008 0.691432 0.699504
0.454093 0.722759 0.729091
0.728161 0.744228 0.74023
0.880217 0.742733 0.729015
0.205539 0.858351 0.740353
0.296422 0.862654 0.744579
0.528054 0.882002 0.759548
0.766262 0.889754 0.762753
0.888426 0.890623 0.763531
