iOSLOG2LUTConverter/Resources/Secondary LUTS/SICARIO CHASE.cube
TITLE "Generated by Resolve"
LUT_3D_SIZE 9
0.00314336 0.00393683 0.00401312
0.0488746 0.0110933 0.00987259
0.130388 0.0239414 0.0185092
0.250904 0.0444953 0.0308995
0.373968 0.0661631 0.04271
0.500862 0.0936141 0.0550698
0.616358 0.118013 0.0662852
0.714275 0.136751 0.0766003
0.800229 0.152041 0.0865187
0.00827039 0.0553292 0.0184024
0.0530709 0.0616159 0.0180667
0.147356 0.0772259 0.0247654
0.266835 0.102846 0.0370031
0.388602 0.131975 0.0488746
0.513863 0.160922 0.0612955
0.628275 0.1841 0.0723583
0.724636 0.201205 0.0825818
0.809445 0.213901 0.0916152
0.0168002 0.124605 0.0370642
0.0557717 0.131502 0.0360876
0.152193 0.157855 0.0395209
0.288304 0.190921 0.049958
0.414343 0.223316 0.0634928
0.538903 0.251255 0.0758373
0.649195 0.272282 0.0869001
0.742794 0.286549 0.0961471
0.82385 0.295964 0.10338
0.037995 0.229877 0.0647898
0.0763561 0.234989 0.0633097
0.160723 0.26482 0.0647898
0.300603 0.305989 0.0721141
0.442145 0.33048 0.0832227
0.570565 0.355871 0.096849
0.674174 0.37557 0.108309
0.764355 0.385534 0.117296
0.837797 0.389914 0.122942
0.0767834 0.365057 0.103334
0.119997 0.36994 0.100862
0.190112 0.38703 0.0974289
0.320241 0.432685 0.104921
0.467994 0.459953 0.110643
0.596231 0.465248 0.118502
0.706371 0.475914 0.131106
0.789532 0.483635 0.137942
0.853086 0.485435 0.14432
0.124834 0.507866 0.150744
0.170108 0.511467 0.146334
0.233997 0.520729 0.139712
0.334356 0.546075 0.137911
0.498451 0.585184 0.148974
0.622705 0.59263 0.149432
0.727779 0.581796 0.152438
0.816617 0.579263 0.160815
0.87303 0.578408 0.163806
0.169131 0.635645 0.199496
0.214725 0.638132 0.194614
0.272557 0.644007 0.183886
0.356588 0.656245 0.175067
0.500648 0.683635 0.178927
0.648157 0.704814 0.187549
0.747646 0.703502 0.182513
0.830518 0.683207 0.180697
0.893462 0.670619 0.185626
0.206165 0.742473 0.242573
0.249317 0.744106 0.236606
0.304936 0.748028 0.225956
0.379294 0.755428 0.212482
0.497475 0.768353 0.205951
0.644862 0.786603 0.213703
0.759167 0.795804 0.220172
0.834546 0.793805 0.213214
0.895155 0.769848 0.205692
0.2383 0.832593 0.27837
0.279866 0.83357 0.271672
0.334325 0.836545 0.26125
0.402472 0.841459 0.246326
0.506294 0.8486 0.238041
0.650889 0.861341 0.255055
0.765362 0.870039 0.2851
0.836301 0.873259 0.298054
0.892134 0.867353 0.262837
0.00483711 0.00946059 0.0439765
0.0462348 0.0140841 0.0505074
0.128969 0.0225834 0.0590982
0.2542 0.0391241 0.069337
0.379004 0.059144 0.0783856
0.504204 0.0834974 0.0888533
0.617838 0.107958 0.098909
0.715236 0.127459 0.108598
0.801083 0.143481 0.118074
0.00881971 0.0600748 0.0567178
0.0488899 0.0648966 0.0641489
0.140612 0.0753185 0.0666819
0.261189 0.0962387 0.0747082
0.387427 0.122179 0.0843366
0.515099 0.151369 0.0953384
0.629786 0.175311 0.105669
0.726818 0.193454 0.115587
0.811337 0.206271 0.123323
0.017258 0.128206 0.0733043
0.0589914 0.137545 0.0777295
0.151247 0.158648 0.0823224
0.283467 0.18764 0.0920882
0.411261 0.219196 0.103365
0.539101 0.247044 0.11342
0.651102 0.267842 0.122362
0.745739 0.282139 0.130587
0.826352 0.29041 0.13579
0.0379492 0.231876 0.102022
0.0822614 0.242985 0.104677
0.162219 0.267643 0.105592
0.299596 0.305638 0.113344
0.439719 0.329412 0.126223
0.570382 0.355138 0.13814
0.677104 0.37467 0.147478
0.768872 0.384497 0.154482
0.841779 0.387991 0.157336
0.0763714 0.365743 0.142885
0.123049 0.37612 0.144015
0.192142 0.392218 0.139315
0.317449 0.43331 0.143404
0.465965 0.459953 0.150988
0.593835 0.466102 0.161486
0.706508 0.477531 0.173724
0.792233 0.48542 0.17821
0.856733 0.486686 0.181643
0.123857 0.508232 0.193194
0.170748 0.515923 0.191653
0.233494 0.525505 0.183612
0.331624 0.548333 0.177386
0.495537 0.585931 0.18761
0.621118 0.593439 0.189685
0.725887 0.584268 0.195499
0.816709 0.582376 0.203952
0.874296 0.58143 0.204395
0.168673 0.636042 0.243366
0.214511 0.640955 0.241291
0.273198 0.648081 0.231067
0.355703 0.659983 0.216968
0.497734 0.684916 0.217563
0.64686 0.705837 0.226551
0.746838 0.704753 0.222675
0.829694 0.686198 0.223484
0.892454 0.674311 0.228031
0.205829 0.742916 0.286442
0.251606 0.7467 0.283558
0.307668 0.751446 0.272831
0.380529 0.758892 0.255634
0.496254 0.770489 0.245304
0.642863 0.787564 0.252003
0.758587 0.796735 0.259449
0.834363 0.79527 0.253758
0.894362 0.772534 0.247318
0.237324 0.832731 0.321172
0.279973 0.833661 0.317556
0.331121 0.835981 0.307378
0.396139 0.841062 0.289021
0.498833 0.848814 0.276265
0.647837 0.861341 0.293568
0.764752 0.870436 0.325277
0.836271 0.874098 0.340642
0.891768 0.86865 0.305791
0.00677501 0.0176394 0.0907301
0.0446326 0.0208591 0.100298
0.122179 0.0277104 0.111406
0.253742 0.0417182 0.127596
0.385687 0.0590829 0.138949
0.510735 0.0796979 0.146883
0.6215 0.0992294 0.152117
0.716213 0.116091 0.156573
0.800198 0.130602 0.160983
0.010132 0.0680552 0.107424
0.0493477 0.0699168 0.112108
0.135149 0.0767987 0.120729
0.267247 0.0917372 0.131243
0.396643 0.112047 0.13817
0.52224 0.134997 0.144869
0.63328 0.15697 0.151461
0.728008 0.175082 0.15787
0.810788 0.188891 0.162341
0.0198978 0.142229 0.12842
0.062623 0.149065 0.133745
0.14847 0.1635 0.143633
0.283406 0.183093 0.146319
0.410636 0.207782 0.153109
0.538064 0.232685 0.159625
0.650523 0.252781 0.166903
0.746197 0.268009 0.173999
0.8271 0.277562 0.176623
0.0409552 0.243046 0.1552
0.0865797 0.2533 0.160601
0.160937 0.278523 0.176013
0.300649 0.307286 0.172686
0.437919 0.324971 0.181994
0.56669 0.347677 0.190143
0.676463 0.366369 0.197375
0.769726 0.377081 0.202075
0.843885 0.381552 0.20209
0.0770275 0.37055 0.193851
0.124529 0.381491 0.198535
0.197513 0.40412 0.2056
0.316381 0.438651 0.201389
0.464317 0.460319 0.207553
0.590524 0.464103 0.217197
0.704295 0.475532 0.227207
0.793256 0.483162 0.229755
0.859922 0.484352 0.23035
0.122881 0.510201 0.243824
0.171145 0.51899 0.246403
0.239902 0.535592 0.246464
0.335653 0.557015 0.236698
0.490043 0.588434 0.240955
0.618494 0.594339 0.244541
0.723461 0.584817 0.250996
0.815808 0.583444 0.258183
0.875212 0.582666 0.256413
0.167666 0.637201 0.293309
0.214252 0.643473 0.294408
0.283268 0.656931 0.292607
0.36614 0.670573 0.276799
0.494835 0.689296 0.26978
0.644266 0.708553 0.278325
0.745449 0.706432 0.276051
0.828443 0.688365 0.277943
0.890776 0.677455 0.281727
0.204273 0.743786 0.3355
0.251072 0.748196 0.335149
0.319722 0.758511 0.331212
0.394415 0.767544 0.313237
0.499748 0.776364 0.298253
0.639612 0.790112 0.301808
0.758083 0.798825 0.311803
0.833936 0.797345 0.307362
0.8934 0.77499 0.299947
0.234867 0.833051 0.368688
0.276921 0.833829 0.366232
0.329458 0.835828 0.3608
0.390967 0.840238 0.344823
0.484794 0.84892 0.322713
0.642313 0.861784 0.339071
0.764019 0.871275 0.371786
0.836362 0.875212 0.390234
0.891539 0.870481 0.356573
0.00903334 0.026627 0.14612
0.044831 0.0291905 0.157687
0.117693 0.0350958 0.173373
0.242435 0.0482795 0.192538
0.380056 0.0672618 0.214237
0.511742 0.0871138 0.230167
0.623972 0.10277 0.23798
0.716884 0.116304 0.239414
0.799573 0.129 0.239231
0.0122377 0.0787823 0.166171
0.0501259 0.07953 0.170474
0.127047 0.0838636 0.185336
0.259586 0.0965744 0.201572
0.399283 0.116075 0.218387
0.529397 0.135454 0.230915
0.63679 0.152026 0.236393
0.728313 0.166171 0.237125
0.809033 0.176623 0.235294
0.0234073 0.164172 0.199496
0.0644236 0.167346 0.20267
0.142504 0.173648 0.211078
0.284962 0.185718 0.21973
0.427192 0.203067 0.227222
0.552499 0.219089 0.232227
0.656764 0.2336 0.235615
0.748211 0.246464 0.237293
0.827253 0.255024 0.237064
0.0489052 0.270146 0.228992
0.0936141 0.277211 0.233829
0.168292 0.295323 0.251438
0.300557 0.317433 0.253132
0.448753 0.328267 0.252262
0.568231 0.340734 0.25539
0.674342 0.354025 0.258808
0.768292 0.36492 0.261723
0.84448 0.370687 0.26215
0.0829786 0.390738 0.262928
0.128176 0.398367 0.267399
0.203647 0.418982 0.279988
0.320836 0.452399 0.288014
0.471458 0.468818 0.282918
0.592752 0.46627 0.289509
0.70074 0.47277 0.293873
0.791638 0.479011 0.295323
0.861295 0.480232 0.294286
0.124102 0.519142 0.305531
0.170504 0.52636 0.308705
0.242924 0.543786 0.31635
0.352575 0.573037 0.319463
0.491173 0.597635 0.313481
0.620035 0.599466 0.315633
0.722347 0.586831 0.320958
0.814511 0.584619 0.325841
0.876417 0.583307 0.322988
0.166201 0.641077 0.351324
0.212116 0.647211 0.353338
0.284184 0.662257 0.357671
0.38854 0.684108 0.355322
0.50193 0.699687 0.340917
0.641978 0.713664 0.344137
0.745327 0.709575 0.343557
0.827726 0.691386 0.346059
0.889525 0.681132 0.34931
0.201938 0.745815 0.390326
0.247211 0.749798 0.39089
0.319524 0.761471 0.392096
0.415549 0.776165 0.385611
0.510781 0.785428 0.367285
0.637232 0.795102 0.364721
0.759106 0.802731 0.378485
0.834516 0.800198 0.374624
0.892622 0.778515 0.365682
0.231708 0.833997 0.421012
0.272465 0.834623 0.419333
0.323278 0.836225 0.416083
0.38587 0.83978 0.408499
0.470039 0.84889 0.38584
0.634958 0.86331 0.39382
0.763226 0.872618 0.425483
0.837064 0.876783 0.446479
0.891783 0.87303 0.416892
0.0124514 0.0365454 0.208286
0.0485237 0.0385138 0.219776
0.114061 0.0445258 0.243153
0.235599 0.0563668 0.261326
0.365469 0.0775464 0.285786
0.49955 0.101396 0.3093
0.614694 0.116823 0.323033
0.708919 0.126802 0.327291
0.794461 0.134981 0.326299
0.0165103 0.0928511 0.230274
0.0538033 0.0923171 0.234745
0.11902 0.0962081 0.255589
0.24947 0.107317 0.274174
0.384375 0.128405 0.295109
0.520958 0.150362 0.314733
0.633356 0.164736 0.325872
0.725109 0.174304 0.328313
0.805417 0.179721 0.325444
0.0275883 0.187457 0.27306
0.0678874 0.18909 0.275441
0.137362 0.191226 0.282445
0.271611 0.197314 0.300145
0.423453 0.212467 0.31371
0.559792 0.229084 0.325475
0.663844 0.240055 0.331044
0.750942 0.248341 0.330129
0.8262 0.252323 0.326467
0.0568399 0.304341 0.31519
0.0996872 0.308003 0.318547
0.172656 0.316899 0.327031
0.2925 0.329809 0.337224
0.458946 0.340032 0.336873
0.591592 0.348684 0.337423
0.690089 0.353185 0.337026
0.77583 0.357794 0.335454
0.847944 0.360571 0.332982
0.0919509 0.423774 0.347585
0.135897 0.429313 0.351324
0.209155 0.4448 0.361288
0.323583 0.469337 0.374472
0.481361 0.485451 0.369009
0.61117 0.484657 0.371496
0.706081 0.484871 0.37084
0.792508 0.485954 0.369421
0.861799 0.485786 0.366674
0.129122 0.540856 0.381338
0.173129 0.545953 0.384344
0.243122 0.560418 0.392386
0.357168 0.586679 0.404715
0.499321 0.610544 0.400519
0.631464 0.613443 0.397269
0.728725 0.599817 0.400931
0.814145 0.593896 0.402472
0.876402 0.590661 0.398337
0.166094 0.651987 0.418692
0.210483 0.656748 0.420905
0.278721 0.669215 0.425971
0.390433 0.691569 0.434134
0.51841 0.711391 0.429648
0.645899 0.721569 0.422644
0.749737 0.717144 0.42211
0.829343 0.699138 0.423468
0.889128 0.688563 0.425101
0.198871 0.750042 0.45098
0.242847 0.75375 0.45214
0.311345 0.764019 0.454612
0.414282 0.779675 0.45774
0.52253 0.79266 0.450401
0.640101 0.801541 0.440711
0.760616 0.807691 0.454566
0.835401 0.80441 0.451377
0.892317 0.784436 0.440909
0.227756 0.836057 0.477699
0.26717 0.836622 0.476844
0.315618 0.837858 0.474861
0.374319 0.840513 0.471199
0.4598 0.848432 0.46389
0.627314 0.866011 0.459586
0.76257 0.874617 0.485359
0.837659 0.87892 0.507607
0.891524 0.87631 0.485145
0.017258 0.0493629 0.276478
0.0544594 0.0508278 0.2869
0.113771 0.0572061 0.314382
0.228824 0.068864 0.338674
0.359808 0.0901961 0.357687
0.487343 0.115053 0.383398
0.605631 0.132631 0.39971
0.701213 0.143603 0.406332
0.781796 0.150973 0.408835
0.0224918 0.111284 0.299702
0.0594644 0.109651 0.30399
0.117693 0.113436 0.32607
0.234668 0.123827 0.352926
0.375555 0.143328 0.369436
0.507301 0.166278 0.391791
0.624506 0.182467 0.40502
0.718379 0.191775 0.410254
0.794476 0.193805 0.410513
0.0330358 0.211658 0.346746
0.0740673 0.212329 0.349004
0.138567 0.213016 0.356451
0.250141 0.217304 0.378653
0.407294 0.226841 0.393194
0.549004 0.242878 0.408453
0.662425 0.256352 0.416281
0.751339 0.26302 0.417823
0.822156 0.26154 0.415549
0.0610819 0.330907 0.39556
0.102205 0.333181 0.398138
0.172045 0.338399 0.403586
0.279667 0.346471 0.412924
0.439994 0.351293 0.423697
0.589334 0.3626 0.428687
0.700252 0.370321 0.429725
0.783551 0.370413 0.426307
0.849439 0.367163 0.421439
0.0955825 0.454704 0.433997
0.137682 0.457969 0.436637
0.207065 0.467918 0.443763
0.315038 0.48484 0.454444
0.466377 0.497765 0.457313
0.621515 0.504631 0.454719
0.724468 0.506447 0.450874
0.801892 0.501152 0.445274
0.865751 0.494697 0.439933
0.133288 0.56817 0.466346
0.17557 0.571893 0.468925
0.243931 0.584161 0.476432
0.354269 0.604929 0.487511
0.496315 0.622278 0.491356
0.642054 0.629602 0.483574
0.743465 0.621439 0.485924
0.817426 0.615778 0.483726
0.875868 0.611231 0.478813
0.167636 0.668956 0.494774
0.209247 0.672038 0.49662
0.274937 0.68275 0.502083
0.383505 0.702007 0.50988
0.5196 0.71873 0.516747
0.650477 0.730282 0.50808
0.755871 0.727337 0.50547
0.830716 0.713573 0.506127
0.88687 0.703731 0.506889
0.19675 0.758022 0.518608
0.238743 0.76112 0.519951
0.303395 0.769818 0.52311
0.402579 0.784298 0.527092
0.515465 0.796231 0.531365
0.644907 0.807279 0.526009
0.761776 0.812116 0.531701
0.83595 0.809796 0.531411
0.890333 0.794049 0.523812
0.223545 0.839277 0.539773
0.26128 0.839857 0.539406
0.307332 0.841276 0.538338
0.362066 0.84329 0.535958
0.437018 0.848829 0.534096
0.618753 0.868894 0.536568
0.761364 0.877501 0.549676
0.837858 0.881285 0.570123
0.890303 0.880491 0.560555
0.0235294 0.0664073 0.347601
0.0615396 0.0676432 0.357259
0.117525 0.0745861 0.382605
0.213886 0.0847639 0.41651
0.352453 0.104707 0.4318
0.479149 0.127367 0.452033
0.598352 0.147112 0.473182
0.69575 0.159686 0.480171
0.776349 0.168719 0.482139
0.0289769 0.134478 0.371817
0.0664225 0.132372 0.375891
0.121889 0.135149 0.394873
0.218479 0.14403 0.428428
0.361257 0.160693 0.443976
0.496147 0.180621 0.461753
0.615076 0.199573 0.480583
0.710552 0.210651 0.485267
0.785809 0.212757 0.485649
0.0392309 0.23444 0.417395
0.0802625 0.23473 0.419898
0.142443 0.235538 0.42826
0.236255 0.239399 0.450919
0.379034 0.246235 0.467918
0.533578 0.256779 0.482704
0.650233 0.273945 0.495293
0.743633 0.283009 0.496574
0.814221 0.279194 0.494713
0.0639658 0.351553 0.46746
0.105104 0.352972 0.469581
0.17351 0.356954 0.474281
0.273579 0.364935 0.484764
0.408377 0.368963 0.499229
0.570153 0.373617 0.509255
0.689891 0.385153 0.515236
0.781369 0.38912 0.512016
0.847669 0.384497 0.507836
0.0971084 0.471901 0.509316
0.137346 0.47393 0.511299
0.20322 0.481117 0.516625
0.305867 0.49546 0.526345
0.443946 0.508522 0.534371
0.602899 0.512581 0.538628
0.721752 0.517876 0.537423
0.807294 0.517113 0.530343
0.868421 0.510506 0.523156
0.129961 0.585275 0.542962
0.170993 0.588083 0.545098
0.236713 0.597406 0.551385
0.342702 0.614755 0.563149
0.478508 0.630045 0.571099
0.627543 0.638224 0.571694
0.744747 0.638437 0.566705
0.820722 0.635508 0.560601
0.875486 0.629496 0.553689
0.163775 0.68658 0.572213
0.203952 0.689143 0.574075
0.269123 0.698268 0.579873
0.376715 0.714656 0.589426
0.510246 0.728389 0.596658
0.642893 0.736934 0.598093
0.756268 0.737377 0.591455
0.831998 0.729732 0.590448
0.884108 0.722881 0.589227
0.193332 0.769284 0.590219
0.232731 0.771282 0.591516
0.295857 0.778805 0.595697
0.393622 0.791638 0.601801
0.503136 0.80238 0.606973
0.64062 0.81207 0.610391
0.763577 0.81709 0.611841
0.835782 0.815152 0.610391
0.888289 0.80473 0.606439
0.220401 0.844648 0.60621
0.256825 0.845212 0.606302
0.300603 0.846159 0.606058
0.352499 0.847639 0.605356
0.419486 0.852232 0.604868
0.597543 0.871061 0.612177
0.759808 0.88127 0.618647
0.837629 0.884016 0.632868
0.889128 0.884367 0.63505
0.0301976 0.0871138 0.417655
0.0681773 0.0870985 0.425559
0.1234 0.0931563 0.446281
0.201297 0.102068 0.481209
0.333639 0.117983 0.505241
0.467338 0.138445 0.516258
0.586114 0.158251 0.536278
0.691234 0.175143 0.552392
0.77229 0.184054 0.553719
0.0352331 0.15729 0.44094
0.0733196 0.155688 0.445075
0.127382 0.156588 0.460227
0.210117 0.165103 0.49131
0.336004 0.175814 0.517693
0.478737 0.194217 0.526131
0.601953 0.212375 0.545037
0.70428 0.22826 0.559152
0.78024 0.230793 0.558587
0.0451209 0.253315 0.482322
0.0855573 0.253758 0.485008
0.146532 0.256367 0.494759
0.230655 0.260945 0.515587
0.347341 0.264256 0.539208
0.503273 0.274418 0.547402
0.634623 0.286442 0.564004
0.732433 0.301823 0.57319
0.802411 0.297246 0.569787
0.0669413 0.36556 0.53019
0.108431 0.367025 0.532296
0.174533 0.372198 0.538643
0.267735 0.383047 0.552438
0.379019 0.388632 0.568139
0.533455 0.388739 0.578576
0.66865 0.394049 0.588891
0.770504 0.401495 0.594232
0.841764 0.399619 0.58764
0.0979782 0.480354 0.572732
0.137148 0.482246 0.574716
0.200244 0.488914 0.580087
0.297002 0.503563 0.591714
0.421912 0.519631 0.605615
0.571481 0.521431 0.61529
0.69958 0.521798 0.618647
0.795392 0.524788 0.617105
0.863142 0.5252 0.607446
0.125612 0.589441 0.606653
0.164675 0.591424 0.608423
0.226337 0.598764 0.614282
0.324514 0.614252 0.627237
0.451774 0.631266 0.641291
0.602121 0.643137 0.649958
0.728969 0.64271 0.647837
0.816846 0.642496 0.641367
0.876631 0.641306 0.631769
0.154925 0.690715 0.637003
0.194644 0.693065 0.638865
0.25713 0.700572 0.644968
0.357 0.7149 0.656367
0.483467 0.728603 0.66804
0.622614 0.739467 0.673899
0.74551 0.743358 0.673487
0.82948 0.739361 0.666331
0.881865 0.736324 0.659403
0.185931 0.780179 0.66154
0.224094 0.781811 0.662745
0.284901 0.788052 0.667506
0.37882 0.799512 0.676081
0.496254 0.810254 0.68426
0.639948 0.819196 0.688441
0.759625 0.822156 0.688334
0.834455 0.820233 0.684047
0.886473 0.814588 0.682048
0.21416 0.851774 0.673442
0.250217 0.852216 0.673747
0.293492 0.853056 0.674296
0.345205 0.854932 0.675349
0.43299 0.862638 0.680461
0.608682 0.878492 0.687968
0.755276 0.8851 0.690517
0.836393 0.887129 0.696666
0.888594 0.887587 0.701747
0.0366064 0.108904 0.485512
0.0742962 0.107439 0.491646
0.130465 0.113237 0.508522
0.199405 0.121859 0.539193
0.308736 0.131426 0.572824
0.449516 0.149691 0.584375
0.573495 0.169039 0.596094
0.679103 0.187549 0.613642
0.768963 0.201755 0.625772
0.0415198 0.179644 0.507347
0.0797589 0.179736 0.513024
0.131701 0.179263 0.525597
0.208225 0.187991 0.55201
0.308675 0.190188 0.583993
0.454582 0.205997 0.596643
0.583551 0.223255 0.605417
0.689906 0.239246 0.621851
0.776715 0.25034 0.632059
0.0512703 0.271397 0.544167
0.0896315 0.272908 0.549081
0.143801 0.279057 0.562905
0.217075 0.283268 0.583429
0.319997 0.281651 0.60708
0.462348 0.28397 0.622873
0.603143 0.29514 0.626001
0.708873 0.304875 0.638758
0.792584 0.313115 0.645685
0.0717784 0.378119 0.589136
0.110063 0.37998 0.592935
0.1617 0.387304 0.604013
0.237201 0.402533 0.626291
0.348089 0.405158 0.641932
0.48127 0.398276 0.654444
0.628153 0.395087 0.657786
0.739025 0.396307 0.665354
0.831647 0.410681 0.668238
0.0955062 0.488563 0.631876
0.131807 0.490425 0.634745
0.179263 0.496483 0.642802
0.254002 0.510933 0.659129
0.394888 0.53019 0.677928
0.536858 0.53196 0.684657
0.665705 0.527367 0.689876
0.77322 0.52636 0.693996
0.852781 0.534997 0.690593
0.123812 0.592721 0.666133
0.159014 0.593988 0.66833
0.202075 0.59794 0.674434
0.280812 0.610666 0.687572
0.426886 0.63241 0.707012
0.581598 0.647562 0.715846
0.707347 0.647211 0.718593
0.804578 0.645335 0.718715
0.870481 0.646906 0.711849
0.148913 0.688228 0.694041
0.184115 0.689082 0.695521
0.227008 0.691432 0.699504
0.308492 0.703044 0.711055
0.454093 0.722759 0.729091
0.601602 0.736797 0.738003
0.728161 0.744228 0.74023
0.821469 0.743221 0.736187
0.880217 0.742733 0.729015
0.175677 0.778103 0.719692
0.210941 0.778637 0.7205
0.254551 0.780011 0.722835
0.33756 0.790112 0.732448
0.480644 0.806745 0.747097
0.625345 0.81738 0.75378
0.744472 0.821332 0.755108
0.828275 0.822583 0.752758
0.883665 0.821424 0.747845
0.205539 0.858351 0.740353
0.241733 0.858961 0.741192
0.296422 0.862654 0.744579
0.393957 0.871931 0.752697
0.528054 0.882002 0.759548
0.660426 0.888121 0.761913
0.766262 0.889754 0.762753
0.836622 0.890333 0.763149
0.888426 0.890623 0.763531
