iOSLOG2LUTConverter/Resources/Secondary LUTS/SICARIO CHASE.cube
TITLE "Generated by Resolve"
LUT_3D_SIZE 33
0.00314336 0.00393683 0.00401312
0.0132753 0.00549325 0.00540169
0.0233616 0.00698863 0.00674449
0.0350042 0.00901808 0.00833143
0.0488746 0.0110933 0.00987259
0.0649882 0.0137026 0.0117189
0.0822003 0.0165713 0.0136568
0.104326 0.0199588 0.0158236
0.130388 0.0239414 0.0185092
0.15874 0.0283207 0.0213016
0.189578 0.033463 0.0243839
0.220356 0.0389105 0.0276493
0.250904 0.0444953 0.0308995
0.281407 0.049836 0.0339666
0.311864 0.0551766 0.0369879
0.342214 0.0603647 0.039826
0.373968 0.0661631 0.04271
0.4056 0.0726329 0.0457313
0.437903 0.0797436 0.0489357
0.469825 0.0868086 0.0520638
0.500862 0.0936141 0.0550698
0.531487 0.100465 0.0580301
0.560662 0.1066 0.0607156
0.58912 0.11249 0.0635691
0.616358 0.118013 0.0662852
0.642405 0.123064 0.0688792
0.667262 0.12784 0.0714733
0.691234 0.132296 0.0739757
0.714275 0.136751 0.0766003
0.73611 0.140764 0.0791333
0.757885 0.144701 0.081651
0.779309 0.148455 0.084123
0.800229 0.152041 0.0865187
0.00445563 0.0164187 0.00756847
0.0143893 0.0178683 0.00843824
0.0243076 0.0192721 0.00926223
0.0359045 0.0210727 0.0103609
0.0504158 0.0230259 0.0115511
0.0672923 0.0254826 0.0132601
0.0850843 0.0281682 0.0149996
0.107805 0.0315251 0.0170596
0.133974 0.0354467 0.0195468
0.162203 0.0399023 0.0222171
0.192447 0.0450904 0.0251926
0.222965 0.0504158 0.0283513
0.253468 0.0559548 0.0315862
0.28426 0.0623484 0.0348974
0.314687 0.0687724 0.038056
0.34519 0.0751049 0.041001
0.377035 0.0816663 0.0439307
0.408469 0.088304 0.0469215
0.440665 0.0953384 0.0500343
0.472572 0.102235 0.0531167
0.503532 0.108843 0.0560311
0.534051 0.115373 0.0589151
0.563119 0.121309 0.0615702
0.591562 0.127016 0.0644083
0.618799 0.132372 0.0671092
0.64477 0.137331 0.069749
0.669581 0.141985 0.072343
0.693523 0.146304 0.0748913
0.716594 0.150637 0.0775158
0.738415 0.154574 0.0800488
0.760067 0.158541 0.0825666
0.781476 0.16231 0.0850233
0.802289 0.165881 0.0874037
0.00569161 0.028809 0.0109712
0.0154574 0.0301976 0.0113527
0.0251774 0.0315251 0.0117189
0.03682 0.0331273 0.0122988
0.0520333 0.0349889 0.0132296
0.0696422 0.037232 0.0147402
0.0881971 0.039765 0.0162966
0.11133 0.0431525 0.0182498
0.137881 0.0471656 0.0205539
0.166918 0.0521401 0.0233616
0.197345 0.0585641 0.0267491
0.227878 0.0651865 0.0302434
0.257725 0.0716564 0.0335699
0.287999 0.0782025 0.0366674
0.318166 0.0845197 0.0395972
0.348516 0.0908522 0.042359
0.379995 0.0974289 0.0451972
0.411551 0.104005 0.048127
0.443595 0.110903 0.0511635
0.475334 0.117662 0.0541543
0.506111 0.124056 0.0569772
0.536583 0.130297 0.0598001
0.565744 0.136034 0.0624704
0.593988 0.142031 0.0654002
0.621164 0.14757 0.0682231
0.647211 0.15285 0.0710307
0.672129 0.157748 0.0737926
0.695903 0.162127 0.0763714
0.718944 0.166598 0.0790417
0.74081 0.170397 0.081529
0.762432 0.174166 0.0840009
0.783749 0.177829 0.0863966
0.80444 0.181292 0.088716
0.00700389 0.0409705 0.0146487
0.0163424 0.0420233 0.0145724
0.0256504 0.0430457 0.0144808
0.0371252 0.0446784 0.0146334
0.0523537 0.0467536 0.0152132
0.0701762 0.0494545 0.016434
0.0897688 0.0525978 0.0178225
0.114672 0.0569009 0.0199435
0.142657 0.0619059 0.0225376
0.172503 0.0675669 0.0256199
0.202625 0.0740368 0.0289158
0.232609 0.0807355 0.0322271
0.261952 0.0872358 0.0353094
0.29192 0.093904 0.0382086
0.321736 0.100282 0.0409705
0.352087 0.106798 0.0436255
0.383581 0.113451 0.0463874
0.415061 0.119997 0.0493019
0.447364 0.12755 0.0525978
0.479026 0.134844 0.0558022
0.509773 0.141802 0.058854
0.5402 0.14847 0.0618601
0.569406 0.154635 0.0646982
0.597467 0.160418 0.0675517
0.624796 0.16585 0.0703136
0.650507 0.170886 0.0730449
0.675151 0.17554 0.0757
0.69894 0.179751 0.0782483
0.721782 0.18381 0.0807965
0.743633 0.187427 0.0832227
0.765179 0.190967 0.0856031
0.786236 0.194324 0.0879072
0.807004 0.197574 0.0901808
0.00827039 0.0553292 0.0184024
0.0173648 0.0563363 0.0180667
0.0264744 0.0573434 0.017731
0.0380865 0.0592508 0.0177157
0.0530709 0.0616159 0.0180667
0.0708476 0.0645914 0.0189517
0.0914778 0.0678569 0.0200656
0.118151 0.0721447 0.0221256
0.147356 0.0772259 0.0247654
0.177966 0.0829175 0.0278325
0.207706 0.0894026 0.0310063
0.237491 0.0962997 0.0341344
0.266835 0.102846 0.0370031
0.296971 0.109712 0.0397498
0.326894 0.11664 0.0425422
0.357382 0.124376 0.045655
0.388602 0.131975 0.0488746
0.419821 0.139498 0.0521706
0.451759 0.147066 0.055375
0.483192 0.154192 0.0583658
0.513863 0.160922 0.0612955
0.544152 0.167391 0.0641947
0.573144 0.173358 0.0669718
0.60116 0.179004 0.0697337
0.628275 0.1841 0.0723583
0.653773 0.188983 0.0750134
0.678325 0.193362 0.0776226
0.701869 0.197391 0.0800946
0.724636 0.201205 0.0825818
0.746426 0.204501 0.0849012
0.768017 0.207813 0.0872206
0.788922 0.21091 0.0894484
0.809445 0.213901 0.0916152
0.00978103 0.0704204 0.0225528
0.018555 0.0712749 0.0220951
0.0273899 0.0721599 0.0216373
0.0388647 0.0742504 0.0214847
0.0532235 0.0767681 0.021622
0.0707103 0.0798657 0.0221714
0.0920729 0.0834516 0.0230716
0.119707 0.0881666 0.024979
0.149584 0.0936904 0.0274052
0.181231 0.099733 0.0302586
0.211841 0.106661 0.0333257
0.243626 0.114199 0.0365148
0.272969 0.122026 0.0395361
0.303075 0.130297 0.0425422
0.332601 0.137942 0.0455787
0.362966 0.145632 0.0487831
0.393957 0.153231 0.052079
0.425208 0.160754 0.0552987
0.456962 0.168002 0.0582895
0.488319 0.174792 0.0610513
0.518791 0.181384 0.06392
0.549004 0.187671 0.0667124
0.577752 0.193332 0.069398
0.605768 0.198703 0.0721294
0.632654 0.203891 0.0747845
0.657954 0.208728 0.0775616
0.682292 0.213153 0.0802014
0.705699 0.217121 0.0827192
0.72845 0.220783 0.0851606
0.750195 0.223972 0.0874342
0.771588 0.227176 0.0897231
0.792218 0.230182 0.0918898
0.812665 0.233158 0.0940261
0.0113222 0.0859541 0.0267948
0.0197757 0.086656 0.0262608
0.028275 0.0874647 0.0257725
0.0395666 0.0899214 0.0255283
0.0534829 0.0927749 0.0255131
0.0711528 0.0964828 0.0259098
0.0922408 0.100679 0.0266117
0.119402 0.105898 0.0282292
0.150561 0.112612 0.0304875
0.184192 0.120012 0.0332647
0.216464 0.127703 0.0363012
0.250156 0.135439 0.0395972
0.279164 0.143511 0.042649
0.309163 0.15198 0.0456092
0.338109 0.159594 0.0486763
0.369039 0.167407 0.0520027
0.400137 0.174853 0.0552529
0.431724 0.182208 0.0583505
0.463478 0.189349 0.0612955
0.494743 0.19646 0.0643015
0.525261 0.20325 0.0674296
0.555215 0.209674 0.0703593
0.583642 0.215427 0.0731975
0.611154 0.220874 0.0759442
0.637797 0.225849 0.078584
0.662745 0.230594 0.081239
0.686992 0.234684 0.0837262
0.710246 0.238331 0.0860609
0.732815 0.241764 0.0883803
0.754421 0.244587 0.090486
0.775433 0.247501 0.0925917
0.795865 0.25037 0.0946517
0.816236 0.253117 0.0966812
0.013489 0.103487 0.0315099
0.0217746 0.104204 0.0310674
0.0300603 0.104921 0.0306401
0.04094 0.107729 0.0304265
0.0543679 0.111025 0.0304417
0.0722667 0.115831 0.0309453
0.0928969 0.121294 0.0316014
0.119295 0.127535 0.0328527
0.151339 0.134585 0.0346532
0.186572 0.142306 0.0371862
0.21976 0.150271 0.0399786
0.254185 0.158251 0.043061
0.28368 0.166308 0.0460365
0.315465 0.17438 0.0491188
0.345266 0.182147 0.0523232
0.376761 0.190524 0.0556497
0.407462 0.198428 0.0590982
0.438987 0.206271 0.0624399
0.470146 0.213596 0.065568
0.501289 0.220569 0.0686809
0.531701 0.227085 0.0717174
0.561624 0.233036 0.0744182
0.589502 0.238727 0.0772564
0.616953 0.243946 0.079942
0.64303 0.248692 0.0824903
0.667872 0.253071 0.0849928
0.691875 0.256901 0.0873121
0.714977 0.260334 0.0895247
0.737408 0.263432 0.0916609
0.758938 0.266041 0.0936294
0.779553 0.268711 0.0955978
0.799771 0.271275 0.0975204
0.819928 0.273838 0.0994278
0.0168002 0.124605 0.0370642
0.0249485 0.125383 0.0368048
0.0330968 0.126162 0.0365454
0.0432441 0.128557 0.0362402
0.0557717 0.131502 0.0360876
0.073518 0.136812 0.0365301
0.0938125 0.143267 0.0371557
0.120256 0.150317 0.0381476
0.152193 0.157855 0.0395209
0.186038 0.165988 0.0415808
0.22034 0.174182 0.0439918
0.25597 0.18294 0.0468299
0.288304 0.190921 0.049958
0.322545 0.198703 0.053315
0.353201 0.206973 0.0566262
0.384176 0.215366 0.0599069
0.414343 0.223316 0.0634928
0.44596 0.23125 0.0668345
0.476905 0.238453 0.0699779
0.5084 0.245212 0.0730449
0.538903 0.251255 0.0758373
0.568521 0.257038 0.0784924
0.596399 0.262409 0.0813458
0.623636 0.267536 0.0841382
0.649195 0.272282 0.0869001
0.673869 0.276677 0.0895247
0.69781 0.280415 0.0918746
0.720562 0.283696 0.0940871
0.742794 0.286549 0.0961471
0.764065 0.288991 0.0980392
0.784131 0.291463 0.0998703
0.804257 0.293767 0.101656
0.82385 0.295964 0.10338
0.0206912 0.147341 0.0430457
0.0287327 0.148104 0.0428626
0.036759 0.148714 0.042649
0.0463722 0.150942 0.0423285
0.05832 0.153429 0.0420539
0.0756542 0.15906 0.042359
0.0955215 0.165789 0.0428016
0.122225 0.173816 0.0437934
0.153399 0.182925 0.0451362
0.185931 0.191959 0.0469215
0.221653 0.200946 0.0489357
0.258793 0.209827 0.0514382
0.292744 0.217365 0.0544747
0.327733 0.224811 0.0578164
0.35845 0.232807 0.0610971
0.390845 0.240757 0.0646525
0.422156 0.248585 0.0682994
0.454353 0.256336 0.0713664
0.485374 0.263569 0.0744182
0.516609 0.270436 0.0775464
0.54641 0.276722 0.0805066
0.575143 0.282628 0.0835889
0.602564 0.288197 0.0867323
0.629496 0.293446 0.0897078
0.654841 0.297826 0.0924544
0.679454 0.301823 0.0949721
0.703243 0.305272 0.0972152
0.725765 0.308156 0.0992599
0.747921 0.310704 0.101137
0.768872 0.312718 0.102815
0.788617 0.3149 0.104448
0.808576 0.316823 0.10602
0.827573 0.318761 0.10753
0.0252995 0.171862 0.0495155
0.0333257 0.17261 0.0493324
0.0413672 0.173449 0.0491646
0.0507057 0.175433 0.0489204
0.0625467 0.177722 0.0485847
0.0792706 0.183581 0.0488136
0.0982681 0.190555 0.0491493
0.124773 0.199481 0.0502327
0.155032 0.21001 0.0515297
0.187472 0.219791 0.0532082
0.223484 0.22916 0.0548562
0.259281 0.238178 0.0569467
0.29369 0.245472 0.0593729
0.329335 0.253101 0.0624094
0.362966 0.260029 0.0659495
0.398474 0.266865 0.0697795
0.431342 0.274693 0.0731975
0.463523 0.282597 0.0762798
0.49395 0.28986 0.0795605
0.524269 0.296849 0.0827649
0.553246 0.303136 0.0859083
0.581415 0.309117 0.0891737
0.608682 0.314565 0.0923018
0.635386 0.319478 0.0951858
0.660655 0.323598 0.0978561
0.685206 0.327321 0.100267
0.708919 0.330404 0.102434
0.731365 0.332891 0.104372
0.753475 0.335149 0.106157
0.773938 0.336873 0.107729
0.793683 0.338537 0.109178
0.813565 0.340215 0.110582
0.831662 0.341711 0.111864
0.0310979 0.19971 0.0568246
0.0390784 0.200427 0.056611
0.0470741 0.201221 0.0563821
0.0563973 0.20293 0.0561685
0.0683757 0.205142 0.0557412
0.0841688 0.210376 0.0556802
0.102159 0.216922 0.0557717
0.127825 0.22623 0.056672
0.157565 0.237461 0.057908
0.190585 0.247944 0.0598917
0.225803 0.258091 0.0615854
0.260334 0.267414 0.0632944
0.296315 0.274846 0.0650034
0.333242 0.282399 0.0674296
0.368933 0.288289 0.0709392
0.405493 0.294331 0.0746319
0.437995 0.301778 0.0780194
0.470756 0.3093 0.0816663
0.50164 0.316274 0.0851606
0.532265 0.323262 0.0883955
0.561181 0.329442 0.0915236
0.589242 0.335393 0.0945296
0.616373 0.340719 0.0973678
0.642496 0.345449 0.100252
0.667506 0.349493 0.102983
0.691859 0.352865 0.10544
0.71516 0.355795 0.107744
0.737346 0.358068 0.109804
0.759167 0.360128 0.111635
0.778943 0.361532 0.113207
0.798367 0.363043 0.114733
0.817975 0.364462 0.116136
0.834882 0.365743 0.117388
0.037995 0.229877 0.0647898
0.0460059 0.230732 0.0645609
0.0539864 0.231403 0.064271
0.0644388 0.233173 0.06392
0.0763561 0.234989 0.0633097
0.0912184 0.239521 0.0630198
0.108141 0.244877 0.0628367
0.132631 0.253803 0.0636301
0.160723 0.26482 0.0647898
0.193408 0.276066 0.0669413
0.228794 0.287755 0.0689708
0.264393 0.298222 0.0708782
0.300603 0.305989 0.0721141
0.336721 0.313497 0.0739452
0.371878 0.318822 0.0764477
0.407492 0.324239 0.0791943
0.442145 0.33048 0.0832227
0.477607 0.336492 0.0875257
0.510307 0.343038 0.0909133
0.541665 0.349813 0.0939651
0.570565 0.355871 0.096849
0.598001 0.361776 0.0996719
0.624414 0.367117 0.10251
0.649729 0.371572 0.105455
0.674174 0.37557 0.108309
0.698314 0.378805 0.110918
0.721157 0.381445 0.113268
0.743114 0.383673 0.115419
0.764355 0.385534 0.117296
0.783536 0.386618 0.118883
0.802701 0.387747 0.120378
0.821653 0.388937 0.121767
0.837797 0.389914 0.122942
0.0461128 0.261006 0.073167
0.0542 0.261891 0.0729076
0.0625467 0.262592 0.0726482
0.0739452 0.264317 0.0720684
0.0857404 0.266087 0.071458
0.0996414 0.269841 0.071046
0.115694 0.274281 0.0706493
0.138354 0.282322 0.070985
0.164584 0.293034 0.0718242
0.196567 0.304753 0.0739757
0.232883 0.317876 0.076463
0.269657 0.329595 0.0788434
0.305135 0.338048 0.079881
0.340475 0.345586 0.081178
0.375906 0.350561 0.0826581
0.411978 0.355642 0.0845045
0.448585 0.360143 0.0886091
0.48542 0.364614 0.0927596
0.517632 0.370764 0.0959945
0.549447 0.376959 0.0993362
0.578622 0.382696 0.102434
0.606317 0.388235 0.105333
0.632822 0.393027 0.108156
0.658015 0.397269 0.11075
0.682567 0.401144 0.113252
0.705882 0.404242 0.115785
0.728222 0.407004 0.118181
0.749538 0.408988 0.120287
0.769848 0.41059 0.122225
0.788754 0.411582 0.124025
0.807553 0.41239 0.125612
0.825422 0.413275 0.127123
0.841306 0.414038 0.12842
0.0555581 0.294789 0.0823682
0.0636454 0.295674 0.0820325
0.0733043 0.29662 0.0816052
0.0850538 0.298329 0.0810407
0.0967575 0.300008 0.0804303
0.110307 0.303166 0.0798962
0.126604 0.306859 0.0791791
0.147539 0.313848 0.0789654
0.171695 0.323003 0.0793469
0.201892 0.334127 0.0812695
0.23653 0.347539 0.0838331
0.272847 0.360159 0.0863813
0.310048 0.370336 0.0880751
0.347814 0.379294 0.0898909
0.382971 0.384604 0.0909438
0.418524 0.389609 0.0922866
0.453498 0.392905 0.0949721
0.488518 0.396048 0.0976425
0.521721 0.400534 0.101289
0.555459 0.404791 0.105165
0.585992 0.409323 0.108324
0.614664 0.414176 0.111269
0.641535 0.418479 0.113909
0.666712 0.422568 0.116182
0.690822 0.426139 0.118334
0.713542 0.429191 0.120974
0.735302 0.431968 0.12343
0.756252 0.433845 0.125658
0.775753 0.435279 0.127703
0.794186 0.436088 0.129564
0.812818 0.436622 0.131182
0.829587 0.437293 0.132753
0.845167 0.437919 0.134188
0.0658274 0.329 0.092546
0.0742962 0.329946 0.0920424
0.085069 0.331014 0.0916152
0.0966812 0.33257 0.0909438
0.108324 0.334157 0.0902571
0.122164 0.336828 0.0895094
0.138338 0.340032 0.0884413
0.157595 0.345922 0.0878157
0.179721 0.353796 0.0878004
0.207401 0.364126 0.0890974
0.240146 0.377569 0.0915541
0.27599 0.390646 0.0942092
0.316381 0.40264 0.0969558
0.356222 0.413138 0.099321
0.389822 0.418494 0.0997024
0.425193 0.423423 0.100328
0.458839 0.425437 0.101442
0.492607 0.427359 0.102678
0.527626 0.429603 0.106432
0.562554 0.431907 0.110201
0.592798 0.435859 0.11339
0.622171 0.440116 0.11664
0.649409 0.443915 0.119448
0.674601 0.447913 0.12195
0.698955 0.451194 0.124407
0.72137 0.454093 0.126696
0.743145 0.456458 0.128801
0.763577 0.45832 0.130953
0.782483 0.459525 0.132784
0.800443 0.460212 0.134493
0.818509 0.460609 0.136126
0.833982 0.461189 0.137728
0.849119 0.461646 0.139208
0.0767834 0.365057 0.103334
0.0862287 0.366079 0.102831
0.0971542 0.367102 0.102358
0.108492 0.368536 0.101625
0.119997 0.36994 0.100862
0.134859 0.372519 0.0998856
0.150683 0.375387 0.0988174
0.168933 0.380575 0.0979171
0.190112 0.38703 0.0974289
0.215534 0.395941 0.0978866
0.24564 0.407477 0.0995346
0.279667 0.41973 0.101915
0.320241 0.432685 0.104921
0.360327 0.444205 0.1075
0.397101 0.451011 0.108782
0.435447 0.457557 0.110338
0.467994 0.459953 0.110643
0.501381 0.461769 0.111238
0.533608 0.462623 0.113237
0.565606 0.463325 0.115251
0.596231 0.465248 0.118502
0.627298 0.467323 0.122179
0.655406 0.469932 0.125429
0.681376 0.473091 0.12845
0.706371 0.475914 0.131106
0.729229 0.478523 0.132845
0.751476 0.480888 0.134508
0.771008 0.482429 0.136278
0.789532 0.483635 0.137942
0.806943 0.484184 0.139452
0.823484 0.484504 0.141115
0.838315 0.485054 0.142763
0.853086 0.485435 0.14432
0.0885481 0.401343 0.114687
0.0989242 0.402243 0.114107
0.109667 0.403098 0.113512
0.120897 0.40441 0.112703
0.132937 0.405875 0.111711
0.148165 0.408194 0.110582
0.163912 0.410895 0.10956
0.181216 0.415 0.108461
0.201053 0.419959 0.107378
0.223789 0.427436 0.106935
0.251011 0.437339 0.107805
0.282841 0.448432 0.109621
0.32369 0.462547 0.113024
0.364828 0.474861 0.116274
0.405295 0.48307 0.118471
0.445624 0.491051 0.120699
0.476066 0.493584 0.120226
0.509712 0.495811 0.120424
0.539345 0.495247 0.120531
0.569085 0.494408 0.120836
0.600946 0.494072 0.123995
0.633371 0.494118 0.127626
0.661875 0.495811 0.130892
0.688853 0.498543 0.134112
0.714549 0.500801 0.136767
0.73753 0.503151 0.138445
0.759854 0.505226 0.140169
0.778683 0.506523 0.141741
0.796887 0.507637 0.143252
0.813916 0.508003 0.14461
0.828779 0.508263 0.146136
0.843275 0.508736 0.147662
0.857664 0.509041 0.149126
0.100328 0.437781 0.126528
0.110842 0.438514 0.125887
0.121401 0.439429 0.125261
0.132342 0.440513 0.124315
0.145357 0.442023 0.123079
0.160494 0.44416 0.121904
0.175937 0.446479 0.120714
0.193271 0.450126 0.119371
0.212146 0.45449 0.117815
0.23331 0.460746 0.11664
0.258961 0.468696 0.117021
0.288655 0.478004 0.118151
0.327077 0.490547 0.121172
0.366354 0.502159 0.124056
0.409247 0.512276 0.126986
0.451667 0.521645 0.129915
0.485161 0.525383 0.130083
0.520836 0.529107 0.131044
0.549126 0.529091 0.130587
0.57792 0.528145 0.130404
0.607019 0.526757 0.131701
0.636255 0.525429 0.133257
0.664546 0.525307 0.135897
0.693141 0.525811 0.139116
0.719936 0.526696 0.142031
0.743801 0.528267 0.144411
0.766644 0.529534 0.146731
0.785412 0.53051 0.148028
0.803632 0.531365 0.149248
0.820096 0.531456 0.150271
0.834134 0.531624 0.151324
0.848508 0.532082 0.152392
0.862608 0.532311 0.153674
0.112947 0.473381 0.138628
0.123186 0.474052 0.137865
0.13344 0.474739 0.137102
0.144762 0.475868 0.13579
0.158175 0.47718 0.134554
0.173205 0.479133 0.133455
0.18851 0.481224 0.13228
0.20557 0.484245 0.130617
0.223636 0.487709 0.12874
0.24329 0.492607 0.127108
0.26714 0.498909 0.126619
0.294255 0.506905 0.126802
0.329839 0.518105 0.129183
0.367468 0.529107 0.131746
0.412757 0.540871 0.135485
0.457679 0.551934 0.139437
0.494438 0.557168 0.140414
0.531121 0.562371 0.141863
0.557748 0.562905 0.140658
0.586725 0.562249 0.140017
0.613291 0.559792 0.139452
0.639261 0.557015 0.138994
0.668223 0.554498 0.141283
0.698421 0.552956 0.144442
0.725887 0.552544 0.147524
0.750759 0.553262 0.150515
0.773831 0.553613 0.153109
0.792523 0.554437 0.15407
0.810803 0.554955 0.154971
0.826322 0.554833 0.155688
0.840024 0.554849 0.156252
0.85417 0.555291 0.156924
0.867826 0.555489 0.15819
0.124834 0.507866 0.150744
0.134813 0.508553 0.149828
0.14493 0.50927 0.148791
0.156573 0.510353 0.147463
0.170108 0.511467 0.146334
0.184802 0.513176 0.145159
0.199878 0.515038 0.143648
0.216571 0.517708 0.141726
0.233997 0.520729 0.139712
0.253223 0.524788 0.137942
0.275654 0.530022 0.136782
0.30103 0.536599 0.136217
0.334356 0.546075 0.137911
0.369879 0.555856 0.13994
0.414481 0.567376 0.143542
0.459144 0.578576 0.147341
0.498451 0.585184 0.148974
0.537636 0.591699 0.151415
0.566888 0.593454 0.150835
0.597498 0.594324 0.150561
0.622705 0.59263 0.149432
0.647562 0.58967 0.148409
0.674281 0.58645 0.149081
0.701549 0.583688 0.150408
0.727779 0.581796 0.152438
0.753948 0.580926 0.15523
0.778012 0.579873 0.157748
0.797436 0.57966 0.159304
0.816617 0.579263 0.160815
0.831815 0.578592 0.161715
0.84567 0.578286 0.162234
0.859922 0.578439 0.162921
0.87303 0.578408 0.163806
0.13637 0.541558 0.162692
0.14612 0.542214 0.161669
0.156161 0.542901 0.160357
0.168368 0.543816 0.159228
0.182055 0.544839 0.158175
0.196536 0.546395 0.157031
0.211444 0.54818 0.155016
0.227695 0.550546 0.152956
0.244648 0.553201 0.150927
0.263828 0.556497 0.149157
0.284916 0.560678 0.147509
0.308415 0.566064 0.146227
0.339055 0.573785 0.146914
0.372061 0.582132 0.148013
0.415595 0.593301 0.151339
0.459266 0.604196 0.154818
0.501274 0.61207 0.157412
0.542992 0.619913 0.160937
0.57528 0.623163 0.160998
0.606806 0.626291 0.161379
0.630976 0.625696 0.159716
0.655879 0.623056 0.15816
0.680522 0.619257 0.157198
0.704707 0.615244 0.156497
0.730495 0.611399 0.157733
0.757916 0.608454 0.160281
0.782437 0.605936 0.162692
0.802518 0.60473 0.164828
0.822217 0.603387 0.166888
0.83711 0.602274 0.16788
0.851087 0.601526 0.168353
0.865446 0.601434 0.1691
0.877989 0.601267 0.169512
0.147356 0.573846 0.174655
0.156924 0.574426 0.173281
0.166674 0.575113 0.171862
0.179568 0.575998 0.170901
0.193256 0.577035 0.16994
0.207568 0.578454 0.16849
0.221988 0.580102 0.166293
0.23772 0.582132 0.164111
0.254139 0.584482 0.161944
0.273091 0.58735 0.160067
0.293446 0.590799 0.158007
0.315801 0.595331 0.156283
0.344564 0.601572 0.156146
0.375555 0.608576 0.156435
0.417197 0.618708 0.159197
0.4589 0.628443 0.162066
0.501701 0.63682 0.164996
0.544533 0.645167 0.168734
0.578927 0.649485 0.169543
0.612726 0.653422 0.170855
0.639002 0.654139 0.169726
0.665217 0.653086 0.168414
0.688655 0.650477 0.166751
0.711269 0.646784 0.16524
0.735729 0.642283 0.165347
0.761364 0.638392 0.16643
0.784466 0.63476 0.167727
0.805188 0.632013 0.169619
0.825513 0.629297 0.171542
0.841184 0.627329 0.172778
0.855909 0.625772 0.173602
0.870817 0.624857 0.174655
0.883482 0.624262 0.17496
0.158434 0.605432 0.187213
0.168078 0.606027 0.185809
0.178149 0.606607 0.184466
0.19086 0.607385 0.183322
0.204257 0.608362 0.182208
0.218189 0.609628 0.180102
0.232319 0.611078 0.177676
0.247501 0.612924 0.17525
0.2636 0.614923 0.172839
0.282078 0.617456 0.170733
0.301808 0.620386 0.168521
0.323659 0.624231 0.166659
0.350607 0.629129 0.165667
0.37969 0.634943 0.165133
0.41883 0.643595 0.166995
0.458213 0.652262 0.169085
0.501305 0.66067 0.17203
0.544411 0.66923 0.175692
0.580667 0.674083 0.177279
0.616053 0.678508 0.179629
0.645106 0.680766 0.179309
0.672847 0.682261 0.178561
0.696071 0.681453 0.176806
0.718761 0.678584 0.174838
0.741665 0.674174 0.173617
0.764355 0.669459 0.172808
0.786191 0.664515 0.172946
0.807446 0.660029 0.174273
0.828336 0.655726 0.175753
0.844709 0.652888 0.177188
0.860471 0.650217 0.178485
0.876127 0.648402 0.180026
0.889052 0.647303 0.180438
0.169131 0.635645 0.199496
0.17879 0.636118 0.198169
0.189044 0.636576 0.196948
0.201694 0.6374 0.195834
0.214725 0.638132 0.194614
0.228107 0.639231 0.19202
0.24184 0.640604 0.189517
0.256703 0.642191 0.18674
0.272557 0.644007 0.183886
0.290333 0.646281 0.181353
0.309514 0.648966 0.178836
0.330922 0.652125 0.176669
0.356588 0.656245 0.175067
0.384115 0.661036 0.173831
0.420951 0.66836 0.174868
0.457984 0.675532 0.176059
0.500648 0.683635 0.178927
0.543359 0.69163 0.18233
0.580484 0.696773 0.184451
0.617227 0.701717 0.187228
0.648157 0.704814 0.187549
0.677409 0.707332 0.18764
0.702068 0.707973 0.186252
0.725521 0.706554 0.184421
0.747646 0.703502 0.182513
0.768719 0.699443 0.180606
0.789624 0.694072 0.179919
0.810056 0.688533 0.180163
0.830518 0.683207 0.180697
0.847211 0.67921 0.181979
0.863783 0.675334 0.183352
0.879957 0.672419 0.185
0.893462 0.670619 0.185626
0.17911 0.664576 0.211246
0.188724 0.664942 0.209995
0.199161 0.6654 0.208896
0.211444 0.66598 0.207706
0.224186 0.666667 0.206134
0.237171 0.66772 0.203494
0.250751 0.66891 0.201007
0.265339 0.67039 0.198093
0.280888 0.672114 0.194995
0.298116 0.674128 0.19205
0.316991 0.67657 0.189258
0.338155 0.679301 0.186923
0.362799 0.682765 0.184833
0.388785 0.68658 0.182925
0.42327 0.692531 0.183078
0.458 0.69836 0.183246
0.499626 0.705699 0.185626
0.541283 0.712917 0.188418
0.57908 0.718273 0.190829
0.616617 0.723507 0.193729
0.648646 0.726802 0.194614
0.679026 0.729702 0.195666
0.705577 0.731517 0.195087
0.73051 0.732113 0.193698
0.75288 0.731151 0.191821
0.773968 0.728664 0.1897
0.793744 0.723918 0.188098
0.811933 0.718166 0.186862
0.83061 0.712444 0.186114
0.84744 0.707042 0.186801
0.864088 0.701839 0.187594
0.880613 0.6981 0.189075
0.895171 0.695064 0.190021
0.188586 0.691951 0.222278
0.198123 0.692302 0.221057
0.208515 0.692653 0.219944
0.220539 0.693141 0.218555
0.232853 0.693843 0.216724
0.245747 0.694881 0.214252
0.259297 0.695872 0.211963
0.273838 0.6972 0.209155
0.289052 0.698711 0.205844
0.305745 0.700542 0.202594
0.324102 0.702708 0.199527
0.344808 0.705028 0.196811
0.368429 0.708019 0.194278
0.393469 0.711269 0.19205
