iOSLOG2LUTConverter/Resources/Secondary LUTS/THE GREEN KNIGHT.cube
TITLE "Generated by Resolve"
LUT_3D_SIZE 33
0.0303502 0.0281071 0.0120241
0.0390478 0.0278935 0.0108949
0.0471504 0.0278019 0.010193
0.0552377 0.0276951 0.00959792
0.0644388 0.0274205 0.00886549
0.0743725 0.0270542 0.0080415
0.0852674 0.0265965 0.00706493
0.098024 0.0259709 0.00584421
0.112581 0.0251316 0.00437934
0.129702 0.0241398 0.00274662
0.150591 0.0230259 0.00109865
0.175738 0.0218051 0
0.208713 0.0203708 0
0.249027 0.0204623 0
0.293965 0.0210422 0
0.33872 0.0226291 0
0.381796 0.024918 0
0.4206 0.027863 0
0.458885 0.0315709 0
0.498405 0.0365148 0
0.53875 0.0425422 0
0.579156 0.0492866 0
0.618189 0.0560616 0
0.656306 0.0630503 0
0.692668 0.0701305 0
0.726177 0.0767529 0
0.756802 0.0833753 0
0.786007 0.0899519 0
0.813504 0.0965744 0
0.839948 0.103243 0
0.865492 0.10988 0
0.889967 0.11664 0
0.913725 0.123293 0
0.0304875 0.0352331 0.0136263
0.0413367 0.0348516 0.0119631
0.0502022 0.0347601 0.0109865
0.0586557 0.0346685 0.0102998
0.0679789 0.0344549 0.00956741
0.0779736 0.0341802 0.00872816
0.0889143 0.0337377 0.00775158
0.101625 0.0332341 0.00657664
0.116091 0.0325475 0.00514229
0.132753 0.0316167 0.00340276
0.153399 0.030518 0.00114443
0.177752 0.0294957 0
0.208896 0.0282139 0
0.246906 0.0268406 0
0.290105 0.0268101 0
0.334661 0.0284886 0
0.378393 0.0311131 0
0.41825 0.0345312 0
0.456397 0.0386053 0
0.496162 0.0435798 0
0.537072 0.0495613 0
0.577783 0.0561227 0
0.618097 0.062974 0
0.657374 0.0700236 0
0.694789 0.0771344 0
0.729778 0.0841688 0
0.761761 0.0910048 0
0.791684 0.0977798 0
0.819837 0.104494 0
0.846815 0.111208 0
0.87274 0.117922 0
0.897536 0.12462 0
0.921599 0.131334 0
0.0289921 0.0437476 0.0158389
0.0407568 0.0433356 0.0144656
0.0517891 0.043122 0.0129091
0.0622263 0.0430152 0.0112459
0.0716106 0.0428931 0.0104372
0.0817273 0.0427405 0.00956741
0.0926833 0.0424964 0.00862135
0.105577 0.0420233 0.00741588
0.120027 0.0413367 0.00596628
0.136584 0.040528 0.00427253
0.156664 0.0394751 0.00213626
0.180453 0.0381781 0
0.21001 0.03682 0
0.246937 0.0352636 0
0.288731 0.0341802 0
0.332387 0.0343328 0
0.376898 0.037232 0
0.417594 0.0411994 0
0.455894 0.0456855 0
0.495857 0.0508736 0
0.537057 0.0568093 0
0.57818 0.0632486 0
0.619211 0.0700999 0
0.659434 0.0771801 0
0.69781 0.0843061 0
0.734142 0.0916915 0
0.767224 0.0987259 0
0.79762 0.105638 0
0.826413 0.112413 0
0.853895 0.119203 0
0.880049 0.125933 0
0.905013 0.132525 0
0.929335 0.139284 0
0.0275578 0.0526589 0.0183719
0.0393225 0.0525063 0.0172122
0.0525216 0.0522164 0.0150607
0.0654917 0.0518807 0.012726
0.0751812 0.0518196 0.0116121
0.0855421 0.0517281 0.0105592
0.0966049 0.0515755 0.00959792
0.109606 0.0511177 0.00834669
0.124132 0.0504921 0.00686656
0.140673 0.0496986 0.00511177
0.160433 0.0486915 0.00300603
0.183993 0.0474403 0.000411994
0.212482 0.0459754 0
0.248386 0.0447242 0
0.289479 0.0438544 0
0.333013 0.0438544 0
0.376806 0.0448615 0
0.418021 0.0485389 0
0.456641 0.0529488 0
0.496635 0.0581369 0
0.537972 0.0640116 0
0.579583 0.0704051 0
0.621164 0.0771801 0
0.662074 0.0843214 0
0.701534 0.0917067 0
0.738659 0.0991226 0
0.772549 0.10631 0
0.803479 0.113252 0
0.8327 0.120043 0
0.860533 0.126894 0
0.886976 0.133715 0
0.912123 0.140444 0
0.93669 0.147417 0
0.026154 0.0623331 0.0210269
0.0364843 0.0631113 0.0194553
0.0512093 0.0625925 0.0175479
0.0667735 0.0617533 0.0155337
0.078172 0.0616312 0.0135195
0.0894942 0.0615244 0.01178
0.100877 0.0613413 0.0106813
0.113771 0.0609445 0.00944533
0.128206 0.0604257 0.00802625
0.144991 0.059678 0.00613413
0.164675 0.0586862 0.00396735
0.18793 0.0574502 0.00137331
0.215869 0.0561074 0
0.250828 0.0545815 0
0.291295 0.0538338 0
0.334737 0.0540322 0
0.378805 0.0552529 0
0.419699 0.0574197 0
0.458106 0.0603799 0
0.498085 0.0654612 0
0.53959 0.0713359 0
0.581537 0.0776379 0
0.62356 0.0843519 0
0.665248 0.0915541 0
0.705547 0.0991531 0
0.743572 0.106615 0
0.778271 0.114 0
0.809598 0.120882 0
0.839399 0.127749 0
0.867628 0.134691 0
0.89424 0.141588 0
0.920424 0.149645 0
0.947173 0.160052 0
0.0252995 0.0729686 0.0240482
0.0334478 0.0745861 0.0222324
0.0486305 0.0741588 0.0207828
0.0656138 0.0730907 0.0192569
0.0797436 0.0728161 0.0163882
0.0931716 0.0725261 0.0139467
0.105348 0.0723735 0.0122225
0.118578 0.0720836 0.0108034
0.13312 0.0716411 0.00933852
0.149905 0.0709087 0.00753796
0.169833 0.0699321 0.00527962
0.193042 0.0686503 0.00259403
0.220615 0.067277 0
0.254978 0.0657206 0
0.294469 0.0645304 0
0.33753 0.0645609 0
0.381369 0.0657816 0
0.422919 0.0680705 0
0.461692 0.0712444 0
0.501137 0.0751354 0
0.542062 0.0797436 0
0.583856 0.0849012 0
0.62649 0.0914931 0
0.668818 0.0988022 0
0.709865 0.106401 0
0.748699 0.114 0
0.784115 0.121523 0
0.816144 0.128542 0
0.84654 0.135851 0
0.875898 0.144549 0
0.904311 0.153887 0
0.931823 0.163973 0
0.959075 0.175372 0
0.0250706 0.0844434 0.0278935
0.0314183 0.0863966 0.0263523
0.0453498 0.0864729 0.0249485
0.0620737 0.0859388 0.0236057
0.0797894 0.0852216 0.0201267
0.0961166 0.0847639 0.0169528
0.11014 0.0846265 0.0141756
0.123888 0.0843977 0.0124666
0.138766 0.084062 0.0109102
0.155657 0.0834516 0.00929274
0.175967 0.082536 0.00688182
0.199451 0.0814221 0.00410468
0.227039 0.0800641 0.00120546
0.260731 0.0785687 0
0.299779 0.0773938 0
0.342336 0.0769818 0
0.385595 0.0778515 0
0.42739 0.0800946 0
0.466728 0.08336 0
0.506111 0.0872206 0
0.547082 0.091722 0
0.589334 0.0969253 0
0.632349 0.102968 0
0.674952 0.109697 0
0.716426 0.116884 0
0.756008 0.124636 0
0.792157 0.132692 0
0.825666 0.140993 0
0.857496 0.150149 0
0.887755 0.15993 0
0.916716 0.170336 0
0.944579 0.181659 0
0.971817 0.193866 0
0.0247501 0.0979171 0.0332036
0.0297246 0.100053 0.0319982
0.0398871 0.10135 0.0299687
0.0525368 0.10222 0.0276188
0.0737469 0.100938 0.0261387
0.0942092 0.100008 0.0233158
0.113207 0.0996872 0.0182803
0.129366 0.0994888 0.015259
0.145571 0.0992447 0.0127565
0.163058 0.0988479 0.0108492
0.183444 0.0980392 0.00880446
0.207416 0.0969558 0.00605783
0.235294 0.0956741 0.00289921
0.268589 0.0941634 0
0.307301 0.0928359 0
0.349172 0.092195 0
0.39176 0.092546 0
0.433463 0.0942245 0
0.473121 0.0973983 0
0.512551 0.101228 0
0.553689 0.105653 0
0.596796 0.111147 0
0.640543 0.117418 0
0.683711 0.124178 0
0.725963 0.131777 0
0.766155 0.140078 0
0.803449 0.148699 0
0.838315 0.158297 0
0.87071 0.168383 0
0.901183 0.17908 0
0.930083 0.190661 0
0.957565 0.202976 0
0.984527 0.216098 0
0.0247959 0.113252 0.0395209
0.0291295 0.115511 0.0384833
0.0359045 0.117556 0.036759
0.0441749 0.119432 0.034638
0.0642405 0.119081 0.0328069
0.0862287 0.118532 0.0302739
0.111131 0.117449 0.0263828
0.132662 0.117128 0.0211795
0.152636 0.116915 0.0163119
0.171283 0.116854 0.0134432
0.192523 0.116243 0.0110781
0.217029 0.115251 0.00830091
0.245182 0.114122 0.0049897
0.278462 0.112612 0.00138857
0.316823 0.111208 0
0.358144 0.110491 0
0.400549 0.110826 0
0.442084 0.1122 0
0.481727 0.114885 0
0.521035 0.118746 0
0.563165 0.123659 0
0.606653 0.129244 0
0.650675 0.135637 0
0.694743 0.143053 0
0.737881 0.151247 0
0.778454 0.159884 0
0.817227 0.169711 0
0.852354 0.180041 0
0.884535 0.190906 0
0.914626 0.202701 0
0.942855 0.215045 0
0.970092 0.227802 0
0.996277 0.241932 0
0.0246433 0.131136 0.0469978
0.0287785 0.133577 0.046067
0.0333715 0.135927 0.0450904
0.0383154 0.138293 0.0441291
0.051133 0.140368 0.0404212
0.0706645 0.14107 0.0376287
0.101442 0.139284 0.0370642
0.130358 0.138399 0.0305486
0.157595 0.137896 0.0233158
0.180438 0.137942 0.0173648
0.202792 0.137713 0.0141756
0.228107 0.137087 0.0111391
0.256748 0.136156 0.0077821
0.290517 0.134844 0.00373846
0.328481 0.133562 0
0.36965 0.132967 0
0.411902 0.13341 0
0.453315 0.135103 0
0.492775 0.138018 0
0.532753 0.141772 0
0.574929 0.146532 0
0.618738 0.15227 0
0.6636 0.159289 0
0.708263 0.166918 0
0.751263 0.175662 0
0.792782 0.18526 0
0.831479 0.195544 0
0.866423 0.206455 0
0.897932 0.218128 0
0.927047 0.230213 0
0.954543 0.242725 0
0.981048 0.256458 0
1 0.271107 0
0.0243229 0.153002 0.0568246
0.027985 0.155612 0.055787
0.0319524 0.158145 0.0547799
0.0363775 0.160586 0.0537575
0.0433509 0.163058 0.052018
0.0552071 0.165286 0.0496223
0.0801862 0.166644 0.0454108
0.115602 0.165362 0.0433204
0.154131 0.163592 0.0382696
0.188785 0.163226 0.0242161
0.214313 0.163348 0.0189517
0.241276 0.163363 0.0148013
0.27042 0.162921 0.011429
0.304173 0.16199 0.00756847
0.342412 0.160937 0.00300603
0.383505 0.160494 0
0.425025 0.161181 0
0.465705 0.163424 0
0.506539 0.166964 0
0.547524 0.171527 0
0.590387 0.176837 0
0.634623 0.182788 0
0.678904 0.189731 0
0.723049 0.197665 0
0.766094 0.206485 0
0.807141 0.215991 0
0.845243 0.226413 0
0.879469 0.237629 0
0.909575 0.249226 0
0.937774 0.261418 0
0.964431 0.27425 0
0.989258 0.287785 0
1 0.301946 0
0.0254215 0.179248 0.0692302
0.0288701 0.182162 0.0682841
0.0322271 0.185061 0.0673838
0.0355077 0.187732 0.0663767
0.0392767 0.190646 0.0652476
0.0450904 0.193652 0.0637217
0.0584421 0.196963 0.0604562
0.0889601 0.198474 0.0566415
0.131884 0.198245 0.052369
0.181582 0.195453 0.0483864
0.224002 0.194888 0.02916
0.255909 0.195438 0.0207828
0.286336 0.195789 0.0162509
0.320668 0.195346 0.0124208
0.359289 0.19498 0.00814832
0.399786 0.195056 0.00347906
0.441352 0.196384 0
0.482292 0.199054 0
0.523644 0.203098 0
0.564614 0.208042 0
0.607217 0.213581 0
0.650507 0.219791 0
0.694545 0.226551 0
0.73817 0.234073 0
0.780453 0.242542 0
0.820447 0.251759 0
0.857481 0.261662 0
0.890166 0.272084 0
0.919158 0.283314 0
0.946181 0.295079 0
0.971939 0.307515 0
0.996765 0.320684 0
1 0.334981 0
0.0266117 0.211933 0.0841688
0.0292058 0.21471 0.0834821
0.0328985 0.217807 0.0828107
0.0366979 0.220768 0.0820478
0.0404669 0.224002 0.0811933
0.0442206 0.22739 0.0802319
0.0502327 0.231235 0.0786908
0.0653086 0.235065 0.0749218
0.0944228 0.238132 0.0691997
0.156497 0.236576 0.0654612
0.21529 0.23389 0.0572213
0.266911 0.23299 0.03682
0.304677 0.23444 0.0241855
0.340093 0.235492 0.0188296
0.378851 0.235981 0.0145571
0.419394 0.236912 0.0107576
0.460151 0.238758 0.00645457
0.50074 0.24184 0.00283818
0.541421 0.245487 0
0.581811 0.25008 0
0.623697 0.255238 0
0.666743 0.260914 0
0.70988 0.267185 0
0.752407 0.274037 0
0.793469 0.281529 0
0.832181 0.289677 0
0.867475 0.298573 0
0.898924 0.308232 0
0.927275 0.318853 0
0.954345 0.329992 0
0.980209 0.342275 0
1 0.355459 0
1 0.369558 0
0.0294957 0.250736 0.101747
0.0327611 0.253651 0.101335
0.0358129 0.256565 0.100969
0.039292 0.259602 0.100404
0.0429541 0.263233 0.0998398
0.0465858 0.267048 0.0991379
0.0510719 0.271458 0.0981613
0.056672 0.276249 0.0965896
0.0638132 0.281605 0.0941482
0.107301 0.286824 0.0822461
0.186847 0.283589 0.0798199
0.259419 0.280278 0.0708171
0.318532 0.279423 0.0474708
0.362295 0.280995 0.0314031
0.401648 0.282292 0.0237583
0.440894 0.283574 0.0188449
0.48011 0.285557 0.0155184
0.519783 0.288167 0.0116121
0.560357 0.29163 0.00772107
0.60032 0.295567 0.00387579
0.641382 0.299916 0.000427253
0.683192 0.304463 0
0.724987 0.309483 0
0.765835 0.315022 0
0.805051 0.321202 0
0.842435 0.328267 0
0.877241 0.336446 0
0.908583 0.345068 0
0.937362 0.355474 0
0.964523 0.366644 0
0.990585 0.378485 0
1 0.39118 0
1 0.404608 0.00291447
0.0353246 0.295003 0.121889
0.0382086 0.298421 0.121843
0.041001 0.301701 0.121813
0.0437324 0.305089 0.121675
0.0471504 0.308995 0.121386
0.0508888 0.313237 0.120928
0.054963 0.317891 0.12015
0.0589303 0.323156 0.119112
0.0631266 0.328756 0.117571
0.0911116 0.334524 0.110994
0.154238 0.337194 0.101686
0.23682 0.334188 0.096437
0.314 0.330297 0.0846265
0.379217 0.328954 0.0570535
0.424857 0.33077 0.0402991
0.463935 0.332433 0.0324559
0.502129 0.334051 0.0265812
0.541115 0.335821 0.0218357
0.580301 0.338033 0.0177615
0.619013 0.340963 0.0136568
0.658564 0.344045 0.00900282
0.698955 0.347433 0.00456245
0.739391 0.351278 0.000823987
0.779324 0.355825 0
0.818173 0.361242 0
0.855222 0.367376 0
0.889799 0.374731 0
0.920867 0.383536 0
0.948989 0.393362 0
0.975601 0.403937 0
1 0.415229 0.000808728
1 0.427375 0.00407416
1 0.441291 0.00814832
0.0412604 0.344106 0.144366
0.0439307 0.347555 0.144457
0.0465553 0.350988 0.144579
0.0490883 0.354223 0.144503
0.0521553 0.35816 0.144396
0.0560311 0.362478 0.144045
0.06009 0.367102 0.14345
0.0651255 0.372229 0.142565
0.0719921 0.377737 0.141146
0.0858167 0.383597 0.138048
0.132342 0.38941 0.125948
0.215366 0.388159 0.1178
0.304295 0.382528 0.112581
0.380652 0.378164 0.0949721
0.444068 0.376837 0.0645609
0.486671 0.379141 0.050782
0.524636 0.380743 0.0430304
0.562463 0.381735 0.0360876
0.600366 0.383078 0.0302739
0.637949 0.385061 0.0253605
0.676402 0.38706 0.0210727
0.716182 0.389792 0.0154574
0.755978 0.392844 0.0107576
0.795224 0.396597 0.00700389
0.833341 0.401526 0.00422675
0.869474 0.40737 0.00236515
0.902785 0.414282 0.00154116
0.93254 0.42237 0.00163272
0.960327 0.431693 0.00271611
0.98706 0.441749 0.00442512
1 0.453239 0.00695811
1 0.466148 0.0103456
1 0.480598 0.0145418
0.0463111 0.394766 0.168658
0.0489967 0.398123 0.168643
0.0519112 0.401251 0.168566
0.0560922 0.404425 0.168368
0.0611429 0.408026 0.167987
0.0662089 0.411948 0.167468
0.0720226 0.416358 0.166812
0.0785077 0.420996 0.165805
0.0858473 0.426123 0.164416
0.0955673 0.431571 0.16228
0.135546 0.436774 0.153338
0.198703 0.439307 0.140978
0.284031 0.434821 0.133944
0.371298 0.427146 0.127016
0.443961 0.422889 0.105257
0.502754 0.422049 0.0753338
0.545815 0.42472 0.0618906
0.583856 0.426047 0.053254
0.621042 0.427115 0.046067
0.657816 0.428717 0.0398413
0.695537 0.430304 0.0344701
0.733837 0.432288 0.0299229
0.772457 0.434775 0.0243687
0.810636 0.438102 0.0191806
0.847639 0.442237 0.0151522
0.882689 0.447379 0.0123751
0.915328 0.454139 0.0109407
0.945251 0.461967 0.0107729
0.973098 0.471244 0.0115816
0.999802 0.481727 0.0132296
1 0.493462 0.0155795
1 0.506615 0.0186923
1 0.521187 0.0227054
0.0688792 0.442771 0.193088
0.0715801 0.445808 0.192782
0.0743877 0.448737 0.192432
0.0781567 0.451713 0.191867
0.082002 0.455009 0.191272
0.0858778 0.458625 0.1906
0.0906844 0.462593 0.189685
0.0961624 0.466972 0.188479
0.102968 0.471702 0.186877
0.112795 0.476692 0.184787
0.138323 0.481666 0.179629
0.184909 0.486961 0.166293
0.26128 0.485557 0.155337
0.352239 0.477684 0.150042
0.432471 0.470771 0.141833
0.501503 0.467216 0.116228
0.560967 0.466712 0.0867323
0.603693 0.469749 0.0738994
0.640986 0.471443 0.0653697
0.676982 0.472663 0.0576638
0.713771 0.47364 0.0505074
0.750988 0.474891 0.0445411
0.788418 0.47657 0.0393378
0.825788 0.479149 0.0345464
0.862318 0.482963 0.0299687
0.897322 0.488151 0.0260777
0.929717 0.494804 0.0237583
0.959503 0.502937 0.0229648
0.986893 0.512398 0.0231632
1 0.523049 0.0241703
1 0.534981 0.0260166
1 0.54786 0.0286259
1 0.561791 0.0320897
0.0972305 0.489128 0.217334
0.100191 0.492027 0.216861
0.103609 0.494987 0.216342
0.107164 0.497795 0.215793
0.111025 0.500954 0.215198
0.115084 0.504356 0.214481
0.119921 0.508232 0.213626
0.125643 0.512459 0.212406
0.13254 0.516976 0.21088
0.141085 0.521721 0.209003
0.152361 0.526879 0.206561
0.190936 0.531487 0.197177
0.236286 0.536477 0.181353
0.319982 0.530602 0.171786
0.412238 0.520699 0.166552
0.49192 0.513558 0.153323
0.561746 0.509377 0.12401
0.619013 0.509483 0.0988327
0.660136 0.513146 0.08748
0.696406 0.514931 0.0787976
0.732906 0.515892 0.0702678
0.769833 0.517174 0.0630503
0.806897 0.518868 0.0563363
0.843442 0.521355 0.0508888
0.878981 0.525109 0.0464332
0.912886 0.530205 0.0421912
0.943908 0.536812 0.0395819
0.973144 0.54493 0.0374609
1 0.55436 0.0363928
1 0.564843 0.0367742
1 0.576272 0.0380407
1 0.588464 0.0400092
1 0.602228 0.0429084
0.133577 0.535561 0.241489
0.137057 0.538369 0.241016
0.14049 0.541024 0.240467
0.144228 0.543526 0.239918
0.148074 0.54638 0.239307
0.152377 0.549645 0.238682
0.15697 0.553124 0.237797
0.162371 0.556954 0.236652
0.168612 0.561044 0.235248
0.175906 0.565469 0.233509
0.184573 0.570092 0.23122
0.198749 0.574762 0.227543
0.238651 0.57882 0.215366
0.291722 0.581079 0.197879
0.383581 0.570962 0.187915
0.475013 0.560311 0.180728
0.553079 0.553628 0.163333
0.620172 0.549813 0.133089
0.674495 0.551369 0.111589
0.715404 0.556848 0.101747
0.752697 0.558862 0.0929885
0.788815 0.560342 0.0851453
0.825147 0.56228 0.0775769
0.860945 0.56495 0.0708019
0.895521 0.568505 0.0650645
0.928191 0.573343 0.06009
0.958648 0.579721 0.0565347
0.987076 0.587396 0.0537423
1 0.596124 0.0519875
1 0.605859 0.0509346
1 0.616785 0.0506142
1 0.628748 0.0516518
1 0.641825 0.0539712
0.17145 0.581476 0.265263
0.175097 0.584024 0.264836
0.178805 0.586404 0.264393
0.182391 0.588754 0.26392
0.186221 0.591211 0.263355
0.190204 0.594079 0.262699
0.194308 0.597116 0.261814
0.19913 0.600549 0.260792
0.204303 0.60412 0.259434
0.210559 0.608179 0.257877
0.217456 0.612345 0.255924
0.226078 0.616907 0.253529
0.247211 0.621164 0.247227
0.28896 0.625147 0.231205
0.352789 0.624033 0.213275
0.450156 0.610636 0.204074
0.539498 0.600626 0.195026
0.613687 0.595148 0.175235
0.676936 0.592386 0.146151
0.730266 0.59472 0.127047
0.771603 0.601053 0.117494
0.808576 0.603754 0.108766
0.843824 0.605463 0.100649
0.878462 0.607843 0.0935378
0.911894 0.611093 0.0872816
0.94345 0.615656 0.0815747
0.972961 0.621393 0.0768139
1 0.628519 0.0725567
1 0.636774 0.0693217
1 0.646097 0.0667277
1 0.656458 0.0645914
1 0.667781 0.0638132
1 0.679789 0.0642863
0.20676 0.625589 0.287785
0.210544 0.627894 0.287449
0.214527 0.63006 0.287129
0.218372 0.63209 0.286717
0.222354 0.634424 0.286336
0.226535 0.637034 0.285832
0.231022 0.639963 0.285252
0.235859 0.643168 0.284504
0.24126 0.646784 0.283589
0.247105 0.650584 0.282338
0.253666 0.654688 0.280751
0.26157 0.659068 0.278523
0.271199 0.663447 0.275288
0.303334 0.667018 0.263951
0.347784 0.670817 0.243534
0.430716 0.661479 0.229389
0.522591 0.64892 0.220661
0.605539 0.64033 0.209857
0.673472 0.63624 0.188968
0.733867 0.634592 0.160327
0.785534 0.637476 0.144656
0.826566 0.644175 0.135088
0.862119 0.647028 0.125933
0.895582 0.649348 0.117601
0.927581 0.652491 0.110552
0.957671 0.656672 0.10457
0.986175 0.66186 0.0995499
1 0.668345 0.0948501
1 0.675776 0.0903334
1 0.684153 0.0862898
1 0.693477 0.0824903
1 0.70341 0.0795453
1 0.713985 0.0772412
0.241764 0.669291 0.309957
0.246021 0.671443 0.309834
0.250172 0.673564 0.309697
0.254337 0.675563 0.309514
0.258579 0.677821 0.309377
0.263111 0.680293 0.309102
0.267811 0.683055 0.308705
0.27303 0.686198 0.308156
0.278569 0.689555 0.307378
0.28452 0.693187 0.306279
0.291249 0.697078 0.304784
0.298543 0.700999 0.302739
0.307164 0.70515 0.299855
0.325292 0.709102 0.293172
0.36495 0.712566 0.275456
0.419013 0.711788 0.255406
0.511009 0.697169 0.244953
0.596582 0.686168 0.237339
0.66862 0.679469 0.22472
0.732372 0.676463 0.201846
0.791058 0.674922 0.175265
0.840497 0.679515 0.162722
0.879866 0.686275 0.153536
0.912749 0.688823 0.14464
0.943114 0.691569 0.136751
0.971923 0.695094 0.129503
0.999069 0.699565 0.123278
1 0.704967 0.117983
1 0.711192 0.113069
1 0.718257 0.108293
1 0.726116 0.103197
1 0.7346 0.0982528
1 0.743877 0.0935378
0.277501 0.713115 0.331884
0.282109 0.715129 0.33196
0.28661 0.717037 0.33193
0.29099 0.718929 0.331853
0.295567 0.720836 0.331746
0.300542 0.723125 0.331563
0.305928 0.725673 0.331319
0.311559 0.728466 0.330831
0.317525 0.731441 0.330129
0.323842 0.734722 0.329091
0.330709 0.738186 0.327672
0.338094 0.741756 0.325734
0.346578 0.74548 0.322911
0.358587 0.749249 0.318166
0.392142 0.75227 0.303151
0.436759 0.753216 0.283665
0.508721 0.742596 0.268574
0.593942 0.729671 0.260563
0.66923 0.720745 0.252277
0.733242 0.71577 0.236454
0.792401 0.712886 0.212207
0.84622 0.711192 0.191531
0.891859 0.717906 0.181476
0.927916 0.723934 0.17258
0.957397 0.72665 0.164202
0.984878 0.729427 0.156222
1 0.732952 0.148898
1 0.737484 0.142351
1 0.742748 0.136248
1 0.748608 0.130755
1 0.755108 0.125032
1 0.762219 0.118944
1 0.770306 0.112474
0.315648 0.754635 0.352605
0.320134 0.756359 0.35256
0.32459 0.757992 0.352438
0.329122 0.759625 0.352316
0.333745 0.761425 0.352148
0.338689 0.763455 0.351965
0.344091 0.765805 0.351659
0.349752 0.768307 0.351186
0.355703 0.771038 0.350484
0.362097 0.773907 0.349493
0.369055 0.77705 0.34818
0.376532 0.780331 0.346303
0.384512 0.783505 0.343633
0.397513 0.786755 0.338476
0.424903 0.789395 0.325551
0.461753 0.791211 0.306752
0.523461 0.782422 0.291112
0.600748 0.768719 0.281575
0.675532 0.75845 0.275212
0.738705 0.751873 0.263432
0.797559 0.747875 0.24416
0.850965 0.744778 0.221027
0.898848 0.743969 0.206622
0.938109 0.751904 0.199298
0.970108 0.757321 0.191226
0.996704 0.75996 0.183291
1 0.762661 0.175509
1 0.766201 0.168063
1 0.770428 0.160632
1 0.77528 0.153582
1 0.780682 0.146624
1 0.786465 0.139986
1 0.793103 0.132296
0.35404 0.793881 0.372168
0.358328 0.795331 0.37203
0.362631 0.796796 0.371878
0.366949 0.798154 0.371664
0.371557 0.799741 0.371389
0.37644 0.801511 0.371084
0.381628 0.80354 0.370657
0.387213 0.805753 0.370062
0.392935 0.808026 0.369207
0.399207 0.810636 0.368124
0.405783 0.813245 0.366705
0.412818 0.815915 0.364645
0.420523 0.818692 0.361959
0.434012 0.82121 0.356222
0.459297 0.823331 0.34345
0.490257 0.82562 0.325154
0.546731 0.816373 0.31043
0.614557 0.802548 0.299153
0.686168 0.791806 0.294224
0.74757 0.784192 0.285161
0.804425 0.778836 0.270069
0.856382 0.775708 0.249165
0.902388 0.771435 0.230686
0.943862 0.774227 0.222065
0.978241 0.781369 0.215732
1 0.785977 0.208331
1 0.788464 0.200885
1 0.791074 0.193469
1 0.794293 0.185718
1 0.798154 0.177707
1 0.802472 0.169223
1 0.807324 0.160479
1 0.812955 0.151568
0.392477 0.828763 0.389944
0.396628 0.829953 0.389731
0.400671 0.831128 0.389502
0.404791 0.832349 0.389212
0.409155 0.833692 0.3888
0.41384 0.835264 0.388312
0.418677 0.836942 0.387686
0.423865 0.838804 0.386984
0.429282 0.840787 0.385962
0.435172 0.842908 0.384756
0.441154 0.845045 0.3832
0.447776 0.84741 0.380972
0.454749 0.849699 0.378195
0.469917 0.85156 0.371099
0.493797 0.853178 0.357946
0.520317 0.855848 0.339803
0.573358 0.845335 0.326741
0.633005 0.831907 0.315022
0.699962 0.821027 0.310353
0.759564 0.812619 0.302785
0.812909 0.806531 0.290623
0.862303 0.802457 0.273686
0.907286 0.799634 0.253758
0.947082 0.796429 0.242023
0.983383 0.8009 0.235966
1 0.807004 0.23032
1 0.810651 0.223728
1 0.812848 0.216953
1 0.815091 0.209537
1 0.817884 0.201404
1 0.821347 0.192432
1 0.825666 0.182422
1 0.830686 0.171649
0.430625 0.859388 0.406317
0.434516 0.860334 0.406027
0.438407 0.86128 0.405737
0.44242 0.862257 0.40528
0.446647 0.863401 0.404776
0.451072 0.864759 0.40415
0.455726 0.866133 0.403403
0.460716 0.867658 0.402564
0.465904 0.869398 0.40148
