iOSLOG2LUTConverter/Resources/Secondary LUTS/THE REVENANT.cube
TITLE "Generated by Resolve"
LUT_3D_SIZE 9
0 0 0.0265354
0.0281682 0.0190433 0.0465705
0.113664 0.0385443 0.071809
0.203113 0.0661479 0.101854
0.283391 0.0920729 0.128801
0.358373 0.117418 0.153079
0.426917 0.139986 0.175708
0.490242 0.159609 0.195621
0.55491 0.178027 0.2168
0.000137331 0.0882887 0.0808423
0.0444953 0.0895247 0.0864271
0.128511 0.0962844 0.099794
0.212894 0.105898 0.118853
0.292195 0.120485 0.139834
0.365438 0.13724 0.159976
0.432471 0.15523 0.182132
0.496422 0.17171 0.201251
0.560723 0.187488 0.220935
0.037232 0.191119 0.153399
0.0643168 0.192325 0.155337
0.145205 0.202121 0.166766
0.233616 0.209812 0.175647
0.315679 0.204929 0.186023
0.386923 0.203189 0.195422
0.452384 0.208118 0.209644
0.51548 0.215427 0.224582
0.578958 0.221897 0.238132
0.078706 0.28893 0.223407
0.0889296 0.29041 0.224964
0.157626 0.302098 0.236408
0.25127 0.319005 0.25034
0.337133 0.329763 0.258686
0.411124 0.318135 0.26041
0.477546 0.304463 0.263539
0.542794 0.295506 0.270161
0.605753 0.28838 0.275929
0.125124 0.391211 0.298222
0.12958 0.391165 0.298665
0.175006 0.398566 0.306264
0.267536 0.416938 0.322988
0.35259 0.434455 0.337346
0.429343 0.447044 0.34406
0.50074 0.432944 0.342611
0.569284 0.414359 0.342718
0.636164 0.394736 0.342046
0.172946 0.489693 0.375189
0.175952 0.489448 0.375494
0.203632 0.492897 0.379019
0.286992 0.510491 0.395499
0.367132 0.526696 0.412314
0.44097 0.542107 0.427573
0.517098 0.555535 0.437247
0.587549 0.542306 0.436393
0.657908 0.518547 0.435431
0.218326 0.582132 0.452689
0.220691 0.581765 0.453025
0.239643 0.583963 0.455879
0.308415 0.598215 0.469154
0.383078 0.613993 0.484504
0.45301 0.629084 0.499901
0.526482 0.643824 0.516426
0.601099 0.656092 0.525292
0.673182 0.649958 0.530327
0.258473 0.664973 0.521416
0.260365 0.664851 0.521721
0.275395 0.666941 0.523842
0.332464 0.679713 0.533959
0.400671 0.694194 0.547494
0.468025 0.709194 0.561105
0.538384 0.72433 0.576089
0.60882 0.738003 0.591806
0.672801 0.746563 0.601877
0.294881 0.736492 0.583505
0.296773 0.736568 0.583825
0.311238 0.739956 0.585824
0.359838 0.751247 0.594278
0.420768 0.765255 0.605097
0.48397 0.780118 0.616037
0.551553 0.794308 0.629435
0.61738 0.8065 0.644205
0.665919 0.815808 0.655787
0 0.0166476 0.0757153
0.0341344 0.0235447 0.0891585
0.122133 0.0428473 0.107362
0.207614 0.0693675 0.128817
0.287877 0.095964 0.14963
0.362387 0.119844 0.169039
0.430488 0.142107 0.189471
0.492988 0.16112 0.206851
0.557092 0.179019 0.226108
0.0112459 0.0945907 0.123064
0.0472725 0.0952773 0.121981
0.132601 0.0997482 0.134676
0.217441 0.109819 0.146517
0.295903 0.124498 0.162676
0.368399 0.139879 0.177203
0.436271 0.157687 0.195758
0.500511 0.174014 0.21323
0.562905 0.188449 0.230167
0.0476539 0.19205 0.177142
0.0703746 0.194781 0.179141
0.14667 0.202731 0.190097
0.234989 0.208301 0.197604
0.317037 0.204074 0.203326
0.389441 0.205325 0.211566
0.455009 0.210834 0.223514
0.518532 0.217624 0.235554
0.581353 0.223255 0.246983
0.0862287 0.290318 0.240269
0.0936599 0.290455 0.24062
0.158145 0.301823 0.251972
0.251148 0.318898 0.266972
0.337728 0.328527 0.273869
0.412085 0.31667 0.273243
0.479179 0.30277 0.274678
0.544945 0.295979 0.280079
0.608515 0.289601 0.284672
0.130709 0.392813 0.311666
0.134737 0.392691 0.311894
0.175937 0.398657 0.318059
0.267964 0.417044 0.334569
0.352865 0.434958 0.349218
0.429648 0.446494 0.355703
0.501686 0.432959 0.353689
0.569833 0.413565 0.35172
0.63772 0.393179 0.349538
0.176394 0.489632 0.384756
0.179538 0.489845 0.385534
0.204761 0.493065 0.388693
0.286809 0.510597 0.404807
0.36672 0.52665 0.421332
0.440757 0.542336 0.43714
0.516548 0.555505 0.44683
0.587701 0.543145 0.445823
0.658671 0.518791 0.443641
0.221134 0.582834 0.460395
0.223468 0.582452 0.460853
0.241199 0.584375 0.463432
0.3084 0.59881 0.47715
0.383017 0.614298 0.491691
0.453269 0.629908 0.50721
0.526696 0.644923 0.523491
0.60087 0.656413 0.532082
0.673426 0.65127 0.537255
0.260899 0.666163 0.527443
0.262699 0.665949 0.527642
0.275959 0.667201 0.529671
0.331456 0.679805 0.539483
0.400504 0.694606 0.553094
0.468116 0.70959 0.566552
0.538567 0.724804 0.581231
0.608759 0.738613 0.596567
0.673533 0.747417 0.606867
0.29662 0.736171 0.588174
0.298299 0.736294 0.588373
0.311498 0.739406 0.590082
0.359518 0.750729 0.598245
0.420523 0.764767 0.609232
0.484092 0.77969 0.620356
0.551354 0.793606 0.633219
0.618006 0.806836 0.648402
0.666667 0.815579 0.659541
0 0.0411841 0.137789
0.0231327 0.046128 0.150912
0.123079 0.0605631 0.171359
0.215946 0.0814069 0.189456
0.298344 0.104234 0.202899
0.373434 0.128817 0.218616
0.439445 0.149233 0.230945
0.503197 0.16817 0.24445
0.566705 0.185306 0.260807
0.00852979 0.108721 0.178088
0.0336309 0.108644 0.180865
0.13138 0.114275 0.193957
0.223239 0.122713 0.20705
0.306798 0.133135 0.215412
0.378759 0.14905 0.226184
0.445029 0.164614 0.237751
0.508507 0.180499 0.250446
0.572442 0.195392 0.265187
0.0594644 0.198657 0.222171
0.0746166 0.200488 0.225086
0.145647 0.208942 0.236835
0.237629 0.217212 0.251606
0.322301 0.215137 0.254994
0.396689 0.215671 0.258228
0.462135 0.218921 0.263737
0.527276 0.223972 0.271626
0.589868 0.229603 0.281788
0.104738 0.292439 0.282704
0.109133 0.292073 0.28278
0.159457 0.301442 0.291417
0.253956 0.319875 0.308354
0.338704 0.329274 0.318471
0.415335 0.319081 0.315496
0.484092 0.30808 0.313726
0.551278 0.30193 0.314595
0.617884 0.29662 0.317678
0.146883 0.394675 0.349187
0.150164 0.394568 0.349401
0.179171 0.398825 0.354238
0.269169 0.417624 0.370169
0.352773 0.435248 0.387289
0.430182 0.446555 0.397147
0.503273 0.433021 0.392096
0.572992 0.412802 0.386282
0.641901 0.393606 0.382635
0.190234 0.493324 0.419394
0.192782 0.492988 0.419532
0.209354 0.4934 0.421347
0.285893 0.510018 0.436072
0.367224 0.527749 0.453269
0.440848 0.54374 0.469261
0.516457 0.557275 0.480507
0.588785 0.545861 0.478614
0.661585 0.518883 0.472908
0.232441 0.58587 0.489693
0.234363 0.585779 0.489555
0.245853 0.585779 0.491661
0.306752 0.598688 0.503136
0.382437 0.615213 0.517876
0.453773 0.631678 0.531929
0.526467 0.646845 0.546304
0.600137 0.658793 0.557092
0.674784 0.654017 0.560784
0.26981 0.66836 0.549737
0.271489 0.668299 0.549889
0.280385 0.668559 0.551324
0.329458 0.679072 0.559899
0.399664 0.695445 0.572641
0.468864 0.711131 0.586603
0.539086 0.72665 0.600046
0.608164 0.740337 0.613748
0.675212 0.750393 0.624842
0.302968 0.735805 0.604044
0.304387 0.735821 0.604288
0.313298 0.73727 0.604669
0.359518 0.748028 0.613367
0.419913 0.762219 0.62388
0.483772 0.777325 0.635599
0.551492 0.791821 0.646876
0.618494 0.805493 0.662531
0.670024 0.813581 0.674388
0 0.0771496 0.205722
0.0121614 0.0774548 0.211276
0.106889 0.0864881 0.231266
0.214542 0.1028 0.253651
0.305104 0.122606 0.269551
0.38201 0.140826 0.279576
0.450629 0.161898 0.291752
0.514992 0.179385 0.302358
0.577523 0.195926 0.314672
0.0111849 0.127443 0.233509
0.0225223 0.124666 0.23299
0.117006 0.131594 0.251072
0.221302 0.140337 0.270161
0.309575 0.149737 0.280415
0.387823 0.16228 0.288762
0.454887 0.177554 0.298451
0.519387 0.191943 0.307485
0.582437 0.205982 0.318685
0.0563058 0.209735 0.278614
0.0633555 0.209598 0.281071
0.130541 0.217578 0.29221
0.233845 0.229953 0.312291
0.32311 0.231128 0.319783
0.400961 0.230518 0.322362
0.469551 0.2336 0.325551
0.535378 0.237079 0.329747
0.598489 0.241169 0.334264
0.110765 0.298604 0.336172
0.114519 0.298466 0.336385
0.147005 0.303563 0.341878
0.249104 0.32491 0.361639
0.339178 0.340063 0.379477
0.417441 0.336599 0.38143
0.490166 0.32575 0.376394
0.559823 0.316487 0.373663
0.626505 0.309331 0.374487
0.163638 0.397467 0.398627
0.166552 0.397589 0.399603
0.182757 0.399847 0.403021
0.266606 0.417624 0.41883
0.35314 0.436149 0.436637
0.430076 0.450919 0.453971
0.504448 0.44387 0.45301
0.57882 0.423865 0.444129
0.650126 0.407919 0.440757
0.208545 0.495979 0.466407
0.210941 0.495903 0.466941
0.219928 0.495766 0.467384
0.283192 0.5093 0.480095
0.36643 0.527199 0.496254
0.442191 0.544671 0.512642
0.515343 0.558236 0.525887
0.590814 0.549325 0.525933
0.665431 0.524453 0.519265
0.248173 0.588251 0.528191
0.249866 0.588235 0.527977
0.256977 0.588144 0.52932
0.304814 0.59791 0.538521
0.38117 0.615091 0.552239
0.454108 0.631662 0.566506
0.527825 0.648035 0.581231
0.600595 0.662715 0.59498
0.674296 0.659388 0.597147
0.283452 0.671366 0.582071
0.284916 0.671336 0.582162
0.290532 0.669917 0.582696
0.329183 0.679103 0.590127
0.398733 0.696132 0.602853
0.46804 0.71223 0.614557
0.540017 0.728634 0.628229
0.60914 0.742351 0.640848
0.67837 0.755566 0.654765
0.312947 0.732662 0.628473
0.31429 0.732586 0.628824
0.320302 0.732784 0.62977
0.357595 0.741192 0.636927
0.418738 0.756237 0.647883
0.482658 0.771176 0.659739
0.550973 0.786267 0.671305
0.619684 0.799786 0.685847
0.679225 0.81004 0.700053
0.00531014 0.112871 0.268147
0.0181888 0.112917 0.271229
0.0721752 0.118029 0.288746
0.201785 0.131411 0.316823
0.302296 0.146609 0.337896
0.38471 0.160815 0.348638
0.454795 0.177035 0.35729
0.521706 0.194202 0.366232
0.586847 0.208713 0.375036
0.0184329 0.150454 0.291432
0.0284276 0.150057 0.293629
0.0799268 0.151827 0.305867
0.206867 0.163119 0.331991
0.307118 0.172122 0.348837
0.388037 0.18143 0.358495
0.458595 0.192889 0.364324
0.526055 0.206943 0.372702
0.590646 0.219104 0.380301
0.0547341 0.222889 0.339773
0.0611429 0.222614 0.340673
0.0995956 0.22562 0.347372
0.219226 0.241047 0.369787
0.320302 0.248356 0.385809
0.400214 0.251087 0.395102
0.471916 0.250446 0.394903
0.539681 0.253147 0.396902
0.605035 0.255299 0.399817
0.106615 0.309667 0.395636
0.110567 0.309514 0.396399
0.127901 0.310475 0.399756
0.232792 0.331273 0.419333
0.333776 0.349462 0.439948
0.415747 0.354635 0.452949
0.489586 0.346365 0.450645
0.562203 0.334554 0.445365
0.630976 0.32607 0.444495
0.167758 0.406882 0.456947
0.170199 0.406332 0.45623
0.179156 0.406226 0.458137
0.251286 0.422248 0.472435
0.347463 0.442847 0.490791
0.429465 0.460456 0.509392
0.504509 0.464073 0.519783
0.58024 0.447059 0.513176
0.653239 0.429099 0.50898
0.221149 0.500145 0.514336
0.223072 0.499931 0.514397
0.229664 0.499275 0.515648
0.274983 0.508995 0.523995
0.3626 0.528771 0.539773
0.4421 0.547555 0.556481
0.517632 0.564691 0.572885
0.591852 0.566888 0.580911
0.66601 0.545632 0.575265
0.263996 0.591348 0.570062
0.265736 0.591501 0.570397
0.271122 0.590616 0.57052
0.302266 0.597711 0.576928
0.379156 0.615381 0.590555
0.454139 0.632181 0.604425
0.530129 0.649638 0.618845
0.601404 0.664668 0.632441
0.673533 0.670314 0.640543
0.29868 0.673823 0.617945
0.299947 0.673472 0.61799
0.30518 0.673701 0.618845
0.329503 0.678645 0.623468
0.397238 0.696025 0.636011
0.467658 0.712505 0.647883
0.541161 0.729458 0.661616
0.611429 0.743877 0.674891
0.681132 0.757946 0.688869
0.324468 0.724163 0.660182
0.325567 0.724193 0.660273
0.329824 0.72401 0.660868
0.352453 0.728695 0.665003
0.415305 0.745022 0.676753
0.481361 0.761105 0.689235
0.55111 0.777173 0.700847
0.626459 0.793545 0.714839
0.693767 0.806943 0.728588
0.0176547 0.14551 0.330648
0.0286412 0.146502 0.334981
0.0529946 0.147066 0.344289
0.168856 0.159869 0.373053
0.294942 0.173251 0.399954
0.381857 0.186984 0.420386
0.455238 0.198886 0.429664
0.525185 0.211475 0.434989
0.59176 0.224155 0.443534
0.0278477 0.174075 0.35079
0.0371862 0.174304 0.353674
0.0572366 0.172686 0.359838
0.176318 0.186099 0.38706
0.298848 0.195438 0.410834
0.384405 0.204578 0.427848
0.458335 0.214221 0.436896
0.528603 0.223743 0.440894
0.596017 0.234577 0.450034
0.0579995 0.236957 0.398322
0.0645762 0.236759 0.399954
0.0808576 0.234165 0.402884
0.191318 0.250568 0.424704
0.311025 0.26331 0.445624
0.396063 0.267155 0.459571
0.47013 0.270558 0.466957
0.540597 0.271199 0.469596
0.607645 0.272175 0.471061
0.104601 0.321767 0.455238
0.108446 0.320897 0.455406
0.119692 0.318883 0.45713
0.20705 0.33492 0.474083
0.32369 0.356847 0.495964
0.411765 0.365927 0.511559
0.486503 0.366476 0.519463
0.560922 0.356588 0.517281
0.631067 0.34403 0.513481
0.164691 0.417624 0.512016
0.167544 0.417533 0.511788
0.175402 0.416693 0.51342
0.230182 0.427161 0.523903
0.335729 0.449104 0.542428
0.424262 0.468925 0.561669
0.503563 0.47718 0.57499
0.578546 0.47068 0.577386
0.651972 0.451575 0.572091
0.223087 0.508721 0.562478
0.225147 0.508995 0.563165
0.23125 0.508614 0.564721
0.260884 0.513664 0.570169
0.352422 0.535698 0.586938
0.435813 0.55407 0.602136
0.515587 0.572396 0.618128
0.590936 0.582193 0.63064
0.664729 0.571939 0.631952
0.273274 0.597009 0.613092
0.27483 0.59707 0.613458
0.279408 0.595651 0.612421
0.296818 0.598825 0.615824
0.370871 0.617456 0.629496
0.450706 0.636133 0.64329
0.528069 0.65449 0.658137
0.603006 0.671504 0.672587
0.675135 0.683223 0.685969
0.312398 0.678004 0.65774
0.313512 0.677821 0.657588
0.317784 0.677378 0.657252
0.331289 0.67953 0.659449
0.391516 0.69427 0.670604
0.464561 0.712642 0.683894
0.539559 0.72987 0.697169
0.61207 0.745418 0.710445
0.685115 0.760998 0.725368
0.331807 0.717037 0.688182
0.332876 0.717128 0.688228
0.33698 0.717098 0.688685
0.356939 0.721706 0.691508
0.417502 0.738231 0.701915
0.48716 0.75642 0.713298
0.565087 0.775311 0.725551
0.648524 0.79472 0.739025
0.723308 0.81207 0.750713
0.0310674 0.175967 0.394141
0.0400702 0.175692 0.395636
0.0599985 0.176135 0.402701
0.128923 0.183993 0.426169
0.27776 0.202075 0.459373
0.374365 0.212116 0.48127
0.451789 0.225162 0.500328
0.524269 0.234607 0.507912
0.592615 0.245457 0.514382
0.0396124 0.198581 0.412131
0.0474708 0.197436 0.411383
0.0657816 0.196277 0.417456
0.133776 0.203906 0.439033
0.281407 0.220768 0.469642
0.377783 0.228092 0.488792
0.45568 0.238392 0.505455
0.527199 0.246586 0.513924
0.59527 0.255192 0.519112
0.0623331 0.248768 0.452094
0.0686351 0.248203 0.45243
0.0847486 0.247883 0.458106
0.153674 0.25597 0.472816
0.293233 0.278645 0.501671
0.389242 0.284153 0.516915
0.465049 0.288945 0.530129
0.537682 0.2916 0.537118
0.607233 0.293492 0.539467
0.104173 0.332052 0.509148
0.108507 0.331899 0.510353
0.119783 0.329274 0.511345
0.175021 0.336919 0.522103
0.305867 0.362188 0.545129
0.404501 0.375967 0.562005
0.482933 0.378103 0.573266
0.555673 0.378576 0.57998
0.627909 0.365927 0.577295
0.162387 0.429053 0.563638
0.165209 0.428855 0.564034
0.173297 0.42739 0.565194
0.204059 0.430732 0.571679
0.317906 0.454017 0.590646
0.415229 0.473976 0.607935
0.498924 0.486702 0.623545
0.574823 0.486351 0.63006
0.648905 0.476051 0.631052
0.220706 0.520241 0.611841
0.222766 0.520409 0.612497
0.229053 0.519768 0.613306
0.245991 0.520668 0.616022
0.332479 0.539803 0.63003
0.425727 0.560769 0.646708
0.509316 0.579171 0.662959
0.587915 0.59144 0.676966
0.662074 0.590921 0.684077
0.274205 0.606821 0.657008
0.275547 0.606592 0.657099
0.281041 0.606958 0.657786
0.290593 0.606821 0.658793
0.35436 0.621942 0.670069
0.439857 0.642435 0.6851
0.521889 0.661875 0.700298
0.598917 0.678691 0.714778
0.674891 0.691951 0.729427
0.318074 0.683467 0.693675
0.319265 0.683482 0.693858
0.323323 0.682887 0.69369
0.332433 0.683497 0.694667
0.384665 0.697124 0.704082
0.460899 0.716289 0.717418
0.539025 0.734722 0.729458
0.615259 0.752117 0.741299
0.692958 0.76939 0.754742
0.334432 0.716365 0.702281
0.335668 0.716442 0.702174
0.344533 0.718242 0.703243
0.379004 0.727398 0.708827
0.442283 0.744686 0.719371
0.519188 0.764523 0.731441
0.596613 0.783093 0.743404
0.676768 0.801816 0.755398
0.757168 0.820905 0.76817
0.0444495 0.202304 0.455589
0.052369 0.202167 0.456168
0.0716411 0.203815 0.464836
0.103517 0.205081 0.479637
0.248966 0.22768 0.511421
0.3617 0.238117 0.533181
0.445487 0.248966 0.552438
0.520043 0.259907 0.566918
0.59089 0.26891 0.575387
0.050721 0.219562 0.468956
0.0578317 0.218723 0.469017
0.0763256 0.22002 0.476905
0.107591 0.220142 0.489952
0.252766 0.24271 0.519677
0.365942 0.252338 0.540291
0.447959 0.261738 0.558114
0.522286 0.270909 0.571878
0.594186 0.278981 0.580941
0.0691844 0.263447 0.503517
0.0749981 0.262669 0.503853
0.0908827 0.262562 0.50988
0.122347 0.263432 0.519112
0.265095 0.288609 0.544717
0.375814 0.299947 0.563439
0.458808 0.30515 0.578347
0.532464 0.311055 0.590875
0.603769 0.31574 0.598703
0.105531 0.341802 0.556191
0.109697 0.341207 0.556344
0.121996 0.340322 0.558953
0.148501 0.340627 0.565759
0.281315 0.364935 0.586786
0.392081 0.384451 0.606836
0.475975 0.386389 0.616693
0.551385 0.389105 0.626215
0.622812 0.388724 0.633249
0.16054 0.437934 0.609369
0.163363 0.437613 0.609842
0.17232 0.437034 0.612116
0.187304 0.435035 0.614664
0.293904 0.455756 0.630518
0.404913 0.478981 0.650126
0.492851 0.492805 0.666636
0.571084 0.494087 0.674235
0.645289 0.491737 0.680781
0.217731 0.530114 0.656046
0.219791 0.529992 0.656245
0.226337 0.529335 0.657542
0.236683 0.52813 0.659144
0.308766 0.541924 0.670878
0.41442 0.566125 0.688777
0.501717 0.58407 0.705242
0.585031 0.598566 0.720592
0.660746 0.599329 0.727611
0.272068 0.616403 0.697993
0.273365 0.615961 0.69778
0.278981 0.616526 0.699138
0.287526 0.616556 0.699825
0.339239 0.627787 0.708324
0.43064 0.649516 0.723751
0.514138 0.66772 0.738582
0.595728 0.685771 0.752575
0.673579 0.699382 0.764523
0.320363 0.690196 0.713954
0.321569 0.690196 0.713939
0.326513 0.690623 0.714046
0.340139 0.69247 0.715434
0.40209 0.708659 0.725109
0.475837 0.727443 0.73666
0.552605 0.745327 0.74786
0.629786 0.763134 0.758907
0.705409 0.778836 0.769894
0.347082 0.720851 0.715541
0.352834 0.722438 0.716442
0.379263 0.729778 0.721019
0.430106 0.743679 0.729763
0.487785 0.758389 0.738842
0.555871 0.774792 0.749218
0.632898 0.792874 0.760876
0.715206 0.811978 0.773709
0.775006 0.825452 0.782879
0.0569924 0.225925 0.510933
0.0641794 0.226337 0.512764
0.0820172 0.227405 0.520424
0.102052 0.225971 0.531441
0.208865 0.244205 0.554635
0.346136 0.266972 0.583291
0.438041 0.27245 0.59881
0.513756 0.282185 0.613428
0.585321 0.294881 0.628199
0.0616312 0.239582 0.522255
0.0675975 0.238056 0.520928
0.0853132 0.239643 0.528725
0.105638 0.237217 0.537789
0.211597 0.256107 0.561654
0.348608 0.278828 0.588861
0.440833 0.283772 0.604395
0.516777 0.291752 0.618204
0.587915 0.302953 0.631708
0.076936 0.280247 0.54995
0.0830243 0.28127 0.552651
0.0979324 0.280308 0.55761
0.116213 0.276005 0.56228
0.22414 0.294911 0.583642
0.360174 0.318853 0.608148
0.449607 0.32105 0.620447
0.526741 0.326482 0.634073
0.596582 0.333181 0.645243
0.10869 0.352087 0.598413
0.112718 0.351507 0.598581
0.125124 0.350942 0.601556
0.141161 0.349386 0.60705
0.248386 0.366979 0.623316
0.377569 0.391012 0.6448
0.466896 0.396078 0.657069
0.544549 0.396017 0.665629
0.614923 0.395987 0.673716
0.158923 0.4439 0.648966
0.161669 0.44329 0.648936
0.170886 0.442649 0.651438
0.18436 0.441855 0.655253
0.269734 0.456077 0.667597
0.392279 0.481346 0.688777
0.485222 0.497429 0.705272
0.565927 0.499229 0.714473
0.640177 0.495445 0.720027
0.214252 0.536797 0.697078
0.216358 0.536629 0.697261
0.223102 0.535927 0.699062
0.233036 0.534432 0.700832
0.290242 0.543816 0.70901
0.403189 0.568917 0.727581
0.49572 0.589151 0.744854
0.57908 0.60354 0.75964
0.657618 0.605417 0.768399
0.271687 0.62443 0.725872
0.273228 0.624414 0.725887
0.278355 0.624002 0.726726
0.28835 0.624125 0.72752
0.338125 0.633677 0.734417
0.431495 0.655787 0.747723
0.519081 0.675639 0.760784
0.599878 0.691386 0.7729
0.680125 0.706691 0.78526
0.322698 0.695247 0.726757
0.324529 0.69546 0.726879
0.334188 0.697276 0.727932
0.368856 0.70544 0.733043
0.432563 0.722011 0.742916
0.499352 0.738308 0.752758
0.572503 0.755184 0.763256
0.644709 0.770642 0.773449
0.721386 0.787655 0.784649
0.412299 0.742336 0.740429
0.418845 0.743816 0.741421
0.443595 0.750225 0.745159
0.481392 0.759518 0.750866
0.53138 0.77116 0.758114
0.601801 0.787686 0.768963
0.673442 0.803632 0.779904
0.74197 0.819226 0.790341
0.788098 0.828763 0.796963
