iOSLOG2LUTConverter/Resources/Secondary LUTS/THE GREEN KNIGHT.cube
TITLE "Generated by Resolve"
LUT_3D_SIZE 9
0.0303502 0.0281071 0.0120241
0.0644388 0.0274205 0.00886549
0.112581 0.0251316 0.00437934
0.208713 0.0203708 0
0.381796 0.024918 0
0.53875 0.0425422 0
0.692668 0.0701305 0
0.813504 0.0965744 0
0.913725 0.123293 0
0.026154 0.0623331 0.0210269
0.078172 0.0616312 0.0135195
0.128206 0.0604257 0.00802625
0.215869 0.0561074 0
0.378805 0.0552529 0
0.53959 0.0713359 0
0.705547 0.0991531 0
0.839399 0.127749 0
0.947173 0.160052 0
0.0247959 0.113252 0.0395209
0.0642405 0.119081 0.0328069
0.152636 0.116915 0.0163119
0.245182 0.114122 0.0049897
0.400549 0.110826 0
0.563165 0.123659 0
0.737881 0.151247 0
0.884535 0.190906 0
0.996277 0.241932 0
0.0266117 0.211933 0.0841688
0.0404669 0.224002 0.0811933
0.0944228 0.238132 0.0691997
0.304677 0.23444 0.0241855
0.460151 0.238758 0.00645457
0.623697 0.255238 0
0.793469 0.281529 0
0.927275 0.318853 0
1 0.369558 0
0.0463111 0.394766 0.168658
0.0611429 0.408026 0.167987
0.0858473 0.426123 0.164416
0.284031 0.434821 0.133944
0.545815 0.42472 0.0618906
0.695537 0.430304 0.0344701
0.847639 0.442237 0.0151522
0.973098 0.471244 0.0115816
1 0.521187 0.0227054
0.17145 0.581476 0.265263
0.186221 0.591211 0.263355
0.204303 0.60412 0.259434
0.247211 0.621164 0.247227
0.539498 0.600626 0.195026
0.771603 0.601053 0.117494
0.911894 0.611093 0.0872816
1 0.636774 0.0693217
1 0.679789 0.0642863
0.315648 0.754635 0.352605
0.333745 0.761425 0.352148
0.355703 0.771038 0.350484
0.384512 0.783505 0.343633
0.523461 0.782422 0.291112
0.797559 0.747875 0.24416
0.970108 0.757321 0.191226
1 0.770428 0.160632
1 0.793103 0.132296
0.467079 0.886885 0.421393
0.48217 0.890288 0.41944
0.500221 0.895232 0.415641
0.525185 0.901045 0.405371
0.629969 0.891234 0.355673
0.831312 0.852354 0.324651
0.988235 0.835492 0.268544
1 0.850278 0.249729
1 0.861067 0.215564
0.548882 0.964141 0.453513
0.562036 0.966033 0.450675
0.577646 0.968795 0.446586
0.613184 0.971527 0.431128
0.697795 0.963623 0.397955
0.847883 0.928878 0.379431
0.991119 0.905394 0.334859
1 0.899046 0.303471
1 0.910246 0.290211
0.0342565 0.0332189 0.0290227
0.0688945 0.03299 0.0264286
0.119081 0.0310674 0.0220493
0.21976 0.0260624 0.0129397
0.392004 0.0302434 0.00277714
0.550927 0.0506905 0.00105287
0.705486 0.0778668 0
0.827024 0.104936 0
0.927382 0.13164 0
0.0414282 0.0675059 0.0391241
0.0822309 0.0699779 0.0331579
0.135943 0.068864 0.0271916
0.229587 0.0647746 0.0168307
0.395193 0.0650797 0.00247196
0.555276 0.0799268 0.000228885
0.721645 0.107729 0
0.853697 0.136461 0
0.964324 0.175937 0.00601205
0.0466926 0.121645 0.0591897
0.0681926 0.130816 0.0542916
0.161028 0.129412 0.0391546
0.260777 0.126879 0.0250858
0.42002 0.125017 0.00967422
0.583001 0.139422 0.00128176
0.757778 0.168841 0.000259403
0.900587 0.210086 0.00428778
1 0.26154 0.0135042
0.0583047 0.230732 0.109895
0.06804 0.243259 0.106493
0.102373 0.260014 0.0981613
0.322606 0.25713 0.0533455
0.479805 0.261326 0.0310979
0.642191 0.277256 0.0171206
0.807523 0.301091 0.00880446
0.936706 0.336675 0.00958267
1 0.386175 0.0210727
0.125612 0.413016 0.199252
0.140612 0.426123 0.197894
0.16025 0.443153 0.193057
0.291691 0.456489 0.164569
0.559869 0.442512 0.0988022
0.709316 0.447272 0.0644846
0.858625 0.457267 0.0416419
0.981445 0.48629 0.035996
1 0.535927 0.0463111
0.2551 0.593179 0.295018
0.272908 0.602579 0.293828
0.288594 0.615305 0.290166
0.313619 0.631876 0.280552
0.543633 0.618006 0.231037
0.780743 0.61384 0.160494
0.919127 0.623911 0.127016
1 0.648524 0.103593
1 0.689067 0.0917983
0.385473 0.761746 0.379309
0.402762 0.768139 0.378943
0.423026 0.777234 0.377127
0.448524 0.788861 0.370016
0.544457 0.794568 0.325902
0.803998 0.75758 0.281117
0.972015 0.763241 0.23032
1 0.775021 0.199145
1 0.795895 0.166018
0.528847 0.884672 0.446647
0.543038 0.887907 0.444648
0.559503 0.892454 0.440818
0.578729 0.898009 0.432166
0.645975 0.898116 0.391028
0.833127 0.858076 0.358724
0.988556 0.840177 0.305974
1 0.851301 0.287007
1 0.861677 0.249928
0.600473 0.957229 0.476326
0.613062 0.95906 0.473548
0.627863 0.9617 0.469642
0.647913 0.965606 0.463478
0.709407 0.967636 0.433097
0.843717 0.934585 0.411582
0.98822 0.908537 0.3729
1 0.899413 0.340307
1 0.909514 0.326635
0.0359655 0.0437781 0.0485084
0.0771954 0.0409552 0.0472877
0.128527 0.0394293 0.0418097
0.230732 0.0326696 0.0302586
0.399847 0.0368048 0.0175479
0.561151 0.0583963 0.00991836
0.718456 0.0861372 0.00619516
0.841794 0.113787 0.00923171
0.944213 0.142336 0.019089
0.0488746 0.0793011 0.0590677
0.0875105 0.0811017 0.0571298
0.145098 0.080293 0.050309
0.244968 0.0762951 0.0389105
0.411383 0.0770733 0.0226139
0.572961 0.0931563 0.0157321
0.739635 0.119921 0.0136873
0.873487 0.153628 0.0193332
0.984268 0.197299 0.0308232
0.0665293 0.137697 0.0836347
0.0977035 0.143755 0.0810254
0.170565 0.147326 0.068574
0.280552 0.144656 0.050721
0.441733 0.14464 0.0343786
0.606958 0.16112 0.0256199
0.780636 0.191669 0.0224918
0.916991 0.233921 0.0265965
1 0.285512 0.0377966
0.105821 0.257496 0.143862
0.130663 0.268605 0.142321
0.148318 0.288396 0.135256
0.346807 0.288746 0.0919814
0.503532 0.292393 0.0638895
0.663523 0.30515 0.0461585
0.822736 0.325536 0.0348363
0.947692 0.359869 0.0358129
1 0.407553 0.048249
0.211246 0.433722 0.237461
0.230884 0.445762 0.235859
0.249958 0.463386 0.231479
0.306279 0.484215 0.209964
0.577356 0.465461 0.148531
0.725063 0.468742 0.1084
0.872114 0.477546 0.0784924
0.991638 0.507362 0.0695506
1 0.555611 0.0782788
0.325856 0.607889 0.327291
0.344457 0.617472 0.326787
0.366735 0.630411 0.324971
0.388602 0.646555 0.315602
0.549874 0.642176 0.271626
0.792615 0.631922 0.209003
0.927733 0.641321 0.173846
1 0.664149 0.147463
1 0.701167 0.127337
0.449912 0.76907 0.408347
0.471641 0.775418 0.408988
0.495125 0.784115 0.407965
0.517555 0.794659 0.400397
0.576211 0.80589 0.366598
0.812497 0.769619 0.32285
0.975479 0.771572 0.273442
1 0.781949 0.240009
1 0.800336 0.20354
0.589349 0.88217 0.473808
0.60647 0.885451 0.472602
0.62269 0.889769 0.468925
0.639033 0.894652 0.459907
0.677317 0.898772 0.431571
0.834745 0.865415 0.395789
0.989105 0.846036 0.34696
1 0.853422 0.327794
1 0.862638 0.289586
0.653925 0.949432 0.50074
0.666026 0.951202 0.498177
0.679988 0.953811 0.494377
0.698314 0.957702 0.488869
0.737072 0.962249 0.472969
0.83978 0.94255 0.445426
0.985214 0.912459 0.412985
1 0.900832 0.379232
1 0.909483 0.365682
0.0387121 0.0622568 0.0751049
0.0793011 0.0605325 0.0746624
0.141268 0.0542153 0.0697795
0.249378 0.0436713 0.0527962
0.415183 0.0471962 0.0390021
0.574182 0.0665904 0.0339513
0.735592 0.0962081 0.0325628
0.862699 0.128466 0.0400854
0.974075 0.169894 0.0533913
0.056733 0.0994125 0.0878767
0.0973678 0.100649 0.0863508
0.158968 0.0983444 0.0809644
0.2663 0.0938582 0.0680858
0.431571 0.0948348 0.0501259
0.595636 0.112657 0.0443275
0.764401 0.141894 0.0442817
0.899382 0.17995 0.0503243
1 0.227237 0.0604868
0.0763409 0.167346 0.118379
0.123156 0.170489 0.115694
0.182834 0.176745 0.108934
0.307256 0.174029 0.0869154
0.46949 0.176089 0.0688334
0.636896 0.195254 0.0594339
0.806058 0.225803 0.0545815
0.932982 0.267048 0.0584268
1 0.317266 0.069749
0.133547 0.302602 0.188296
0.17821 0.31014 0.188296
0.233845 0.32166 0.185443
0.366552 0.3308 0.154986
0.531197 0.331136 0.110323
0.686015 0.339422 0.0859083
0.840452 0.356573 0.0713664
0.960479 0.388952 0.0717174
1 0.436927 0.0852216
0.248753 0.471717 0.27895
0.296284 0.476143 0.278782
0.338109 0.487327 0.276173
0.367163 0.509071 0.263752
0.597711 0.494331 0.205844
0.744045 0.496376 0.164706
0.887846 0.505211 0.130037
1 0.534066 0.114672
1 0.581384 0.119753
0.383032 0.632136 0.363775
0.413993 0.637018 0.364034
0.43859 0.648814 0.362478
0.465324 0.665141 0.354513
0.558434 0.674037 0.315618
0.808881 0.654093 0.259342
0.938048 0.662989 0.224384
1 0.682979 0.197818
1 0.716213 0.170047
0.517784 0.777035 0.441382
0.539483 0.782055 0.44155
0.564004 0.790539 0.440696
0.591379 0.800748 0.434379
0.624643 0.812299 0.413443
0.82153 0.784115 0.369055
0.979721 0.781796 0.321752
1 0.790356 0.286625
1 0.806119 0.243977
0.646876 0.878233 0.502098
0.663432 0.881697 0.500908
0.683299 0.886336 0.498268
0.702037 0.891096 0.490043
0.720577 0.896025 0.473136
0.83653 0.875227 0.434104
0.990356 0.854215 0.389899
1 0.856733 0.371893
1 0.86453 0.334295
0.69984 0.940612 0.524361
0.715511 0.94287 0.522911
0.731792 0.945754 0.52015
0.74931 0.949676 0.514946
0.774289 0.955383 0.507332
0.840284 0.953384 0.482078
0.98114 0.917906 0.454353
1 0.903975 0.419776
1 0.910491 0.406775
0.0429694 0.09131 0.111635
0.0813153 0.0916609 0.110018
0.1673 0.0728771 0.107103
0.273808 0.0686656 0.0905318
0.440681 0.0605936 0.0650492
0.599985 0.0858625 0.0642863
0.763775 0.119234 0.0683757
0.896483 0.159838 0.0792706
1 0.206653 0.0932479
0.0643626 0.132219 0.12929
0.10486 0.133684 0.127382
0.180377 0.12636 0.123857
0.298238 0.119738 0.106035
0.460105 0.122301 0.0893111
0.626352 0.143404 0.0815747
0.796597 0.175753 0.0812695
0.925139 0.216968 0.0878614
1 0.267323 0.104509
0.0944228 0.215152 0.171298
0.141497 0.218173 0.167041
0.215702 0.219684 0.16083
0.341756 0.218814 0.139437
0.502586 0.223911 0.117693
0.667155 0.241642 0.104311
0.82858 0.269078 0.0965133
0.945251 0.306584 0.0991379
1 0.35491 0.112078
0.163668 0.360616 0.243214
0.220417 0.366003 0.242679
0.293156 0.370794 0.240101
0.384375 0.381125 0.224247
0.559045 0.374914 0.17464
0.710735 0.379065 0.141314
0.859678 0.393072 0.12163
0.973709 0.423957 0.11902
1 0.472572 0.13228
0.296208 0.516915 0.323964
0.336675 0.521065 0.323293
0.393668 0.524697 0.321523
0.445731 0.536416 0.312276
0.613169 0.530755 0.268193
0.765454 0.530709 0.226123
0.903502 0.538796 0.191012
1 0.566354 0.168795
1 0.611154 0.167758
0.416403 0.670176 0.404318
0.450523 0.67306 0.404791
0.498711 0.675456 0.404303
0.54638 0.684672 0.397833
0.592142 0.702998 0.371725
0.824399 0.680476 0.315984
0.949325 0.688273 0.278309
1 0.705165 0.249302
1 0.732525 0.217029
0.554559 0.799435 0.476509
0.584512 0.799786 0.476631
0.626703 0.799191 0.475853
0.663096 0.805905 0.469886
0.690837 0.817609 0.454414
0.83003 0.801221 0.417014
0.983093 0.792477 0.37438
1 0.799374 0.33904
1 0.812833 0.290059
0.676631 0.888411 0.531121
0.702785 0.886503 0.529885
0.736034 0.883543 0.527306
0.760159 0.887114 0.520027
0.779568 0.892287 0.505699
0.83975 0.888502 0.474037
0.990097 0.861692 0.437797
1 0.861372 0.41767
1 0.867185 0.382681
0.740337 0.932433 0.547845
0.756588 0.934188 0.546334
0.77525 0.93698 0.544244
0.797864 0.941772 0.541085
0.822507 0.947616 0.534737
0.858793 0.953658 0.523217
0.97528 0.925795 0.494682
1 0.909575 0.460563
1 0.912871 0.448432
0.0484627 0.136553 0.163165
0.0900435 0.136767 0.160937
0.169223 0.123735 0.158511
0.307881 0.104921 0.141802
0.474784 0.0952621 0.116548
0.642954 0.109041 0.101884
0.803967 0.151888 0.109712
0.926421 0.200015 0.12694
1 0.252781 0.150011
0.0737621 0.185595 0.187808
0.11812 0.186526 0.184375
0.190402 0.185458 0.179614
0.337926 0.167376 0.163622
0.504189 0.16556 0.141985
0.665476 0.190127 0.135851
0.826001 0.225574 0.135149
0.942336 0.265553 0.141314
1 0.312718 0.154406
0.127932 0.279957 0.233417
0.175341 0.284627 0.231327
0.252461 0.287633 0.226429
0.386831 0.281468 0.209003
0.536461 0.284947 0.18143
0.695689 0.297032 0.161151
0.845563 0.317266 0.147906
0.95697 0.351293 0.149462
1 0.398047 0.163455
0.214786 0.423484 0.300786
0.265797 0.42681 0.298772
0.337865 0.428763 0.295079
0.445914 0.426657 0.286748
0.590311 0.424826 0.246479
0.7364 0.424643 0.208438
0.878691 0.435294 0.181109
0.989181 0.466011 0.175631
1 0.51519 0.185702
0.340566 0.569024 0.375143
0.3823 0.57055 0.373266
0.434607 0.572198 0.369894
0.517235 0.569467 0.362554
0.62356 0.575891 0.333761
0.791165 0.571466 0.28719
0.92047 0.578958 0.254444
1 0.603189 0.228534
1 0.643214 0.2177
0.463142 0.71014 0.44892
0.494682 0.712505 0.449195
0.539391 0.714427 0.448249
0.611749 0.710887 0.44271
0.663508 0.723644 0.427176
0.840085 0.710903 0.379644
0.959258 0.714397 0.338994
1 0.727047 0.305684
1 0.749599 0.266972
0.591348 0.824628 0.513207
0.619638 0.824567 0.512779
0.658778 0.823148 0.511086
0.718273 0.8168 0.505577
0.763958 0.821744 0.493828
0.837232 0.821195 0.464714
0.987549 0.80444 0.427878
1 0.809293 0.395346
1 0.82002 0.342107
0.697978 0.902647 0.557504
0.722805 0.900832 0.556313
0.755428 0.897444 0.554376
0.801404 0.889433 0.548562
0.836088 0.889189 0.537423
0.862486 0.893568 0.518227
0.989502 0.870024 0.484855
1 0.866682 0.463874
1 0.871199 0.43267
0.748196 0.94107 0.570108
0.77113 0.939269 0.568963
0.800748 0.936492 0.567407
0.836469 0.934371 0.565103
0.86566 0.940795 0.560708
0.894514 0.948135 0.55375
0.96643 0.938216 0.531273
1 0.918013 0.501137
1 0.917082 0.489006
0.0616312 0.199908 0.227863
0.108476 0.199481 0.224491
0.188373 0.195239 0.218845
0.375021 0.147906 0.209949
0.518639 0.161166 0.188373
0.691997 0.167727 0.170657
0.846677 0.194614 0.164294
0.948394 0.243732 0.179004
1 0.29868 0.20058
0.10309 0.258564 0.25449
0.151431 0.261357 0.252705
0.23061 0.263233 0.249027
0.403876 0.231647 0.235096
0.543755 0.239826 0.211597
0.70634 0.249912 0.194217
0.846296 0.281666 0.191211
0.951919 0.317769 0.19469
1 0.363287 0.206546
0.183841 0.359197 0.299657
0.233722 0.363073 0.298405
0.308324 0.366003 0.294667
0.431785 0.359091 0.283497
0.573953 0.350912 0.252354
0.722499 0.355367 0.224582
0.864805 0.369833 0.207004
0.972274 0.40119 0.205982
1 0.450431 0.21973
0.274357 0.48838 0.362615
0.321324 0.490745 0.360113
0.38819 0.491905 0.355261
0.493156 0.486366 0.34493
0.626657 0.479896 0.317388
0.766155 0.477531 0.279728
0.901076 0.486854 0.248127
1 0.515831 0.235599
1 0.561959 0.23946
0.382864 0.626352 0.430808
0.420279 0.627604 0.429129
0.474754 0.627375 0.425162
0.564218 0.620691 0.415564
0.658778 0.623087 0.400504
0.818463 0.617075 0.354589
0.936645 0.623438 0.32192
1 0.643778 0.291691
1 0.67628 0.26743
0.50425 0.754726 0.497353
0.53814 0.755032 0.496727
0.586603 0.75375 0.494392
0.658473 0.747524 0.487511
0.747082 0.741131 0.477745
0.85034 0.741726 0.446723
0.968399 0.740154 0.404776
1 0.748898 0.367697
1 0.765545 0.322728
0.627909 0.850965 0.55082
0.657191 0.849302 0.549447
0.698192 0.845411 0.546181
0.752895 0.838148 0.539574
0.822522 0.82826 0.53077
0.861631 0.835142 0.512795
0.991165 0.818448 0.479606
1 0.820478 0.453437
1 0.828168 0.398627
0.724147 0.915221 0.582254
0.747616 0.913298 0.580972
0.779049 0.909529 0.578759
0.8224 0.902556 0.575128
0.875166 0.891814 0.566629
0.909056 0.89192 0.552911
0.988205 0.880385 0.527489
1 0.873457 0.50692
1 0.876616 0.481407
0.760647 0.948913 0.592523
0.782834 0.947356 0.591363
0.809903 0.945235 0.589853
0.846006 0.942153 0.587839
0.895735 0.93753 0.58529
0.934951 0.942016 0.580819
0.971725 0.947692 0.571176
1 0.926589 0.544533
1 0.923308 0.527642
0.10518 0.283116 0.299565
0.15819 0.285222 0.298054
0.245457 0.286595 0.294453
0.434806 0.240421 0.280369
0.564614 0.244266 0.26096
0.728786 0.245579 0.238849
0.872343 0.258885 0.224262
0.965179 0.293263 0.227222
1 0.351965 0.250599
0.167361 0.349264 0.327962
0.217639 0.352346 0.326909
0.296086 0.354299 0.323781
0.437858 0.334829 0.313207
0.584253 0.322942 0.283803
0.739681 0.318898 0.255879
0.866514 0.337713 0.244862
0.966384 0.374838 0.249409
1 0.423774 0.263691
0.255283 0.43946 0.369055
0.300664 0.441657 0.3673
0.370001 0.442512 0.363348
0.475868 0.439597 0.356268
0.619318 0.421317 0.329702
0.757733 0.417807 0.296223
0.889891 0.430838 0.272419
0.993194 0.461311 0.266865
1 0.509316 0.274968
0.337606 0.557198 0.427344
0.378012 0.558328 0.424811
0.437858 0.557733 0.419562
0.538598 0.550851 0.408438
0.669612 0.541085 0.39173
0.799924 0.5393 0.357733
0.922927 0.547341 0.323903
1 0.571481 0.299214
1 0.611292 0.29189
0.437049 0.686244 0.489601
0.47303 0.687053 0.48809
0.527459 0.685496 0.483696
0.613306 0.677867 0.473716
0.724956 0.668269 0.46157
0.847822 0.665522 0.428458
0.952224 0.669367 0.393713
1 0.684306 0.362692
1 0.707881 0.323445
0.551888 0.798016 0.544854
0.583932 0.797055 0.543496
0.631266 0.793179 0.539666
0.701564 0.78436 0.531746
0.79089 0.773541 0.521843
0.868193 0.772351 0.506508
0.977707 0.766125 0.472053
1 0.770352 0.434653
1 0.781445 0.384192
0.6598 0.87837 0.58822
0.688624 0.875517 0.585946
0.728389 0.869703 0.581262
0.783963 0.859388 0.572931
0.850919 0.847379 0.562966
0.915923 0.838529 0.551507
0.993637 0.833814 0.528359
1 0.833234 0.507576
1 0.837629 0.458167
0.732906 0.928496 0.60827
0.759533 0.925994 0.606622
0.795682 0.922286 0.604181
0.843076 0.915648 0.600412
0.895735 0.904982 0.594232
0.951034 0.892973 0.583413
0.988632 0.893431 0.56585
1 0.882399 0.548012
1 0.883619 0.525948
0.771099 0.95903 0.616968
0.793835 0.956939 0.61561
0.82208 0.954086 0.613748
0.857298 0.950622 0.611444
0.901076 0.947524 0.608957
0.954894 0.943633 0.606287
1 0.945602 0.602167
1 0.941924 0.585672
1 0.932067 0.567025
0.186557 0.383703 0.381079
0.238346 0.385824 0.380148
0.322759 0.386404 0.376883
0.45391 0.362692 0.370214
0.630106 0.326696 0.344991
0.759091 0.326909 0.307698
0.893507 0.333562 0.288045
0.992645 0.36379 0.287785
1 0.418524 0.306889
0.248249 0.443442 0.406882
0.294987 0.444892 0.405112
0.368826 0.444541 0.401282
0.47953 0.440253 0.393362
0.661875 0.394736 0.374777
0.779385 0.399725 0.33579
0.907073 0.407446 0.311788
0.993439 0.444923 0.3131
1 0.49398 0.322805
0.329839 0.524407 0.442847
0.369818 0.525185 0.440848
0.4318 0.524178 0.436255
0.529915 0.520897 0.429084
0.687114 0.495155 0.414511
0.80734 0.495689 0.381552
0.919264 0.506508 0.354986
1 0.532204 0.335302
1 0.573404 0.332235
0.404715 0.631281 0.493217
0.442374 0.632258 0.491524
0.502892 0.630304 0.486534
0.598108 0.624216 0.477424
0.714031 0.618875 0.467124
0.841962 0.607492 0.438849
0.944533 0.615366 0.409979
1 0.632837 0.378714
1 0.660731 0.350011
0.500282 0.745785 0.546517
0.536217 0.745327 0.545022
0.591287 0.741726 0.54052
0.672175 0.734035 0.532006
0.772961 0.724895 0.520882
0.880964 0.71516 0.504112
0.967361 0.715557 0.472251
1 0.723476 0.437476
1 0.737148 0.389975
0.608545 0.836973 0.590997
0.641169 0.834241 0.588403
0.688579 0.828382 0.583078
0.753964 0.818753 0.574472
0.831495 0.807599 0.564279
0.916457 0.795712 0.552758
0.989776 0.792157 0.533944
1 0.793027 0.504387
1 0.798978 0.450507
0.698924 0.902296 0.625422
0.72752 0.89807 0.621942
0.766049 0.890913 0.615915
0.817411 0.880476 0.606912
0.877653 0.868589 0.596429
0.946365 0.85507 0.584817
1 0.850111 0.574914
1 0.847868 0.55761
1 0.849531 0.518349
0.750835 0.940246 0.636027
0.778439 0.937499 0.634165
0.814557 0.933745 0.631632
0.860655 0.929015 0.628458
0.912505 0.922103 0.624521
0.97081 0.9075 0.613565
1 0.895354 0.602243
1 0.893996 0.590646
1 0.892897 0.571176
0.777554 0.974304 0.647105
0.799313 0.972274 0.645747
0.825223 0.969772 0.644038
0.857313 0.966628 0.641917
0.900511 0.962432 0.639094
0.954772 0.95758 0.635889
1 0.952865 0.632822
1 0.951064 0.631312
1 0.947417 0.615946
