iOSLOG2LUTConverter/Resources/Secondary LUTS/THE REVENANT.cube
TITLE "Generated by Resolve"
LUT_3D_SIZE 33
0 0 0.0265354
0 0.00381476 0.0305028
0 0.0084535 0.0349126
0.0124208 0.0137026 0.0406348
0.0281682 0.0190433 0.0465705
0.047364 0.0234226 0.0520027
0.0678111 0.0274357 0.0572366
0.0901198 0.0326085 0.0640116
0.113664 0.0385443 0.071809
0.136995 0.0450446 0.079469
0.160067 0.0521706 0.0870069
0.182345 0.0592355 0.0944839
0.203113 0.0661479 0.101854
0.223621 0.0728008 0.108888
0.243 0.0784314 0.114611
0.262303 0.0842145 0.1205
0.283391 0.0920729 0.128801
0.304311 0.0999313 0.137087
0.322881 0.105959 0.142061
0.341207 0.111864 0.146807
0.358373 0.117418 0.153079
0.375204 0.122896 0.159747
0.392584 0.128664 0.165377
0.410315 0.1346 0.17052
0.426917 0.139986 0.175708
0.442527 0.144884 0.180957
0.458061 0.149767 0.185977
0.473838 0.15462 0.190631
0.490242 0.159609 0.195621
0.507225 0.164981 0.201541
0.524056 0.170138 0.207294
0.539422 0.17409 0.212055
0.55491 0.178027 0.2168
0 0.0191043 0.0378424
0 0.0217746 0.0412604
0 0.024445 0.0446937
0.0162814 0.0276799 0.0490272
0.0334936 0.0310063 0.0535134
0.0526436 0.0342107 0.0579995
0.0724956 0.0373541 0.0624857
0.0940261 0.0416266 0.0685435
0.116686 0.0466468 0.0756695
0.139467 0.0523995 0.0829175
0.162356 0.0590372 0.0902876
0.184421 0.0654765 0.0974899
0.204898 0.0715648 0.104326
0.225132 0.0774548 0.110842
0.244327 0.082536 0.116182
0.263478 0.0877852 0.121691
0.284413 0.0953078 0.129793
0.305196 0.102815 0.137881
0.323751 0.108705 0.143008
0.342077 0.114473 0.147921
0.359228 0.119799 0.154025
0.376043 0.125017 0.160418
0.393317 0.130587 0.165988
0.410956 0.136324 0.171145
0.427466 0.141512 0.176303
0.442969 0.146242 0.18143
0.458488 0.151049 0.186404
0.474403 0.155947 0.191165
0.490898 0.160922 0.196216
0.507881 0.166155 0.20206
0.524697 0.171206 0.207767
0.540047 0.175082 0.212482
0.555505 0.178958 0.217197
0 0.0390326 0.0495918
0 0.0397345 0.0520333
0.00273136 0.0404364 0.0544747
0.0201419 0.0416724 0.057435
0.0388342 0.0429847 0.0604715
0.0579232 0.0449989 0.0639963
0.0771649 0.0472725 0.0677195
0.0979324 0.0506447 0.0730755
0.119707 0.0547341 0.07953
0.141924 0.0597696 0.0863508
0.16463 0.0658885 0.0935836
0.186496 0.0717174 0.100496
0.206683 0.076997 0.106783
0.226642 0.0821241 0.11281
0.24567 0.086656 0.117739
0.264652 0.0913558 0.122881
0.285451 0.0985275 0.13077
0.306081 0.105714 0.138674
0.324636 0.111452 0.143954
0.342947 0.117082 0.14905
0.360067 0.122194 0.154971
0.376867 0.127153 0.161105
0.394049 0.132494 0.166598
0.411597 0.138033 0.171786
0.428 0.143038 0.176883
0.443412 0.147616 0.181903
0.458915 0.152316 0.186847
0.474952 0.157259 0.191699
0.491569 0.162234 0.196811
0.508553 0.16733 0.202594
0.525368 0.172259 0.208225
0.540673 0.176074 0.212909
0.5561 0.179889 0.217594
0 0.0633249 0.0649424
0 0.0637064 0.0668498
0.00714122 0.0641031 0.0687724
0.0237888 0.0647593 0.0708782
0.0418402 0.0654459 0.0730144
0.0611429 0.067277 0.0759136
0.0809186 0.0695354 0.0791028
0.102022 0.0719921 0.0836805
0.12401 0.0746014 0.0892042
0.145998 0.0780041 0.0950484
0.167987 0.0822919 0.101259
0.189395 0.0865644 0.107195
0.209689 0.0908064 0.112566
0.229786 0.0949721 0.117876
0.249119 0.0988479 0.122896
0.268376 0.102892 0.128054
0.288655 0.108965 0.135058
0.308782 0.115023 0.142046
0.327138 0.119844 0.146883
0.345296 0.124559 0.151568
0.362631 0.129351 0.157351
0.379705 0.134142 0.163424
0.396658 0.139101 0.168978
0.41384 0.144152 0.174289
0.430121 0.148806 0.17937
0.445563 0.153155 0.184253
0.461112 0.157565 0.189105
0.477195 0.162112 0.193912
0.493858 0.16672 0.198917
0.51075 0.171511 0.20444
0.527489 0.17615 0.209842
0.542824 0.179828 0.214511
0.558282 0.18349 0.219165
0.000137331 0.0882887 0.0808423
0.00596628 0.0886091 0.0823072
0.0117952 0.0889448 0.083772
0.0273899 0.08925 0.0851148
0.0444953 0.0895247 0.0864271
0.0640574 0.0913405 0.0887465
0.0845197 0.0936904 0.0914168
0.106126 0.0952621 0.0952316
0.128511 0.0962844 0.099794
0.150317 0.0979019 0.104585
0.171496 0.10016 0.109621
0.192416 0.102739 0.114443
0.212894 0.105898 0.118853
0.233158 0.109071 0.123415
0.252903 0.112291 0.128603
0.272511 0.115648 0.133852
0.292195 0.120485 0.139834
0.311757 0.125338 0.145815
0.3299 0.129091 0.150134
0.347875 0.132784 0.154314
0.365438 0.13724 0.159976
0.382834 0.141878 0.166003
0.399542 0.146441 0.171633
0.416327 0.150942 0.177066
0.432471 0.15523 0.182132
0.44799 0.159319 0.186892
0.463584 0.163424 0.191638
0.479728 0.167514 0.196384
0.496422 0.17171 0.201251
0.513191 0.176165 0.2065
0.529824 0.180499 0.211643
0.54522 0.183993 0.216297
0.560723 0.187488 0.220935
0.00898756 0.11458 0.0986191
0.0140688 0.114839 0.0997177
0.0191501 0.115099 0.100801
0.0332647 0.115358 0.101946
0.0487526 0.115602 0.103075
0.0679637 0.117403 0.105394
0.0885176 0.119753 0.10811
0.11043 0.12134 0.111406
0.133242 0.122423 0.115053
0.1552 0.123491 0.118791
0.176226 0.124559 0.122637
0.197147 0.125872 0.126314
0.217838 0.127672 0.129702
0.238193 0.129564 0.133364
0.257847 0.131777 0.138262
0.277363 0.134066 0.143191
0.297276 0.137728 0.148577
0.317052 0.141375 0.153979
0.334997 0.143938 0.157595
0.352728 0.14641 0.161074
0.370214 0.150042 0.166278
0.38735 0.153948 0.171908
0.403922 0.157839 0.177264
0.420432 0.1617 0.182483
0.4365 0.165484 0.18735
0.452049 0.169192 0.191928
0.467628 0.172793 0.19646
0.483665 0.176226 0.20087
0.50016 0.179797 0.205371
0.516701 0.183764 0.210056
0.533165 0.187625 0.214725
0.548791 0.190738 0.219348
0.564553 0.193851 0.223972
0.0181582 0.141344 0.117082
0.0228275 0.141527 0.11783
0.0274968 0.141726 0.118578
0.0399481 0.142061 0.119707
0.0536049 0.142428 0.120912
0.072221 0.144198 0.123415
0.092668 0.146502 0.126406
0.114794 0.148455 0.129259
0.138033 0.150179 0.132006
0.160296 0.151171 0.134707
0.181415 0.151308 0.137346
0.202502 0.151537 0.139864
0.223407 0.151904 0.142184
0.243824 0.152407 0.14493
0.263188 0.153429 0.149355
0.28249 0.154559 0.153811
0.302892 0.157046 0.15877
0.323156 0.159518 0.163729
0.340917 0.1608 0.166583
0.358419 0.16202 0.169299
0.375692 0.16463 0.173938
0.392432 0.167605 0.179034
0.40882 0.170718 0.183978
0.425116 0.173907 0.188846
0.441123 0.177142 0.193454
0.456718 0.180407 0.197864
0.472267 0.183444 0.202106
0.488151 0.18613 0.206104
0.504356 0.189029 0.210101
0.520592 0.192462 0.21416
0.536873 0.195789 0.21828
0.552804 0.198428 0.222873
0.568872 0.201053 0.227481
0.0276036 0.166705 0.135317
0.0313573 0.166827 0.135821
0.035111 0.166964 0.136324
0.0463874 0.167376 0.13727
0.0588235 0.167834 0.138277
0.0769665 0.169772 0.140902
0.0971695 0.172244 0.144106
0.119005 0.174487 0.146853
0.141924 0.176593 0.149279
0.164218 0.178256 0.151614
0.185794 0.179431 0.153841
0.207355 0.180072 0.155947
0.228626 0.179675 0.157855
0.249393 0.179294 0.160128
0.269123 0.178973 0.163806
0.288762 0.178744 0.167498
0.309102 0.179828 0.171542
0.329305 0.180911 0.17557
0.346899 0.181094 0.177829
0.364248 0.181216 0.179965
0.381353 0.182742 0.183902
0.397757 0.184619 0.188296
0.41416 0.186816 0.192599
0.430579 0.189166 0.196872
0.44651 0.191669 0.201053
0.461891 0.194278 0.205173
0.47744 0.196735 0.209186
0.493477 0.198932 0.213031
0.509575 0.201236 0.216724
0.525338 0.203815 0.22005
0.541222 0.206332 0.223514
0.557412 0.208515 0.227924
0.573739 0.210681 0.232334
0.037232 0.191119 0.153399
0.0397345 0.191196 0.153735
0.042237 0.191257 0.154055
0.0526741 0.19176 0.154681
0.0643168 0.192325 0.155337
0.0820172 0.194522 0.158007
0.101915 0.197314 0.16141
0.123125 0.199817 0.164263
0.145205 0.202121 0.166766
0.167376 0.204974 0.169192
0.189654 0.208438 0.171511
0.211856 0.210513 0.173709
0.233616 0.209812 0.175647
0.254932 0.208881 0.177737
0.275441 0.20708 0.180484
0.295781 0.205371 0.18323
0.315679 0.204929 0.186023
0.335454 0.204471 0.188815
0.352941 0.203662 0.190585
0.370199 0.202823 0.192264
0.386923 0.203189 0.195422
0.403204 0.203861 0.198962
0.419791 0.205035 0.202487
0.436576 0.20647 0.205997
0.452384 0.208118 0.209644
0.46743 0.209949 0.213397
0.483009 0.21178 0.217197
0.499382 0.213657 0.221057
0.51548 0.215427 0.224582
0.530632 0.216938 0.227131
0.546029 0.218494 0.229892
0.562417 0.220188 0.233997
0.578958 0.221897 0.238132
0.0467689 0.215274 0.170611
0.0484321 0.215351 0.170825
0.0500954 0.215427 0.171038
0.0591745 0.216052 0.171618
0.0693675 0.21677 0.172244
0.0862135 0.219135 0.174884
0.10547 0.222095 0.178225
0.12639 0.224933 0.181384
0.14844 0.227695 0.184421
0.170748 0.231128 0.187198
0.193378 0.235294 0.189624
0.216052 0.2383 0.191928
0.238468 0.238956 0.193942
0.260365 0.239094 0.195987
0.281209 0.237125 0.198093
0.301839 0.235187 0.200198
0.32166 0.233494 0.202197
0.34136 0.2318 0.204196
0.358938 0.23003 0.205341
0.376303 0.22826 0.206424
0.39292 0.227268 0.208896
0.409354 0.226459 0.211704
0.42594 0.226459 0.214374
0.442634 0.226841 0.216953
0.45832 0.227451 0.219913
0.473396 0.228275 0.223224
0.489189 0.229282 0.226673
0.505638 0.230564 0.23035
0.521721 0.231693 0.2336
0.536599 0.232349 0.23563
0.551751 0.233066 0.237903
0.568154 0.234134 0.241581
0.584726 0.235203 0.245274
0.0562142 0.239155 0.186816
0.057496 0.239307 0.186999
0.058793 0.239475 0.187182
0.065919 0.240269 0.188037
0.0739452 0.241169 0.188983
0.0894484 0.243595 0.191455
0.107668 0.246555 0.194476
0.128695 0.249866 0.198169
0.151614 0.253376 0.202289
0.174365 0.256672 0.205676
0.196948 0.259724 0.20824
0.219883 0.263066 0.210651
0.243153 0.267018 0.212802
0.265721 0.270054 0.214893
0.286336 0.269429 0.216709
0.306813 0.268666 0.218509
0.32697 0.266056 0.220218
0.347005 0.263462 0.221927
0.36492 0.260792 0.222309
0.382589 0.258122 0.222599
0.39942 0.255512 0.224491
0.416297 0.252918 0.226764
0.432685 0.25153 0.228504
0.448753 0.250736 0.229969
0.464347 0.250126 0.232151
0.479896 0.249668 0.234958
0.49601 0.249577 0.237934
0.512337 0.250019 0.241154
0.528344 0.250355 0.244007
0.543313 0.250385 0.245853
0.558511 0.250431 0.247868
0.574731 0.25066 0.25095
0.591119 0.250889 0.254047
0.0665599 0.263539 0.204089
0.0675517 0.263752 0.204242
0.0685435 0.263951 0.204395
0.0739147 0.264775 0.205325
0.0799725 0.26569 0.206378
0.0938582 0.268025 0.208591
0.110582 0.270848 0.211231
0.131304 0.274388 0.215076
0.154711 0.278401 0.219715
0.177768 0.281727 0.223438
0.200504 0.284245 0.226078
0.223697 0.287968 0.228763
0.247532 0.294057 0.231479
0.270542 0.299138 0.233997
0.291218 0.300175 0.235645
0.311742 0.300969 0.237278
0.332158 0.298283 0.238712
0.352468 0.295598 0.240162
0.370642 0.292348 0.240085
0.388327 0.289067 0.239902
0.4056 0.285313 0.241184
0.422889 0.281422 0.242847
0.439246 0.278813 0.243885
0.455009 0.27686 0.244587
0.470649 0.275059 0.246098
0.486625 0.273381 0.248325
0.502937 0.272145 0.250736
0.519265 0.271595 0.253452
0.535271 0.270985 0.255833
0.550301 0.270207 0.257328
0.56556 0.269444 0.258946
0.581674 0.268772 0.261433
0.597971 0.268116 0.263935
0.078706 0.28893 0.223407
0.0795605 0.289082 0.223545
0.080415 0.28925 0.223682
0.0844282 0.289799 0.224277
0.0889296 0.29041 0.224964
0.100618 0.292332 0.226719
0.114931 0.294728 0.228885
0.134524 0.2981 0.232242
0.157626 0.302098 0.236408
0.180758 0.305745 0.239963
0.204013 0.308949 0.242802
0.227512 0.313069 0.246098
0.25127 0.319005 0.25034
0.274357 0.324422 0.254108
0.295567 0.327794 0.255833
0.316609 0.330861 0.257527
0.337133 0.329763 0.258686
0.357549 0.328649 0.259831
0.375875 0.325444 0.259861
0.393545 0.322103 0.259831
0.411124 0.318135 0.26041
0.428733 0.313985 0.261173
0.445457 0.310521 0.26186
0.461585 0.307408 0.262516
0.477546 0.304463 0.263539
0.493706 0.301671 0.264866
0.510094 0.29926 0.266453
0.526619 0.297383 0.268467
0.542794 0.295506 0.270161
0.557824 0.293614 0.270985
0.573098 0.291737 0.271962
0.589334 0.290059 0.273945
0.605753 0.28838 0.275929
0.0906539 0.314427 0.242451
0.091371 0.314534 0.242557
0.0920882 0.314641 0.242679
0.0949111 0.314946 0.243015
0.0980545 0.315267 0.243381
0.107652 0.316793 0.2448
0.1196 0.318761 0.246586
0.138003 0.32195 0.249607
0.160708 0.325948 0.253468
0.183871 0.32987 0.256992
0.20766 0.33373 0.260121
0.231449 0.338201 0.263996
0.25507 0.343908 0.269322
0.278141 0.349493 0.273976
0.299763 0.354589 0.275868
0.321187 0.359411 0.277714
0.341817 0.360082 0.278721
0.362356 0.360754 0.279744
0.380926 0.35816 0.279988
0.398688 0.355352 0.280186
0.41651 0.351247 0.28014
0.434379 0.346853 0.280034
0.451347 0.342626 0.280308
0.467857 0.338491 0.280781
0.484199 0.334569 0.28127
0.500542 0.330846 0.281788
0.517067 0.327398 0.282658
0.533822 0.324331 0.284062
0.550179 0.321294 0.285145
0.565225 0.318303 0.285389
0.580545 0.315358 0.285801
0.596948 0.312673 0.287205
0.613565 0.310002 0.288624
0.101793 0.340291 0.260639
0.102358 0.340352 0.260655
0.102937 0.340414 0.260685
0.105272 0.34052 0.260914
0.107897 0.340627 0.261189
0.11577 0.341787 0.26247
0.125551 0.343359 0.264134
0.14258 0.346349 0.267063
0.164431 0.350317 0.270863
0.187457 0.354467 0.274647
0.211887 0.358831 0.278401
0.23592 0.363455 0.282506
0.259159 0.368627 0.287312
0.281895 0.373648 0.291676
0.303334 0.378134 0.294347
0.324605 0.382544 0.296941
0.345388 0.385809 0.298512
0.366064 0.389059 0.300069
0.385107 0.389334 0.300938
0.403479 0.38938 0.301747
0.421378 0.385611 0.301396
0.43917 0.380896 0.300771
0.456123 0.376303 0.300404
0.472801 0.371771 0.300175
0.489616 0.367529 0.300114
0.506432 0.363516 0.300206
0.523323 0.359625 0.300755
0.540337 0.355901 0.301946
0.556893 0.352102 0.302831
0.572 0.348135 0.302831
0.587427 0.344198 0.302922
0.604242 0.340581 0.303502
0.621347 0.336965 0.304082
0.112978 0.366125 0.278981
0.113436 0.366125 0.27892
0.113878 0.366125 0.278859
0.115755 0.366049 0.278996
0.117861 0.365972 0.279164
0.124056 0.366781 0.280293
0.131731 0.367941 0.281788
0.147387 0.370748 0.284611
0.168353 0.374655 0.288304
0.19118 0.379004 0.292317
0.216175 0.383825 0.296666
0.240391 0.388586 0.301015
0.263249 0.39324 0.305318
0.285634 0.397742 0.309438
0.306905 0.401648 0.31284
0.328023 0.405676 0.316136
0.348943 0.411322 0.318318
0.369757 0.416968 0.320485
0.389151 0.419944 0.32192
0.408133 0.422721 0.323293
0.426123 0.419471 0.322759
0.443885 0.41471 0.321736
0.460883 0.409857 0.320806
0.477791 0.404959 0.319905
0.495064 0.400397 0.319326
0.512306 0.396109 0.31902
0.529564 0.391806 0.319219
0.546807 0.387442 0.32018
0.563577 0.38294 0.320851
0.578775 0.378058 0.320668
0.594339 0.373205 0.320485
0.611582 0.368688 0.320272
0.629129 0.364157 0.320043
0.125124 0.391211 0.298222
0.125566 0.391226 0.298222
0.126009 0.391226 0.298238
0.127687 0.391196 0.298436
0.12958 0.391165 0.298665
0.134783 0.391775 0.29955
0.141192 0.392599 0.300664
0.155474 0.395041 0.303044
0.175006 0.398566 0.306264
0.196887 0.402655 0.309987
0.221439 0.40737 0.314305
0.245136 0.412116 0.318639
0.267536 0.416938 0.322988
0.289555 0.421561 0.327169
0.31075 0.425483 0.330617
0.331792 0.42948 0.334066
0.35259 0.434455 0.337346
0.373297 0.439429 0.340627
0.392203 0.443275 0.342061
0.410819 0.447028 0.343374
0.429343 0.447044 0.34406
0.447822 0.446128 0.344579
0.465446 0.442557 0.344182
0.48307 0.437675 0.343328
0.50074 0.432944 0.342611
0.518044 0.428351 0.342031
0.535286 0.423743 0.341848
0.552407 0.419059 0.34229
0.569284 0.414359 0.342718
0.585184 0.409552 0.343069
0.601373 0.40473 0.343282
0.618647 0.399725 0.342657
0.636164 0.394736 0.342046
0.137285 0.416281 0.317571
0.137697 0.416297 0.317632
0.138125 0.416312 0.317693
0.139635 0.416327 0.317952
0.141299 0.416342 0.318257
0.145525 0.416739 0.318883
0.150668 0.417258 0.319631
0.163577 0.419348 0.321569
0.181659 0.422477 0.324315
0.202594 0.426307 0.327764
0.226658 0.43093 0.332067
0.249882 0.43566 0.336385
0.271809 0.44062 0.34078
0.293462 0.445365 0.345006
0.31458 0.449302 0.348547
0.335546 0.453269 0.352132
0.356237 0.457572 0.356542
0.376822 0.461875 0.360967
0.395254 0.46659 0.362417
0.413489 0.471321 0.363653
0.432547 0.474601 0.365576
0.451743 0.477501 0.367681
0.470024 0.475227 0.367834
0.488426 0.470359 0.367025
0.506447 0.465476 0.366171
0.523781 0.460578 0.365301
0.541009 0.45565 0.364752
0.558022 0.45069 0.36466
0.575006 0.445777 0.364813
0.591608 0.441062 0.365713
0.608438 0.43624 0.366339
0.625742 0.430762 0.365316
0.643168 0.425284 0.364294
0.149279 0.441032 0.33666
0.149676 0.441062 0.336736
0.150072 0.441108 0.336797
0.1514 0.441001 0.336965
0.152865 0.440879 0.337148
0.156558 0.441047 0.337606
0.161059 0.441306 0.33817
0.172381 0.443076 0.339788
0.188266 0.445853 0.342123
0.208042 0.449607 0.345388
0.232074 0.454459 0.349722
0.255177 0.459312 0.354162
0.276951 0.464149 0.358801
0.29836 0.468788 0.363226
0.318898 0.472633 0.366705
0.33933 0.476493 0.37026
0.359747 0.480568 0.374853
0.380056 0.484627 0.379477
0.398352 0.489113 0.381933
0.416587 0.493629 0.384237
0.435492 0.497475 0.386557
0.454459 0.501152 0.388907
0.472953 0.501595 0.390066
0.491859 0.500435 0.390661
0.51017 0.497627 0.390249
0.527794 0.493385 0.388968
0.54519 0.488624 0.388144
0.562249 0.483055 0.387991
0.579309 0.477699 0.388098
0.596139 0.472892 0.388891
0.613245 0.467933 0.389441
0.630915 0.461845 0.388525
0.6486 0.455772 0.387625
0.161273 0.465736 0.355901
0.161639 0.465797 0.355978
0.16199 0.465858 0.356039
0.163149 0.465629 0.3561
0.164431 0.465354 0.356161
0.167636 0.465278 0.356451
0.171527 0.465278 0.356832
0.181247 0.466743 0.358144
0.194873 0.469184 0.360082
0.213458 0.472862 0.363165
0.237461 0.477974 0.367544
0.260517 0.482948 0.372122
0.282139 0.487648 0.377035
0.303319 0.492149 0.381659
0.323262 0.495903 0.385077
0.343114 0.499657 0.388647
0.363241 0.503532 0.393439
0.38323 0.507393 0.398215
0.40145 0.511574 0.401801
0.419699 0.51577 0.405295
0.438407 0.519997 0.407904
0.457084 0.524224 0.4103
0.475792 0.527489 0.412497
0.49514 0.530282 0.414588
0.513787 0.529717 0.414694
0.53167 0.526192 0.413031
0.549264 0.521614 0.411978
0.566354 0.51545 0.411826
0.58352 0.509621 0.411872
0.600565 0.504738 0.412467
0.617914 0.499611 0.412894
0.635935 0.492912 0.412177
0.65391 0.486198 0.41146
0.172946 0.489693 0.375189
0.173297 0.489723 0.37525
0.173632 0.489769 0.375311
0.174731 0.489616 0.375402
0.175952 0.489448 0.375494
0.178759 0.489418 0.375708
0.182147 0.489418 0.375982
0.191043 0.49073 0.377188
0.203632 0.492897 0.379019
0.221073 0.496315 0.381994
0.243778 0.501167 0.386328
0.265843 0.505928 0.390814
0.286992 0.510491 0.395499
0.307774 0.514931 0.4
0.327596 0.518822 0.403754
0.347326 0.522713 0.407568
0.367132 0.526696 0.412314
0.386664 0.530678 0.41706
0.404593 0.534356 0.420768
0.422477 0.538018 0.424414
0.44097 0.542107 0.427573
0.459419 0.546304 0.430625
0.478355 0.550301 0.433509
0.498146 0.554192 0.436286
0.517098 0.555535 0.437247
0.535241 0.554635 0.436622
0.553017 0.552117 0.43624
0.570199 0.547189 0.436255
0.587549 0.542306 0.436393
0.605066 0.537591 0.436896
0.622843 0.532555 0.437217
0.640421 0.525551 0.436332
0.657908 0.518547 0.435431
0.184558 0.51342 0.394812
0.184878 0.513436 0.394858
0.185183 0.513451 0.394919
0.186267 0.513436 0.395071
0.187457 0.513436 0.395239
0.189914 0.513497 0.395407
0.192828 0.513588 0.395605
0.201099 0.514763 0.39675
0.212924 0.516686 0.39855
0.229191 0.519799 0.401465
0.250309 0.524254 0.405646
0.271168 0.528725 0.409842
0.291752 0.533165 0.414038
0.312093 0.537545 0.418219
0.33193 0.541634 0.422354
0.351644 0.545739 0.42652
0.371145 0.549905 0.431205
0.390204 0.55407 0.435904
0.407721 0.557214 0.439506
0.425177 0.560281 0.443015
0.443412 0.564126 0.44683
0.461662 0.568154 0.450706
0.480842 0.572351 0.4542
0.501076 0.576623 0.457481
0.520348 0.579797 0.459403
0.53875 0.581994 0.460151
0.55671 0.582025 0.460685
0.573983 0.578775 0.460899
0.591546 0.575204 0.461173
0.609628 0.570703 0.461616
0.627832 0.565835 0.461845
0.644755 0.558587 0.460685
0.661585 0.551324 0.45951
0.196094 0.53695 0.414481
0.196384 0.536919 0.414542
0.196658 0.536904 0.414588
0.197681 0.536889 0.414755
0.198795 0.536873 0.414923
0.201007 0.536873 0.415061
0.203601 0.536889 0.415183
0.211154 0.537942 0.416251
0.221973 0.539666 0.417929
0.23711 0.542519 0.42063
0.257069 0.546624 0.424475
0.277012 0.550851 0.428428
0.297108 0.555306 0.432593
0.316976 0.55964 0.436713
0.33637 0.5635 0.44062
0.355673 0.567391 0.444587
0.375036 0.571771 0.44921
0.393881 0.576165 0.453834
0.41117 0.579278 0.457481
0.428382 0.582315 0.461051
0.446311 0.586007 0.465202
0.464271 0.589868 0.46949
0.483268 0.593957 0.473457
0.503243 0.598154 0.477287
0.522515 0.601892 0.479912
0.541146 0.605188 0.481514
0.559472 0.606821 0.482734
0.577234 0.60592 0.483421
0.595209 0.604532 0.48423
0.613519 0.601801 0.485344
0.631952 0.59852 0.486183
0.648936 0.591623 0.485206
0.665873 0.584741 0.48423
0.207584 0.560357 0.434089
0.207828 0.560311 0.434134
0.208087 0.56025 0.43418
0.209018 0.560159 0.434333
0.21004 0.560052 0.434501
0.212039 0.559915 0.434607
0.214389 0.559777 0.434684
0.221164 0.560678 0.43563
0.230854 0.562249 0.437171
0.244923 0.564858 0.439597
0.263935 0.568643 0.44303
0.283116 0.572671 0.446784
0.302754 0.577188 0.451179
0.322133 0.581491 0.455375
0.340871 0.584909 0.458808
0.359564 0.588388 0.462318
0.378897 0.592996 0.466819
0.397589 0.597604 0.471305
0.414755 0.600977 0.475029
0.431861 0.604257 0.47866
0.449454 0.607858 0.482902
0.467079 0.611536 0.487266
0.485634 0.615366 0.4916
0.505028 0.619257 0.495903
0.524117 0.622904 0.499062
0.543008 0.626307 0.501213
0.56173 0.629068 0.502998
0.580194 0.630854 0.504234
0.598733 0.63212 0.505714
0.617105 0.631937 0.50782
0.63563 0.630961 0.50956
0.653056 0.62475 0.50898
0.670466 0.61854 0.5084
0.218326 0.582132 0.452689
0.218555 0.582055 0.452705
0.218784 0.581979 0.45272
0.219684 0.581872 0.452873
0.220691 0.581765 0.453025
0.222644 0.581689 0.453208
0.224933 0.581628 0.453376
0.231052 0.582498 0.454368
0.239643 0.583963 0.455879
0.252735 0.586435 0.458167
0.270893 0.590021 0.461295
0.289311 0.593866 0.464836
0.308415 0.598215 0.469154
0.327291 0.602365 0.473259
0.345663 0.605783 0.476692
0.364004 0.609277 0.480156
0.383078 0.613993 0.484504
0.40148 0.618708 0.488823
0.418555 0.622095 0.492378
0.435584 0.625391 0.495872
0.45301 0.629084 0.499901
0.470558 0.632868 0.504051
0.488884 0.636576 0.508415
0.507759 0.640253 0.512886
0.526482 0.643824 0.516426
0.545113 0.647334 0.519158
0.563775 0.650599 0.521523
0.582422 0.653529 0.523308
0.601099 0.656092 0.525292
0.619638 0.657618 0.52781
0.638254 0.658396 0.529992
0.655726 0.654185 0.530159
0.673182 0.649958 0.530327
0.228412 0.602487 0.47042
0.228595 0.602411 0.47039
0.228794 0.602319 0.470375
0.229725 0.602274 0.470497
0.230793 0.602228 0.470634
0.232837 0.60238 0.470985
0.235248 0.602594 0.471397
0.240772 0.603525 0.472511
0.248356 0.604944 0.474067
0.260548 0.607355 0.476249
0.277913 0.61088 0.479118
0.295613 0.614542 0.482353
0.314092 0.618494 0.486259
0.332464 0.6224 0.490135
0.350698 0.626184 0.493919
0.368917 0.630045 0.497719
0.387427 0.634791 0.50193
0.405539 0.639521 0.506111
0.422538 0.642725 0.509407
0.43949 0.645808 0.512642
0.456947 0.649729 0.516304
0.474647 0.653864 0.520058
0.492882 0.657603 0.524208
0.51133 0.661128 0.528557
0.529503 0.664683 0.532372
0.547478 0.668254 0.535729
0.565621 0.671504 0.538674
0.583963 0.674235 0.541009
0.602487 0.676921 0.543374
0.621241 0.679408 0.5458
0.639994 0.681422 0.548074
0.65713 0.680354 0.549279
0.67425 0.679301 0.5505
0.238453 0.623163 0.487892
0.238621 0.623072 0.487846
0.238804 0.62298 0.487816
0.239704 0.622965 0.487922
0.240711 0.62295 0.488045
0.242725 0.623148 0.488411
0.24509 0.623438 0.488853
0.250217 0.624369 0.489937
0.257176 0.625772 0.491432
0.26862 0.628122 0.493446
0.285069 0.631586 0.496086
0.302022 0.635126 0.499046
0.319997 0.63888 0.502678
0.337911 0.642634 0.506325
0.355901 0.646494 0.510155
0.373846 0.650385 0.513985
0.391791 0.65507 0.51812
0.409552 0.659739 0.522225
0.426474 0.662898 0.525383
0.443381 0.665919 0.528481
0.460731 0.669932 0.531899
0.478477 0.674189 0.535409
0.496559 0.677958 0.539406
0.514672 0.681468 0.543633
0.532464 0.685054 0.547585
0.550011 0.688701 0.551293
0.567788 0.691981 0.554696
0.585885 0.694728 0.557656
0.604242 0.697551 0.56051
0.623102 0.700633 0.563088
0.64181 0.703441 0.565545
0.658213 0.704311 0.567346
0.674601 0.705196 0.569162
0.248524 0.644251 0.504891
0.248692 0.644175 0.504875
