iOSLOG2LUTConverter/Resources/Secondary LUTS/THE REVENANT.cube
TITLE "Generated by Resolve"
LUT_3D_SIZE 5
0 0 0.0265354
0.113664 0.0385443 0.071809
0.283391 0.0920729 0.128801
0.426917 0.139986 0.175708
0.55491 0.178027 0.2168
0.037232 0.191119 0.153399
0.145205 0.202121 0.166766
0.315679 0.204929 0.186023
0.452384 0.208118 0.209644
0.578958 0.221897 0.238132
0.125124 0.391211 0.298222
0.175006 0.398566 0.306264
0.35259 0.434455 0.337346
0.50074 0.432944 0.342611
0.636164 0.394736 0.342046
0.218326 0.582132 0.452689
0.239643 0.583963 0.455879
0.383078 0.613993 0.484504
0.526482 0.643824 0.516426
0.673182 0.649958 0.530327
0.294881 0.736492 0.583505
0.311238 0.739956 0.585824
0.420768 0.765255 0.605097
0.551553 0.794308 0.629435
0.665919 0.815808 0.655787
0 0.0411841 0.137789
0.123079 0.0605631 0.171359
0.298344 0.104234 0.202899
0.439445 0.149233 0.230945
0.566705 0.185306 0.260807
0.0594644 0.198657 0.222171
0.145647 0.208942 0.236835
0.322301 0.215137 0.254994
0.462135 0.218921 0.263737
0.589868 0.229603 0.281788
0.146883 0.394675 0.349187
0.179171 0.398825 0.354238
0.352773 0.435248 0.387289
0.503273 0.433021 0.392096
0.641901 0.393606 0.382635
0.232441 0.58587 0.489693
0.245853 0.585779 0.491661
0.382437 0.615213 0.517876
0.526467 0.646845 0.546304
0.674784 0.654017 0.560784
0.302968 0.735805 0.604044
0.313298 0.73727 0.604669
0.419913 0.762219 0.62388
0.551492 0.791821 0.646876
0.670024 0.813581 0.674388
0.00531014 0.112871 0.268147
0.0721752 0.118029 0.288746
0.302296 0.146609 0.337896
0.454795 0.177035 0.35729
0.586847 0.208713 0.375036
0.0547341 0.222889 0.339773
0.0995956 0.22562 0.347372
0.320302 0.248356 0.385809
0.471916 0.250446 0.394903
0.605035 0.255299 0.399817
0.167758 0.406882 0.456947
0.179156 0.406226 0.458137
0.347463 0.442847 0.490791
0.504509 0.464073 0.519783
0.653239 0.429099 0.50898
0.263996 0.591348 0.570062
0.271122 0.590616 0.57052
0.379156 0.615381 0.590555
0.530129 0.649638 0.618845
0.673533 0.670314 0.640543
0.324468 0.724163 0.660182
0.329824 0.72401 0.660868
0.415305 0.745022 0.676753
0.55111 0.777173 0.700847
0.693767 0.806943 0.728588
0.0310674 0.175967 0.394141
0.0599985 0.176135 0.402701
0.27776 0.202075 0.459373
0.451789 0.225162 0.500328
0.592615 0.245457 0.514382
0.0623331 0.248768 0.452094
0.0847486 0.247883 0.458106
0.293233 0.278645 0.501671
0.465049 0.288945 0.530129
0.607233 0.293492 0.539467
0.162387 0.429053 0.563638
0.173297 0.42739 0.565194
0.317906 0.454017 0.590646
0.498924 0.486702 0.623545
0.648905 0.476051 0.631052
0.274205 0.606821 0.657008
0.281041 0.606958 0.657786
0.35436 0.621942 0.670069
0.521889 0.661875 0.700298
0.674891 0.691951 0.729427
0.334432 0.716365 0.702281
0.344533 0.718242 0.703243
0.442283 0.744686 0.719371
0.596613 0.783093 0.743404
0.757168 0.820905 0.76817
0.0569924 0.225925 0.510933
0.0820172 0.227405 0.520424
0.208865 0.244205 0.554635
0.438041 0.27245 0.59881
0.585321 0.294881 0.628199
0.076936 0.280247 0.54995
0.0979324 0.280308 0.55761
0.22414 0.294911 0.583642
0.449607 0.32105 0.620447
0.596582 0.333181 0.645243
0.158923 0.4439 0.648966
0.170886 0.442649 0.651438
0.269734 0.456077 0.667597
0.485222 0.497429 0.705272
0.640177 0.495445 0.720027
0.271687 0.62443 0.725872
0.278355 0.624002 0.726726
0.338125 0.633677 0.734417
0.519081 0.675639 0.760784
0.680125 0.706691 0.78526
0.412299 0.742336 0.740429
0.443595 0.750225 0.745159
0.53138 0.77116 0.758114
0.673442 0.803632 0.779904
0.788098 0.828763 0.796963
