iOSLOG2LUTConverter/Resources/Secondary LUTS/THE GREEN KNIGHT.cube
TITLE "Generated by Resolve"
LUT_3D_SIZE 5
0.0303502 0.0281071 0.0120241
0.112581 0.0251316 0.00437934
0.381796 0.024918 0
0.692668 0.0701305 0
0.913725 0.123293 0
0.0247959 0.113252 0.0395209
0.152636 0.116915 0.0163119
0.400549 0.110826 0
0.737881 0.151247 0
0.996277 0.241932 0
0.0463111 0.394766 0.168658
0.0858473 0.426123 0.164416
0.545815 0.42472 0.0618906
0.847639 0.442237 0.0151522
1 0.521187 0.0227054
0.315648 0.754635 0.352605
0.355703 0.771038 0.350484
0.523461 0.782422 0.291112
0.970108 0.757321 0.191226
1 0.793103 0.132296
0.548882 0.964141 0.453513
0.577646 0.968795 0.446586
0.697795 0.963623 0.397955
0.991119 0.905394 0.334859
1 0.910246 0.290211
0.0359655 0.0437781 0.0485084
0.128527 0.0394293 0.0418097
0.399847 0.0368048 0.0175479
0.718456 0.0861372 0.00619516
0.944213 0.142336 0.019089
0.0665293 0.137697 0.0836347
0.170565 0.147326 0.068574
0.441733 0.14464 0.0343786
0.780636 0.191669 0.0224918
1 0.285512 0.0377966
0.211246 0.433722 0.237461
0.249958 0.463386 0.231479
0.577356 0.465461 0.148531
0.872114 0.477546 0.0784924
1 0.555611 0.0782788
0.449912 0.76907 0.408347
0.495125 0.784115 0.407965
0.576211 0.80589 0.366598
0.975479 0.771572 0.273442
1 0.800336 0.20354
0.653925 0.949432 0.50074
0.679988 0.953811 0.494377
0.737072 0.962249 0.472969
0.985214 0.912459 0.412985
1 0.909483 0.365682
0.0429694 0.09131 0.111635
0.1673 0.0728771 0.107103
0.440681 0.0605936 0.0650492
0.763775 0.119234 0.0683757
1 0.206653 0.0932479
0.0944228 0.215152 0.171298
0.215702 0.219684 0.16083
0.502586 0.223911 0.117693
0.82858 0.269078 0.0965133
1 0.35491 0.112078
0.296208 0.516915 0.323964
0.393668 0.524697 0.321523
0.613169 0.530755 0.268193
0.903502 0.538796 0.191012
1 0.611154 0.167758
0.554559 0.799435 0.476509
0.626703 0.799191 0.475853
0.690837 0.817609 0.454414
0.983093 0.792477 0.37438
1 0.812833 0.290059
0.740337 0.932433 0.547845
0.77525 0.93698 0.544244
0.822507 0.947616 0.534737
0.97528 0.925795 0.494682
1 0.912871 0.448432
0.0616312 0.199908 0.227863
0.188373 0.195239 0.218845
0.518639 0.161166 0.188373
0.846677 0.194614 0.164294
1 0.29868 0.20058
0.183841 0.359197 0.299657
0.308324 0.366003 0.294667
0.573953 0.350912 0.252354
0.864805 0.369833 0.207004
1 0.450431 0.21973
0.382864 0.626352 0.430808
0.474754 0.627375 0.425162
0.658778 0.623087 0.400504
0.936645 0.623438 0.32192
1 0.67628 0.26743
0.627909 0.850965 0.55082
0.698192 0.845411 0.546181
0.822522 0.82826 0.53077
0.991165 0.818448 0.479606
1 0.828168 0.398627
0.760647 0.948913 0.592523
0.809903 0.945235 0.589853
0.895735 0.93753 0.58529
0.971725 0.947692 0.571176
1 0.923308 0.527642
0.186557 0.383703 0.381079
0.322759 0.386404 0.376883
0.630106 0.326696 0.344991
0.893507 0.333562 0.288045
1 0.418524 0.306889
0.329839 0.524407 0.442847
0.4318 0.524178 0.436255
0.687114 0.495155 0.414511
0.919264 0.506508 0.354986
1 0.573404 0.332235
0.500282 0.745785 0.546517
0.591287 0.741726 0.54052
0.772961 0.724895 0.520882
0.967361 0.715557 0.472251
1 0.737148 0.389975
0.698924 0.902296 0.625422
0.766049 0.890913 0.615915
0.877653 0.868589 0.596429
1 0.850111 0.574914
1 0.849531 0.518349
0.777554 0.974304 0.647105
0.825223 0.969772 0.644038
0.900511 0.962432 0.639094
1 0.952865 0.632822
1 0.947417 0.615946
