iOSLOG2LUTConverter/Resources/Secondary LUTS/WHIPLASH.cube
TITLE "Generated by Resolve"
LUT_3D_SIZE 5
0 0 0
0.266484 0 0
0.529732 0 0
0.789181 0 0
1 0 0
0 0.22829 0
0.266484 0.22829 0
0.529732 0.22829 0
0.789181 0.22829 0
1 0.228168 0
0 0.482994 0
0.266484 0.482994 0
0.529732 0.482994 0
0.789181 0.483024 0
1 0.482765 0
0 0.730831 0
0.266484 0.730831 0
0.529747 0.730831 0
0.789181 0.730831 0
1 0.730495 0
0 0.973144 0
0.266346 0.973144 0
0.529458 0.973144 0
0.788724 0.973144 0
1 0.973083 0
0 0 0.159991
0.266484 0 0.159976
0.529732 0 0.159976
0.789181 0 0.159976
1 0 0.159899
0 0.22829 0.159976
0.272541 0.225742 0.141375
0.542336 0.216251 0.127947
0.801587 0.209995 0.11899
1 0.228214 0.159976
0 0.482994 0.159976
0.260349 0.484627 0.119844
0.532647 0.482643 0.116823
0.795193 0.480705 0.113909
1 0.482795 0.159976
0 0.730831 0.159976
0.255879 0.732158 0.111864
0.527581 0.731579 0.111345
0.790524 0.730892 0.11078
1 0.73051 0.15996
0 0.973144 0.159884
0.254337 0.974151 0.110277
0.5252 0.973938 0.110307
0.787655 0.973617 0.110399
1 0.973083 0.159945
0 0 0.352499
0.266499 0 0.352499
0.529732 0 0.352483
0.789181 0 0.352499
1 0 0.352331
0 0.22829 0.352499
0.272862 0.223072 0.359762
0.551003 0.205173 0.35024
0.815213 0.186404 0.339239
1 0.22829 0.352392
0 0.482994 0.352483
0.246418 0.487114 0.335592
0.539361 0.481117 0.325628
0.814221 0.472297 0.312245
1 0.482872 0.352483
0 0.730831 0.352483
0.213993 0.736507 0.304341
0.51812 0.734539 0.294041
0.79588 0.730831 0.287755
1 0.730495 0.352483
0 0.973144 0.352346
0.233829 0.975631 0.322469
0.516014 0.975494 0.314199
0.783673 0.975189 0.293172
1 0.973083 0.352483
0 0 0.551522
0.266484 0 0.551522
0.529747 0 0.551522
0.789181 0 0.551537
1 0 0.551278
0 0.22829 0.551522
0.270054 0.217975 0.570993
0.548836 0.201236 0.564691
0.813413 0.184329 0.556237
1 0.22829 0.551308
0 0.482994 0.551522
0.243336 0.485527 0.559625
0.53843 0.479347 0.555047
0.817639 0.468605 0.546944
1 0.482979 0.551431
0 0.730831 0.551522
0.209628 0.73608 0.541131
0.510262 0.735561 0.529747
0.799405 0.730007 0.521065
1 0.730617 0.551522
0 0.973144 0.551308
0.231418 0.975616 0.540566
0.511635 0.976013 0.534035
0.782361 0.975418 0.52578
1 0.973083 0.551522
0 0 0.754772
0.266499 0 0.754772
0.529763 0 0.754772
0.789181 0 0.754772
1 0 0.754467
0 0.22829 0.754772
0.265095 0.209506 0.782849
0.545266 0.195315 0.776349
0.810605 0.181125 0.768078
1 0.22829 0.754467
0 0.483024 0.754772
0.23859 0.482704 0.776303
0.535851 0.476341 0.774594
0.816007 0.465461 0.769924
1 0.482979 0.754528
0 0.730831 0.754772
0.207752 0.734936 0.760067
0.507424 0.734005 0.760174
0.797803 0.728359 0.755245
1 0.730831 0.754696
0 0.973144 0.754498
0.228092 0.975494 0.751492
0.509316 0.975921 0.74931
0.780957 0.975311 0.745373
1 0.973098 0.754757
