iOSLOG2LUTConverter/Resources/Secondary LUTS/WHIPLASH.cube
TITLE "Generated by Resolve"
LUT_3D_SIZE 9
0 0 0
0.131273 0 0
0.266484 0 0
0.39884 0 0
0.529732 0 0
0.659648 0 0
0.789181 0 0
0.916686 0 0
1 0 0
0 0.0973831 0
0.131273 0.0973831 0
0.266484 0.0973831 0
0.39884 0.0973831 0
0.529732 0.0973831 0
0.659648 0.0973831 0
0.789181 0.0973831 0
0.916686 0.0973678 0
1 0.097322 0
0 0.22829 0
0.131258 0.22829 0
0.266484 0.22829 0
0.39884 0.22829 0
0.529732 0.22829 0
0.659648 0.22829 0
0.789181 0.22829 0
0.916686 0.22829 0
1 0.228168 0
0 0.356786 0
0.131258 0.356786 0
0.266499 0.356786 0
0.39884 0.356756 0
0.529732 0.356756 0
0.659648 0.356771 0
0.789181 0.356771 0
0.916686 0.356756 0
1 0.356588 0
0 0.482994 0
0.131258 0.482994 0
0.266484 0.482994 0
0.398825 0.482994 0
0.529732 0.482994 0
0.659648 0.483009 0
0.789181 0.483024 0
0.916686 0.482994 0
1 0.482765 0
0 0.607553 0
0.131258 0.607553 0
0.266484 0.607553 0
0.398856 0.607538 0
0.529747 0.607538 0
0.659648 0.607538 0
0.789181 0.607553 0
0.916686 0.607538 0
1 0.607248 0
0 0.730831 0
0.131258 0.730831 0
0.266484 0.730831 0
0.39884 0.730831 0
0.529747 0.730831 0
0.659648 0.730831 0
0.789181 0.730831 0
0.916686 0.730816 0
1 0.730495 0
0 0.853056 0
0.131258 0.853056 0
0.266484 0.853056 0
0.398856 0.853056 0
0.529763 0.853056 0
0.659678 0.853056 0
0.789181 0.853056 0
0.916686 0.85301 0
1 0.852628 0
0 0.973144 0
0.131182 0.973144 0
0.266346 0.973144 0
0.398642 0.973144 0
0.529458 0.973144 0
0.659312 0.973144 0
0.788724 0.973144 0
0.916182 0.973144 0
1 0.973083 0
0 0 0.0699016
0.131273 0 0.0699016
0.266484 0 0.0699016
0.39884 0 0.0699016
0.529732 0 0.0699016
0.659648 0 0.0698863
0.789181 0 0.0698863
0.916686 0 0.0698863
1 0 0.0698405
0 0.0973831 0.0699016
0.134188 0.0948348 0.058732
0.270604 0.0911269 0.0534066
0.402502 0.0893263 0.0508125
0.53286 0.0884565 0.0497292
0.662303 0.0880751 0.0494392
0.79144 0.087953 0.0496071
0.918486 0.0879988 0.0500801
1 0.0973373 0.0698863
0 0.22829 0.0699016
0.130266 0.228748 0.0516518
0.26807 0.227695 0.0502632
0.401114 0.226825 0.0492409
0.532113 0.22623 0.0487373
0.661906 0.225849 0.048661
0.791241 0.22562 0.0489052
0.918395 0.225483 0.0494087
1 0.228168 0.0698711
0 0.356786 0.0699016
0.128634 0.35729 0.0489815
0.266346 0.35697 0.0487831
0.399649 0.356603 0.048661
0.530999 0.356283 0.0487068
0.661082 0.356008 0.0489357
0.790646 0.355825 0.0493324
0.917998 0.355673 0.0499123
1 0.356588 0.0698711
0 0.482994 0.0698863
0.128069 0.483406 0.0487678
0.265507 0.483268 0.0488441
0.398779 0.483101 0.049012
0.530205 0.482948 0.0492714
0.660441 0.482795 0.0496529
0.790082 0.482673 0.0501411
0.917586 0.482551 0.0507668
1 0.482765 0.0698711
0 0.607553 0.0698863
0.127916 0.607843 0.0497292
0.265171 0.607782 0.0498665
0.398352 0.607691 0.0500954
0.529717 0.607614 0.0504311
0.659937 0.607523 0.0508583
0.789685 0.607446 0.0513771
0.917205 0.60737 0.0519875
1 0.607248 0.0698558
0 0.730831 0.0698711
0.127947 0.730999 0.0513161
0.265034 0.731044 0.0514687
0.398108 0.730968 0.0516976
0.529442 0.730938 0.0520333
0.659617 0.730907 0.0524453
0.78938 0.730846 0.0529488
0.916945 0.730785 0.0535439
1 0.730495 0.0698405
0 0.853056 0.0698558
0.128099 0.853178 0.0532998
0.265034 0.853162 0.0534371
0.398016 0.853132 0.053666
0.52932 0.853117 0.0539712
0.659464 0.853117 0.0543679
0.789166 0.853117 0.0548409
0.916732 0.853025 0.055375
1 0.852628 0.0698405
0 0.973144 0.06981
0.128267 0.973266 0.0555276
0.264958 0.973251 0.0556497
0.397787 0.973236 0.0558633
0.528969 0.973205 0.0561379
0.659022 0.973175 0.0565042
0.788632 0.97319 0.0569314
0.916182 0.973175 0.057435
1 0.973083 0.06981
0 0 0.159991
0.131273 0 0.159991
0.266484 0 0.159976
0.39884 0 0.159976
0.529732 0 0.159976
0.659648 0 0.159976
0.789181 0 0.159976
0.916686 0 0.159976
1 0 0.159899
0 0.0973831 0.159991
0.135195 0.0932937 0.160937
0.275639 0.0843061 0.153521
0.408789 0.0770123 0.147005
0.538933 0.0725109 0.142824
0.667857 0.06981 0.140215
0.796399 0.0681773 0.138582
0.922606 0.067277 0.137606
1 0.0973678 0.15993
0 0.22829 0.159976
0.127337 0.229618 0.147356
0.272541 0.225742 0.141375
0.409613 0.220768 0.13431
0.542336 0.216251 0.127947
0.672511 0.21268 0.122881
0.801587 0.209995 0.11899
0.927443 0.208057 0.116182
1 0.228214 0.159976
0 0.356786 0.159976
0.117769 0.359197 0.132219
0.265385 0.357763 0.128634
0.403311 0.355734 0.125277
0.537072 0.353735 0.12192
0.66836 0.351995 0.118944
0.798428 0.350561 0.116442
0.925216 0.349401 0.114519
1 0.356619 0.159976
0 0.482994 0.159976
0.112001 0.485191 0.122698
0.260349 0.484627 0.119844
0.398489 0.48368 0.11841
0.532647 0.482643 0.116823
0.664515 0.481621 0.115297
0.795193 0.480705 0.113909
0.922774 0.479896 0.112779
1 0.482795 0.159976
0 0.607553 0.159976
0.109056 0.609323 0.117479
0.257496 0.60911 0.114672
0.395453 0.608621 0.114061
0.529595 0.608057 0.113359
0.661585 0.607446 0.112642
0.792523 0.606882 0.111971
0.920562 0.606317 0.111391
1 0.607248 0.15996
0 0.730831 0.159976
0.107561 0.73225 0.114794
0.255879 0.732158 0.111864
0.393622 0.731914 0.11162
0.527581 0.731579 0.111345
0.65951 0.731228 0.111055
0.790524 0.730892 0.11078
0.918807 0.73048 0.110552
1 0.73051 0.15996
0 0.853056 0.15996
0.106844 0.8542 0.113603
0.254978 0.854185 0.110567
0.392508 0.854032 0.110491
0.526299 0.853834 0.110414
0.658137 0.853605 0.110338
0.78909 0.853391 0.110292
0.917494 0.853117 0.110262
1 0.852628 0.15996
0 0.973144 0.159884
0.106538 0.974151 0.11339
0.254337 0.974151 0.110277
0.391623 0.974075 0.110292
0.5252 0.973938 0.110307
0.656855 0.973785 0.110338
0.787655 0.973617 0.110399
0.91606 0.973434 0.110491
1 0.973083 0.159945
0 0 0.255329
0.131258 0 0.255329
0.266484 0 0.255329
0.39884 0 0.255329
0.529732 0 0.255329
0.659648 0 0.255329
0.789181 0 0.255329
0.916686 0 0.255329
1 0 0.255207
0 0.0973831 0.255329
0.134325 0.0916152 0.26302
0.27512 0.0831006 0.258732
0.408576 0.0759899 0.254383
0.538933 0.0714427 0.251484
0.667903 0.0686198 0.249668
0.796506 0.0668803 0.248524
0.922744 0.0658885 0.247807
1 0.0973678 0.255222
0 0.22829 0.255329
0.126024 0.229129 0.257038
0.273625 0.224475 0.253025
0.414359 0.216541 0.246311
0.551064 0.206821 0.237751
0.683909 0.197421 0.229328
0.814313 0.189258 0.221942
0.937301 0.187045 0.220462
1 0.22829 0.255314
0 0.356786 0.255329
0.111513 0.359884 0.244755
0.263813 0.358267 0.237842
0.407385 0.354437 0.231662
0.545464 0.349783 0.22443
0.679744 0.345037 0.217166
0.811673 0.340688 0.210376
0.936965 0.338125 0.207324
1 0.356664 0.255329
0 0.482994 0.255314
0.100481 0.486213 0.23473
0.251575 0.48658 0.219394
0.397772 0.484474 0.215732
0.53669 0.481987 0.211414
0.671733 0.479377 0.206912
0.804547 0.476875 0.202502
0.932403 0.474571 0.198444
1 0.482811 0.255329
0 0.607553 0.255329
0.0943465 0.6103 0.228809
0.242237 0.611429 0.204944
0.389853 0.610269 0.202976
0.529213 0.60882 0.200565
0.664668 0.607248 0.19794
0.798032 0.605676 0.195239
0.927108 0.604135 0.192615
1 0.607263 0.255314
0 0.730831 0.255329
0.0910048 0.733059 0.225406
0.236118 0.734447 0.194797
0.384375 0.733776 0.193729
0.523766 0.732906 0.192401
0.659266 0.731899 0.190875
0.792798 0.730938 0.189258
0.922545 0.729885 0.187625
1 0.730465 0.255314
0 0.853056 0.255329
0.0891737 0.854948 0.223453
0.232197 0.856214 0.187854
0.380697 0.855802 0.187259
0.519951 0.855268 0.186511
0.655314 0.854658 0.185641
0.7888 0.853971 0.18468
0.918929 0.853269 0.183688
1 0.852644 0.255314
0 0.973144 0.255222
0.0882124 0.974762 0.222293
0.239124 0.975311 0.205493
0.381933 0.975235 0.200595
0.518212 0.975128 0.191516
0.652216 0.974945 0.181979
0.785458 0.974456 0.181415
0.91574 0.973999 0.180819
1 0.973083 0.255314
0 0 0.352499
0.131258 0 0.352499
0.266499 0 0.352499
0.39884 0 0.352483
0.529732 0 0.352483
0.659648 0 0.352483
0.789181 0 0.352499
0.916686 0 0.352483
1 0 0.352331
0 0.0973831 0.352499
0.132906 0.088777 0.364263
0.274037 0.0813916 0.360327
0.407782 0.0751812 0.35613
0.53843 0.071046 0.353185
0.667582 0.0684215 0.351278
0.796338 0.0667735 0.350042
0.922621 0.0658427 0.349233
1 0.0973678 0.352346
0 0.22829 0.352499
0.124651 0.227832 0.361807
0.272862 0.223072 0.359762
0.41387 0.215091 0.355703
0.551003 0.205173 0.35024
0.684367 0.195254 0.344472
0.815213 0.186404 0.339239
0.937819 0.184924 0.33724
1 0.22829 0.352392
0 0.356786 0.352499
0.110567 0.359304 0.353277
0.262821 0.357656 0.350713
0.407553 0.353567 0.346502
0.547997 0.347738 0.34049
0.685878 0.340307 0.332937
0.821576 0.33196 0.324514
0.941512 0.333181 0.326421
1 0.356756 0.352468
0 0.482994 0.352483
0.0998703 0.485939 0.345449
0.246418 0.487114 0.335592
0.396689 0.484611 0.331136
0.539361 0.481117 0.325628
0.678035 0.476921 0.319188
0.814221 0.472297 0.312245
0.938766 0.470802 0.314549
1 0.482872 0.352483
0 0.607553 0.352483
0.0938582 0.610178 0.340658
0.228351 0.613108 0.318425
0.383185 0.611765 0.312978
0.52842 0.609461 0.30898
0.668147 0.60679 0.304402
0.804868 0.603906 0.299474
0.934356 0.601434 0.297871
1 0.607309 0.352483
0 0.730831 0.352483
0.0905318 0.733059 0.337881
0.213993 0.736507 0.304341
0.370947 0.736019 0.296635
0.51812 0.734539 0.294041
0.658656 0.732754 0.291051
0.79588 0.730831 0.287755
0.927886 0.728786 0.284306
1 0.730495 0.352483
0 0.853056 0.352483
0.0886854 0.854902 0.336217
0.203525 0.858335 0.293797
0.361501 0.858381 0.283528
0.509896 0.857374 0.281895
0.650813 0.856184 0.279942
0.788281 0.854887 0.27776
0.921126 0.853452 0.275441
1 0.852644 0.352483
0 0.973144 0.352346
0.0877241 0.974746 0.335103
0.233829 0.975631 0.322469
0.378271 0.975631 0.318486
0.516014 0.975494 0.314199
0.650462 0.975357 0.306874
0.783673 0.975189 0.293172
0.915343 0.974685 0.273045
1 0.973083 0.352483
0 0 0.451316
0.131258 0 0.451316
0.266484 0 0.451316
0.398825 0 0.451316
0.529732 0 0.451331
0.659648 0 0.451331
0.789181 0 0.451347
0.916686 0 0.451331
1 0 0.451133
0 0.0973831 0.451316
0.130983 0.0851301 0.465888
0.272602 0.0792554 0.461875
0.40676 0.0741283 0.457771
0.537743 0.0705272 0.454749
0.66717 0.0681621 0.45272
0.796063 0.0666514 0.451362
0.922438 0.0657816 0.450416
1 0.0973678 0.451118
0 0.228275 0.451316
0.122621 0.225925 0.466255
0.271733 0.220981 0.465339
0.412985 0.213092 0.462425
0.550118 0.20351 0.458305
0.683528 0.194018 0.453666
0.814435 0.185534 0.449302
0.937484 0.184024 0.446372
1 0.22829 0.451164
0 0.356756 0.451316
0.109377 0.358404 0.458885
0.261646 0.356603 0.459495
0.40676 0.352514 0.45684
0.547463 0.346609 0.453086
0.685863 0.338888 0.448188
0.822568 0.329763 0.442267
0.941787 0.33193 0.440925
1 0.356771 0.45124
0 0.482994 0.451316
0.0993973 0.485527 0.451545
0.244999 0.486488 0.449821
0.395758 0.484001 0.446906
0.539284 0.480339 0.442924
0.6795 0.475593 0.437736
0.818219 0.469688 0.43125
0.94023 0.469444 0.4327
1 0.482948 0.451316
0 0.607553 0.451331
0.0936599 0.609979 0.446845
0.225956 0.612863 0.437858
0.379461 0.612009 0.431983
0.527443 0.609445 0.427695
0.669947 0.606134 0.4224
0.80975 0.602213 0.416251
0.937316 0.600092 0.419135
1 0.60737 0.451316
0 0.730831 0.451331
0.0904402 0.732937 0.444022
0.210285 0.736522 0.427482
0.359655 0.73753 0.413245
0.512657 0.735683 0.409018
0.657771 0.733288 0.404791
0.798657 0.73051 0.400076
0.931884 0.72784 0.399558
1 0.73051 0.451316
0 0.853056 0.451347
0.0886397 0.854841 0.442313
0.198596 0.858503 0.419776
0.34139 0.8607 0.395529
0.498375 0.859434 0.391272
0.645533 0.857694 0.388296
0.787457 0.855726 0.384848
0.923476 0.853498 0.381125
1 0.852628 0.451316
0 0.973144 0.451148
0.0877089 0.974716 0.441108
0.23241 0.975647 0.433814
0.374548 0.975982 0.428382
0.513726 0.975814 0.425437
0.649119 0.975601 0.421164
0.783078 0.975341 0.413809
0.915236 0.974975 0.39646
1 0.973083 0.451316
0 0 0.551522
0.131258 0 0.551522
0.266484 0 0.551522
0.39884 0 0.551522
0.529747 0 0.551522
0.659648 0 0.551522
0.789181 0 0.551537
0.916686 0 0.551522
1 0 0.551278
0 0.0973831 0.551522
0.128847 0.0812238 0.567224
0.270954 0.0769207 0.563455
0.405539 0.0728771 0.559609
0.536919 0.0698863 0.556649
0.666575 0.0678264 0.554559
0.795651 0.0664683 0.553094
0.922194 0.0656901 0.552087
1 0.0973678 0.551278
0 0.22829 0.551522
0.119844 0.223178 0.570901
0.270054 0.217975 0.570993
0.411688 0.2103 0.568429
0.548836 0.201236 0.564691
0.682277 0.19234 0.560372
0.813413 0.184329 0.556237
0.936996 0.182742 0.552682
1 0.22829 0.551308
0 0.356756 0.551522
0.10782 0.357244 0.563577
0.259907 0.355077 0.566827
0.405661 0.350927 0.56492
0.546624 0.344976 0.562219
0.68513 0.33724 0.558663
0.821851 0.328222 0.554253
0.941558 0.330678 0.550271
1 0.356771 0.551354
0 0.482994 0.551522
0.0987564 0.484977 0.556237
0.243336 0.485527 0.559625
0.394568 0.483024 0.557839
0.53843 0.479347 0.555047
0.678798 0.474571 0.551431
0.817639 0.468605 0.546944
0.940047 0.46862 0.544915
1 0.482979 0.551431
0 0.607553 0.551522
0.0934005 0.609689 0.551369
0.224826 0.612207 0.549966
0.378195 0.611337 0.547433
0.526513 0.608759 0.544457
0.669429 0.605432 0.540673
0.809903 0.601297 0.535958
0.937331 0.59942 0.535943
1 0.607477 0.551522
0 0.730831 0.551522
0.0903334 0.732815 0.548379
0.209628 0.73608 0.541131
0.357336 0.737194 0.533791
0.510262 0.735561 0.529747
0.656794 0.733028 0.525826
0.799405 0.730007 0.521065
0.932631 0.727153 0.521431
1 0.730617 0.551522
0 0.853056 0.551537
0.0885939 0.854749 0.546517
0.198199 0.858228 0.534386
0.336736 0.860746 0.519783
0.490379 0.86038 0.511635
0.641321 0.858427 0.507851
0.786404 0.856016 0.5037
0.924956 0.853239 0.499611
1 0.852628 0.551522
0 0.973144 0.551308
0.0876936 0.974655 0.545159
0.231418 0.975616 0.540566
0.373053 0.976013 0.537087
0.511635 0.976013 0.534035
0.647837 0.975784 0.530907
0.782361 0.975418 0.52578
0.915038 0.974975 0.514183
1 0.973083 0.551522
0 0 0.652766
0.131258 0 0.652766
0.266484 0 0.652766
0.398856 0 0.652766
0.529747 0 0.652766
0.659648 0 0.652766
0.789181 0 0.652796
0.916686 0 0.652781
1 0 0.652491
0 0.0973831 0.652766
0.126848 0.0776379 0.668406
0.269306 0.0746166 0.665187
0.404273 0.0715801 0.661799
0.535973 0.0691691 0.659007
0.665934 0.0674449 0.656962
0.795193 0.0662699 0.655482
0.921859 0.0655833 0.654414
1 0.0973678 0.652506
0 0.22829 0.652766
0.116518 0.219791 0.675669
0.267842 0.214145 0.676921
0.409979 0.206867 0.674418
0.547204 0.198489 0.67071
0.680797 0.19028 0.666484
0.812116 0.182849 0.662425
0.9364 0.181064 0.658473
1 0.22829 0.652506
0 0.356771 0.652766
0.106004 0.355856 0.66807
0.257649 0.353063 0.674159
0.404181 0.348867 0.672709
0.54551 0.34284 0.670649
0.684092 0.335149 0.667842
0.820798 0.326299 0.66424
0.941222 0.329091 0.658335
1 0.356771 0.652537
0 0.483009 0.652766
0.0979934 0.484306 0.660746
0.241215 0.484276 0.668315
0.393027 0.481727 0.667369
0.537301 0.478035 0.665278
0.677913 0.473228 0.662577
0.816922 0.467231 0.659297
0.939788 0.467521 0.654749
1 0.482979 0.652583
0 0.607538 0.652766
0.09308 0.609339 0.655741
0.223423 0.611368 0.659693
0.376608 0.610407 0.659586
0.525353 0.607843 0.657435
0.668513 0.604471 0.654673
0.809125 0.600351 0.65127
0.937026 0.598627 0.648707
1 0.607538 0.65272
0 0.730831 0.652766
0.0901808 0.73254 0.652567
0.208789 0.735546 0.651484
0.355947 0.736492 0.649241
0.50898 0.734874 0.646769
0.655833 0.732357 0.64387
0.798779 0.729244 0.640299
0.932387 0.726513 0.638865
1 0.730694 0.652766
0 0.853056 0.652781
0.0885328 0.854658 0.650553
0.197681 0.857877 0.64506
0.335729 0.860212 0.638193
0.487999 0.860029 0.632959
0.639399 0.858152 0.629587
0.785443 0.855665 0.625834
0.924819 0.85275 0.622736
1 0.85272 0.652766
0 0.973144 0.652537
0.0876631 0.974594 0.649027
0.230015 0.975555 0.646235
0.372091 0.975937 0.644312
0.51046 0.976013 0.642191
0.646845 0.975799 0.639887
0.781659 0.975387 0.636194
0.914687 0.974884 0.627817
1 0.973083 0.652766
0 0 0.754772
0.131273 0 0.754772
0.266499 0 0.754772
0.39884 0 0.754772
0.529763 0 0.754772
0.659678 0 0.754772
0.789181 0 0.754772
0.916686 0 0.754772
1 0 0.754467
0 0.0973831 0.754772
0.125154 0.0745861 0.769635
0.267781 0.0725261 0.76704
0.402975 0.0703136 0.764172
0.535012 0.0684367 0.761654
0.665232 0.0670329 0.759716
0.79469 0.0660563 0.758251
0.921523 0.0654765 0.757153
1 0.0973678 0.754467
0 0.22829 0.754772
0.112902 0.216037 0.779843
0.265095 0.209506 0.782849
0.407858 0.202838 0.780148
0.545266 0.195315 0.776349
0.679026 0.1879 0.772152
0.810605 0.181125 0.768078
0.935668 0.178897 0.764019
1 0.22829 0.754467
0 0.356771 0.754772
0.104036 0.35433 0.77232
0.254749 0.3505 0.781552
0.402289 0.346181 0.780499
0.544076 0.340108 0.77879
0.682811 0.332509 0.776333
0.819516 0.323934 0.773068
0.94078 0.327031 0.765759
1 0.356771 0.754513
0 0.483024 0.754772
0.0971237 0.483543 0.765118
0.23859 0.482704 0.776303
0.391058 0.480079 0.776257
0.535851 0.476341 0.774594
0.676768 0.471504 0.772503
0.816007 0.465461 0.769924
0.939498 0.466117 0.763439
1 0.482979 0.754528
0 0.607553 0.754772
0.0926986 0.608942 0.760052
0.221714 0.610376 0.768093
0.374609 0.609247 0.770031
0.523873 0.606653 0.768444
0.667353 0.603296 0.766293
0.808164 0.599145 0.763668
0.936629 0.597604 0.759289
1 0.607538 0.754543
0 0.730831 0.754772
0.090013 0.732403 0.756725
0.207752 0.734936 0.760067
0.354208 0.735637 0.761517
0.507424 0.734005 0.760174
0.654643 0.731441 0.757961
0.797803 0.728359 0.755245
0.931868 0.725704 0.752483
1 0.730831 0.754696
0 0.853056 0.754772
0.0884413 0.85449 0.754559
0.19707 0.85745 0.753689
0.334508 0.859571 0.751919
0.486488 0.859342 0.749523
0.638148 0.857435 0.747173
0.784421 0.854994 0.744366
0.924147 0.852064 0.741451
1 0.852811 0.754757
0 0.973144 0.754498
0.0876326 0.974487 0.75285
0.228092 0.975494 0.751492
0.370748 0.97583 0.750515
0.509316 0.975921 0.74931
0.645884 0.975677 0.747799
0.780957 0.975311 0.745373
0.914092 0.974685 0.7393
1 0.973098 0.754757
