iOSLOG2LUTConverter/Resources/Secondary LUTS/WHIPLASH.cube
TITLE "Generated by Resolve"
LUT_3D_SIZE 33
0 0 0
0.0269627 0 0
0.0635996 0 0
0.0962844 0 0
0.131273 0 0
0.165438 0 0
0.199298 0 0
0.233249 0 0
0.266484 0 0
0.299916 0 0
0.332921 0 0
0.366064 0 0
0.39884 0 0
0.431815 0 0
0.4645 0 0
0.497215 0 0
0.529732 0 0
0.56231 0 0
0.594812 0 0
0.627314 0 0
0.659648 0 0
0.692088 0 0
0.724407 0 0
0.756939 0 0
0.789181 0 0
0.821637 0 0
0.853849 0 0
0.885695 0 0
0.916686 0 0
0.946426 0 0
0.971908 0 0
0.993729 0 0
1 0 0
0 0.0201114 0
0.0269322 0.0200198 0
0.0635996 0.0199435 0
0.0962844 0.0198672 0
0.131273 0.0198062 0
0.165438 0.0197604 0
0.199298 0.0196994 0
0.233249 0.0196536 0
0.266484 0.0195926 0
0.299916 0.0195468 0
0.332921 0.019501 0
0.366064 0.01944 0
0.39884 0.0193942 0
0.431815 0.0193484 0
0.4645 0.0193027 0
0.497215 0.0192569 0
0.529732 0.0192111 0
0.56231 0.0191653 0
0.594812 0.0191196 0
0.627314 0.0190738 0
0.659648 0.019028 0
0.692088 0.0189822 0
0.724407 0.0189517 0
0.756939 0.0189059 0
0.789181 0.0188602 0
0.821637 0.0188144 0
0.853849 0.0187686 0
0.885695 0.0187381 0
0.916686 0.0186923 0
0.946426 0.0186465 0
0.971908 0.0186007 0
0.993729 0.0185702 0
1 0.0185397 0
0 0.0402228 0
0.0269169 0.0401923 0
0.0635996 0.0401617 0
0.0962844 0.0401465 0
0.131273 0.040116 0
0.165438 0.0401007 0
0.199298 0.0400854 0
0.233249 0.0400702 0
0.266484 0.0400549 0
0.299916 0.0400397 0
0.332921 0.0400244 0
0.366064 0.0399939 0
0.39884 0.0399786 0
0.431815 0.0399634 0
0.4645 0.0399481 0
0.497215 0.0399329 0
0.529732 0.0399176 0
0.56231 0.0399023 0
0.594812 0.0398871 0
0.627314 0.0398718 0
0.659648 0.0398566 0
0.692088 0.0398413 0
0.724407 0.039826 0
0.756939 0.0398108 0
0.789181 0.0397955 0
0.821637 0.0397955 0
0.853849 0.0397803 0
0.885695 0.039765 0
0.916686 0.0397498 0
0.946426 0.0397345 0
0.971908 0.039704 0
0.993729 0.0396887 0
1 0.0396735 0
0 0.0671092 0
0.0268864 0.0671092 0
0.0635996 0.0671092 0
0.0962844 0.0671092 0
0.131273 0.0671092 0
0.165438 0.0671092 0
0.199298 0.0671092 0
0.233249 0.0671092 0
0.266484 0.0671092 0
0.299916 0.0671092 0
0.332921 0.0671092 0
0.366064 0.0671092 0
0.39884 0.0671092 0
0.431815 0.0671092 0
0.4645 0.0671092 0
0.497215 0.0671092 0
0.529732 0.0671092 0
0.56231 0.0671092 0
0.594812 0.0671092 0
0.627314 0.0671092 0
0.659648 0.0671092 0
0.692088 0.0671092 0
0.724407 0.0671092 0
0.756939 0.0671092 0
0.789181 0.0671092 0
0.821637 0.0671092 0
0.853849 0.0671092 0
0.885695 0.0670939 0
0.916686 0.0670939 0
0.946426 0.0670939 0
0.971908 0.0670787 0
0.993729 0.0670634 0
1 0.0670634 0
0 0.0973831 0
0.0268711 0.0973831 0
0.0635996 0.0973831 0
0.0962844 0.0973831 0
0.131273 0.0973831 0
0.165438 0.0973831 0
0.199298 0.0973831 0
0.233249 0.0973831 0
0.266484 0.0973831 0
0.299916 0.0973831 0
0.332921 0.0973831 0
0.366064 0.0973831 0
0.39884 0.0973831 0
0.431815 0.0973831 0
0.4645 0.0973831 0
0.497215 0.0973831 0
0.529732 0.0973831 0
0.56231 0.0973831 0
0.594812 0.0973831 0
0.627314 0.0973831 0
0.659648 0.0973831 0
0.692088 0.0973831 0
0.724407 0.0973831 0
0.756939 0.0973831 0
0.789181 0.0973831 0
0.821637 0.0973831 0
0.853849 0.0973831 0
0.885695 0.0973831 0
0.916686 0.0973678 0
0.946426 0.0973678 0
0.971908 0.0973526 0
0.993729 0.0973373 0
1 0.097322 0
0 0.129351 0
0.0268406 0.129351 0
0.0635996 0.129351 0
0.0962844 0.129351 0
0.131273 0.129351 0
0.165438 0.129351 0
0.199298 0.129335 0
0.233249 0.129335 0
0.266484 0.129335 0
0.299916 0.129335 0
0.332921 0.129335 0
0.366064 0.129335 0
0.39884 0.129335 0
0.431815 0.129335 0
0.4645 0.129335 0
0.497215 0.129335 0
0.529732 0.129335 0
0.56231 0.129335 0
0.594812 0.129335 0
0.627314 0.129335 0
0.659648 0.129335 0
0.692088 0.129335 0
0.724407 0.129335 0
0.756939 0.129335 0
0.789181 0.129335 0
0.821637 0.129335 0
0.853849 0.129335 0
0.885695 0.129335 0
0.916686 0.129335 0
0.946426 0.129335 0
0.971908 0.129305 0
0.993729 0.129274 0
1 0.129259 0
0 0.162615 0
0.0268254 0.162615 0
0.0635996 0.162615 0
0.0962844 0.162615 0
0.131273 0.162615 0
0.165438 0.162615 0
0.199298 0.1626 0
0.233249 0.1626 0
0.266484 0.1626 0
0.299916 0.1626 0
0.332921 0.162615 0
0.366064 0.162615 0
0.39884 0.1626 0
0.431815 0.1626 0
0.4645 0.1626 0
0.497215 0.1626 0
0.529732 0.1626 0
0.56231 0.1626 0
0.594812 0.1626 0
0.627314 0.1626 0
0.659648 0.1626 0
0.692088 0.1626 0
0.724407 0.1626 0
0.756939 0.162615 0
0.789181 0.162615 0
0.821637 0.162615 0
0.853849 0.162615 0
0.885695 0.162615 0
0.916686 0.162615 0
0.946426 0.1626 0
0.971908 0.16257 0
0.993729 0.162539 0
1 0.162524 0
0 0.195682 0
0.0267948 0.195682 0
0.0635996 0.195682 0
0.0962844 0.195682 0
0.131273 0.195682 0
0.165438 0.195682 0
0.199298 0.195666 0
0.233249 0.195666 0
0.266484 0.195666 0
0.299916 0.195666 0
0.332921 0.195682 0
0.366064 0.195682 0
0.39884 0.195666 0
0.431815 0.195666 0
0.4645 0.195666 0
0.497215 0.195666 0
0.529732 0.195666 0
0.56231 0.195666 0
0.594812 0.195666 0
0.627314 0.195666 0
0.659648 0.195666 0
0.692088 0.195666 0
0.724407 0.195666 0
0.756939 0.195682 0
0.789181 0.195682 0
0.821637 0.195682 0
0.853849 0.195682 0
0.885695 0.195682 0
0.916686 0.195682 0
0.946426 0.195666 0
0.971908 0.195636 0
0.993729 0.195605 0
1 0.195575 0
0 0.22829 0
0.0267643 0.22829 0
0.0635996 0.22829 0
0.0962844 0.22829 0
0.131258 0.22829 0
0.165423 0.22829 0
0.199298 0.22829 0
0.233249 0.22829 0
0.266484 0.22829 0
0.299916 0.22829 0
0.332921 0.22829 0
0.366064 0.22829 0
0.39884 0.22829 0
0.431815 0.228275 0
0.4645 0.228275 0
0.497215 0.228275 0
0.529732 0.22829 0
0.56231 0.22829 0
0.594812 0.22829 0
0.627314 0.22829 0
0.659648 0.22829 0
0.692088 0.22829 0
0.724407 0.22829 0
0.756939 0.22829 0
0.789181 0.22829 0
0.821637 0.22829 0
0.853849 0.22829 0
0.885695 0.22829 0
0.916686 0.22829 0
0.946426 0.228275 0
0.971908 0.228244 0
0.993729 0.228199 0
1 0.228168 0
0 0.260792 0
0.0267491 0.260792 0
0.0635996 0.260792 0
0.0962844 0.260792 0
0.131258 0.260792 0
0.165423 0.260792 0
0.199298 0.260792 0
0.233249 0.260792 0
0.266484 0.260792 0
0.299916 0.260792 0
0.332921 0.260792 0
0.366064 0.260792 0
0.39884 0.260792 0
0.431815 0.260792 0
0.4645 0.260792 0
0.497215 0.260792 0
0.529732 0.260792 0
0.56231 0.260792 0
0.594812 0.260792 0
0.627314 0.260792 0
0.659648 0.260792 0
0.692088 0.260792 0
0.724407 0.260792 0
0.756939 0.260792 0
0.789181 0.260792 0
0.821637 0.260792 0
0.853849 0.260792 0
0.885695 0.260792 0
0.916686 0.260792 0
0.946426 0.260777 0
0.971908 0.260731 0
0.993729 0.2607 0
1 0.260655 0
0 0.292882 0
0.0267185 0.292882 0
0.0635996 0.292882 0
0.0962844 0.292882 0
0.131258 0.292882 0
0.165423 0.292882 0
0.199298 0.292882 0
0.233249 0.292882 0
0.266484 0.292882 0
0.299916 0.292882 0
0.332906 0.292882 0
0.366064 0.292882 0
0.39884 0.292882 0
0.431815 0.292882 0
0.4645 0.292882 0
0.497215 0.292882 0
0.529732 0.292882 0
0.56231 0.292897 0
0.594812 0.292897 0
0.627314 0.292897 0
0.659648 0.292897 0
0.692088 0.292882 0
0.724407 0.292882 0
0.756939 0.292882 0
0.789181 0.292882 0
0.821637 0.292882 0
0.853849 0.292882 0
0.885695 0.292882 0
0.916686 0.292882 0
0.946426 0.292882 0
0.971908 0.292821 0
0.993729 0.292775 0
1 0.292729 0
0 0.324941 0
0.0267033 0.324941 0
0.0635996 0.324941 0
0.0962844 0.324941 0
0.131258 0.324941 0
0.165423 0.324941 0
0.199298 0.324941 0
0.233249 0.324941 0
0.266484 0.324941 0
0.299916 0.324926 0
0.332906 0.324926 0
0.366064 0.324926 0
0.39884 0.324926 0
0.431815 0.324926 0
0.4645 0.324926 0
0.497215 0.324926 0
0.529732 0.324926 0
0.56231 0.324941 0
0.594812 0.324941 0
0.627314 0.324941 0
0.659648 0.324941 0
0.692088 0.324941 0
0.724407 0.324926 0
0.756939 0.324926 0
0.789181 0.324926 0
0.821637 0.324926 0
0.853849 0.324926 0
0.885695 0.324926 0
0.916686 0.324926 0
0.946426 0.324926 0
0.971908 0.324865 0
0.993729 0.324819 0
1 0.324773 0
0 0.356786 0
0.0266728 0.356786 0
0.0635996 0.356786 0
0.0962844 0.356786 0
0.131258 0.356786 0
0.165438 0.356786 0
0.199298 0.356786 0
0.233249 0.356786 0
0.266499 0.356786 0
0.299916 0.356786 0
0.332921 0.356771 0
0.366064 0.356771 0
0.39884 0.356756 0
0.431815 0.356756 0
0.4645 0.356756 0
0.497215 0.356756 0
0.529732 0.356756 0
0.56231 0.356771 0
0.594812 0.356771 0
0.627314 0.356771 0
0.659648 0.356771 0
0.692088 0.356771 0
0.724407 0.356771 0
0.756939 0.356771 0
0.789181 0.356771 0
0.821637 0.356771 0
0.853849 0.356771 0
0.885695 0.356771 0
0.916686 0.356756 0
0.946426 0.356756 0
0.971908 0.356695 0
0.993729 0.356634 0
1 0.356588 0
0 0.388617 0
0.0266575 0.388617 0
0.0635996 0.388617 0
0.0962844 0.388617 0
0.131258 0.388617 0
0.165438 0.388617 0
0.199298 0.388617 0
0.233249 0.388617 0
0.266499 0.388617 0
0.299916 0.388617 0
0.332921 0.388617 0
0.366064 0.388586 0
0.39884 0.388571 0
0.431815 0.388556 0
0.4645 0.388556 0
0.497215 0.388571 0
0.529732 0.388571 0
0.56231 0.388586 0
0.594812 0.388586 0
0.627314 0.388586 0
0.659648 0.388586 0
0.692088 0.388586 0
0.724407 0.388586 0
0.756939 0.388586 0
0.789181 0.388602 0
0.821637 0.388602 0
0.853849 0.388602 0
0.885695 0.388586 0
0.916686 0.388571 0
0.946426 0.388556 0
0.971908 0.388495 0
0.993729 0.388434 0
1 0.388388 0
0 0.420066 0
0.026627 0.420066 0
0.0635996 0.420066 0
0.0962844 0.420066 0
0.131258 0.420066 0
0.165423 0.420066 0
0.199298 0.420066 0
0.233249 0.420066 0
0.266484 0.420066 0
0.299901 0.420066 0
0.332891 0.420066 0
0.366049 0.42005 0
0.398825 0.420035 0
0.4318 0.420035 0
0.4645 0.420035 0
0.497215 0.420035 0
0.529732 0.42005 0
0.56231 0.42005 0
0.594812 0.42005 0
0.627314 0.42005 0
0.659648 0.42005 0
0.692088 0.42005 0
0.724407 0.42005 0
0.756939 0.420066 0
0.789181 0.420066 0
0.821637 0.420066 0
0.853834 0.420066 0
0.885695 0.420066 0
0.916686 0.42005 0
0.946426 0.420035 0
0.971908 0.419959 0
0.993729 0.419898 0
1 0.419837 0
0 0.451667 0
0.0265965 0.451667 0
0.0635843 0.451667 0
0.0962692 0.451667 0
0.131258 0.451667 0
0.165423 0.451667 0
0.199283 0.451667 0
0.233234 0.451667 0
0.266484 0.451667 0
0.299886 0.451667 0
0.332876 0.451667 0
0.366033 0.451667 0
0.398825 0.451667 0
0.4318 0.451667 0
0.4645 0.451667 0
0.497215 0.451682 0
0.529732 0.451682 0
0.56231 0.451682 0
0.594812 0.451682 0
0.627314 0.451682 0
0.659648 0.451682 0
0.692088 0.451682 0
0.724407 0.451682 0
0.756939 0.451698 0
0.789181 0.451698 0
0.821637 0.451698 0
0.853834 0.451698 0
0.885695 0.451698 0
0.916686 0.451682 0
0.946426 0.451667 0
0.971908 0.451591 0
0.993729 0.45153 0
1 0.451453 0
0 0.482994 0
0.0265812 0.482994 0
0.0635843 0.482994 0
0.0962692 0.482994 0
0.131258 0.482994 0
0.165423 0.482994 0
0.199283 0.482994 0
0.233234 0.482994 0
0.266484 0.482994 0
0.299886 0.482994 0
0.332876 0.482994 0
0.366033 0.482994 0
0.398825 0.482994 0
0.431815 0.482994 0
0.4645 0.482994 0
0.497215 0.482994 0
0.529732 0.482994 0
0.56231 0.483009 0
0.594812 0.483009 0
0.627314 0.483009 0
0.659648 0.483009 0
0.692088 0.483009 0
0.724407 0.483009 0
0.756939 0.483009 0
0.789181 0.483024 0
0.821637 0.483024 0
0.853834 0.483024 0
0.885695 0.483009 0
0.916686 0.482994 0
0.946426 0.482994 0
0.971908 0.482902 0
0.993729 0.482841 0
1 0.482765 0
0 0.51429 0
0.0265507 0.51429 0
0.0635843 0.51429 0
0.0962692 0.51429 0
0.131258 0.51429 0
0.165423 0.51429 0
0.199283 0.51429 0
0.233234 0.51429 0
0.266484 0.51429 0
0.299886 0.51429 0
0.332876 0.51429 0
0.366033 0.51429 0
0.398825 0.51429 0
0.431815 0.51429 0
0.4645 0.51429 0
0.497215 0.51429 0
0.529732 0.514305 0
0.56231 0.514321 0
0.594812 0.514305 0
0.627314 0.514305 0
0.659648 0.514305 0
0.692088 0.514305 0
0.724407 0.514305 0
0.756939 0.514321 0
0.789181 0.514336 0
0.821637 0.514336 0
0.853834 0.514336 0
0.885695 0.514321 0
0.916686 0.514305 0
0.946426 0.51429 0
0.971908 0.514214 0
0.993729 0.514138 0
1 0.514061 0
0 0.54548 0
0.0265354 0.54548 0
0.0635843 0.54548 0
0.0962692 0.54548 0
0.131258 0.54548 0
0.165423 0.54548 0
0.199283 0.54548 0
0.233234 0.54548 0
0.266484 0.54548 0
0.299901 0.54548 0
0.332876 0.54548 0
0.366049 0.54548 0
0.39884 0.54548 0
0.431815 0.54548 0
0.4645 0.54548 0
0.497215 0.54548 0
0.529747 0.545495 0
0.56231 0.545495 0
0.594812 0.545495 0
0.627314 0.545495 0
0.659648 0.545495 0
0.692088 0.545495 0
0.724392 0.545495 0
0.756939 0.54551 0
0.789181 0.54551 0
0.821637 0.54551 0
0.853834 0.54551 0
0.885695 0.54551 0
0.916686 0.545495 0
0.946426 0.54548 0
0.971908 0.545388 0
0.993729 0.545312 0
1 0.54522 0
0 0.576654 0
0.0265049 0.576654 0
0.0635843 0.576654 0
0.0962692 0.576654 0
0.131258 0.576654 0
0.165423 0.576654 0
0.199298 0.576654 0
0.233249 0.576654 0
0.266484 0.576654 0
0.299916 0.576654 0
0.332906 0.576654 0
0.366064 0.576654 0
0.39884 0.576654 0
0.43183 0.576654 0
0.464515 0.576654 0
0.49723 0.576654 0
0.529747 0.576654 0
0.56231 0.576654 0
0.594812 0.576654 0
0.627314 0.576654 0
0.659648 0.576654 0
0.692088 0.576654 0
0.724392 0.576654 0
0.756939 0.576654 0
0.789181 0.576669 0
0.821637 0.576669 0
0.853834 0.576669 0
0.885695 0.576669 0
0.916686 0.576654 0
0.946426 0.576638 0
0.971893 0.576547 0
0.993729 0.576455 0
1 0.576364 0
0 0.607553 0
0.0264744 0.607553 0
0.0635843 0.607553 0
0.0962692 0.607553 0
0.131258 0.607553 0
0.165423 0.607553 0
0.199298 0.607553 0
0.233249 0.607553 0
0.266484 0.607553 0
0.299916 0.607553 0
0.332906 0.607553 0
0.366064 0.607538 0
0.398856 0.607538 0
0.43183 0.607538 0
0.464515 0.607538 0
0.49723 0.607538 0
0.529747 0.607538 0
0.56231 0.607538 0
0.594812 0.607538 0
0.627314 0.607538 0
0.659648 0.607538 0
0.692088 0.607538 0
0.724392 0.607538 0
0.756939 0.607553 0
0.789181 0.607553 0
0.821637 0.607553 0
0.853834 0.607553 0
0.885695 0.607553 0
0.916686 0.607538 0
0.946426 0.607538 0
0.971893 0.607431 0
0.993729 0.60734 0
1 0.607248 0
0 0.638392 0
0.0264591 0.638392 0
0.0635843 0.638392 0
0.0962692 0.638392 0
0.131258 0.638392 0
0.165423 0.638392 0
0.199298 0.638392 0
0.233249 0.638392 0
0.266484 0.638392 0
0.299916 0.638392 0
0.332906 0.638392 0
0.366064 0.638392 0
0.398856 0.638392 0
0.43183 0.638392 0
0.464515 0.638392 0
0.49723 0.638392 0
0.529747 0.638392 0
0.56231 0.638392 0
0.594812 0.638392 0
0.627314 0.638392 0
0.659648 0.638392 0
0.692088 0.638392 0
0.724392 0.638392 0
0.756939 0.638392 0
0.789181 0.638407 0
0.821637 0.638407 0
0.853834 0.638407 0
0.885695 0.638392 0
0.916686 0.638392 0
0.946426 0.638376 0
0.971893 0.63827 0
0.993729 0.638178 0
1 0.638086 0
0 0.669352 0
0.0264286 0.669352 0
0.0635843 0.669352 0
0.0962692 0.669352 0
0.131258 0.669352 0
0.165423 0.669352 0
0.199283 0.669352 0
0.233249 0.669352 0
0.266484 0.669352 0
0.299916 0.669352 0
0.332906 0.669352 0
0.366064 0.669352 0
0.39884 0.669352 0
0.43183 0.669352 0
0.464515 0.669352 0
0.49723 0.669352 0
0.529747 0.669352 0
0.56231 0.669352 0
0.594812 0.669352 0
0.627314 0.669352 0
0.659648 0.669352 0
0.692088 0.669352 0
0.724392 0.669352 0
0.756939 0.669367 0
0.789181 0.669367 0
0.821637 0.669367 0
0.853834 0.669367 0
0.885695 0.669367 0
0.916686 0.669352 0
0.946426 0.669337 0
0.971893 0.66923 0
0.993729 0.669139 0
1 0.669047 0
0 0.70013 0
0.0264134 0.70013 0
0.0635843 0.70013 0
0.0962692 0.70013 0
0.131258 0.70013 0
0.165423 0.70013 0
0.199283 0.70013 0
0.233234 0.70013 0
0.266484 0.70013 0
0.299901 0.70013 0
0.332891 0.70013 0
0.366064 0.70013 0
0.39884 0.70013 0
0.43183 0.70013 0
0.464515 0.70013 0
0.49723 0.70013 0
0.529747 0.70013 0
0.56231 0.70013 0
0.594812 0.70013 0
0.627298 0.70013 0
0.659648 0.70013 0
0.692088 0.70013 0
0.724392 0.70013 0
0.756939 0.70013 0
0.789181 0.70013 0
0.821637 0.70013 0
0.853834 0.70013 0
0.885695 0.70013 0
0.916686 0.700114 0
0.946426 0.700099 0
0.971893 0.699992 0
0.993729 0.699901 0
1 0.699809 0
0 0.730831 0
0.0263828 0.730831 0
0.0635843 0.730831 0
0.0962692 0.730831 0
0.131258 0.730831 0
0.165423 0.730831 0
0.199283 0.730831 0
0.233234 0.730831 0
0.266484 0.730831 0
0.299901 0.730831 0
0.332891 0.730831 0
0.366049 0.730831 0
0.39884 0.730831 0
0.43183 0.730831 0
0.464515 0.730831 0
0.49723 0.730831 0
0.529747 0.730831 0
0.56231 0.730831 0
0.594812 0.730831 0
0.627314 0.730831 0
0.659648 0.730831 0
0.692088 0.730831 0
0.724407 0.730831 0
0.756939 0.730831 0
0.789181 0.730831 0
0.821637 0.730831 0
0.853834 0.730831 0
0.885695 0.730831 0
0.916686 0.730816 0
0.946426 0.730785 0
0.971893 0.730678 0
0.993729 0.730587 0
1 0.730495 0
0 0.76144 0
0.0263523 0.76144 0
0.0635843 0.76144 0
0.0962692 0.76144 0
0.131258 0.76144 0
0.165423 0.76144 0
0.199283 0.76144 0
0.233249 0.76144 0
0.266484 0.76144 0
0.299901 0.76144 0
0.332891 0.761425 0
0.366064 0.761425 0
0.398856 0.761425 0
0.431846 0.761425 0
0.46453 0.761425 0
0.49723 0.761425 0
0.529763 0.761425 0
0.562325 0.761425 0
0.594827 0.761425 0
0.627314 0.761425 0
0.659663 0.761425 0
0.692103 0.761425 0
0.724407 0.761425 0
0.756939 0.76144 0
0.789181 0.76144 0
0.821637 0.76144 0
0.853834 0.76144 0
0.885695 0.761425 0
0.916686 0.76141 0
0.946426 0.761379 0
0.971893 0.761273 0
0.993729 0.761166 0
1 0.761074 0
0 0.792035 0
0.0263371 0.792035 0
0.0635843 0.792035 0
0.0962692 0.792035 0
0.131258 0.792035 0
0.165438 0.792035 0
0.199298 0.792035 0
0.233249 0.792035 0
0.266484 0.792035 0
0.299901 0.792035 0
0.332891 0.792035 0
0.366064 0.792035 0
0.398856 0.792035 0
0.431846 0.792035 0
0.46453 0.792035 0
0.497246 0.792035 0
0.529763 0.792035 0
0.562325 0.792035 0
0.594827 0.792035 0
0.627329 0.792035 0
0.659678 0.792035 0
0.692119 0.792035 0
0.724422 0.792035 0
0.756954 0.792035 0
0.789181 0.792035 0
0.821637 0.792035 0
0.853834 0.792035 0
0.885695 0.79202 0
0.916686 0.792004 0
0.946426 0.791974 0
0.971893 0.791852 0
0.993729 0.791745 0
1 0.791638 0
0 0.822629 0
0.0263066 0.822629 0
0.0635843 0.822629 0
0.0962692 0.822629 0
0.131258 0.822629 0
0.165438 0.822629 0
0.199298 0.822629 0
0.233249 0.822629 0
0.266484 0.822629 0
