LUTS/Secondary LUTS/1917.cube
TITLE "Generated by Resolve"
LUT_3D_SIZE 33
0.00456245 0.00549325 0.002121
0.00950637 0.00642405 0.00317388
0.0144045 0.00733959 0.00424201
0.0220645 0.00988785 0.00688182
0.0300908 0.012665 0.00978103
0.0408484 0.0168917 0.0140078
0.0525063 0.0216983 0.0187228
0.067277 0.0275883 0.0244297
0.0846571 0.0342412 0.0307927
0.10425 0.0419623 0.0380102
0.126482 0.0509194 0.0461128
0.152224 0.0614481 0.0558175
0.180819 0.074052 0.0674449
0.209659 0.0872816 0.0789502
0.23682 0.102159 0.0905623
0.266758 0.11751 0.104906
0.295995 0.133181 0.119081
0.323476 0.149264 0.131823
0.348363 0.16434 0.141711
0.376654 0.179156 0.156024
0.403479 0.193576 0.169467
0.428138 0.208164 0.180972
0.45066 0.22208 0.190173
0.47361 0.235401 0.200336
0.497505 0.24802 0.213306
0.519173 0.260304 0.224308
0.539147 0.272374 0.233753
0.557061 0.284108 0.241566
0.573999 0.295476 0.248402
0.592798 0.305577 0.258381
0.611399 0.315831 0.268498
0.628077 0.325826 0.27747
0.644144 0.33611 0.28574
0.00480659 0.0122377 0.00265507
0.0102693 0.0127565 0.00323491
0.0157473 0.0132753 0.00381476
0.0239567 0.0153964 0.00679026
0.0326085 0.0177157 0.0101472
0.0433661 0.0218051 0.0145876
0.0548257 0.0265202 0.0194247
0.0698558 0.0323796 0.0251774
0.0870832 0.0390021 0.0315251
0.106462 0.0466926 0.0387274
0.128832 0.055848 0.0468299
0.154711 0.0666209 0.0566415
0.183139 0.0791943 0.0682689
0.211337 0.0924239 0.0795758
0.237903 0.107301 0.090898
0.268635 0.122866 0.105898
0.297444 0.138537 0.119661
0.324285 0.154467 0.131975
0.348913 0.169558 0.141787
0.378073 0.18439 0.156878
0.404456 0.198749 0.170031
0.428702 0.213245 0.181079
0.450813 0.227161 0.18996
0.474876 0.240452 0.201358
0.498344 0.253071 0.213931
0.5196 0.265385 0.224689
0.5393 0.277485 0.233875
0.557015 0.289128 0.241474
0.574212 0.300511 0.248463
0.593561 0.310491 0.259281
0.611917 0.320729 0.2692
0.628382 0.330861 0.278004
0.644266 0.341192 0.286091
0.00505074 0.0189517 0.00320439
0.0110781 0.019089 0.00328069
0.0170748 0.0192111 0.00337224
0.0259098 0.0208591 0.00668345
0.0351263 0.0227817 0.0104982
0.0458991 0.0267033 0.0151522
0.057145 0.0313725 0.0201267
0.0723735 0.037171 0.0259251
0.0895094 0.0437629 0.0322576
0.108721 0.0514382 0.0394141
0.131334 0.0610056 0.0476539
0.157305 0.0717327 0.0575113
0.185321 0.0842908 0.0690929
0.21297 0.0976425 0.0801862
0.239933 0.112673 0.0918593
0.270588 0.128328 0.106859
0.298741 0.143877 0.120272
0.324971 0.159686 0.132067
0.350668 0.174685 0.142885
0.379553 0.189548 0.157748
0.405402 0.203937 0.170489
0.429129 0.218433 0.18117
0.45095 0.232349 0.18967
0.476051 0.245441 0.202243
0.499153 0.258137 0.214542
0.520119 0.270497 0.225055
0.539544 0.282612 0.233967
0.557031 0.29427 0.241337
0.575204 0.305257 0.2495
0.594293 0.315419 0.260075
0.612406 0.325719 0.269902
0.628672 0.335805 0.278492
0.644404 0.346181 0.286351
0.0059205 0.0307927 0.00424201
0.0120241 0.0308537 0.00419623
0.0180819 0.0308843 0.00416571
0.0283055 0.0320134 0.00619516
0.0391394 0.0333104 0.00852979
0.0519112 0.0364233 0.0129397
0.0663462 0.0402228 0.0181125
0.0829633 0.0455482 0.0247654
0.100175 0.0519722 0.0323491
0.11873 0.0602274 0.0403754
0.14226 0.0701915 0.049485
0.167651 0.0809491 0.0599374
0.194568 0.0937057 0.0716411
0.220478 0.107225 0.0825055
0.248539 0.122469 0.0954757
0.27776 0.137819 0.110155
0.304585 0.153231 0.122805
0.329625 0.16875 0.1337
0.357031 0.183291 0.146441
0.384497 0.197894 0.160616
0.409308 0.212207 0.172549
0.432334 0.226535 0.182528
0.455009 0.239963 0.191959
0.479988 0.252918 0.205066
0.502388 0.265644 0.216739
0.522667 0.277943 0.226658
0.541543 0.289952 0.235111
0.559045 0.301411 0.242451
0.578286 0.311955 0.252064
0.596933 0.322103 0.262287
0.614618 0.332479 0.271778
0.630488 0.34255 0.279973
0.645747 0.352789 0.287541
0.00686656 0.0433967 0.00535592
0.0129702 0.0434424 0.0052491
0.019089 0.0434577 0.00514229
0.0307774 0.0440223 0.00563058
0.0433356 0.0446784 0.00619516
0.0585641 0.0469062 0.0102998
0.0771191 0.0496376 0.0157015
0.0949569 0.0544747 0.0233158
0.111818 0.0614328 0.0323033
0.131182 0.0699016 0.0413825
0.154757 0.0798962 0.0515602
0.179355 0.0907759 0.0626383
0.204517 0.103899 0.0742809
0.22974 0.118105 0.0855421
0.258183 0.132845 0.0994736
0.285466 0.14815 0.113573
0.310842 0.163302 0.125399
0.336614 0.178393 0.136858
0.363806 0.192493 0.150286
0.389899 0.206897 0.163638
0.413611 0.221012 0.174685
0.435966 0.235096 0.184085
0.460044 0.248035 0.195071
0.48423 0.260899 0.20795
0.505791 0.273533 0.219013
0.525399 0.28574 0.228397
0.543679 0.297734 0.236286
0.562463 0.308522 0.244877
0.581613 0.319051 0.254841
0.599771 0.329305 0.264698
0.616968 0.339635 0.273732
0.63238 0.349584 0.281559
0.647303 0.359792 0.288792
0.00885023 0.0600595 0.00662242
0.0149844 0.0600595 0.00650034
0.0211185 0.0601205 0.00636301
0.0332494 0.0605936 0.00633249
0.0462959 0.0611582 0.00634775
0.0634318 0.0631571 0.00906386
0.0833448 0.0656138 0.0127871
0.103838 0.0702525 0.0187839
0.125063 0.0763714 0.026276
0.14873 0.0840925 0.0357519
0.173465 0.0935073 0.0482032
0.197696 0.104173 0.0612345
0.22118 0.118074 0.074052
0.246769 0.131914 0.0874189
0.274006 0.146395 0.102373
0.298894 0.161486 0.11632
0.32314 0.176287 0.128069
0.349584 0.190799 0.140978
0.375448 0.204807 0.154864
0.399756 0.219013 0.167315
0.421729 0.232959 0.177356
0.44564 0.246281 0.188251
0.469306 0.258961 0.200061
0.491798 0.271611 0.212116
0.512108 0.284016 0.222309
0.530709 0.296178 0.230915
0.549981 0.307393 0.239612
0.568597 0.3178 0.2486
0.58735 0.328191 0.258824
0.604578 0.338308 0.268055
0.620859 0.348486 0.276555
0.635676 0.358267 0.283864
0.650401 0.368154 0.290837
0.0111849 0.0796063 0.0078584
0.017319 0.0796521 0.00772107
0.0235142 0.0796979 0.00758373
0.0357519 0.0801556 0.0074464
0.0488746 0.0806439 0.00732433
0.0670787 0.0823529 0.00825513
0.0876631 0.0844129 0.00959792
0.111391 0.0881514 0.0131075
0.140307 0.0930953 0.0181277
0.168902 0.0997635 0.0278325
0.195514 0.108537 0.0431373
0.217578 0.120256 0.0580453
0.241398 0.133654 0.0733654
0.267292 0.146868 0.0892042
0.291386 0.161379 0.104662
0.314244 0.17615 0.118807
0.339315 0.190249 0.131853
0.364645 0.204532 0.146029
0.38854 0.218387 0.159289
0.410651 0.232502 0.170764
0.433524 0.245609 0.181659
0.456855 0.258488 0.193072
0.479469 0.270954 0.205325
0.50013 0.283482 0.216388
0.519158 0.295705 0.225666
0.53846 0.307042 0.234577
0.557626 0.317678 0.243854
0.575708 0.328008 0.253193
0.593606 0.338186 0.263096
0.609903 0.348013 0.271626
0.625299 0.357977 0.279393
0.639597 0.367514 0.286336
0.655375 0.376394 0.29398
0.015259 0.102586 0.00921645
0.0213779 0.102632 0.00907912
0.0275425 0.102678 0.00892653
0.0396429 0.10312 0.00874342
0.0526894 0.10367 0.00852979
0.0714275 0.105165 0.00865187
0.0919203 0.107103 0.00886549
0.116335 0.110384 0.0108339
0.149752 0.114931 0.0142061
0.180575 0.121508 0.0216678
0.208637 0.1308 0.0336309
0.23624 0.141085 0.0475776
0.26363 0.152667 0.0655985
0.28925 0.165209 0.0836347
0.311528 0.17911 0.100603
0.335256 0.192569 0.117861
0.35935 0.206134 0.132677
0.383078 0.220081 0.148333
0.404685 0.233707 0.161257
0.426841 0.247028 0.173602
0.449195 0.259632 0.185504
0.471427 0.272251 0.197665
0.491966 0.284566 0.209644
0.510903 0.296849 0.219913
0.530144 0.308202 0.229419
0.549401 0.318914 0.239033
0.567422 0.329351 0.248432
0.584756 0.3393 0.25803
0.601434 0.34934 0.267323
0.616632 0.359014 0.275242
0.631479 0.368597 0.282597
0.646723 0.377096 0.290043
0.661814 0.385733 0.297719
0.0204166 0.129458 0.0105592
0.0264744 0.129519 0.0104067
0.0325322 0.129503 0.0102541
0.0444038 0.130098 0.0100099
0.0576181 0.130648 0.00976577
0.0764019 0.132403 0.00968948
0.0970016 0.134493 0.00968948
0.122194 0.137987 0.0107729
0.153124 0.142229 0.0126802
0.184192 0.148013 0.0163119
0.219532 0.156008 0.0220493
0.254673 0.164569 0.0322271
0.284459 0.174716 0.0522316
0.310994 0.186114 0.0720531
0.33489 0.198444 0.0927749
0.358877 0.210559 0.114382
0.381872 0.223484 0.131594
0.403525 0.236942 0.148714
0.424445 0.249821 0.162142
0.446006 0.262364 0.176104
0.467231 0.274586 0.188937
0.487419 0.287022 0.201816
0.505821 0.29926 0.213169
0.52491 0.310597 0.223636
0.543999 0.32134 0.233875
0.561669 0.331716 0.243641
0.5785 0.341833 0.253285
0.59472 0.351598 0.262745
0.610025 0.361379 0.271321
0.624842 0.370535 0.27895
0.640223 0.379202 0.286702
0.654734 0.387442 0.294148
0.669078 0.395804 0.301808
0.0269322 0.158846 0.0119478
0.032929 0.158831 0.0117952
0.0389258 0.158892 0.0116274
0.0506294 0.159396 0.0113527
0.0646067 0.159899 0.0111086
0.0835584 0.161547 0.0109102
0.104417 0.16347 0.0107424
0.129534 0.166705 0.0112459
0.157641 0.170626 0.0121309
0.188663 0.175998 0.0136568
0.227863 0.182986 0.0162203
0.264149 0.190524 0.0231937
0.296941 0.199985 0.039826
0.329152 0.209583 0.0581064
0.35639 0.220386 0.0800793
0.382849 0.231098 0.10341
0.404364 0.243214 0.123507
0.425574 0.255512 0.143282
0.446448 0.267323 0.159518
0.467384 0.279042 0.175906
0.486717 0.290852 0.190097
0.504845 0.302998 0.203464
0.523171 0.314168 0.215091
0.541772 0.324849 0.226627
0.559182 0.33521 0.237415
0.575509 0.345281 0.247639
0.591165 0.355215 0.257725
0.605951 0.364752 0.266682
0.621134 0.373724 0.275029
0.635874 0.382147 0.282902
0.650355 0.390555 0.290852
0.664073 0.39855 0.29839
0.677592 0.406592 0.306081
0.0351263 0.190387 0.0134432
0.0410773 0.190463 0.0132601
0.0469673 0.190463 0.0130922
0.0597696 0.190921 0.0128176
0.0738994 0.191394 0.0125582
0.0931106 0.192782 0.0122988
0.11429 0.194553 0.0120394
0.139528 0.19762 0.0122683
0.166812 0.201617 0.0128481
0.19733 0.206424 0.0142977
0.231266 0.212207 0.0166781
0.265278 0.218952 0.0210422
0.303944 0.22771 0.0297398
0.342428 0.236301 0.0414893
0.373449 0.245563 0.0614633
0.403983 0.255085 0.0814984
0.426825 0.265583 0.106767
0.450004 0.275822 0.132677
0.471077 0.28632 0.152773
0.490715 0.297246 0.17229
0.507729 0.308598 0.187533
0.525673 0.319493 0.202335
0.543526 0.329763 0.215808
0.560494 0.339986 0.228275
0.576181 0.350027 0.239872
0.591073 0.359823 0.250874
0.605737 0.36936 0.261036
0.620478 0.377997 0.269917
0.634745 0.386465 0.278584
0.648508 0.394598 0.286732
0.661982 0.402747 0.294957
0.6748 0.410422 0.302663
0.687388 0.418235 0.310521
0.0445106 0.223056 0.0150454
0.0508278 0.223133 0.0148775
0.0575265 0.223117 0.0147402
0.0707866 0.223529 0.0144808
0.0849928 0.223972 0.0142061
0.104295 0.225132 0.0139162
0.12639 0.226505 0.0135958
0.151324 0.229297 0.0136416
0.177783 0.233051 0.013962
0.206088 0.237354 0.0151522
0.236286 0.242527 0.017319
0.270268 0.248768 0.0200656
0.309911 0.256672 0.0238193
0.347662 0.264607 0.0301366
0.384222 0.27248 0.0465248
0.420249 0.280507 0.0635233
0.447074 0.289052 0.090013
0.474266 0.29723 0.117998
0.494408 0.307118 0.140459
0.512245 0.317281 0.162325
0.529946 0.327016 0.180941
0.548135 0.336614 0.199039
0.564355 0.346319 0.214038
0.579461 0.356054 0.227955
0.593774 0.365713 0.240894
0.608148 0.374762 0.252323
0.622507 0.383398 0.262943
0.636072 0.391623 0.272282
0.649271 0.399771 0.281575
0.661997 0.407568 0.290074
0.674434 0.415381 0.298756
0.686259 0.422889 0.306783
0.697871 0.430396 0.314855
0.0581369 0.257038 0.0171054
0.0649577 0.25713 0.016968
0.0717784 0.257115 0.0168154
0.0851759 0.257557 0.0165713
0.0996872 0.258015 0.0163119
0.11928 0.259007 0.016022
0.141451 0.260288 0.0156863
0.165911 0.262806 0.0156405
0.191791 0.266361 0.0157321
0.21912 0.270558 0.0166629
0.248127 0.275547 0.0185702
0.279637 0.281041 0.0211948
0.31284 0.287098 0.0249485
0.34815 0.293645 0.0304417
0.387915 0.301411 0.0407416
0.426383 0.309133 0.0522774
0.458885 0.316274 0.0711528
0.491005 0.323461 0.0905013
0.512795 0.33167 0.116548
0.535119 0.339452 0.144274
0.554711 0.347311 0.168032
0.571542 0.35584 0.189258
0.586404 0.364706 0.207034
0.600275 0.373678 0.223011
0.614542 0.382193 0.237766
0.628122 0.390326 0.250782
0.641184 0.398444 0.262516
0.653559 0.406226 0.272969
0.665736 0.413977 0.283146
0.677333 0.4215 0.292424
0.688579 0.428962 0.301778
0.699809 0.435981 0.309972
0.71133 0.442908 0.31783
0.0732128 0.291783 0.019501
0.0801404 0.291768 0.0193637
0.0870832 0.291844 0.0192111
0.100633 0.292287 0.0189822
0.115419 0.292638 0.0187228
0.135531 0.293523 0.0184482
0.157351 0.294591 0.018143
0.181231 0.296788 0.0180056
0.206317 0.299901 0.0179751
0.232731 0.303792 0.0187228
0.26041 0.308705 0.0203555
0.288472 0.31368 0.0227207
0.318364 0.318456 0.0268559
0.352728 0.32398 0.0315404
0.390646 0.331395 0.0369116
0.428733 0.338552 0.0433204
0.466453 0.344549 0.0552682
0.503105 0.350484 0.0675517
0.531029 0.356039 0.0963149
0.558526 0.36141 0.127214
0.576745 0.368643 0.152193
0.592462 0.376318 0.175723
0.607523 0.383902 0.196399
0.62237 0.391363 0.216281
0.635508 0.398917 0.233097
0.647898 0.406363 0.247578
0.659922 0.41384 0.260884
0.67129 0.421256 0.272618
0.682246 0.428534 0.284031
0.693004 0.435538 0.293965
0.703883 0.44242 0.303655
0.71458 0.448981 0.312123
0.725338 0.455573 0.320378
0.0911879 0.327306 0.0234073
0.0980697 0.327276 0.02327
0.105043 0.327352 0.0231327
0.118685 0.327779 0.0228885
0.133639 0.328115 0.0226291
0.153079 0.328969 0.022385
0.17435 0.329915 0.0221256
0.197513 0.331868 0.0220493
0.221881 0.334417 0.0221103
0.247562 0.338064 0.0229038
0.274098 0.342702 0.024567
0.301167 0.347311 0.0268711
0.330053 0.35201 0.0305791
0.360449 0.356893 0.0346532
0.39205 0.362249 0.0394903
0.428199 0.367803 0.0453498
0.46717 0.373938 0.05449
0.504829 0.379507 0.0649882
0.537316 0.384131 0.0835889
0.568292 0.389013 0.102373
0.590249 0.394629 0.126192
0.611292 0.399756 0.152956
0.629801 0.405097 0.178286
0.644129 0.411368 0.201144
0.656977 0.417807 0.22121
0.668788 0.424292 0.238575
0.68011 0.4309 0.254368
0.690639 0.437522 0.268086
0.701076 0.444053 0.281132
0.711177 0.450446 0.292271
0.721279 0.456703 0.303029
0.731212 0.462837 0.31223
0.741131 0.469093 0.321309
0.109392 0.363165 0.0278477
0.116701 0.363119 0.0277104
0.123888 0.36318 0.0275731
0.137346 0.36347 0.0273594
0.151781 0.363882 0.0271153
0.170794 0.364599 0.0269474
0.191272 0.365484 0.0267491
0.213519 0.367025 0.0268254
0.237385 0.369146 0.0270085
0.262135 0.372213 0.0277562
0.287694 0.376593 0.0291905
0.313832 0.381094 0.0312352
0.341146 0.385534 0.0344854
0.368627 0.38999 0.0380102
0.397864 0.393759 0.042771
0.431495 0.397803 0.0483558
0.466941 0.403769 0.0546883
0.503868 0.409308 0.0622568
0.540581 0.41326 0.0702068
0.576013 0.416815 0.0788434
0.604654 0.419699 0.103609
0.632029 0.422248 0.132753
0.650202 0.426627 0.159609
0.664973 0.431632 0.185122
0.677607 0.437034 0.207843
0.689204 0.442435 0.228519
0.70013 0.447974 0.24715
0.710094 0.453712 0.262852
0.719921 0.459495 0.277684
0.729335 0.465278 0.290043
0.73875 0.471107 0.302052
0.747829 0.476799 0.312016
0.756664 0.482673 0.322133
0.127001 0.398413 0.0355993
0.134234 0.398459 0.035462
0.141466 0.398398 0.0353246
0.15465 0.398688 0.035172
0.16878 0.398978 0.0349737
0.187213 0.399634 0.0348821
0.206821 0.400351 0.0348211
0.228687 0.401755 0.0348974
0.252033 0.403494 0.0351415
0.275822 0.406226 0.0357824
0.300816 0.41004 0.0369879
0.326482 0.414084 0.0387427
0.352789 0.418479 0.0415961
0.379583 0.422782 0.0447089
0.408026 0.426337 0.0489662
0.43682 0.430045 0.0533608
0.466743 0.43447 0.0584115
0.502754 0.438422 0.0650797
0.539239 0.442481 0.0726635
0.57525 0.445686 0.0819867
0.607095 0.447807 0.0993057
0.637064 0.450019 0.117906
0.658412 0.453285 0.13846
0.678309 0.456184 0.161791
0.695552 0.459236 0.185748
0.70837 0.463188 0.209857
0.719722 0.467491 0.231693
0.7299 0.471916 0.250263
0.739651 0.476707 0.267918
0.748638 0.481819 0.28246
0.757321 0.4869 0.296544
0.765469 0.492134 0.308141
0.773617 0.497475 0.319844
0.145342 0.433753 0.0432746
0.152499 0.433799 0.0431525
0.15967 0.433722 0.0430304
0.172564 0.433982 0.0429236
0.186038 0.434272 0.0428168
0.20351 0.43476 0.0428168
0.222644 0.435386 0.0428626
0.244022 0.43653 0.0429999
0.266529 0.43798 0.0432288
0.289631 0.440253 0.0438087
0.314015 0.443473 0.0447852
0.338704 0.447028 0.0462501
0.364263 0.451347 0.0487373
0.390249 0.455451 0.0514229
0.416938 0.458885 0.0550088
0.443687 0.462181 0.0586862
0.472694 0.464973 0.0636912
0.504662 0.467582 0.0697185
0.537728 0.471824 0.0764324
0.572351 0.475227 0.0848402
0.606439 0.477119 0.0931106
0.639139 0.478813 0.101274
0.667369 0.479438 0.118334
0.693706 0.479728 0.139971
0.713268 0.481239 0.164492
0.727321 0.483742 0.191058
0.739544 0.486748 0.216129
0.749798 0.49012 0.237797
0.759503 0.493828 0.25803
0.767346 0.498299 0.274678
0.775296 0.502724 0.290913
0.783001 0.507393 0.304082
0.790753 0.512001 0.317357
0.162158 0.467292 0.0536965
0.169268 0.467323 0.0535744
0.176516 0.467262 0.0534676
0.188479 0.467491 0.0533913
0.201282 0.467735 0.053315
0.218326 0.468177 0.0533455
0.236896 0.46865 0.0534218
0.257649 0.469566 0.0535744
0.279164 0.470741 0.0538491
0.301778 0.472648 0.0543526
0.325734 0.475212 0.0551308
0.349554 0.478264 0.0563058
0.374594 0.4822 0.0582742
0.399939 0.486015 0.0604257
0.425818 0.489525 0.0637522
0.452033 0.493004 0.0671855
0.479912 0.495659 0.0715953
0.50779 0.498299 0.076112
0.536507 0.501717 0.081239
0.570245 0.504219 0.0880751
0.603998 0.50602 0.0950484
0.637461 0.507164 0.10341
0.668437 0.50695 0.117678
0.697856 0.506432 0.13434
0.719356 0.507225 0.152102
0.737453 0.508217 0.172457
0.753445 0.509407 0.194247
0.765866 0.511177 0.218357
0.776196 0.513741 0.240589
0.784833 0.516945 0.260136
0.793271 0.520333 0.279408
0.800961 0.524102 0.294804
0.808652 0.527871 0.310185
0.17911 0.500679 0.0642863
0.18584 0.50071 0.0641794
0.19266 0.500648 0.0641337
0.204211 0.50074 0.0641031
0.216602 0.500938 0.0640726
0.233051 0.50135 0.0641642
0.251164 0.501793 0.0643168
0.270588 0.50251 0.0645762
0.291646 0.50341 0.0649424
0.313848 0.50486 0.0654765
0.336934 0.506905 0.0661936
0.360265 0.509514 0.0671855
0.384604 0.512795 0.068864
0.40911 0.516213 0.0707408
0.434409 0.519844 0.0733959
0.4598 0.523339 0.0761578
0.486213 0.525963 0.0796368
0.512551 0.528588 0.0831464
0.540551 0.530785 0.0876936
0.571603 0.532357 0.0933089
0.60235 0.534417 0.0995041
0.634211 0.535897 0.107347
0.665599 0.535805 0.116579
0.696025 0.535286 0.126223
0.722042 0.534463 0.138613
0.746273 0.533043 0.153323
0.767483 0.532006 0.1729
0.781018 0.532464 0.19823
0.792966 0.533593 0.222889
0.802518 0.535515 0.245518
0.811536 0.537774 0.26775
0.819226 0.540734 0.285313
0.826581 0.543801 0.302708
0.192554 0.531838 0.0769818
0.19939 0.531762 0.0768902
0.20618 0.531777 0.0768444
0.217533 0.531838 0.0768139
0.229847 0.531899 0.0767987
0.246082 0.53225 0.0768749
0.262882 0.53254 0.0769818
0.281895 0.53315 0.0772259
0.302556 0.533822 0.0775769
0.324361 0.534951 0.0779889
0.3467 0.536599 0.0785992
0.369589 0.538689 0.0793622
0.393545 0.541482 0.0805371
0.417273 0.544549 0.0819562
0.442069 0.547997 0.0840772
0.466926 0.551308 0.0862593
0.492561 0.554177 0.0891585
0.518212 0.557046 0.0920577
0.545342 0.55903 0.0958572
0.572931 0.560891 0.0999313
0.600412 0.563073 0.104677
0.631312 0.564095 0.111315
0.662165 0.564034 0.118746
0.692546 0.563516 0.12665
0.722286 0.561196 0.138628
0.750439 0.558312 0.151873
0.774884 0.555993 0.167895
0.791394 0.555322 0.186572
0.806165 0.555154 0.206638
0.817395 0.555917 0.22945
0.828107 0.556848 0.251621
0.835477 0.559091 0.270741
0.842954 0.561334 0.290043
0.206256 0.562234 0.0899062
0.213046 0.562158 0.0898146
0.219852 0.562173 0.0897078
0.231266 0.562203 0.0896773
0.243366 0.562234 0.089662
0.258289 0.562448 0.0897383
0.274372 0.562707 0.0898451
0.292973 0.563134 0.0900587
0.313252 0.563714 0.0903792
0.334142 0.564599 0.0906691
0.356222 0.565896 0.0911269
0.378744 0.567437 0.0916609
0.402106 0.569863 0.0924086
0.425361 0.572488 0.0934005
0.449546 0.575662 0.0949569
0.473701 0.578775 0.0965744
0.498695 0.581842 0.0989395
0.523644 0.584894 0.10132
0.549569 0.586954 0.104311
0.575326 0.588968 0.107408
0.60174 0.590585 0.111589
0.631418 0.591165 0.117388
0.66038 0.591348 0.123995
0.689204 0.591089 0.131533
0.718547 0.588937 0.141283
0.746685 0.586282 0.150988
0.772183 0.583734 0.161349
0.793942 0.581216 0.172488
0.813779 0.57911 0.186755
0.828901 0.577844 0.210254
0.841291 0.577554 0.232242
0.850004 0.578363 0.253864
0.858564 0.579416 0.275837
0.220218 0.590829 0.102968
0.227085 0.590814 0.102907
0.233997 0.590723 0.1028
0.244862 0.590753 0.10277
0.255665 0.590799 0.102754
0.270039 0.590967 0.102815
0.285832 0.59115 0.102846
0.304021 0.591409 0.103029
0.323537 0.591913 0.103258
0.343664 0.592584 0.103578
0.365316 0.5935 0.103853
0.387381 0.594812 0.104295
0.410025 0.596704 0.104829
0.432807 0.598795 0.105516
0.456443 0.601602 0.106661
0.47982 0.60444 0.107897
0.504128 0.607416 0.109895
0.528466 0.610483 0.111971
0.553552 0.612757 0.114641
0.578668 0.614893 0.117357
0.604562 0.616541 0.121004
0.631754 0.617563 0.125353
0.658274 0.618357 0.13048
0.686091 0.61825 0.136904
0.714717 0.616373 0.144625
0.742473 0.613809 0.152377
0.769039 0.610742 0.161074
0.794186 0.606928 0.170611
0.817533 0.603494 0.182559
0.836301 0.600855 0.201556
0.851041 0.599496 0.219013
0.861936 0.598978 0.239689
0.872526 0.598657 0.260395
0.23444 0.618235 0.116381
0.240864 0.618235 0.116335
0.247166 0.618143 0.116243
0.25713 0.618189 0.116213
0.267689 0.618235 0.116197
0.281682 0.61828 0.116197
0.297032 0.618418 0.116274
0.314687 0.618631 0.116396
0.33315 0.618982 0.11664
0.352926 0.619562 0.116899
0.374014 0.620386 0.117174
0.395483 0.621347 0.117556
0.417563 0.622843 0.117998
0.439902 0.624475 0.118547
0.46302 0.626886 0.119478
0.485786 0.629404 0.120439
0.509407 0.632303 0.121996
0.533089 0.635203 0.123629
0.557412 0.637736 0.125826
0.581781 0.640146 0.128038
0.606882 0.641917 0.130968
0.631891 0.643595 0.134066
0.657069 0.644755 0.137865
0.684352 0.644602 0.143069
0.712062 0.643046 0.149371
0.73872 0.640726 0.155962
0.765576 0.637293 0.164614
0.79205 0.633051 0.174502
0.817624 0.628794 0.185351
0.839521 0.625086 0.196872
0.857847 0.622446 0.208118
0.871855 0.620478 0.226368
0.885451 0.618677 0.244373
0.246799 0.64448 0.130739
0.253025 0.644373 0.130648
0.259373 0.644266 0.130541
0.269047 0.644312 0.13051
0.279438 0.644343 0.130404
0.293187 0.644373 0.130449
0.308064 0.644495 0.130449
0.324758 0.644678 0.130556
0.342611 0.644892 0.13077
0.361807 0.64538 0.130922
0.382437 0.645991 0.131243
0.403128 0.646708 0.131518
0.424781 0.647791 0.131899
0.446677 0.649073 0.132296
0.469139 0.651118 0.132891
0.491402 0.653178 0.133577
0.514427 0.655787 0.134737
0.537209 0.658412 0.135958
0.560845 0.66096 0.137758
0.584436 0.663493 0.139528
0.608743 0.665476 0.141863
0.633127 0.667292 0.144442
0.657969 0.668513 0.147539
0.684306 0.668803 0.151705
0.710262 0.668055 0.156649
0.735561 0.666636 0.162005
0.761883 0.6636 0.169772
0.787579 0.659586 0.178531
0.812955 0.655406 0.187259
0.836011 0.651392 0.195224
0.857374 0.647623 0.203891
0.874846 0.64416 0.218936
0.891844 0.64097 0.233677
0.259297 0.669139 0.145174
0.265583 0.669001 0.145068
0.271855 0.668879 0.144961
0.281468 0.668803 0.144915
0.291524 0.668818 0.144823
0.304875 0.66894 0.144854
0.318685 0.669001 0.144869
0.334539 0.669169 0.144961
0.351995 0.669352 0.145068
0.370565 0.669703 0.145281
0.390494 0.670207 0.145434
0.410529 0.670802 0.145754
0.431754 0.671641 0.146029
0.453101 0.672602 0.14638
0.474937 0.674311 0.146761
0.496742 0.675975 0.147173
0.519203 0.678294 0.147997
0.541329 0.680629 0.148898
0.564111 0.683146 0.150225
0.586923 0.685588 0.151644
0.610468 0.68777 0.153521
0.634028 0.689799 0.155627
0.658259 0.691173 0.158175
0.683131 0.692149 0.161257
0.707835 0.692439 0.16495
0.732082 0.692348 0.168948
0.758297 0.689616 0.175402
0.783352 0.685802 0.182834
0.807996 0.68188 0.190402
0.831815 0.677378 0.199435
0.854902 0.672892 0.208988
0.875502 0.668376 0.219745
0.895491 0.664012 0.230182
0.272374 0.692836 0.159701
0.278553 0.692699 0.159594
0.284871 0.692576 0.159472
0.294286 0.692561 0.159442
0.304097 0.692576 0.159396
0.316289 0.692622 0.15938
0.329381 0.692699 0.15938
0.344717 0.692851 0.159457
0.361517 0.693004 0.159564
0.379568 0.693294 0.15967
0.39855 0.693645 0.159899
0.417975 0.694057 0.160128
0.438712 0.694697 0.160372
0.459556 0.695506 0.160601
0.480751 0.696849 0.16083
0.502068 0.698222 0.161151
