LUTS/Secondary LUTS/1917.cube
TITLE "Generated by Resolve"
LUT_3D_SIZE 9
0.00456245 0.00549325 0.002121
0.0300908 0.012665 0.00978103
0.0846571 0.0342412 0.0307927
0.180819 0.074052 0.0674449
0.295995 0.133181 0.119081
0.403479 0.193576 0.169467
0.497505 0.24802 0.213306
0.573999 0.295476 0.248402
0.644144 0.33611 0.28574
0.00686656 0.0433967 0.00535592
0.0433356 0.0446784 0.00619516
0.111818 0.0614328 0.0323033
0.204517 0.103899 0.0742809
0.310842 0.163302 0.125399
0.413611 0.221012 0.174685
0.505791 0.273533 0.219013
0.581613 0.319051 0.254841
0.647303 0.359792 0.288792
0.0204166 0.129458 0.0105592
0.0576181 0.130648 0.00976577
0.153124 0.142229 0.0126802
0.284459 0.174716 0.0522316
0.381872 0.223484 0.131594
0.467231 0.274586 0.188937
0.543999 0.32134 0.233875
0.610025 0.361379 0.271321
0.669078 0.395804 0.301808
0.0581369 0.257038 0.0171054
0.0996872 0.258015 0.0163119
0.191791 0.266361 0.0157321
0.31284 0.287098 0.0249485
0.458885 0.316274 0.0711528
0.554711 0.347311 0.168032
0.614542 0.382193 0.237766
0.665736 0.413977 0.283146
0.71133 0.442908 0.31783
0.127001 0.398413 0.0355993
0.16878 0.398978 0.0349737
0.252033 0.403494 0.0351415
0.352789 0.418479 0.0415961
0.466743 0.43447 0.0584115
0.607095 0.447807 0.0993057
0.695552 0.459236 0.185748
0.739651 0.476707 0.267918
0.773617 0.497475 0.319844
0.192554 0.531838 0.0769818
0.229847 0.531899 0.0767987
0.302556 0.533822 0.0775769
0.393545 0.541482 0.0805371
0.492561 0.554177 0.0891585
0.600412 0.563073 0.104677
0.722286 0.561196 0.138628
0.806165 0.555154 0.206638
0.842954 0.561334 0.290043
0.246799 0.64448 0.130739
0.279438 0.644343 0.130404
0.342611 0.644892 0.13077
0.424781 0.647791 0.131899
0.514427 0.655787 0.134737
0.608743 0.665476 0.141863
0.710262 0.668055 0.156649
0.812955 0.655406 0.187259
0.891844 0.64097 0.233677
0.300099 0.736843 0.190417
0.328405 0.736599 0.190127
0.38143 0.736782 0.190219
0.452873 0.737774 0.191012
0.533181 0.74136 0.191852
0.616342 0.748592 0.193729
0.704295 0.755779 0.198611
0.79704 0.757229 0.21059
0.884611 0.7393 0.240711
0.355825 0.815442 0.254078
0.381064 0.815244 0.253559
0.423774 0.815549 0.253651
0.483009 0.81651 0.254383
0.553414 0.818479 0.254963
0.62829 0.8224 0.254093
0.704509 0.828351 0.254047
0.784222 0.833158 0.259724
0.868833 0.834073 0.283742
0.00666819 0.00810254 0.0237583
0.0298466 0.0135195 0.0272068
0.0824903 0.0344854 0.0463417
0.177951 0.0743267 0.0843061
0.293446 0.133532 0.137499
0.401801 0.193561 0.188907
0.496788 0.247532 0.233433
0.574502 0.294331 0.26891
0.643137 0.334997 0.302785
0.00761425 0.0445563 0.03682
0.0392462 0.0460365 0.0368353
0.0993668 0.0632334 0.0558633
0.192477 0.103136 0.0917067
0.302419 0.16051 0.141009
0.407355 0.217929 0.190204
0.501396 0.270771 0.235431
0.579278 0.316838 0.272633
0.644282 0.35877 0.304479
0.0133516 0.131502 0.0436866
0.0485389 0.132448 0.0409552
0.149096 0.142123 0.044831
0.276844 0.173648 0.0850385
0.371328 0.222278 0.155413
0.458595 0.273136 0.208621
0.536583 0.319982 0.250446
0.604883 0.360739 0.287922
0.665675 0.395544 0.319127
0.0453956 0.25832 0.0480812
0.0881056 0.259068 0.0466468
0.186694 0.266209 0.0469215
0.31133 0.286442 0.0575265
0.454887 0.314885 0.105028
0.54728 0.346502 0.193866
0.607477 0.382025 0.259037
0.659861 0.41445 0.302541
0.70692 0.444038 0.335897
0.111086 0.399283 0.0658579
0.155962 0.399725 0.0654307
0.245304 0.403601 0.0661021
0.349767 0.417945 0.0730297
0.465934 0.433967 0.0905623
0.605158 0.446952 0.129839
0.690654 0.45919 0.213123
0.734646 0.477623 0.29099
0.769162 0.499062 0.340795
0.178775 0.532372 0.106798
0.218463 0.532372 0.106554
0.295659 0.533959 0.107286
0.389761 0.540963 0.109895
0.490822 0.553658 0.117998
0.599786 0.562753 0.133883
0.721019 0.560876 0.166842
0.802991 0.555596 0.233494
0.839292 0.562478 0.313527
0.238621 0.644648 0.157565
0.272236 0.644495 0.157275
0.337636 0.644984 0.157656
0.421668 0.647532 0.158923
0.512581 0.655283 0.161715
0.607767 0.665202 0.168994
0.709819 0.667842 0.184054
0.811872 0.655512 0.213626
0.889448 0.641596 0.259358
0.296437 0.736751 0.215503
0.325216 0.736461 0.215213
0.379034 0.736629 0.215274
0.451225 0.737743 0.216144
0.532174 0.741085 0.217273
0.615702 0.748287 0.219242
0.70396 0.75552 0.224216
0.796735 0.757061 0.236225
0.883894 0.739315 0.265629
0.355657 0.815274 0.277699
0.38088 0.815061 0.277333
0.423636 0.815381 0.27747
0.482902 0.816327 0.278202
0.553262 0.81825 0.278843
0.628321 0.82211 0.278218
0.704677 0.828107 0.278355
0.784268 0.832944 0.283955
0.86862 0.833951 0.307134
0.0130617 0.0155642 0.0603952
0.0348516 0.0196994 0.0652323
0.0829175 0.0375067 0.0764782
0.173541 0.0749828 0.11194
0.289921 0.133516 0.164492
0.399435 0.193896 0.215686
0.495216 0.247852 0.260014
0.573724 0.294514 0.29575
0.640314 0.335714 0.327153
0.0245975 0.0490578 0.0763256
0.0447395 0.0512245 0.0784772
0.0945907 0.0671244 0.0879072
0.185519 0.104265 0.122026
0.297902 0.160952 0.170092
0.403662 0.218677 0.218021
0.496925 0.27158 0.260761
0.576043 0.317159 0.298131
0.641001 0.358587 0.327962
0.0206607 0.136156 0.116991
0.0436255 0.138155 0.117937
0.130037 0.145464 0.121508
0.235569 0.176242 0.152178
0.335973 0.22121 0.195209
0.433234 0.269886 0.237934
0.519097 0.316915 0.276493
0.590951 0.359518 0.309407
0.657496 0.395819 0.342733
0.022385 0.262608 0.140475
0.0540017 0.263554 0.137575
0.157366 0.267491 0.129854
0.304219 0.284153 0.140749
0.437049 0.311711 0.18378
0.520653 0.345983 0.247272
0.584573 0.383673 0.295796
0.643061 0.41706 0.333593
0.694362 0.44802 0.362585
0.0774853 0.400549 0.159121
0.114412 0.401236 0.153811
0.210788 0.404486 0.144472
0.33727 0.415946 0.15024
0.463096 0.432547 0.164416
0.597635 0.444755 0.20264
0.675044 0.460304 0.272602
0.719829 0.481392 0.334356
0.756603 0.504417 0.376059
0.14818 0.533165 0.184085
0.183597 0.533333 0.179095
0.267887 0.534966 0.174319
0.37612 0.539818 0.177386
0.484932 0.551934 0.185245
0.597864 0.561746 0.199664
0.717464 0.560021 0.229999
0.79382 0.557733 0.290715
0.829282 0.567376 0.358541
0.220203 0.645136 0.219333
0.252995 0.644938 0.217243
0.321386 0.645548 0.216022
0.411734 0.647257 0.21796
0.507271 0.653834 0.221363
0.605203 0.663981 0.228351
0.708125 0.667399 0.242084
0.809232 0.655879 0.268666
0.883619 0.644038 0.31165
0.290318 0.736721 0.266819
0.319173 0.736568 0.266117
0.373526 0.736736 0.266117
0.447333 0.737713 0.267414
0.5299 0.740444 0.269337
0.61471 0.747189 0.271946
0.703227 0.754849 0.276722
0.795789 0.756771 0.286809
0.882002 0.740093 0.313344
0.357 0.815167 0.320653
0.382254 0.814939 0.320439
0.425177 0.815229 0.321065
0.48426 0.816175 0.32224
0.554391 0.818051 0.323552
0.629526 0.821698 0.323659
0.705745 0.827451 0.324071
0.784573 0.832425 0.328908
0.868193 0.833692 0.34815
0.02533 0.0293736 0.119066
0.046128 0.032105 0.123888
0.0950179 0.0478218 0.133822
0.17499 0.0812848 0.15494
0.284398 0.135714 0.199893
0.394354 0.193317 0.248081
0.492149 0.246189 0.29102
0.57467 0.292836 0.326223
0.641077 0.334478 0.355734
0.0370031 0.0628672 0.133669
0.055314 0.063508 0.136065
0.10277 0.0764324 0.144747
0.186664 0.11046 0.165164
0.293919 0.16318 0.207019
0.401175 0.218708 0.252628
0.495918 0.270512 0.293339
0.575967 0.316533 0.327672
0.642039 0.357519 0.356542
0.0679789 0.150927 0.184741
0.0898604 0.152285 0.186282
0.138277 0.156558 0.187991
0.22858 0.183398 0.201068
0.326848 0.224903 0.235065
0.425284 0.271916 0.273793
0.514275 0.31812 0.310979
0.586954 0.360525 0.341192
0.652323 0.397879 0.37084
0.0444953 0.273426 0.238163
0.0687724 0.275013 0.239277
0.145754 0.277974 0.240879
0.284199 0.288975 0.247623
0.391302 0.318669 0.276204
0.477317 0.353491 0.312566
0.553643 0.390051 0.344549
0.618997 0.425071 0.372412
0.680003 0.455863 0.399268
0.0474098 0.409277 0.27187
0.0810101 0.4094 0.270054
0.171283 0.410544 0.263798
0.309758 0.416144 0.259373
0.456306 0.431205 0.272419
0.575586 0.44683 0.309102
0.642878 0.469062 0.35671
0.692134 0.49305 0.395773
0.7355 0.517311 0.423713
0.123354 0.53521 0.2916
0.156451 0.535241 0.288914
0.234867 0.536339 0.281285
0.349401 0.539315 0.277012
0.474372 0.549157 0.284047
0.594369 0.560647 0.296757
0.709911 0.56109 0.325078
0.775479 0.565255 0.375402
0.811078 0.578607 0.423682
0.202609 0.645487 0.311467
0.234226 0.645335 0.309361
0.300252 0.645945 0.305516
0.395254 0.647517 0.305623
0.498909 0.651835 0.31017
0.601495 0.661784 0.316945
0.705425 0.666987 0.328817
0.804395 0.658167 0.349767
0.872862 0.650416 0.388907
0.279835 0.737011 0.339193
0.308812 0.736721 0.338613
0.364965 0.736797 0.339559
0.442618 0.737652 0.343359
0.527337 0.739834 0.346502
0.613886 0.745449 0.349874
0.702449 0.753658 0.354192
0.794247 0.75668 0.361685
0.87921 0.742107 0.382803
0.352377 0.81532 0.376532
0.379171 0.815137 0.377218
0.426413 0.815152 0.381445
0.488334 0.815991 0.386191
0.557595 0.817761 0.388846
0.632334 0.821027 0.390082
0.708385 0.826413 0.390692
0.785702 0.831601 0.393988
0.867613 0.833387 0.407904
0.0442664 0.0501564 0.200809
0.064683 0.050721 0.202991
0.114641 0.065568 0.210666
0.200336 0.100114 0.224323
0.289555 0.144747 0.247486
0.391394 0.198215 0.288502
0.488518 0.249348 0.328954
0.571008 0.293355 0.360906
0.641016 0.333242 0.388113
0.056199 0.0866865 0.210651
0.0758831 0.0854963 0.212024
0.116381 0.0921798 0.218524
0.207996 0.129427 0.232517
0.29807 0.172564 0.254688
0.398016 0.223789 0.293645
0.493477 0.273747 0.332326
0.573754 0.317342 0.363226
0.64303 0.356741 0.388861
0.102846 0.176791 0.25069
0.123568 0.176211 0.251316
0.156542 0.176761 0.254765
0.237903 0.195438 0.262837
0.331624 0.234699 0.283909
0.424704 0.27834 0.316747
0.513359 0.322408 0.350286
0.589502 0.362112 0.378042
0.653117 0.398917 0.402899
0.136919 0.293004 0.315541
0.159792 0.294286 0.317113
0.210513 0.296727 0.320119
0.296574 0.300801 0.318044
0.387945 0.330404 0.333242
0.469963 0.363058 0.359197
0.54818 0.396765 0.386587
0.614359 0.430457 0.409812
0.675715 0.460807 0.433249
0.0943923 0.421973 0.371099
0.123537 0.422827 0.371786
0.198016 0.424613 0.37348
0.313298 0.426474 0.37467
0.443229 0.438117 0.382162
0.534829 0.461448 0.404776
0.604059 0.486275 0.433478
0.660639 0.511635 0.454139
0.715648 0.534325 0.474739
0.108492 0.546166 0.39852
0.14081 0.54583 0.397299
0.216297 0.545632 0.394339
0.329839 0.545953 0.391394
0.462074 0.550072 0.394659
0.588266 0.560845 0.406332
0.689647 0.568811 0.436286
0.743984 0.582284 0.467781
0.783459 0.598321 0.495399
0.1832 0.649561 0.408484
0.21471 0.649134 0.407126
0.281086 0.648905 0.404898
0.378912 0.649378 0.404608
0.489418 0.651545 0.409689
0.597116 0.659037 0.417212
0.701595 0.666758 0.428122
0.796979 0.663096 0.444175
0.85568 0.662745 0.479133
0.26421 0.738384 0.421286
0.293355 0.738048 0.420661
0.350332 0.737865 0.421408
0.43267 0.738186 0.426047
0.525307 0.739559 0.434516
0.613611 0.743557 0.439796
0.70193 0.751644 0.444434
0.791913 0.756481 0.449454
0.875761 0.745785 0.464683
0.342214 0.816281 0.442939
0.369207 0.815869 0.44329
0.417792 0.815793 0.446769
0.486824 0.816266 0.455283
0.562905 0.8177 0.464866
0.636942 0.820356 0.469001
0.712093 0.825147 0.470085
0.787625 0.83064 0.471519
0.866468 0.832975 0.48098
0.0724041 0.0809033 0.285069
0.0928664 0.0787823 0.285634
0.143572 0.0916152 0.291203
0.227604 0.124743 0.30338
0.317861 0.167773 0.318624
0.398825 0.209308 0.338308
0.488762 0.257053 0.372274
0.57026 0.300755 0.402945
0.63978 0.339666 0.426764
0.0850843 0.118364 0.292607
0.103288 0.114946 0.293309
0.143206 0.118227 0.297154
0.229831 0.151324 0.30927
0.324163 0.195163 0.324849
0.405936 0.23566 0.34435
0.494011 0.28217 0.376501
0.573846 0.325093 0.4056
0.642329 0.363119 0.428779
0.13344 0.205417 0.323415
0.153597 0.203479 0.323796
0.181079 0.200122 0.325841
0.248402 0.21091 0.33254
0.349279 0.252399 0.349157
0.432502 0.290654 0.368719
0.515343 0.331975 0.39646
0.589792 0.37023 0.421057
0.654536 0.404532 0.441993
0.191775 0.314214 0.379248
0.213962 0.313878 0.379767
0.249638 0.314519 0.381399
0.307927 0.315282 0.380774
0.395621 0.341009 0.390219
0.476417 0.374502 0.408148
0.550362 0.406607 0.430426
0.617716 0.436927 0.450706
0.676768 0.465629 0.468849
0.207782 0.433249 0.444694
0.232837 0.433539 0.445472
0.286595 0.433906 0.446815
0.366461 0.435416 0.445121
0.455039 0.446937 0.4448
0.532769 0.472999 0.457618
0.597894 0.497169 0.477226
0.656641 0.519814 0.493965
0.71046 0.542321 0.510353
0.173678 0.552163 0.49044
0.202686 0.552285 0.490547
0.264454 0.553689 0.49192
0.357778 0.554879 0.493217
0.471107 0.557198 0.494881
0.579873 0.566781 0.501076
0.653529 0.585046 0.519692
0.708598 0.603052 0.538842
0.758114 0.619577 0.555657
0.181079 0.659068 0.506706
0.211841 0.65864 0.505867
0.276005 0.658122 0.504646
0.370489 0.65742 0.503929
0.481559 0.657328 0.506111
0.593439 0.659998 0.512764
0.696559 0.667445 0.523217
0.779873 0.672847 0.541695
0.82945 0.680903 0.56733
0.253574 0.743206 0.508278
0.282429 0.742763 0.507622
0.338766 0.742153 0.507622
0.421134 0.74165 0.509697
0.517891 0.74165 0.516106
0.613672 0.743526 0.525826
0.701457 0.749599 0.532601
0.788876 0.756344 0.537255
0.871916 0.751049 0.548486
0.331777 0.818692 0.516793
0.358663 0.818311 0.516732
0.407309 0.81799 0.518868
0.477028 0.81799 0.524544
0.559182 0.818677 0.534722
0.64184 0.820508 0.546578
0.715999 0.824094 0.550179
0.789609 0.829435 0.550942
0.865415 0.832471 0.555993
0.105165 0.115343 0.366583
0.12462 0.11046 0.366491
0.176089 0.122621 0.370047
0.249012 0.148211 0.378683
0.34435 0.192172 0.394385
0.425467 0.2327 0.408179
0.498924 0.270436 0.424598
0.574426 0.311437 0.44892
0.641443 0.34876 0.470619
0.118196 0.154498 0.372503
0.13846 0.150622 0.372549
0.1738 0.149096 0.374365
0.248219 0.172595 0.382498
0.34696 0.217334 0.398367
0.429679 0.258335 0.412467
0.504387 0.296284 0.429572
0.578363 0.336477 0.452506
0.644266 0.372885 0.473045
0.162142 0.233097 0.396445
0.18204 0.230625 0.396521
0.209369 0.225711 0.397604
0.261433 0.22855 0.401572
0.36289 0.268711 0.415793
0.44889 0.308782 0.430747
0.524025 0.345678 0.447898
0.594171 0.381811 0.468208
0.656565 0.41474 0.485252
0.224552 0.332967 0.43946
0.245533 0.331685 0.439307
0.272725 0.330236 0.439872
0.318883 0.330434 0.441886
0.401846 0.351492 0.448798
0.486702 0.387213 0.463081
0.557458 0.418662 0.478569
0.621332 0.448051 0.495415
0.679332 0.475135 0.510201
0.271305 0.441581 0.498039
0.29395 0.441062 0.49807
0.334447 0.44033 0.497246
0.392966 0.442496 0.494636
0.463172 0.455436 0.496132
0.538521 0.481163 0.505577
0.603113 0.506889 0.519493
0.659739 0.528511 0.533684
0.711788 0.549432 0.546166
0.283787 0.550164 0.552666
0.309087 0.550011 0.552712
0.35584 0.550835 0.553506
0.426093 0.55314 0.553338
0.510842 0.559548 0.55172
0.589578 0.573465 0.55256
0.651606 0.593317 0.562509
0.703655 0.611124 0.576364
0.752682 0.627543 0.590143
0.249653 0.659556 0.58967
0.276982 0.659495 0.5897
0.330922 0.660304 0.590539
0.410468 0.661204 0.591775
0.505241 0.662242 0.592889
0.602609 0.664393 0.594797
0.690547 0.671611 0.599634
0.74992 0.686458 0.613291
0.799344 0.70013 0.630884
0.25655 0.750591 0.596643
0.284932 0.750103 0.596185
0.340246 0.74963 0.59588
0.420218 0.748913 0.596445
0.514397 0.748165 0.598672
0.610162 0.74815 0.603189
0.700481 0.750256 0.610071
0.78497 0.75642 0.615488
0.86183 0.758114 0.630518
0.327245 0.823285 0.594461
0.354116 0.822766 0.594278
0.402365 0.822339 0.595285
0.471748 0.821912 0.598383
0.553445 0.82182 0.604273
0.638163 0.822309 0.612833
0.7187 0.824155 0.621592
0.790814 0.828275 0.623468
0.863996 0.832059 0.626505
0.141115 0.151049 0.440574
0.161532 0.146319 0.440238
0.204807 0.152346 0.442527
0.271321 0.172473 0.44799
0.357534 0.210208 0.460807
0.443763 0.252888 0.474418
0.518013 0.291463 0.487297
0.585122 0.326757 0.50106
0.647501 0.361486 0.517143
0.150515 0.18555 0.445136
0.169406 0.180621 0.444953
0.204044 0.178286 0.445563
0.269429 0.196719 0.450614
0.358221 0.23418 0.46331
0.445914 0.277226 0.476921
0.520714 0.31574 0.489799
0.58883 0.351766 0.504433
0.650141 0.385687 0.519738
0.189807 0.257862 0.464561
0.210193 0.254704 0.464378
0.235935 0.248081 0.46424
0.283101 0.250553 0.466209
0.370962 0.282948 0.476738
0.460609 0.324483 0.490135
0.535286 0.360952 0.502998
0.603159 0.395743 0.518029
0.661921 0.426657 0.531533
0.247791 0.349111 0.497185
0.26865 0.347723 0.497093
0.294514 0.34519 0.4972
0.333318 0.344167 0.497948
0.408743 0.363363 0.504372
0.493034 0.397818 0.515496
0.564858 0.430289 0.528222
0.629007 0.460105 0.542031
0.684016 0.486213 0.553338
0.304799 0.446967 0.542626
0.326345 0.446097 0.542031
0.357061 0.444999 0.540597
0.402899 0.447852 0.539895
0.469139 0.462943 0.543969
0.542138 0.488273 0.551812
0.608011 0.514656 0.562905
0.665553 0.538003 0.575402
0.715434 0.558602 0.584222
0.342657 0.545434 0.593378
0.365423 0.545037 0.592966
0.403845 0.54583 0.592462
0.46041 0.549966 0.590967
0.528023 0.560769 0.590158
0.595453 0.579095 0.593942
0.65565 0.599481 0.601846
0.707576 0.617746 0.612772
0.753414 0.63418 0.622019
0.349187 0.646754 0.639948
0.373693 0.646662 0.639887
0.415976 0.647639 0.640345
0.47808 0.650263 0.640833
0.55404 0.655375 0.640681
0.631785 0.663844 0.639673
0.698054 0.676936 0.64097
0.74844 0.691279 0.648386
0.793271 0.70518 0.660182
0.320165 0.748165 0.670573
0.346014 0.748028 0.670436
0.393454 0.748379 0.670802
0.462135 0.748943 0.671748
0.544015 0.749966 0.673121
0.628672 0.751339 0.67483
0.709041 0.753277 0.676829
0.780926 0.757809 0.679133
0.831876 0.769879 0.692302
0.331029 0.828153 0.670954
0.357412 0.827878 0.670726
0.405173 0.827375 0.670939
0.473625 0.826886 0.672282
0.554192 0.82652 0.675059
0.637675 0.826459 0.679118
0.71722 0.826841 0.683604
0.791272 0.828168 0.687099
0.862165 0.831769 0.690044
0.170001 0.178836 0.505257
0.190951 0.174899 0.504845
0.233127 0.180011 0.505867
0.292378 0.197116 0.509789
0.365637 0.225498 0.5178
0.451743 0.267308 0.530221
0.526192 0.305028 0.541131
0.594995 0.342306 0.553613
0.658 0.377249 0.567254
0.178759 0.211826 0.508156
0.200214 0.208392 0.507744
0.2336 0.206165 0.508125
0.291707 0.221241 0.511955
0.366064 0.249622 0.519646
0.453315 0.291096 0.531899
0.528206 0.328908 0.542779
0.596933 0.365759 0.555184
0.659983 0.400641 0.56907
0.213718 0.276646 0.523095
0.234134 0.273579 0.522805
0.26125 0.268757 0.522515
0.307591 0.273213 0.524147
0.379278 0.297383 0.530922
0.466636 0.336889 0.54229
0.541268 0.372915 0.553262
0.608743 0.407446 0.565408
0.671138 0.440436 0.579339
0.265415 0.36022 0.548775
0.286076 0.358389 0.548424
0.312718 0.355856 0.548104
0.352605 0.358083 0.549111
0.417105 0.375616 0.554376
0.497368 0.407462 0.563485
0.569268 0.439872 0.574334
0.632792 0.469291 0.585794
0.692073 0.498085 0.598703
0.32282 0.449409 0.582712
0.343923 0.448539 0.582147
0.371435 0.448203 0.581582
0.41088 0.451987 0.582284
0.47361 0.469047 0.587793
0.546761 0.496239 0.595728
0.610727 0.520958 0.604425
0.668482 0.544869 0.614633
0.722545 0.567819 0.625864
0.37232 0.54052 0.625498
0.393957 0.540246 0.624964
0.42681 0.541711 0.624231
0.474937 0.547967 0.623865
0.534173 0.561547 0.625818
0.599405 0.583566 0.632486
0.658701 0.604654 0.639948
0.710491 0.623346 0.648203
0.758007 0.640909 0.657099
0.403647 0.633997 0.671885
0.426383 0.633997 0.671489
0.462043 0.635721 0.671336
0.513893 0.640436 0.67097
0.57789 0.649775 0.670634
0.644205 0.663966 0.671336
0.703334 0.681559 0.676158
0.75201 0.696284 0.681941
0.794919 0.71017 0.689677
0.408362 0.730144 0.713314
0.432013 0.730129 0.713039
0.470222 0.731228 0.713237
0.52549 0.733806 0.713619
0.592889 0.737911 0.714061
0.665385 0.744228 0.71458
0.73315 0.752377 0.714366
0.78761 0.762325 0.714351
0.829694 0.772915 0.720577
0.388571 0.825605 0.739757
0.413031 0.82533 0.739483
0.454475 0.825345 0.739483
0.512886 0.825666 0.73991
0.582681 0.826185 0.74081
0.657023 0.826902 0.742138
0.728725 0.828229 0.743938
0.795529 0.829801 0.74583
0.858793 0.831846 0.748074
