LUTS/Secondary LUTS/1917.cube
TITLE "Generated by Resolve"
LUT_3D_SIZE 5
0.00456245 0.00549325 0.002121
0.0846571 0.0342412 0.0307927
0.295995 0.133181 0.119081
0.497505 0.24802 0.213306
0.644144 0.33611 0.28574
0.0204166 0.129458 0.0105592
0.153124 0.142229 0.0126802
0.381872 0.223484 0.131594
0.543999 0.32134 0.233875
0.669078 0.395804 0.301808
0.127001 0.398413 0.0355993
0.252033 0.403494 0.0351415
0.466743 0.43447 0.0584115
0.695552 0.459236 0.185748
0.773617 0.497475 0.319844
0.246799 0.64448 0.130739
0.342611 0.644892 0.13077
0.514427 0.655787 0.134737
0.710262 0.668055 0.156649
0.891844 0.64097 0.233677
0.355825 0.815442 0.254078
0.423774 0.815549 0.253651
0.553414 0.818479 0.254963
0.704509 0.828351 0.254047
0.868833 0.834073 0.283742
0.0130617 0.0155642 0.0603952
0.0829175 0.0375067 0.0764782
0.289921 0.133516 0.164492
0.495216 0.247852 0.260014
0.640314 0.335714 0.327153
0.0206607 0.136156 0.116991
0.130037 0.145464 0.121508
0.335973 0.22121 0.195209
0.519097 0.316915 0.276493
0.657496 0.395819 0.342733
0.0774853 0.400549 0.159121
0.210788 0.404486 0.144472
0.463096 0.432547 0.164416
0.675044 0.460304 0.272602
0.756603 0.504417 0.376059
0.220203 0.645136 0.219333
0.321386 0.645548 0.216022
0.507271 0.653834 0.221363
0.708125 0.667399 0.242084
0.883619 0.644038 0.31165
0.357 0.815167 0.320653
0.425177 0.815229 0.321065
0.554391 0.818051 0.323552
0.705745 0.827451 0.324071
0.868193 0.833692 0.34815
0.0442664 0.0501564 0.200809
0.114641 0.065568 0.210666
0.289555 0.144747 0.247486
0.488518 0.249348 0.328954
0.641016 0.333242 0.388113
0.102846 0.176791 0.25069
0.156542 0.176761 0.254765
0.331624 0.234699 0.283909
0.513359 0.322408 0.350286
0.653117 0.398917 0.402899
0.0943923 0.421973 0.371099
0.198016 0.424613 0.37348
0.443229 0.438117 0.382162
0.604059 0.486275 0.433478
0.715648 0.534325 0.474739
0.1832 0.649561 0.408484
0.281086 0.648905 0.404898
0.489418 0.651545 0.409689
0.701595 0.666758 0.428122
0.85568 0.662745 0.479133
0.342214 0.816281 0.442939
0.417792 0.815793 0.446769
0.562905 0.8177 0.464866
0.712093 0.825147 0.470085
0.866468 0.832975 0.48098
0.105165 0.115343 0.366583
0.176089 0.122621 0.370047
0.34435 0.192172 0.394385
0.498924 0.270436 0.424598
0.641443 0.34876 0.470619
0.162142 0.233097 0.396445
0.209369 0.225711 0.397604
0.36289 0.268711 0.415793
0.524025 0.345678 0.447898
0.656565 0.41474 0.485252
0.271305 0.441581 0.498039
0.334447 0.44033 0.497246
0.463172 0.455436 0.496132
0.603113 0.506889 0.519493
0.711788 0.549432 0.546166
0.249653 0.659556 0.58967
0.330922 0.660304 0.590539
0.505241 0.662242 0.592889
0.690547 0.671611 0.599634
0.799344 0.70013 0.630884
0.327245 0.823285 0.594461
0.402365 0.822339 0.595285
0.553445 0.82182 0.604273
0.7187 0.824155 0.621592
0.863996 0.832059 0.626505
0.170001 0.178836 0.505257
0.233127 0.180011 0.505867
0.365637 0.225498 0.5178
0.526192 0.305028 0.541131
0.658 0.377249 0.567254
0.213718 0.276646 0.523095
0.26125 0.268757 0.522515
0.379278 0.297383 0.530922
0.541268 0.372915 0.553262
0.671138 0.440436 0.579339
0.32282 0.449409 0.582712
0.371435 0.448203 0.581582
0.47361 0.469047 0.587793
0.610727 0.520958 0.604425
0.722545 0.567819 0.625864
0.403647 0.633997 0.671885
0.462043 0.635721 0.671336
0.57789 0.649775 0.670634
0.703334 0.681559 0.676158
0.794919 0.71017 0.689677
0.388571 0.825605 0.739757
0.454475 0.825345 0.739483
0.582681 0.826185 0.74081
0.728725 0.828229 0.743938
0.858793 0.831846 0.748074
