LUTS/Secondary LUTS/500T.cube
TITLE "Generated by Resolve"
LUT_3D_SIZE 9
0.0214542 0.0213626 0.024155
0.0567941 0.0249943 0.0280308
0.172137 0.0412299 0.0412146
0.40032 0.0724956 0.0310674
0.710201 0.0640116 0.0624704
0.843763 0.0804456 0.0785229
0.875517 0.0872663 0.0851453
0.875715 0.0866865 0.0954757
0.876463 0.0856947 0.118502
0.0244602 0.0836957 0.030457
0.0419776 0.0737011 0.0276799
0.169436 0.0589456 0.0344549
0.399878 0.0724804 0.0311284
0.710384 0.0640879 0.0625467
0.843992 0.0805219 0.078584
0.875517 0.0872663 0.0851453
0.875715 0.0866865 0.0954757
0.876463 0.0856947 0.118502
0.0148013 0.183902 0.0477607
0.0161593 0.180133 0.0469825
0.143908 0.158495 0.0352026
0.376165 0.1458 0.0108492
0.705898 0.0635996 0.0620737
0.843458 0.0804456 0.0785077
0.875517 0.0872663 0.0851453
0.875715 0.0866865 0.0955673
0.876463 0.0856947 0.118502
0.021561 0.342397 0.0698405
0.0213626 0.33994 0.069749
0.0211948 0.336675 0.0694743
0.349737 0.332525 0.00172427
0.695338 0.312886 0.00563058
0.825208 0.182681 0.033341
0.875517 0.0872663 0.0851453
0.875715 0.0866865 0.0955673
0.876463 0.0856947 0.118502
0.0356146 0.556786 0.0319677
0.0355688 0.555779 0.0319219
0.0353704 0.553994 0.0317845
0.153597 0.573114 0.0121157
0.71107 0.630793 0
0.869139 0.60737 0.000122072
0.91249 0.534768 0.00135805
0.875517 0.0872663 0.0851453
0.876478 0.0856947 0.118578
0.0484016 0.68661 0.0554971
0.0483406 0.686229 0.0550698
0.0482948 0.685725 0.0545663
0.0481575 0.684153 0.0530404
0.657328 0.769085 0.000488289
0.844602 0.769436 0
0.899535 0.759884 0
0.902083 0.726757 0
0.886442 0.370871 0.00959792
0.0548104 0.742885 0.141619
0.0548104 0.742885 0.141619
0.0548104 0.742885 0.141619
0.167132 0.768627 0.0369879
0.655116 0.81828 0
0.829114 0.827298 0
0.894682 0.823835 0
0.894942 0.820737 0
0.896254 0.803128 0
0.653346 0.818067 0
0.660899 0.818936 0
0.672343 0.820264 0
0.703288 0.823529 0
0.766491 0.829267 0
0.828061 0.827344 0
0.893156 0.82388 0
0.894636 0.823774 4.57771e-05
0.894636 0.823774 4.57771e-05
0.838163 0.826825 0
0.83859 0.82681 0
0.839292 0.82678 0
0.841474 0.826673 0
0.847715 0.826368 0
0.863645 0.825544 0
0.894652 0.823804 0
0.894636 0.823774 4.57771e-05
0.894636 0.823774 4.57771e-05
0.0250248 0.0265507 0.0865034
0.0492714 0.026154 0.0799115
0.168765 0.0405585 0.085481
0.399268 0.0707408 0.0631876
0.710018 0.0640116 0.0624704
0.843763 0.0804456 0.0785229
0.875517 0.0872663 0.0851453
0.875715 0.0866865 0.0954757
0.876463 0.0856947 0.118502
0.0231937 0.0719615 0.0821546
0.0336767 0.0616464 0.0789654
0.173648 0.0433509 0.0870375
0.39649 0.0709697 0.0560006
0.710384 0.0640879 0.0625467
0.843992 0.0805219 0.078584
0.875517 0.0872663 0.0851453
0.875715 0.0866865 0.0954757
0.876463 0.0856947 0.118502
0.0140078 0.178805 0.0906233
0.0151369 0.175097 0.088426
0.139895 0.153918 0.0673686
0.359411 0.144808 0.0283818
0.706172 0.0636149 0.0620737
0.843519 0.0804456 0.0785077
0.875517 0.0872663 0.0851453
0.875715 0.0866865 0.0955673
0.876463 0.0856947 0.118502
0.0214237 0.340719 0.0697795
0.0213321 0.338201 0.0696727
0.0210727 0.334844 0.0692454
0.348363 0.329793 0.00163272
0.694743 0.310201 0.00567636
0.825254 0.17882 0.0340734
0.875517 0.0872663 0.0851453
0.875715 0.0866865 0.0955673
0.876463 0.0856947 0.118502
0.0355535 0.556237 0.0319066
0.0354925 0.55523 0.0318608
0.0353857 0.553475 0.0317998
0.153155 0.572412 0.0121614
0.710887 0.630304 0
0.869184 0.606897 9.15541e-05
0.912383 0.534081 0.00135805
0.875517 0.0872663 0.0851453
0.876478 0.0856947 0.118578
0.0484016 0.686549 0.0554665
0.0483406 0.686168 0.055024
0.0482948 0.685664 0.0545357
0.0481727 0.684092 0.0530098
0.657191 0.769024 0.000488289
0.844617 0.76939 0
0.899535 0.759823 0
0.902083 0.726696 0
0.886244 0.369757 0.00972
0.0548104 0.742885 0.141619
0.0548104 0.742885 0.141619
0.0548104 0.742885 0.141619
0.166598 0.768505 0.0370794
0.654978 0.818265 0
0.829114 0.827298 0
0.894682 0.823835 0
0.894942 0.820737 0
0.896254 0.803128 0
0.653208 0.818051 0
0.660761 0.818921 0
0.672206 0.820249 0
0.703166 0.823514 0
0.766415 0.829267 0
0.828016 0.827344 0
0.893156 0.82388 0
0.894636 0.823774 4.57771e-05
0.894636 0.823774 4.57771e-05
0.838163 0.826825 0
0.83859 0.82681 0
0.839292 0.82678 0
0.841474 0.826673 0
0.847715 0.826368 0
0.863645 0.825544 0
0.894652 0.823804 0
0.894636 0.823774 4.57771e-05
0.894636 0.823774 4.57771e-05
0.0303807 0.034226 0.165805
0.0301061 0.0338903 0.160937
0.162936 0.0429694 0.163104
0.398505 0.0693675 0.163928
0.710292 0.0612955 0.144198
0.843961 0.0787518 0.114305
0.875517 0.0872663 0.0851453
0.875715 0.0866865 0.0954757
0.876463 0.0856947 0.118502
0.030396 0.034226 0.164874
0.0303044 0.0341344 0.163348
0.167376 0.0435798 0.165408
0.399329 0.0693675 0.161486
0.710872 0.0614023 0.141894
0.844129 0.0788586 0.112917
0.875517 0.0872663 0.0851453
0.875715 0.0866865 0.0954757
0.876463 0.0856947 0.118502
0.0115053 0.169039 0.172671
0.0116121 0.165133 0.171313
0.133089 0.143435 0.152453
0.369421 0.127626 0.138445
0.705638 0.0609598 0.133196
0.842863 0.078996 0.104356
0.875517 0.0872663 0.0851453
0.875715 0.0866865 0.0955673
0.876463 0.0856947 0.118502
0.0171206 0.33875 0.168963
0.0170291 0.336294 0.16817
0.016846 0.331838 0.166857
0.341588 0.325368 0.119402
0.68603 0.310643 0.068574
0.821317 0.204852 0.0283055
0.875517 0.0872663 0.0851453
0.875715 0.0866865 0.0955673
0.876463 0.0856947 0.118502
0.0334478 0.555642 0.0654459
0.0336004 0.554589 0.0617075
0.0337835 0.552819 0.0552071
0.151186 0.571313 0.0281224
0.710628 0.629114 0
0.86923 0.605509 9.15541e-05
0.912169 0.532677 0.00132753
0.875517 0.0872663 0.0851453
0.876478 0.0856947 0.118578
0.0483406 0.686229 0.0550698
0.0482948 0.685908 0.0546731
0.0483101 0.685359 0.0543526
0.0481727 0.683848 0.0528725
0.656641 0.768841 0.000503548
0.844617 0.769329 0
0.89955 0.759716 0
0.902098 0.726574 0
0.885954 0.367956 0.00993362
0.0548104 0.742885 0.141619
0.0548104 0.742885 0.141619
0.0548104 0.742885 0.141619
0.165621 0.768292 0.0372473
0.654704 0.818235 0
0.829068 0.827298 0
0.894682 0.823835 0
0.894942 0.820737 0
0.896269 0.803082 0
0.652949 0.818021 0
0.660487 0.818891 0
0.672068 0.820233 0
0.703029 0.823499 0
0.766339 0.829252 0
0.828016 0.827344 0
0.893156 0.82388 0
0.894636 0.823774 4.57771e-05
0.894636 0.823774 4.57771e-05
0.838163 0.826825 0
0.83859 0.82681 0
0.839292 0.82678 0
0.841474 0.826673 0
0.847715 0.826368 0
0.863645 0.825544 0
0.894652 0.823804 0
0.894636 0.823774 4.57771e-05
0.894636 0.823774 4.57771e-05
0.0242161 0.0255741 0.327703
0.0240482 0.0258335 0.326696
0.144915 0.0301366 0.320287
0.398367 0.0502785 0.342916
0.71342 0.0605783 0.364935
0.847456 0.0758679 0.359014
0.877379 0.0830243 0.266194
0.875715 0.0866865 0.0954757
0.876463 0.0856947 0.118502
0.0240177 0.0259251 0.326436
0.0239872 0.0261082 0.325917
0.147631 0.0308995 0.31928
0.401663 0.049958 0.342199
0.714351 0.0606699 0.363928
0.847639 0.0759442 0.358175
0.877333 0.0830396 0.26479
0.875715 0.0866865 0.0954757
0.876463 0.0856947 0.118502
0.012665 0.11136 0.321248
0.0127108 0.105531 0.319966
0.10988 0.0878309 0.304662
0.395239 0.0504616 0.343526
0.71075 0.0602884 0.360616
0.847318 0.0758831 0.355764
0.877272 0.0830549 0.262684
0.875715 0.0866865 0.0955673
0.876463 0.0856947 0.118502
0.0146639 0.330327 0.348394
0.0145113 0.327626 0.34757
0.0143893 0.322469 0.346014
0.318715 0.307042 0.322637
0.68159 0.255329 0.306447
0.830533 0.112947 0.305669
0.876448 0.08336 0.230686
0.875715 0.0866865 0.0955673
0.876463 0.0856947 0.118502
0.0245823 0.569558 0.363058
0.024567 0.568368 0.362127
0.0244755 0.566537 0.360723
0.133471 0.573983 0.34374
0.682292 0.611292 0.265232
0.855131 0.594873 0.144549
0.91133 0.542016 0.0751812
0.875517 0.0872663 0.0851453
0.876478 0.0856947 0.118578
0.0373999 0.700236 0.364965
0.0373541 0.699733 0.363668
0.0373236 0.699062 0.361746
0.0373236 0.697032 0.35584
0.616754 0.753109 0.207462
0.838941 0.761303 0.0869306
0.899351 0.762234 0
0.902129 0.72607 0
0.885115 0.362325 0.0106813
0.0548104 0.742885 0.141619
0.0548104 0.742885 0.141619
0.0548104 0.742885 0.141619
0.15758 0.766461 0.0399329
0.652537 0.817975 0
0.828977 0.827314 0
0.894682 0.823835 0
0.894942 0.820645 0
0.896269 0.803037 0
0.652415 0.81796 0
0.659953 0.81883 0
0.671397 0.820157 0
0.702541 0.823453 0
0.766186 0.829252 0
0.82797 0.827344 0
0.893156 0.82388 0
0.894636 0.823774 4.57771e-05
0.894636 0.823774 4.57771e-05
0.838117 0.826825 0
0.838544 0.82681 0
0.839246 0.82678 0
0.841428 0.826673 0
0.847669 0.826383 0
0.8636 0.825544 0
0.894652 0.823804 0
0.894636 0.823774 4.57771e-05
0.894636 0.823774 4.57771e-05
0.0406195 0.0394751 0.537835
0.0406348 0.0393988 0.537652
0.0404669 0.0392309 0.534951
0.377203 0.0436103 0.558129
0.718303 0.0636606 0.590143
0.858869 0.0781262 0.603891
0.894026 0.0846876 0.600931
0.886275 0.0831006 0.476692
0.876463 0.0856947 0.118502
0.0406348 0.0393835 0.53756
0.0406348 0.0393835 0.537469
0.0552071 0.0371405 0.53228
0.385138 0.0440223 0.558785
0.719951 0.0637675 0.590051
0.859098 0.0781415 0.6038
0.894011 0.0846723 0.600732
0.886244 0.0831006 0.476081
0.876463 0.0856947 0.118502
0.0406043 0.0393683 0.536583
0.0406043 0.039353 0.536492
0.0403601 0.0391241 0.533989
0.37937 0.0437018 0.55726
0.718624 0.0636606 0.589242
0.859281 0.0782025 0.603403
0.89398 0.0846113 0.60032
0.886183 0.0831006 0.47509
0.876463 0.0856947 0.118502
0.0205081 0.212955 0.550134
0.0205997 0.207782 0.549584
0.0209049 0.198215 0.548638
0.265446 0.221698 0.538354
0.67953 0.123232 0.564569
0.853803 0.0774548 0.598077
0.893782 0.084596 0.59794
0.886 0.0830243 0.472175
0.876463 0.0856947 0.118502
0.0217746 0.568933 0.611399
0.0216678 0.567544 0.610925
0.0216068 0.56527 0.610254
0.0945754 0.561913 0.604791
0.647959 0.596979 0.586252
0.837797 0.564965 0.58143
0.883635 0.468818 0.572305
0.883345 0.0827649 0.421942
0.876478 0.0856947 0.118578
0.0327001 0.713771 0.641535
0.0327153 0.713451 0.641215
0.0326696 0.712886 0.640681
0.0324865 0.711345 0.639261
0.546258 0.763836 0.600183
0.819348 0.766339 0.572457
0.886458 0.756939 0.525963
0.895613 0.716258 0.212116
0.882338 0.343893 0.0129702
0.0412451 0.776867 0.645243
0.0412451 0.776867 0.645075
0.0412604 0.776852 0.644724
0.0412604 0.776822 0.643687
0.551049 0.82443 0.585611
0.797452 0.834455 0.54229
0.881682 0.827344 0.480598
0.894835 0.822065 0
0.896284 0.802823 0
0.642908 0.816815 3.0518e-05
0.650935 0.817792 0
0.662913 0.819181 0
0.695659 0.822751 0
0.762341 0.828931 0
0.82707 0.827405 0
0.893065 0.823896 0
0.894636 0.823774 4.57771e-05
0.894636 0.823774 4.57771e-05
0.83798 0.826841 0
0.838453 0.82681 0
0.839155 0.82678 0
0.841337 0.826688 0
0.847578 0.826383 0
0.863554 0.825544 0
0.894652 0.823804 0
0.894636 0.823774 4.57771e-05
0.894636 0.823774 4.57771e-05
0.0538491 0.0522621 0.680171
0.0538491 0.0522621 0.680171
0.0538491 0.0522621 0.68011
0.23508 0.048188 0.686366
0.707271 0.0670634 0.732464
0.866682 0.08159 0.749325
0.906386 0.0887465 0.760723
0.905287 0.0883192 0.748745
0.898878 0.0860456 0.669459
0.0538491 0.0522621 0.68011
0.0538491 0.0522621 0.68011
0.0538491 0.0522621 0.68011
0.25449 0.0483406 0.687663
0.709407 0.0671702 0.732647
0.866957 0.0816663 0.74934
0.906386 0.0887465 0.760662
0.905272 0.0883192 0.748684
0.898863 0.0860456 0.669383
0.0538491 0.0522621 0.68011
0.0538491 0.0522621 0.680034
0.0538491 0.0522621 0.680034
0.283452 0.0487526 0.689616
0.712428 0.0673686 0.732815
0.867292 0.0816663 0.749355
0.906386 0.0887465 0.760601
0.905272 0.0883192 0.748623
0.898848 0.0860456 0.669123
0.0537423 0.0521553 0.679057
0.0537423 0.0521553 0.679057
0.0537423 0.0521553 0.679057
0.205951 0.0476844 0.68333
0.697292 0.0663157 0.730602
0.864668 0.0813458 0.748119
0.906371 0.0887465 0.760464
0.905257 0.0883192 0.748425
0.898787 0.0860456 0.668452
0.0222934 0.509316 0.73901
0.0222934 0.507393 0.738552
0.0221714 0.504234 0.737819
0.022034 0.494026 0.735622
0.608301 0.512901 0.732631
0.827558 0.449638 0.736355
0.880751 0.246235 0.740978
0.905074 0.0882429 0.746532
0.898634 0.0859693 0.666346
0.0319219 0.703273 0.767666
0.0318608 0.702861 0.767544
0.0318761 0.702342 0.767376
0.0317082 0.700725 0.766888
0.425925 0.749722 0.74873
0.805508 0.756786 0.739986
0.884688 0.7458 0.739528
0.886458 0.704814 0.729671
0.897475 0.0856031 0.650431
0.0411841 0.781018 0.788907
0.0411841 0.781018 0.788861
0.0411841 0.781018 0.788815
0.0411841 0.781018 0.788663
0.42443 0.82237 0.756603
0.77348 0.83653 0.738857
0.877363 0.828992 0.728817
0.879133 0.822629 0.702892
0.88191 0.801953 0.601343
0.446677 0.823346 0.732082
0.464439 0.824231 0.731365
0.489845 0.825574 0.730282
0.548852 0.829435 0.727733
0.654932 0.835904 0.721965
0.776349 0.840177 0.710826
0.864454 0.839612 0.698222
0.878248 0.838529 0.671717
0.884459 0.821347 0.350835
0.81976 0.825711 0.379522
0.82031 0.82565 0.378744
0.82118 0.825559 0.37763
0.823774 0.825238 0.373663
0.830701 0.82417 0.361227
0.84863 0.82118 0.321569
0.890166 0.817731 0.0588083
0.894636 0.823774 4.57771e-05
0.894636 0.823774 4.57771e-05
0.0629587 0.0610971 0.769085
0.0629587 0.0610971 0.769024
0.0629587 0.0610971 0.769024
0.0629587 0.0610971 0.769024
0.644358 0.0700847 0.811765
0.866209 0.084062 0.830961
0.903319 0.117784 0.825376
0.903319 0.117784 0.825376
0.903624 0.11667 0.825666
0.0629587 0.0610971 0.769024
0.0629587 0.0610971 0.769024
0.0629587 0.0610971 0.769024
0.0629587 0.0610971 0.769024
0.647807 0.069688 0.812192
0.866499 0.0840772 0.830976
0.903319 0.117784 0.825376
0.903319 0.117784 0.825376
0.903624 0.11667 0.825666
0.0629587 0.0610971 0.769024
0.0629587 0.0610971 0.769024
0.0629587 0.0610971 0.769024
0.0629587 0.0610971 0.769024
0.653239 0.0689403 0.812879
0.86688 0.0841382 0.830991
0.903319 0.117784 0.825376
0.903319 0.117784 0.825376
0.903624 0.11667 0.825666
0.0629587 0.0610971 0.768948
0.0629587 0.0610971 0.768948
0.0629587 0.0610971 0.768948
0.0629587 0.0610971 0.768948
0.668559 0.0685893 0.81442
0.868193 0.0842908 0.831067
0.903319 0.117784 0.825376
0.903319 0.117784 0.825376
0.903624 0.11667 0.825666
0.0294041 0.250507 0.768765
0.0295567 0.247425 0.768521
0.0300755 0.238758 0.767727
0.0323033 0.204349 0.76556
0.540673 0.19588 0.777981
0.853452 0.0826429 0.828809
0.90338 0.117556 0.825437
0.903319 0.117784 0.825376
0.903624 0.11667 0.825666
0.0308385 0.679164 0.823484
0.030869 0.678706 0.823468
0.0307317 0.677943 0.823484
0.0305791 0.675868 0.823468
0.196307 0.712566 0.82446
0.794873 0.725139 0.811399
0.88542 0.707698 0.811765
0.886656 0.620737 0.812757
0.903685 0.116442 0.825711
0.0411383 0.78201 0.827085
0.0411383 0.78201 0.827085
0.0411383 0.78201 0.827085
0.041062 0.781994 0.827085
0.178225 0.812863 0.823301
0.749722 0.827893 0.808469
0.871809 0.819699 0.805737
0.878981 0.810407 0.802487
0.88072 0.788281 0.797467
0.187228 0.815961 0.822522
0.193439 0.818189 0.821958
0.202609 0.821485 0.821103
0.368353 0.821225 0.812222
0.577737 0.831403 0.809308
0.750103 0.839643 0.807721
0.855375 0.839918 0.801053
0.876875 0.839582 0.798138
0.876951 0.839628 0.789715
0.775402 0.840238 0.790509
0.776257 0.840253 0.790448
0.777523 0.840269 0.790372
0.781399 0.840314 0.790066
0.792477 0.840436 0.789181
0.817563 0.840421 0.78732
0.859388 0.840009 0.784253
0.877028 0.839689 0.780392
0.877165 0.839734 0.767178
0.0637217 0.0618448 0.774487
0.0637217 0.0618448 0.774487
0.0637217 0.0618448 0.774487
0.0637217 0.0618448 0.774487
0.146334 0.0557717 0.77705
0.841733 0.0821698 0.829602
0.902831 0.11957 0.824918
0.902831 0.11957 0.824918
0.902831 0.11957 0.824918
0.0637217 0.0618448 0.774487
0.0637217 0.0618448 0.774487
0.0637217 0.0618448 0.774487
0.0637217 0.0618448 0.774487
0.155901 0.0556649 0.777432
0.84213 0.0822461 0.829618
0.902831 0.11957 0.824918
0.902831 0.11957 0.824918
0.902831 0.11957 0.824918
0.0637217 0.0618448 0.774487
0.0637217 0.0618448 0.774487
0.0637217 0.0618448 0.774487
0.0637217 0.0618448 0.774487
0.1691 0.0560616 0.777768
0.842741 0.0822614 0.829664
0.902831 0.11957 0.824918
0.902831 0.11957 0.824918
0.902831 0.11957 0.824918
0.0637217 0.0618448 0.774487
0.0637217 0.0618448 0.774487
0.0637217 0.0618448 0.774487
0.0637217 0.0618448 0.774487
0.228489 0.0701152 0.776989
0.844511 0.082475 0.82974
0.902831 0.11957 0.824918
0.902831 0.11957 0.824918
0.902831 0.11957 0.824918
0.0637217 0.0618448 0.774487
0.0637217 0.0618448 0.774487
0.0637217 0.0618448 0.774487
0.0637217 0.0618448 0.774487
0.400793 0.0822919 0.789334
0.849867 0.0830243 0.830014
0.902831 0.11957 0.824918
0.902831 0.11957 0.824918
0.902831 0.11957 0.824918
0.025742 0.57818 0.819303
0.0257572 0.577905 0.819272
0.0256504 0.576501 0.81915
0.0255589 0.570092 0.818524
0.0251774 0.551766 0.817121
0.778683 0.560571 0.812589
0.884733 0.479423 0.810407
0.902831 0.11957 0.824918
0.902831 0.11957 0.824918
0.0386053 0.779477 0.827161
0.0386053 0.779293 0.827146
0.0386206 0.779049 0.827146
0.0384985 0.778256 0.827131
0.0383612 0.77615 0.827054
0.70219 0.812299 0.809888
0.866102 0.803296 0.807355
0.880293 0.790784 0.807584
0.882582 0.758862 0.809384
0.0419776 0.782101 0.827039
0.0419776 0.782101 0.827039
0.0419776 0.782101 0.827039
0.0419776 0.782101 0.827039
0.294682 0.820859 0.815274
0.706127 0.838315 0.808331
0.846464 0.839994 0.805646
0.876814 0.839551 0.804868
0.876814 0.839551 0.804868
0.742718 0.83946 0.807828
0.743908 0.83949 0.807813
0.745769 0.839536 0.807782
0.751461 0.839673 0.807691
0.766552 0.839963 0.807446
0.799725 0.840284 0.806775
0.850233 0.839948 0.805554
0.876814 0.839551 0.804868
0.876814 0.839551 0.804868
0.0637217 0.0618448 0.774487
0.0637217 0.0618448 0.774487
0.0637217 0.0618448 0.774487
0.0637217 0.0618448 0.774487
0.0637217 0.0618448 0.774487
0.647028 0.0717174 0.816602
0.903441 0.117342 0.825483
0.902831 0.11957 0.824918
0.902831 0.11957 0.824918
0.0637217 0.0618448 0.774487
0.0637217 0.0618448 0.774487
0.0637217 0.0618448 0.774487
0.0637217 0.0618448 0.774487
0.0637217 0.0618448 0.774487
0.650004 0.0711223 0.817044
0.903441 0.117342 0.825483
0.902831 0.11957 0.824918
0.902831 0.11957 0.824918
0.0637217 0.0618448 0.774487
0.0637217 0.0618448 0.774487
0.0637217 0.0618448 0.774487
0.0637217 0.0618448 0.774487
0.0637217 0.0618448 0.774487
0.654856 0.0699931 0.817777
0.90338 0.117556 0.825437
0.902831 0.11957 0.824918
0.902831 0.11957 0.824918
0.0637217 0.0618448 0.774487
0.0637217 0.0618448 0.774487
0.0637217 0.0618448 0.774487
0.0637217 0.0618448 0.774487
0.0637217 0.0618448 0.774487
0.667948 0.0692607 0.819135
0.90338 0.117556 0.825437
0.902831 0.11957 0.824918
0.902831 0.11957 0.824918
0.0637217 0.0618448 0.774487
0.0637217 0.0618448 0.774487
0.0637217 0.0618448 0.774487
0.0637217 0.0618448 0.774487
0.0637217 0.0618448 0.774487
0.702007 0.0711681 0.821637
0.903258 0.118013 0.825315
0.902831 0.11957 0.824918
0.902831 0.11957 0.824918
0.0637217 0.0618448 0.774487
0.0637217 0.0618448 0.774487
0.0637217 0.0618448 0.774487
0.0637217 0.0618448 0.774487
0.0637217 0.0618448 0.774487
0.767498 0.0755627 0.825757
0.902892 0.119341 0.824979
0.902831 0.11957 0.824918
0.902831 0.11957 0.824918
0.0341497 0.718151 0.825116
0.0341497 0.718151 0.825116
0.034165 0.718044 0.825116
0.0340734 0.716396 0.825025
0.0335699 0.711147 0.824735
0.416068 0.749691 0.813581
0.862638 0.749233 0.810498
0.884886 0.719997 0.811307
0.885603 0.530648 0.81149
0.0419776 0.782101 0.827039
0.0419776 0.782101 0.827039
0.0419776 0.782101 0.827039
0.0419776 0.782101 0.827039
0.0419776 0.782101 0.827039
0.51809 0.82742 0.809567
0.829099 0.840146 0.806088
0.876814 0.839551 0.804868
0.876814 0.839551 0.804868
0.655161 0.835828 0.808743
0.657603 0.83595 0.808728
0.661509 0.836149 0.808698
0.673213 0.836744 0.808606
0.702754 0.838148 0.808362
0.761349 0.839872 0.807523
0.835065 0.840116 0.805936
0.876814 0.839551 0.804868
0.876814 0.839551 0.804868
