LUTS/Secondary LUTS/500T.cube
TITLE "Generated by Resolve"
LUT_3D_SIZE 5
0.0214542 0.0213626 0.024155
0.172137 0.0412299 0.0412146
0.710201 0.0640116 0.0624704
0.875517 0.0872663 0.0851453
0.876463 0.0856947 0.118502
0.0148013 0.183902 0.0477607
0.143908 0.158495 0.0352026
0.705898 0.0635996 0.0620737
0.875517 0.0872663 0.0851453
0.876463 0.0856947 0.118502
0.0356146 0.556786 0.0319677
0.0353704 0.553994 0.0317845
0.71107 0.630793 0
0.91249 0.534768 0.00135805
0.876478 0.0856947 0.118578
0.0548104 0.742885 0.141619
0.0548104 0.742885 0.141619
0.655116 0.81828 0
0.894682 0.823835 0
0.896254 0.803128 0
0.838163 0.826825 0
0.839292 0.82678 0
0.847715 0.826368 0
0.894652 0.823804 0
0.894636 0.823774 4.57771e-05
0.0303807 0.034226 0.165805
0.162936 0.0429694 0.163104
0.710292 0.0612955 0.144198
0.875517 0.0872663 0.0851453
0.876463 0.0856947 0.118502
0.0115053 0.169039 0.172671
0.133089 0.143435 0.152453
0.705638 0.0609598 0.133196
0.875517 0.0872663 0.0851453
0.876463 0.0856947 0.118502
0.0334478 0.555642 0.0654459
0.0337835 0.552819 0.0552071
0.710628 0.629114 0
0.912169 0.532677 0.00132753
0.876478 0.0856947 0.118578
0.0548104 0.742885 0.141619
0.0548104 0.742885 0.141619
0.654704 0.818235 0
0.894682 0.823835 0
0.896269 0.803082 0
0.838163 0.826825 0
0.839292 0.82678 0
0.847715 0.826368 0
0.894652 0.823804 0
0.894636 0.823774 4.57771e-05
0.0406195 0.0394751 0.537835
0.0404669 0.0392309 0.534951
0.718303 0.0636606 0.590143
0.894026 0.0846876 0.600931
0.876463 0.0856947 0.118502
0.0406043 0.0393683 0.536583
0.0403601 0.0391241 0.533989
0.718624 0.0636606 0.589242
0.89398 0.0846113 0.60032
0.876463 0.0856947 0.118502
0.0217746 0.568933 0.611399
0.0216068 0.56527 0.610254
0.647959 0.596979 0.586252
0.883635 0.468818 0.572305
0.876478 0.0856947 0.118578
0.0412451 0.776867 0.645243
0.0412604 0.776852 0.644724
0.551049 0.82443 0.585611
0.881682 0.827344 0.480598
0.896284 0.802823 0
0.83798 0.826841 0
0.839155 0.82678 0
0.847578 0.826383 0
0.894652 0.823804 0
0.894636 0.823774 4.57771e-05
0.0629587 0.0610971 0.769085
0.0629587 0.0610971 0.769024
0.644358 0.0700847 0.811765
0.903319 0.117784 0.825376
0.903624 0.11667 0.825666
0.0629587 0.0610971 0.769024
0.0629587 0.0610971 0.769024
0.653239 0.0689403 0.812879
0.903319 0.117784 0.825376
0.903624 0.11667 0.825666
0.0294041 0.250507 0.768765
0.0300755 0.238758 0.767727
0.540673 0.19588 0.777981
0.90338 0.117556 0.825437
0.903624 0.11667 0.825666
0.0411383 0.78201 0.827085
0.0411383 0.78201 0.827085
0.178225 0.812863 0.823301
0.871809 0.819699 0.805737
0.88072 0.788281 0.797467
0.775402 0.840238 0.790509
0.777523 0.840269 0.790372
0.792477 0.840436 0.789181
0.859388 0.840009 0.784253
0.877165 0.839734 0.767178
0.0637217 0.0618448 0.774487
0.0637217 0.0618448 0.774487
0.0637217 0.0618448 0.774487
0.903441 0.117342 0.825483
0.902831 0.11957 0.824918
0.0637217 0.0618448 0.774487
0.0637217 0.0618448 0.774487
0.0637217 0.0618448 0.774487
0.90338 0.117556 0.825437
0.902831 0.11957 0.824918
0.0637217 0.0618448 0.774487
0.0637217 0.0618448 0.774487
0.0637217 0.0618448 0.774487
0.903258 0.118013 0.825315
0.902831 0.11957 0.824918
0.0341497 0.718151 0.825116
0.034165 0.718044 0.825116
0.0335699 0.711147 0.824735
0.862638 0.749233 0.810498
0.885603 0.530648 0.81149
0.655161 0.835828 0.808743
0.661509 0.836149 0.808698
0.702754 0.838148 0.808362
0.835065 0.840116 0.805936
0.876814 0.839551 0.804868
