LUTS/Secondary LUTS/500T.cube
TITLE "Generated by Resolve"
LUT_3D_SIZE 33
0.0214542 0.0213626 0.024155
0.0214542 0.0213626 0.024155
0.0214542 0.0213626 0.024155
0.0214542 0.0213626 0.024155
0.0567941 0.0249943 0.0280308
0.0837568 0.0283055 0.0314488
0.110933 0.0318456 0.0345769
0.138979 0.0362097 0.0379034
0.172137 0.0412299 0.0412146
0.214313 0.0485389 0.04477
0.260716 0.0575418 0.047303
0.326024 0.0656291 0.0471199
0.40032 0.0724956 0.0310674
0.490455 0.0737926 0.0363317
0.58053 0.0524605 0.0507515
0.653056 0.0585031 0.057084
0.710201 0.0640116 0.0624704
0.755032 0.0689403 0.0672923
0.790433 0.0732738 0.071519
0.819303 0.0770275 0.0752728
0.843763 0.0804456 0.0785229
0.86569 0.0835889 0.08159
0.875578 0.086183 0.0841077
0.875517 0.0872663 0.0851453
0.875517 0.0872663 0.0851453
0.875517 0.0872663 0.0851453
0.875517 0.0872663 0.0851453
0.875547 0.0871595 0.0865492
0.875715 0.0866865 0.0954757
0.875883 0.0863508 0.102296
0.876097 0.0860914 0.10808
0.87628 0.0859236 0.113481
0.876463 0.0856947 0.118502
0.0214542 0.0213626 0.024155
0.0214542 0.0213626 0.024155
0.0214542 0.0213626 0.024155
0.0214542 0.0213626 0.024155
0.0595254 0.0253452 0.028397
0.0869764 0.0286717 0.0318151
0.113817 0.0322271 0.0348821
0.139712 0.0363317 0.0380102
0.173129 0.0413825 0.0413062
0.215213 0.0487373 0.0448615
0.261662 0.0577249 0.047364
0.32694 0.0657511 0.0471199
0.40119 0.0725872 0.0310216
0.491264 0.0738079 0.0364538
0.581186 0.0524758 0.050782
0.653407 0.0585184 0.057084
0.710475 0.0640879 0.0625467
0.755184 0.0689403 0.0672923
0.79057 0.0732738 0.071519
0.819348 0.0771038 0.0752575
0.843824 0.0804456 0.0785229
0.865751 0.0836042 0.08159
0.875578 0.086183 0.0841077
0.875517 0.0872663 0.0851453
0.875517 0.0872663 0.0851453
0.875517 0.0872663 0.0851453
0.875517 0.0872663 0.0851453
0.875547 0.0871595 0.0865492
0.875715 0.0866865 0.0954757
0.875883 0.0863508 0.102296
0.876097 0.0860914 0.10808
0.87628 0.0859236 0.113481
0.876463 0.0856947 0.118502
0.0214542 0.0213626 0.024155
0.0214542 0.0213626 0.024155
0.0214542 0.0213626 0.024155
0.0214542 0.0213626 0.024155
0.0583963 0.0252232 0.028275
0.0874495 0.0287785 0.0319219
0.115541 0.0324865 0.0350958
0.143069 0.0368963 0.0384222
0.176638 0.0418708 0.0415961
0.21532 0.0487373 0.0448615
0.261891 0.0577554 0.0473487
0.327199 0.0657664 0.0471046
0.40148 0.0725872 0.0309758
0.491585 0.0737774 0.0364691
0.581323 0.0525368 0.0508583
0.653635 0.0585184 0.0570993
0.710658 0.0640879 0.0625467
0.755337 0.0690166 0.0673686
0.790646 0.0732738 0.0715343
0.819409 0.0771038 0.0752575
0.843885 0.0804608 0.0785229
0.865797 0.0836042 0.08159
0.875578 0.086183 0.0841077
0.875517 0.0872663 0.0851453
0.875517 0.0872663 0.0851453
0.875517 0.0872663 0.0851453
0.875517 0.0872663 0.0851453
0.875547 0.0871595 0.0865492
0.875715 0.0866865 0.0954757
0.875883 0.0863508 0.102296
0.876097 0.0860914 0.10808
0.87628 0.0859236 0.113481
0.876463 0.0856947 0.118502
0.022858 0.0547799 0.0271153
0.0227359 0.0529793 0.0269322
0.0225376 0.0509041 0.0266575
0.0223545 0.0467079 0.0263218
0.050782 0.0402991 0.0257267
0.0824903 0.0374151 0.028748
0.114809 0.0336919 0.0340276
0.145083 0.0371862 0.0386053
0.18114 0.0425116 0.0419776
0.222126 0.0500954 0.0453193
0.263783 0.0580148 0.0473793
0.32668 0.0656596 0.0470588
0.401053 0.0725872 0.0310521
0.491112 0.0738079 0.0364385
0.581186 0.0524758 0.050782
0.653513 0.0585184 0.0570993
0.710658 0.0640879 0.0625467
0.755337 0.0690166 0.0673686
0.790707 0.0732738 0.0715343
0.819547 0.0771038 0.0752575
0.843931 0.0805219 0.078584
0.865797 0.0836042 0.08159
0.875578 0.086183 0.0841077
0.875517 0.0872663 0.0851453
0.875517 0.0872663 0.0851453
0.875517 0.0872663 0.0851453
0.875517 0.0872663 0.0851453
0.875547 0.0871595 0.0865492
0.875715 0.0866865 0.0954757
0.875883 0.0863508 0.102296
0.876097 0.0860914 0.10808
0.87628 0.0859236 0.113481
0.876463 0.0856947 0.118502
0.0244602 0.0836957 0.030457
0.0243992 0.0820935 0.0302434
0.024445 0.0826276 0.0303502
0.0242924 0.0798505 0.0299382
0.0419776 0.0737011 0.0276799
0.0743877 0.0699016 0.0273899
0.103853 0.0670787 0.0284276
0.134051 0.0637675 0.0306401
0.169436 0.0589456 0.0344549
0.219242 0.0513771 0.043595
0.269886 0.0590524 0.0476387
0.333715 0.0664988 0.0469673
0.399878 0.0724804 0.0311284
0.489967 0.0738231 0.0363165
0.58053 0.0524605 0.0507515
0.653178 0.0585031 0.057084
0.710384 0.0640879 0.0625467
0.755261 0.0690166 0.0673686
0.790707 0.0732738 0.0715343
0.819547 0.0771038 0.0752575
0.843992 0.0805219 0.078584
0.865858 0.0836042 0.0816052
0.875578 0.086183 0.0841077
0.875517 0.0872663 0.0851453
0.875517 0.0872663 0.0851453
0.875517 0.0872663 0.0851453
0.875517 0.0872663 0.0851453
0.875547 0.0871595 0.0865492
0.875715 0.0866865 0.0954757
0.875883 0.0863508 0.102296
0.876097 0.0860914 0.10808
0.87628 0.0859236 0.113481
0.876463 0.0856947 0.118502
0.0243381 0.107576 0.0337224
0.0243229 0.10634 0.0334936
0.0243839 0.105272 0.0333715
0.0243992 0.103136 0.0330205
0.0266117 0.0988479 0.0321202
0.067689 0.0927138 0.0288701
0.0984665 0.0895247 0.028748
0.129198 0.0865949 0.0295872
0.162478 0.0829938 0.031342
0.207019 0.0787976 0.0343786
0.256687 0.0718242 0.0396124
0.333837 0.0665141 0.0469673
0.408072 0.0731365 0.0304112
0.488365 0.0738842 0.0361639
0.579461 0.052369 0.0506447
0.652384 0.0584115 0.0569924
0.710018 0.0640116 0.0624704
0.755032 0.0689403 0.0672923
0.790646 0.0732738 0.0715343
0.819547 0.0771038 0.0752575
0.844053 0.0805219 0.078584
0.865919 0.0836042 0.0816052
0.875578 0.086183 0.0841993
0.875517 0.0872663 0.0851453
0.875517 0.0872663 0.0851453
0.875517 0.0872663 0.0851453
0.875517 0.0872663 0.0851453
0.875547 0.0871595 0.0866255
0.875715 0.0866865 0.0954757
0.875883 0.0863508 0.102296
0.876097 0.0860914 0.10808
0.87628 0.0859236 0.113481
0.876463 0.0856947 0.118502
0.02533 0.129061 0.037171
0.0251621 0.128191 0.0369421
0.0251011 0.127062 0.0368048
0.0249638 0.125536 0.0365454
0.0246891 0.122576 0.0360418
0.0573739 0.116075 0.0318761
0.0915084 0.112215 0.030457
0.124117 0.109239 0.0302434
0.157412 0.106386 0.0310979
0.202014 0.103365 0.0321965
0.247654 0.0991684 0.0339818
0.314778 0.0895552 0.0354162
0.403388 0.0727245 0.0307774
0.495781 0.0736858 0.0368963
0.577585 0.0522469 0.0505074
0.65124 0.0583047 0.0568856
0.709285 0.06392 0.0623789
0.754635 0.068925 0.067277
0.790372 0.0732738 0.071519
0.819409 0.0771038 0.0752575
0.844053 0.0805219 0.078584
0.865919 0.0836042 0.0816052
0.875578 0.0862593 0.0841688
0.875517 0.0872663 0.0851453
0.875517 0.0872663 0.0851453
0.875517 0.0872663 0.0851453
0.875517 0.0872663 0.0851453
0.875547 0.0871595 0.0866255
0.875715 0.0866865 0.0955673
0.875883 0.0863508 0.102296
0.876097 0.0860914 0.10808
0.87628 0.0859236 0.113481
0.876463 0.0856947 0.118502
0.0235142 0.15349 0.041474
0.023621 0.152728 0.0413214
0.0237888 0.151781 0.0411688
0.0239719 0.150759 0.0410163
0.0243534 0.148287 0.0405737
0.0333257 0.143404 0.0383917
0.0807355 0.136629 0.0338293
0.118013 0.133303 0.0324559
0.152407 0.131319 0.0325475
0.197467 0.129259 0.0322728
0.242435 0.127077 0.0326696
0.307042 0.121386 0.0307164
0.380835 0.111131 0.0140841
0.474434 0.0882887 0.0256352
0.579583 0.052369 0.0506447
0.649088 0.0580911 0.056672
0.707912 0.063798 0.0622721
0.753689 0.0688334 0.0671855
0.789837 0.0731823 0.0714427
0.819104 0.0770275 0.0751812
0.843885 0.0804608 0.0785229
0.86598 0.0836042 0.0816052
0.875578 0.0862593 0.0841688
0.875517 0.0872663 0.0851453
0.875517 0.0872663 0.0851453
0.875517 0.0872663 0.0851453
0.875517 0.0872663 0.0851453
0.875547 0.0871595 0.0866255
0.875715 0.0866865 0.0955673
0.875883 0.0863508 0.102296
0.876097 0.0860914 0.10808
0.87628 0.0859236 0.113481
0.876463 0.0856947 0.118502
0.0148013 0.183902 0.0477607
0.0150759 0.183108 0.0475929
0.0153964 0.182223 0.0473945
0.0157626 0.181231 0.0471962
0.0161593 0.180133 0.0469825
0.017258 0.176852 0.0462654
0.0516518 0.167163 0.0400702
0.106065 0.161318 0.0361334
0.143908 0.158495 0.0352026
0.191043 0.15613 0.0339818
0.237903 0.154788 0.0334936
0.30248 0.151278 0.0295262
0.376165 0.1458 0.0108492
0.461295 0.134051 0.0112612
0.54902 0.104585 0.0246891
0.645777 0.057847 0.0564279
0.705898 0.0635996 0.0620737
0.75227 0.0686503 0.0670024
0.788891 0.0730907 0.0713359
0.818494 0.076936 0.0751049
0.843458 0.0804456 0.0785077
0.865751 0.0836042 0.08159
0.875578 0.0862593 0.0841688
0.875517 0.0872663 0.0851453
0.875517 0.0872663 0.0851453
0.875517 0.0872663 0.0851453
0.875517 0.0872663 0.0851453
0.875547 0.0871595 0.0866255
0.875715 0.0866865 0.0955673
0.875883 0.0863508 0.102296
0.876097 0.0860914 0.10808
0.87628 0.0859236 0.113481
0.876463 0.0856947 0.118502
0.0145724 0.214817 0.0540322
0.0145418 0.214206 0.0538949
0.0144961 0.213519 0.0537423
0.0144656 0.212818 0.0536049
0.0144198 0.212024 0.0534371
0.0143893 0.211246 0.0532845
0.0142519 0.207919 0.0526284
0.0682994 0.19617 0.0432593
0.122744 0.191852 0.0395666
0.178668 0.189548 0.0372625
0.231113 0.188663 0.0346838
0.296727 0.186343 0.0294499
0.373587 0.182284 0.0102693
0.459174 0.173419 0.00575265
0.544472 0.157259 0.0116579
0.620706 0.116487 0.0256504
0.691096 0.0792401 0.0469825
0.751171 0.0684825 0.0668498
0.787396 0.0729076 0.0711681
0.817426 0.0768444 0.0749981
0.84271 0.0802777 0.0784466
0.865232 0.0835126 0.0815137
0.875578 0.086183 0.0841077
0.875517 0.0872663 0.0851453
0.875517 0.0872663 0.0851453
0.875517 0.0872663 0.0851453
0.875517 0.0872663 0.0851453
0.875547 0.0871595 0.0866255
0.875715 0.0866865 0.0955673
0.875883 0.0863508 0.102296
0.876097 0.0860914 0.10808
0.87628 0.0859236 0.113481
0.876463 0.0856947 0.118502
0.0161898 0.249561 0.0599832
0.0161135 0.248981 0.0598764
0.016144 0.24828 0.0598306
0.0160678 0.247578 0.0597086
0.0160067 0.246784 0.0595712
0.0159457 0.246098 0.0594492
0.0158846 0.244999 0.0592966
0.0165408 0.240253 0.0583352
0.0879988 0.228275 0.0471809
0.151843 0.22501 0.0430152
0.220371 0.224552 0.038941
0.288075 0.224735 0.0322423
0.37023 0.22385 0.0104372
0.458564 0.220859 0.000671397
0.547082 0.211215 0.00392157
0.61912 0.1897 0.0108034
0.684291 0.138003 0.0249332
0.733822 0.108492 0.0393378
0.784634 0.0725567 0.0708171
0.815824 0.076585 0.0747692
0.841474 0.0801099 0.0781872
0.864256 0.08336 0.0813611
0.875578 0.0861219 0.0840467
0.875517 0.0872663 0.0851453
0.875517 0.0872663 0.0851453
0.875517 0.0872663 0.0851453
0.875517 0.0872663 0.0851453
0.875547 0.0871595 0.0866255
0.875715 0.0866865 0.0955673
0.875883 0.0863508 0.102296
0.876097 0.0860914 0.10808
0.87628 0.0859236 0.113481
0.876463 0.0856947 0.118502
0.0187228 0.293751 0.0648661
0.0187381 0.293095 0.0648508
0.018677 0.292439 0.0647593
0.0186007 0.291783 0.0646677
0.0186313 0.29102 0.0646525
0.018555 0.290364 0.0645609
0.0185092 0.289387 0.0644541
0.0184634 0.287968 0.0643473
0.0526741 0.277195 0.0575265
0.111406 0.27187 0.0501869
0.194522 0.270008 0.0424506
0.271351 0.271138 0.0340429
0.363531 0.271565 0.00407416
0.456886 0.271061 0.000701915
0.550774 0.26598 0.00244144
0.625254 0.2533 0.00488289
0.685893 0.233936 0.00918593
0.731151 0.20383 0.017258
0.770642 0.151629 0.0317082
0.80322 0.111345 0.0494392
0.840589 0.0800183 0.0780957
0.862715 0.0831769 0.0811933
0.875593 0.0859998 0.0839246
0.875517 0.0872663 0.0851453
0.875517 0.0872663 0.0851453
0.875517 0.0872663 0.0851453
0.875517 0.0872663 0.0851453
0.875547 0.0871595 0.0867018
0.875715 0.0866865 0.0955673
0.875883 0.0863508 0.102296
0.876097 0.0860914 0.10808
0.87628 0.0859236 0.113481
0.876463 0.0856947 0.118502
0.021561 0.342397 0.0698405
0.0214847 0.341833 0.0697948
0.0215 0.341161 0.0698405
0.0214237 0.340612 0.0697948
0.0213626 0.33994 0.069749
0.0213779 0.339269 0.0697948
0.0213169 0.338415 0.069688
0.0212711 0.337331 0.0695659
0.0211948 0.336675 0.0694743
0.0814679 0.325216 0.0578317
0.135958 0.325002 0.047837
0.241642 0.327413 0.0274662
0.349737 0.332525 0.00172427
0.451621 0.336599 0.00198367
0.552895 0.335302 0.00263981
0.632258 0.327825 0.00376898
0.695338 0.312886 0.00563058
0.740688 0.292287 0.00854505
0.775158 0.26804 0.0126497
0.801572 0.238483 0.0192721
0.825208 0.182681 0.033341
0.853574 0.105516 0.0619211
0.875593 0.0858167 0.0837415
0.875517 0.0872663 0.0851453
0.875517 0.0872663 0.0851453
0.875517 0.0872663 0.0851453
0.875517 0.0872663 0.0851453
0.875547 0.0871595 0.0867018
0.875715 0.0866865 0.0955673
0.875883 0.0863508 0.102296
0.876097 0.0860914 0.10808
0.87628 0.0859236 0.113481
0.876463 0.0856947 0.118502
0.0245823 0.397223 0.0698253
0.0245212 0.396643 0.0697948
0.0245365 0.396048 0.0698405
0.0244602 0.395468 0.06981
0.0244755 0.394888 0.0697795
0.0244144 0.394308 0.0698405
0.0243381 0.3935 0.0698253
0.0242771 0.392447 0.0698405
0.0242313 0.390936 0.0698863
0.0242313 0.390936 0.0698863
0.110658 0.383032 0.0508888
0.173297 0.389944 0.0135805
0.323812 0.397208 0.00332647
0.441199 0.405798 0.002533
0.551797 0.40882 0.00218204
0.638376 0.405905 0.00225834
0.705943 0.39617 0.00282292
0.753231 0.382162 0.0039826
0.788571 0.365713 0.00573739
0.815473 0.345922 0.00828565
0.836698 0.318181 0.012314
0.85362 0.276875 0.0196231
0.867903 0.207324 0.0352789
0.875517 0.0872663 0.0851453
0.875517 0.0872663 0.0851453
0.875517 0.0872663 0.0851453
0.875517 0.0872663 0.0851453
0.875547 0.0871595 0.0867018
0.875715 0.0866865 0.0955673
0.875883 0.0863355 0.102373
0.876097 0.0860914 0.10808
0.87628 0.0859236 0.113481
0.876478 0.0856947 0.118578
0.0279393 0.454734 0.0618448
0.0279545 0.454292 0.0619516
0.0278782 0.453849 0.0619821
0.0278935 0.453285 0.0621195
0.0278172 0.452842 0.0621347
0.0278325 0.452293 0.0622721
0.0277562 0.451743 0.0623331
0.0276799 0.450858 0.0624704
0.0276188 0.449638 0.0626841
0.0275731 0.448081 0.0629892
0.0720989 0.444389 0.0476081
0.142565 0.453834 0.00965896
0.254276 0.467063 0.00543221
0.420325 0.47985 0.0021973
0.543664 0.48867 0.000518807
0.640604 0.490517 0.000137331
0.7131 0.484428 4.57771e-05
0.764462 0.473426 0
0.801801 0.459831 0.000244144
0.830625 0.445548 0.00103761
0.853605 0.427558 0.00207523
0.872114 0.403784 0.00459297
0.885939 0.367803 0.00978103
0.876631 0.299321 0.0192416
0.870909 0.162509 0.0469062
0.875517 0.0872663 0.0851453
0.875517 0.0872663 0.0851453
0.875517 0.0872663 0.0851453
0.875715 0.0866865 0.0956436
0.875883 0.0863355 0.102373
0.876097 0.0860914 0.108156
0.87628 0.0859236 0.113481
0.876478 0.0856947 0.118578
0.0324254 0.508171 0.0300603
0.0323491 0.507866 0.0301213
0.0323491 0.507469 0.0305028
0.0323491 0.507057 0.0308995
0.0322728 0.506645 0.0311437
0.0322728 0.506249 0.0315404
0.0321965 0.50573 0.0318914
0.0321202 0.505119 0.0323339
0.0321202 0.504204 0.0330663
0.0319524 0.502983 0.0341344
0.0321202 0.504204 0.0330663
0.116381 0.506905 0.014023
0.179843 0.526955 0.00892653
0.386404 0.541955 0.00167849
0.525902 0.556985 0
0.637186 0.564828 0
0.715984 0.56379 0
0.772107 0.557412 0
0.812146 0.548333 0
0.842802 0.539635 0
0.867124 0.528634 0
0.887343 0.514076 0
0.904692 0.491325 0.000961318
0.899504 0.450538 0.00184634
0.889723 0.390234 0.00741588
0.875135 0.286473 0.0212253
0.875517 0.0872663 0.0851453
0.875517 0.0872663 0.0851453
0.875517 0.0872663 0.0851453
0.875883 0.0863355 0.102373
0.876097 0.0860914 0.108156
0.87628 0.0859236 0.113481
0.876478 0.0856947 0.118578
0.0356146 0.556786 0.0319677
0.0356298 0.556481 0.0319829
0.0355535 0.556237 0.0319066
0.0355535 0.556008 0.0319219
0.0355688 0.555779 0.0319219
0.0354925 0.555459 0.0318608
0.0355077 0.555138 0.0318761
0.0354314 0.554696 0.0318151
0.0353704 0.553994 0.0317845
0.0353246 0.553124 0.0317388
0.0352789 0.55198 0.0317235
0.0710613 0.552422 0.0236515
0.153597 0.573114 0.0121157
0.319982 0.593286 0.00257877
0.494987 0.613123 0
0.623011 0.626673 0
0.71107 0.630793 0
0.773861 0.628351 0
0.81651 0.622003 0
0.845823 0.614816 0
0.869139 0.60737 0.000122072
0.89041 0.598856 0.000564584
0.910582 0.587732 0.00108339
0.914534 0.567956 0.00132753
0.91249 0.534768 0.00135805
0.903761 0.478584 0.00125124
0.888289 0.381796 0.00836194
0.86923 0.180621 0.0423133
0.875517 0.0872663 0.0851453
0.875517 0.0872663 0.0851453
0.876097 0.0860914 0.108156
0.87628 0.0859236 0.113481
0.876478 0.0856947 0.118578
0.0390631 0.595148 0.0350347
0.0389715 0.594949 0.03505
0.0389868 0.594751 0.03505
0.0389868 0.594629 0.0350652
0.0389105 0.594415 0.0349889
0.0389258 0.594217 0.0349889
0.0389258 0.594018 0.0350042
0.0388495 0.593683 0.0349432
0.0388647 0.593301 0.0349432
0.0388037 0.592737 0.0348821
0.0387427 0.592035 0.0348363
0.0386053 0.591043 0.0347143
0.127993 0.604425 0.0173495
0.219333 0.632013 0.00721752
0.45687 0.653666 0
0.60177 0.672389 0
0.69984 0.681651 0
0.770169 0.683528 0
0.811154 0.679057 6.10361e-05
0.837766 0.672969 0.000198367
0.861418 0.668177 0.000335698
0.882719 0.663417 0.00047303
0.902678 0.65687 0.000640879
0.908522 0.646036 0.000869764
0.909972 0.628473 0.00106813
0.912154 0.602686 0.00125124
0.914961 0.557794 0.00135805
0.902678 0.471504 0.00137331
0.878477 0.314611 0.0170291
0.875517 0.0872663 0.0851453
0.875517 0.0872663 0.0851453
0.876295 0.0859236 0.113558
0.876478 0.0856947 0.118578
0.0424201 0.627894 0.0382086
0.0423438 0.62771 0.0381323
0.0423438 0.627588 0.0381476
0.0423438 0.627451 0.0381476
0.042359 0.627329 0.0381476
0.042359 0.627207 0.0380713
0.0422827 0.627024 0.0380865
0.0422827 0.626764 0.0380865
0.0422217 0.626505 0.0380255
0.042237 0.626062 0.0380407
0.0421607 0.625544 0.0379797
0.0420996 0.624826 0.0379187
0.0929122 0.629496 0.0265202
0.172686 0.659907 0.0139162
0.416587 0.682658 0.00202945
0.575723 0.704692 0.000808728
0.685008 0.717678 0.000350958
0.761624 0.722255 0.000122072
0.803693 0.719432 4.57771e-05
0.830839 0.714611 6.10361e-05
0.854994 0.710948 3.0518e-05
0.876509 0.70779 0
0.896315 0.704311 0
0.904265 0.698924 6.10361e-05
0.904936 0.690318 0.00015259
0.905943 0.677775 0.000366217
0.907713 0.655909 0.000747692
0.910796 0.618631 0.00115969
0.915007 0.556863 0.00132753
0.894728 0.420508 0.00410468
0.875517 0.0872663 0.0851453
0.875517 0.0872663 0.0851453
0.876478 0.0856947 0.118578
0.0456855 0.657801 0.0412299
0.0457008 0.657679 0.0412299
0.0457008 0.657557 0.0412299
0.0457008 0.657496 0.0412299
0.0456245 0.657374 0.0411536
0.0456245 0.657252 0.0411688
0.0456245 0.65713 0.0411688
0.0456397 0.656947 0.0411688
0.0455634 0.656703 0.0411078
0.0455787 0.656397 0.0411078
0.0455024 0.65597 0.0410468
0.0454414 0.655482 0.0409857
0.0455634 0.656458 0.0411078
0.15761 0.682857 0.0190433
0.380835 0.706966 0.00520333
0.550683 0.730709 0.00196841
0.670085 0.74612 0.000549325
0.752178 0.752438 0
0.797177 0.751171 0
0.824887 0.746944 0
0.849439 0.743847 0
0.871214 0.741283 0
0.890974 0.738857 0
0.901396 0.735775 0
0.901793 0.73048 0
0.902327 0.723552 0
0.903181 0.712566 0
0.904509 0.695842 9.15541e-05
0.9066 0.669551 0.000518807
0.910613 0.620905 0.00112917
0.91017 0.519982 0.00132753
0.869032 0.228046 0.0318303
0.875517 0.0872663 0.0851453
0.0484016 0.68661 0.0554971
0.0483253 0.686488 0.0552071
0.0483406 0.686427 0.0551766
0.0483406 0.686351 0.0551308
0.0483406 0.686229 0.0550698
0.0483406 0.686168 0.055024
0.0483558 0.686046 0.054963
0.0482948 0.685908 0.0546731
0.0482948 0.685725 0.0545663
0.0483101 0.685481 0.0544289
0.0482643 0.6851 0.0540017
0.0482032 0.684657 0.0535439
0.0481575 0.684153 0.0530404
0.1458 0.705257 0.0239414
0.35906 0.728862 0.00830091
0.531624 0.752667 0.00302129
0.657328 0.769085 0.000488289
0.742092 0.776272 0
0.791592 0.776379 0
0.819654 0.772351 0
0.844602 0.769436 0
0.866697 0.767178 0
0.886442 0.765209 0
0.899306 0.763043 0
0.899535 0.759884 0
0.89987 0.75555 0
0.900328 0.749416 0
0.901061 0.740032 0
0.902083 0.726757 0
0.903639 0.706905 0
0.90634 0.672908 0.000457771
0.912612 0.597421 0.0012665
0.886442 0.370871 0.00959792
0.0495766 0.716243 0.107073
0.0495766 0.716182 0.106996
0.0495766 0.716106 0.10692
0.0495766 0.716045 0.106828
0.0495155 0.715953 0.106615
0.0495155 0.715892 0.106523
0.0495308 0.715755 0.106371
0.0495308 0.715618 0.106203
0.049546 0.71548 0.10605
0.049485 0.715267 0.105653
0.0495003 0.714992 0.105333
0.0494545 0.71458 0.104707
0.049485 0.714107 0.104143
0.141299 0.730098 0.0275731
0.358312 0.751141 0.0103914
0.522957 0.772824 0.00367742
0.647379 0.788586 0.000213626
0.73257 0.796033 0
0.786633 0.797375 0
0.814954 0.793301 0
0.840284 0.790265 0
0.862654 0.7879 0
0.882536 0.785977 0
0.897704 0.784207 0
0.897841 0.782116 0
0.89807 0.779141 0
0.898375 0.775204 0
0.898787 0.769635 0
0.899351 0.762173 0
0.90013 0.75201 0
0.90135 0.736339 0
0.903349 0.710445 0
0.907546 0.657954 0.000717174
0.0514992 0.742123 0.135241
0.0514992 0.742123 0.135241
0.0515145 0.742123 0.135073
0.0514382 0.742107 0.135103
0.0514382 0.742107 0.135103
0.0514382 0.742107 0.135103
0.0514382 0.742107 0.135103
0.0514382 0.742107 0.135103
0.0514382 0.742107 0.135103
0.0514382 0.742107 0.135103
0.0513619 0.742092 0.134966
0.0513619 0.742092 0.134966
0.0512856 0.742077 0.134829
0.149706 0.758282 0.0333715
0.379446 0.774273 0.0108492
0.526665 0.792309 0.00366217
0.642069 0.805875 0.000106813
0.724849 0.812787 0
0.781552 0.814786 0
0.810788 0.810941 0
0.836225 0.807752 0
0.858839 0.805264 0
0.878859 0.803189 0
0.896422 0.801343 0
0.896513 0.799786 0
0.896681 0.797513 0
0.896895 0.794797 0
0.897154 0.791257 0
0.89752 0.786526 0
0.897978 0.780468 0
0.898604 0.772045 0
0.899535 0.759823 0
0.901076 0.739849 0
0.0546731 0.742855 0.141329
0.0546731 0.742855 0.141329
0.0546731 0.742855 0.141329
0.0546731 0.742855 0.141329
0.0546731 0.742855 0.141329
0.0546731 0.742855 0.141329
0.0546731 0.742855 0.141161
0.0545968 0.74284 0.141192
0.0545968 0.74284 0.141192
0.0545968 0.74284 0.141192
0.0545968 0.74284 0.141192
0.0545205 0.742824 0.141039
0.0545205 0.742824 0.141039
0.195972 0.772168 0.0295415
0.419913 0.786404 0.00975052
0.543603 0.803403 0.00311284
0.645075 0.817151 1.5259e-05
0.721416 0.825391 0
0.776959 0.829831 0
0.807065 0.827176 0
0.832197 0.823621 0
0.854887 0.820752 0
0.87512 0.818372 0
0.893523 0.816312 0
0.895369 0.814893 0
0.895521 0.81294 0
0.895689 0.810727 0
0.895888 0.808103 0
0.896132 0.804868 0
0.896437 0.800885 0
0.896819 0.795758 0
0.897337 0.788937 0
0.898085 0.778943 0
0.0548104 0.742885 0.141619
0.0548104 0.742885 0.141619
0.0548104 0.742885 0.141619
0.0548104 0.742885 0.141619
0.0548104 0.742885 0.141619
0.0548104 0.742885 0.141619
0.0548104 0.742885 0.141619
0.0548104 0.742885 0.141619
0.0548104 0.742885 0.141619
0.0548104 0.742885 0.141619
0.0548104 0.742885 0.141619
0.0548104 0.742885 0.141619
0.167132 0.768627 0.0369879
0.357259 0.778637 0.0145571
0.471107 0.793515 0.00698863
0.571084 0.807126 0.00195315
0.655116 0.81828 0
0.723476 0.825498 0
0.775296 0.829648 0
0.80473 0.828687 0
0.829114 0.827298 0
0.851469 0.826215 0
0.871672 0.825132 0
0.890013 0.824125 0
0.894682 0.823835 0
0.894682 0.82385 0
0.894697 0.82388 0
0.894743 0.823331 0
0.894942 0.820737 0
0.895171 0.817609 0
0.895445 0.813794 0
0.895811 0.809155 0
0.896254 0.803128 0
0.0538033 0.743587 0.161547
0.0538033 0.743587 0.161547
0.0538033 0.743587 0.161547
0.0538033 0.743587 0.161547
0.0538033 0.743587 0.161547
0.0538033 0.743587 0.161547
0.0538033 0.743587 0.161547
0.0538033 0.743587 0.161395
0.0903792 0.748363 0.135149
0.138598 0.759777 0.0739452
0.174121 0.770214 0.0346685
0.30074 0.773846 0.0191501
0.388373 0.782284 0.0122072
0.462287 0.792294 0.00749218
0.535622 0.802274 0.00363165
0.609384 0.81239 0.00030518
0.673152 0.820356 0
0.729839 0.826093 0
0.775296 0.829648 0
0.80267 0.828824 0
0.825833 0.827466 0
0.847715 0.826368 0
0.867826 0.825299 0
0.886229 0.824277 0
0.894636 0.823774 0
0.894636 0.823774 4.57771e-05
0.894636 0.823774 4.57771e-05
0.894636 0.823774 4.57771e-05
0.894636 0.823774 0
0.894652 0.823804 0
0.894667 0.823835 0
0.894682 0.823865 0
0.89485 0.821942 0
0.269886 0.772778 0.0302586
0.292103 0.773159 0.025864
0.306447 0.774304 0.0237583
0.320119 0.775418 0.0218204
0.333394 0.776516 0.0199893
0.345724 0.777554 0.0183261
0.3608 0.77882 0.0163577
0.377554 0.780835 0.0141451
0.397498 0.783475 0.0115206
0.421302 0.786557 0.00994888
0.44799 0.790295 0.00833143
0.480125 0.794751 0.00646983
0.51751 0.799817 0.00451667
0.561349 0.805783 0.00239567
0.608469 0.812268 0.000335698
0.654292 0.818173 0
0.700542 0.823255 0
0.743923 0.82739 0
0.780102 0.829862 0
0.803006 0.828809 0
0.824216 0.827558 0
