LUTS/Secondary LUTS/ALL QUIET ON THE WESTERN FRONT.cube
TITLE "Generated by Resolve"
LUT_3D_SIZE 5
0.0011902 4.57771e-05 0.000183108
0.188342 0.00306706 0.00225834
0.432761 0.0108949 0.00639353
0.693553 0.0190127 0.0103761
0.950668 0.0224002 0.0189822
0.0132296 0.165545 0.0773175
0.159915 0.18175 0.0770581
0.447807 0.215106 0.0114748
0.710582 0.226581 0.0210422
0.963821 0.23035 0.0368353
0.057557 0.373785 0.163958
0.178302 0.378912 0.176226
0.410651 0.425956 0.116548
0.717296 0.475807 0.0319219
0.968048 0.477195 0.0412299
0.131029 0.609949 0.224598
0.258762 0.622782 0.188067
0.439902 0.648508 0.238453
0.692607 0.70248 0.0993515
0.96527 0.725414 0.0535592
0.169772 0.85687 0.126833
0.336263 0.878325 0.11397
0.514672 0.899229 0.111086
0.705684 0.917342 0.096376
0.937514 0.945693 0.0538949
0.00660716 0.0166476 0.128206
0.116976 0.0314031 0.196124
0.398428 0.0122988 0.224582
0.688899 0.0157321 0.246296
0.951034 0.0225376 0.263874
0.0207828 0.174762 0.219806
0.145159 0.191531 0.244083
0.437613 0.205631 0.240589
0.715297 0.206104 0.249805
0.965621 0.214694 0.272435
0.0842603 0.372717 0.340658
0.182208 0.39382 0.328786
0.387884 0.432776 0.314931
0.72195 0.47396 0.254353
0.970153 0.474128 0.273976
0.150683 0.612589 0.43534
0.247929 0.632044 0.39202
0.420462 0.65481 0.387549
0.691691 0.706981 0.288502
0.966552 0.726879 0.2813
0.180774 0.865309 0.337545
0.328939 0.879164 0.301869
0.510002 0.903914 0.280095
0.707225 0.923079 0.280232
0.939834 0.95024 0.284855
0.0159152 0.0529335 0.29662
0.103914 0.0713359 0.325795
0.252613 0.0880293 0.401923
0.585 0.0448768 0.446662
0.938537 0.0239567 0.503395
0.0285191 0.198657 0.36318
0.120256 0.21355 0.387991
0.284581 0.240787 0.459709
0.646464 0.219226 0.477272
0.954742 0.215183 0.525689
0.0707408 0.394034 0.457267
0.16466 0.406012 0.474235
0.332784 0.44358 0.509316
0.703273 0.466117 0.521981
0.965667 0.472724 0.543893
0.143221 0.616175 0.587198
0.237339 0.629358 0.594797
0.392081 0.665858 0.577646
0.681865 0.712245 0.548486
0.966461 0.730312 0.542443
0.150851 0.867308 0.590692
0.303471 0.879957 0.578866
0.493538 0.90692 0.527245
0.710994 0.928588 0.519509
0.939696 0.952468 0.540047
0.0283818 0.101381 0.455024
0.11429 0.115953 0.475181
0.221439 0.150607 0.524651
0.424308 0.152316 0.617578
0.761364 0.118944 0.641611
0.0391089 0.236286 0.512398
0.127489 0.251911 0.536721
0.242222 0.284123 0.585901
0.465064 0.307607 0.670085
0.818677 0.277287 0.680034
0.0780041 0.424231 0.589517
0.168612 0.437186 0.612055
0.288792 0.463813 0.651133
0.547875 0.494301 0.719142
0.903304 0.479576 0.734905
0.120562 0.637781 0.709377
0.216373 0.649592 0.723049
0.360739 0.673182 0.74548
0.650217 0.711009 0.756695
0.938857 0.726009 0.77528
0.0982681 0.865797 0.782666
0.24239 0.87599 0.788022
0.432944 0.895521 0.784863
0.701747 0.927687 0.758312
0.937758 0.953872 0.772488
0.0424048 0.159182 0.619547
0.128649 0.17116 0.635477
0.233127 0.201251 0.673838
0.366217 0.243565 0.732937
0.79855 0.126955 0.870024
0.0549325 0.284611 0.666896
0.141985 0.300679 0.690578
0.25359 0.330159 0.731579
0.399969 0.368566 0.78172
0.842893 0.309468 0.900999
0.0953536 0.458991 0.73521
0.184222 0.472236 0.757061
0.292088 0.496895 0.792599
0.476982 0.525322 0.840467
0.886442 0.506844 0.924605
0.111666 0.669291 0.820096
0.214664 0.679835 0.839536
0.35758 0.69929 0.870298
0.623468 0.717983 0.909941
0.905562 0.726467 0.942077
0.0966201 0.873762 0.949264
0.253391 0.883665 0.956588
0.451698 0.896544 0.956359
0.707668 0.920165 0.949798
0.92517 0.941329 0.951568
