LUTS/Secondary LUTS/ALL QUIET ON THE WESTERN FRONT.cube
TITLE "Generated by Resolve"
LUT_3D_SIZE 33
0.0011902 4.57771e-05 0.000183108
0.0186313 0.000244144 7.62951e-05
0.0360723 0.000457771 7.62951e-05
0.0577249 0.000717174 0.000122072
0.081651 0.0009308 0.000411994
0.106645 0.00131228 0.000839246
0.133165 0.00172427 0.0012665
0.160388 0.00236515 0.00175479
0.188342 0.00306706 0.00225834
0.217426 0.00384527 0.00283818
0.246845 0.00462348 0.00341802
0.277043 0.00560006 0.00399786
0.307515 0.00645457 0.00471504
0.338445 0.00753796 0.00518807
0.369711 0.00852979 0.00563058
0.401068 0.00970474 0.00602731
0.432761 0.0108949 0.00639353
0.464729 0.0119631 0.00677501
0.496941 0.013138 0.00717174
0.529381 0.0141756 0.00770581
0.562051 0.0153506 0.00808728
0.594858 0.0163577 0.00849927
0.627726 0.017319 0.00900282
0.660609 0.0182803 0.00956741
0.693553 0.0190127 0.0103761
0.726543 0.019852 0.0112154
0.759258 0.0204013 0.0122988
0.792172 0.0209506 0.0132601
0.824643 0.0213474 0.0143587
0.857176 0.0217136 0.0154726
0.888853 0.0220188 0.0166781
0.920684 0.0223087 0.0178988
0.950668 0.0224002 0.0189822
0.00137331 0.0167544 0.0068513
0.017319 0.0169375 0.00782788
0.0333715 0.0172274 0.00894179
0.054902 0.0177462 0.00741588
0.0789654 0.0184176 0.00575265
0.104891 0.0193332 0.00424201
0.132326 0.0203861 0.00291447
0.16054 0.0215 0.00267033
0.189258 0.0224918 0.00297551
0.218814 0.0235904 0.00352483
0.248447 0.0245518 0.00411994
0.278752 0.0256199 0.00471504
0.309514 0.0267033 0.00534066
0.340322 0.0278477 0.00588998
0.371633 0.0290227 0.00643931
0.403098 0.0302586 0.00688182
0.434943 0.0315099 0.00727855
0.467063 0.0327459 0.0078584
0.499413 0.0338293 0.00836194
0.532036 0.0350347 0.00889601
0.564828 0.0361791 0.00944533
0.597818 0.0372931 0.0100557
0.630823 0.0382849 0.0107881
0.663844 0.0392615 0.0115663
0.69691 0.0399634 0.0126802
0.730022 0.0407874 0.0137179
0.762829 0.0414435 0.0149081
0.795636 0.0419623 0.0160678
0.828107 0.0424506 0.0174258
0.860563 0.0427863 0.0187533
0.892164 0.0431067 0.0203098
0.923598 0.0434272 0.0217441
0.953429 0.0437171 0.0230869
0.00167849 0.0333562 0.013611
0.016022 0.0335851 0.015671
0.0305943 0.0339208 0.0177615
0.0521706 0.0347143 0.0147555
0.0763104 0.0358892 0.0110018
0.103044 0.0373388 0.00772107
0.131472 0.0389715 0.00466926
0.160708 0.0406043 0.0034638
0.190173 0.0419013 0.00366217
0.220218 0.0432136 0.00408942
0.250202 0.044358 0.00469978
0.280613 0.0455177 0.00531014
0.31133 0.0468147 0.00595102
0.342351 0.0480354 0.00657664
0.373541 0.0493629 0.00733959
0.405097 0.05066 0.00782788
0.437278 0.0521096 0.00827039
0.469398 0.0534066 0.0087892
0.50193 0.0546731 0.00943008
0.534691 0.0558785 0.0101015
0.56762 0.057023 0.0108034
0.600732 0.0580911 0.0117037
0.633738 0.0592203 0.012665
0.667063 0.0602121 0.0136873
0.70013 0.0610513 0.0148775
0.733364 0.0618601 0.0160983
0.766354 0.0623484 0.0174868
0.799268 0.0629587 0.0188907
0.831662 0.0634012 0.0205692
0.864057 0.0637217 0.0221103
0.895323 0.06421 0.0237888
0.926665 0.0645609 0.0254368
0.956054 0.0650492 0.0270237
0.00238041 0.0530251 0.0226291
0.0166018 0.0531167 0.0264744
0.0308843 0.053193 0.0303655
0.0506294 0.0542916 0.0279393
0.0724956 0.055787 0.0246891
0.0990311 0.0579538 0.0194858
0.127596 0.0603189 0.0137942
0.158099 0.0626841 0.00994888
0.18909 0.0649729 0.00720226
0.220584 0.0670481 0.00576791
0.251743 0.0687572 0.00546273
0.282689 0.0699474 0.00578317
0.313527 0.0710613 0.00657664
0.344625 0.0722362 0.00730907
0.376028 0.0735943 0.00802625
0.407691 0.074876 0.00859083
0.43978 0.0763256 0.00907912
0.471992 0.0776379 0.00968948
0.504646 0.0790723 0.0105135
0.537514 0.0803235 0.0112917
0.570535 0.0814832 0.0121767
0.603586 0.0827497 0.013138
0.63682 0.0838026 0.0142824
0.670039 0.0848096 0.0154726
0.703349 0.085771 0.016846
0.736629 0.0865492 0.0183261
0.769543 0.0871443 0.019913
0.802487 0.0877241 0.0215
0.834821 0.0880293 0.0232547
0.867216 0.0884565 0.0250248
0.898268 0.0889448 0.0269322
0.929412 0.0894179 0.0288548
0.95848 0.0897841 0.0307469
0.00341802 0.0736706 0.0322728
0.0174105 0.0734722 0.0378424
0.0312657 0.0731975 0.0432593
0.0487221 0.0745098 0.0416724
0.0679332 0.0764019 0.0390326
0.0942092 0.0792401 0.0322728
0.123049 0.0825055 0.0240024
0.155016 0.0860609 0.0169223
0.187594 0.0896925 0.0109102
0.221103 0.09308 0.00688182
0.253849 0.0959945 0.00518807
0.284993 0.0963607 0.00546273
0.315511 0.0965896 0.00668345
0.346654 0.097673 0.0075227
0.378103 0.0987716 0.00830091
0.409796 0.100084 0.00906386
0.441855 0.10135 0.00968948
0.474113 0.1028 0.0103761
0.506813 0.104189 0.0111238
0.539742 0.105669 0.0119936
0.572808 0.107027 0.0130312
0.605844 0.108232 0.0141451
0.639094 0.109422 0.0155337
0.672312 0.11046 0.016846
0.70547 0.111421 0.0183261
0.738796 0.11223 0.0198367
0.771771 0.112779 0.0215763
0.804761 0.113329 0.0233005
0.837095 0.113725 0.0253605
0.869505 0.11426 0.0273289
0.90042 0.114733 0.0294652
0.931411 0.115038 0.031632
0.960296 0.115496 0.0336614
0.00531014 0.0956741 0.0430304
0.0191043 0.0956436 0.0472419
0.0327153 0.095552 0.0513466
0.0480354 0.0962844 0.052903
0.064683 0.0972915 0.0543526
0.0896773 0.100572 0.0486458
0.116808 0.104631 0.0403143
0.149142 0.109621 0.0310979
0.18349 0.115023 0.021561
0.219074 0.119997 0.0139162
0.253758 0.124315 0.00907912
0.285649 0.124437 0.00740063
0.316381 0.123796 0.00805676
0.348394 0.124697 0.00805676
0.380179 0.125795 0.00883497
0.412177 0.127092 0.00946059
0.444266 0.128313 0.0102083
0.476555 0.129625 0.0109712
0.509285 0.131212 0.0117494
0.542046 0.132723 0.0128023
0.575097 0.13402 0.0139773
0.608133 0.135409 0.0152132
0.641337 0.136675 0.0166018
0.674525 0.137728 0.0180362
0.707637 0.138552 0.0196078
0.740932 0.139498 0.0213169
0.773938 0.140047 0.0231479
0.806943 0.140566 0.0249943
0.839261 0.1411 0.0270848
0.871626 0.141482 0.02916
0.902434 0.141924 0.0314946
0.933165 0.142336 0.0338293
0.961883 0.142733 0.0361791
0.00747692 0.118441 0.0542916
0.0209964 0.118791 0.0559396
0.0343786 0.119081 0.0576028
0.0480964 0.118868 0.063859
0.0630045 0.118944 0.0715343
0.0851759 0.122118 0.0674601
0.109941 0.126543 0.0587625
0.14139 0.132006 0.0478065
0.176761 0.13843 0.0349889
0.213306 0.144839 0.0242161
0.24976 0.150835 0.0159762
0.283726 0.152865 0.0107271
0.316426 0.153582 0.0089723
0.349477 0.154284 0.00790417
0.38143 0.154574 0.0087892
0.41387 0.155627 0.00952163
0.446006 0.156924 0.0103609
0.478477 0.158251 0.0112306
0.510994 0.159823 0.0121157
0.543679 0.161227 0.0131228
0.576608 0.1626 0.0142977
0.609537 0.16405 0.0155642
0.642603 0.165209 0.0171054
0.675502 0.166445 0.018555
0.708659 0.167361 0.0201267
0.741665 0.168368 0.0217136
0.774563 0.168933 0.0235294
0.807492 0.169482 0.0253605
0.839872 0.170001 0.027451
0.872282 0.170352 0.0296635
0.902953 0.170718 0.0320134
0.933852 0.171069 0.0344396
0.962631 0.171374 0.036759
0.0101167 0.141833 0.065568
0.0234379 0.142306 0.0655222
0.036759 0.142901 0.0655222
0.0501411 0.142245 0.073991
0.0646982 0.142092 0.0845808
0.0842908 0.144671 0.0842298
0.105501 0.148302 0.0796368
0.134585 0.153613 0.0684062
0.168963 0.160494 0.0533455
0.205371 0.168246 0.0402075
0.244007 0.176608 0.0277562
0.280705 0.181231 0.0181888
0.315373 0.183612 0.0131838
0.34931 0.1841 0.0100099
0.381826 0.183749 0.0102541
0.414771 0.184527 0.010071
0.447211 0.185626 0.0107729
0.480003 0.187091 0.0115053
0.512673 0.188556 0.0124819
0.54551 0.190158 0.0135653
0.578363 0.191623 0.0147555
0.61117 0.192996 0.0160372
0.643946 0.194324 0.0175021
0.676707 0.195468 0.0189822
0.70956 0.196445 0.0205234
0.742596 0.197528 0.0222171
0.775402 0.198108 0.0240177
0.80824 0.198688 0.0258335
0.840467 0.199191 0.0279088
0.872923 0.199542 0.0299992
0.903761 0.199847 0.0324254
0.934401 0.200137 0.0348363
0.963256 0.200336 0.0373388
0.0132296 0.165545 0.0773175
0.0264591 0.166278 0.0760815
0.0395972 0.166888 0.0748455
0.0532082 0.166308 0.0835126
0.0683604 0.166217 0.0945602
0.0853895 0.167803 0.0987716
0.102678 0.170016 0.100542
0.128038 0.174731 0.0920577
0.159915 0.18175 0.0770581
0.19556 0.189517 0.0602731
0.236179 0.199023 0.0431983
0.275059 0.205615 0.0293431
0.31136 0.209522 0.0212863
0.346883 0.211627 0.0150454
0.380667 0.212375 0.0132296
0.414481 0.213672 0.0112917
0.447807 0.215106 0.0114748
0.481193 0.216739 0.0118563
0.514122 0.21825 0.0128328
0.546975 0.219944 0.0139773
0.579736 0.2215 0.0151827
0.612467 0.223102 0.0164797
0.645274 0.224369 0.0180514
0.677882 0.225559 0.0195163
0.710582 0.226581 0.0210422
0.743297 0.227695 0.0225834
0.775753 0.228336 0.0242618
0.808408 0.228962 0.0259556
0.840726 0.229328 0.027924
0.872938 0.229679 0.0299992
0.903929 0.230076 0.0322881
0.934905 0.230304 0.0345922
0.963821 0.23035 0.0368353
0.0169985 0.190021 0.0888685
0.0301518 0.190768 0.0868544
0.0433967 0.191531 0.0849317
0.0571908 0.191043 0.0925765
0.0729992 0.191272 0.101976
0.0882429 0.191913 0.10959
0.102892 0.192615 0.116014
0.124605 0.196277 0.111559
0.152773 0.202747 0.100832
0.186114 0.209934 0.0851606
0.226886 0.219409 0.063798
0.266194 0.227512 0.0464637
0.305104 0.233707 0.0339055
0.343267 0.238285 0.0231632
0.37882 0.240879 0.0182345
0.414298 0.243183 0.0139315
0.448066 0.244862 0.0133364
0.481788 0.246616 0.0128786
0.515007 0.248157 0.0137179
0.548119 0.249912 0.0146792
0.581033 0.251575 0.0157778
0.613672 0.253117 0.0170596
0.646372 0.254612 0.0184939
0.678874 0.255863 0.0199435
0.711452 0.256916 0.0214237
0.744015 0.257923 0.0230411
0.776486 0.258625 0.0246281
0.808789 0.259297 0.0261997
0.840864 0.259663 0.0280308
0.873152 0.260166 0.0298772
0.904143 0.260349 0.0320439
0.935286 0.260517 0.0343175
0.964401 0.260426 0.0364691
0.0214542 0.214542 0.100267
0.0345769 0.215335 0.0982834
0.0477913 0.216205 0.0960555
0.0623331 0.216297 0.101045
0.078172 0.216876 0.106722
0.0926375 0.216846 0.115587
0.106889 0.216648 0.126223
0.126101 0.219272 0.128374
0.148608 0.223804 0.12459
0.177661 0.230243 0.112139
0.215641 0.239414 0.0911574
0.254551 0.248203 0.0704051
0.296925 0.256565 0.0507057
0.338018 0.263798 0.034287
0.375982 0.268284 0.0259709
0.413672 0.272419 0.0184329
0.447486 0.27451 0.0167697
0.481163 0.276341 0.0152743
0.515175 0.278264 0.0154574
0.548898 0.280308 0.0157931
0.582086 0.282109 0.016846
0.614954 0.283772 0.0180209
0.647623 0.285374 0.0193942
0.680247 0.286702 0.0208133
0.712749 0.287785 0.0223239
0.74522 0.288792 0.0238346
0.777478 0.289509 0.02533
0.809888 0.290196 0.0268559
0.841901 0.290562 0.0285801
0.873976 0.290913 0.0304112
0.904891 0.291051 0.0324407
0.935988 0.291173 0.0344701
0.965087 0.290944 0.0364538
0.0264897 0.239826 0.111467
0.0397192 0.240665 0.109438
0.0529641 0.241611 0.107347
0.0678874 0.242206 0.10956
0.0834211 0.242786 0.111681
0.0976883 0.242145 0.121172
0.112154 0.24152 0.134844
0.130266 0.243778 0.142931
0.148592 0.246845 0.145846
0.172641 0.251865 0.137652
0.206958 0.260288 0.117388
0.243915 0.268879 0.0971084
0.288045 0.278767 0.0720226
0.330495 0.287526 0.0501411
0.37116 0.29424 0.0372473
0.411109 0.30042 0.0252384
0.445716 0.303334 0.0219272
0.48014 0.305867 0.0186923
0.515099 0.308461 0.0179294
0.549722 0.31104 0.0172885
0.582986 0.312947 0.0180667
0.615854 0.314672 0.0192111
0.648676 0.316197 0.0203861
0.681254 0.317601 0.0217441
0.713848 0.3187 0.02327
0.746227 0.319707 0.0247807
0.778637 0.320439 0.026215
0.810834 0.321126 0.0276646
0.842802 0.321492 0.0292821
0.8748 0.321859 0.0308843
0.905669 0.321935 0.0327611
0.936553 0.322011 0.0346227
0.965789 0.32166 0.0365759
0.0323339 0.265492 0.122698
0.045655 0.266407 0.120821
0.058854 0.267262 0.118715
0.0737163 0.267933 0.118135
0.0886702 0.26836 0.117571
0.103487 0.267887 0.126207
0.119768 0.267964 0.140047
0.137392 0.269734 0.150225
0.154314 0.271763 0.157076
0.174105 0.275273 0.155749
0.201556 0.281346 0.146624
0.234073 0.288609 0.130343
0.276951 0.298939 0.10161
0.31902 0.309224 0.0763409
0.36257 0.317708 0.0555734
0.405264 0.325765 0.0366217
0.441871 0.330388 0.0306706
0.478248 0.334707 0.0247349
0.514611 0.338521 0.0220645
0.550713 0.342061 0.0195621
0.584024 0.344121 0.0198062
0.616617 0.34583 0.0209049
0.649439 0.347295 0.0218814
0.682261 0.348821 0.0230564
0.714885 0.350103 0.0244297
0.747265 0.351125 0.0260319
0.779629 0.351843 0.0274815
0.811978 0.352514 0.0289464
0.843915 0.35288 0.0304723
0.875837 0.353063 0.0319829
0.90663 0.353079 0.0337072
0.937407 0.353079 0.0354314
0.966384 0.352621 0.0371252
0.038407 0.291676 0.133532
0.051606 0.292638 0.131579
0.0648356 0.293675 0.129091
0.0794995 0.294087 0.126482
0.094255 0.29453 0.124224
0.109422 0.294133 0.131533
0.127291 0.294911 0.144625
0.144137 0.296101 0.156344
0.159487 0.297063 0.166613
0.176532 0.299229 0.171527
0.198093 0.3037 0.171588
0.225788 0.309957 0.161654
0.266056 0.320165 0.132448
0.307424 0.330434 0.104555
0.353491 0.340352 0.0770275
0.398001 0.350027 0.0514382
0.436988 0.356512 0.0415961
0.475731 0.362844 0.0317998
0.513649 0.367926 0.0271
0.551049 0.372564 0.0227054
0.584695 0.375235 0.0223239
0.617319 0.376913 0.0228885
0.650034 0.378653 0.0236515
0.683116 0.380301 0.0246433
0.715785 0.38143 0.0259098
0.748348 0.382483 0.0272526
0.780667 0.383169 0.0287175
0.812985 0.38381 0.0303197
0.844877 0.384146 0.0317388
0.876738 0.384451 0.0331579
0.907576 0.384253 0.0347448
0.938262 0.384192 0.0363317
0.967086 0.383612 0.0379187
0.0443885 0.318441 0.143725
0.057557 0.319524 0.141573
0.0707866 0.320317 0.138201
0.0851148 0.320668 0.135241
0.0996567 0.321187 0.132738
0.115053 0.321202 0.137835
0.133516 0.322621 0.147295
0.150011 0.323247 0.158831
0.164523 0.323217 0.171328
0.182818 0.325322 0.179904
0.203433 0.32929 0.182635
0.226978 0.33434 0.178698
0.259159 0.341833 0.16376
0.294911 0.350011 0.145129
0.342184 0.360769 0.109895
0.386664 0.371954 0.0800031
0.42945 0.380697 0.0608225
0.471992 0.389639 0.0419623
0.510277 0.395682 0.0350042
0.54818 0.401328 0.0287938
0.583078 0.405081 0.0268406
0.617243 0.408057 0.0259403
0.650706 0.410025 0.0259861
0.68365 0.411841 0.026627
0.716381 0.412879 0.0276341
0.749203 0.414008 0.0289006
0.781567 0.414679 0.0302129
0.813855 0.41529 0.031693
0.845655 0.415564 0.033051
0.877562 0.415824 0.0344091
0.908156 0.415549 0.035874
0.93872 0.415442 0.0373846
0.967422 0.414755 0.0388647
0.0506142 0.345785 0.15407
0.0637675 0.346761 0.151705
0.0769207 0.347448 0.147539
0.0910964 0.347921 0.144289
0.105348 0.348272 0.141482
0.121645 0.34905 0.144503
0.139834 0.350607 0.149722
0.155734 0.350774 0.160861
0.169787 0.349798 0.175616
0.189715 0.352178 0.188983
0.209018 0.355489 0.194308
0.228946 0.359152 0.197253
0.252598 0.364096 0.196216
0.281819 0.370443 0.186267
0.329427 0.382406 0.145144
0.37528 0.394324 0.108659
0.421881 0.404929 0.0806592
0.467445 0.415763 0.0531624
0.506584 0.422965 0.0435645
0.545083 0.429725 0.035172
0.581491 0.434562 0.0316167
0.617227 0.438895 0.02916
0.651148 0.441459 0.0285039
0.684169 0.443244 0.028809
0.71696 0.444526 0.0294804
0.750072 0.445762 0.0305638
0.782513 0.446433 0.0318151
0.814939 0.44686 0.0332647
0.846616 0.447074 0.0345464
0.878264 0.447242 0.0357214
0.908736 0.446906 0.0371252
0.93933 0.446738 0.0385595
0.967865 0.445945 0.0400702
0.057557 0.373785 0.163958
0.070573 0.374731 0.161227
0.0836042 0.375341 0.156558
0.097673 0.37583 0.153674
0.111833 0.376181 0.15111
0.128649 0.377584 0.152163
0.146029 0.379095 0.15407
0.161822 0.379095 0.162264
0.178302 0.378912 0.176226
0.197879 0.381018 0.191089
0.216144 0.383398 0.201175
0.234592 0.38616 0.207446
0.257969 0.390799 0.207782
0.284077 0.396216 0.202808
0.322683 0.405203 0.176776
0.36173 0.414557 0.153735
0.410651 0.425956 0.116548
0.456245 0.438148 0.0837262
0.498848 0.447471 0.0651255
0.540658 0.456733 0.047013
0.578637 0.462959 0.0391394
0.615625 0.46836 0.0336004
0.650248 0.471687 0.0317235
0.683909 0.474205 0.031754
0.717296 0.475807 0.0319219
0.750835 0.47747 0.0326085
0.783505 0.478187 0.0334478
0.815717 0.478614 0.0347295
0.847135 0.478599 0.0359503
0.878874 0.478737 0.0372015
0.909361 0.478325 0.0385443
0.939681 0.478096 0.0399176
0.968048 0.477195 0.0412299
0.0646372 0.402045 0.17409
0.0775464 0.402884 0.170459
0.0903792 0.403525 0.165942
0.104372 0.404028 0.163104
0.118456 0.404562 0.160769
0.135348 0.406149 0.159152
0.152193 0.407492 0.157763
0.167819 0.40737 0.163012
0.186694 0.408301 0.17702
0.205844 0.409918 0.192981
0.222614 0.411078 0.20763
0.240803 0.413199 0.21735
0.262974 0.417594 0.218906
0.286213 0.422309 0.218555
0.314366 0.428489 0.211673
0.345251 0.435233 0.202609
0.397772 0.447929 0.154452
0.445426 0.461097 0.113237
0.491096 0.471962 0.0854658
0.535897 0.482948 0.0581674
0.575677 0.490654 0.0461738
0.613748 0.497322 0.0379187
0.649287 0.501549 0.0349279
0.683436 0.505028 0.034638
0.717311 0.507057 0.0343175
0.751492 0.509087 0.0345312
0.784405 0.509743 0.0350958
0.816403 0.510216 0.0363165
0.84773 0.51014 0.0374762
0.879438 0.510246 0.0385901
0.909819 0.509957 0.0398871
0.939971 0.509499 0.0411994
0.9682 0.508476 0.0425727
0.0728618 0.431235 0.183749
0.0856031 0.431968 0.179461
0.0983597 0.432639 0.174929
0.112184 0.433082 0.172564
0.126925 0.433875 0.169604
0.142977 0.434943 0.166445
0.159213 0.436072 0.163104
0.175006 0.435935 0.165972
0.195926 0.438437 0.179187
0.21503 0.440223 0.193576
0.231266 0.440787 0.208804
0.250721 0.442786 0.221057
0.272007 0.446525 0.225559
0.293889 0.450584 0.228412
0.320256 0.455955 0.225772
0.348562 0.461769 0.221256
0.392767 0.471931 0.187839
0.435004 0.482399 0.158068
0.481926 0.493782 0.122362
0.526482 0.505974 0.0889906
0.568093 0.515496 0.0689403
0.608881 0.524422 0.051133
0.64625 0.530144 0.0425574
0.682155 0.534691 0.0384375
0.71693 0.537575 0.0365148
0.751019 0.539818 0.0365454
0.784192 0.540856 0.0369268
0.816556 0.541573 0.0379644
0.848142 0.541711 0.0389563
0.879805 0.541695 0.0400397
0.909895 0.541344 0.0413214
0.939956 0.540841 0.0426184
0.968124 0.53959 0.0438697
0.0810559 0.460243 0.192996
0.0937057 0.461067 0.188663
0.10631 0.461814 0.184253
0.120073 0.46244 0.181918
0.134813 0.462898 0.177813
0.150332 0.463508 0.172793
0.165896 0.464103 0.167758
0.184237 0.465797 0.171466
0.205173 0.468742 0.181186
0.223835 0.470375 0.19382
0.241016 0.470863 0.21001
0.260578 0.47245 0.223758
0.280903 0.475441 0.232059
0.301823 0.478981 0.239292
0.326818 0.483528 0.239689
0.35259 0.488518 0.238788
0.387427 0.496071 0.221042
0.421805 0.504051 0.207156
0.471427 0.51635 0.161379
0.517021 0.52929 0.119677
0.560494 0.540169 0.0908522
0.603326 0.550515 0.0642252
0.642741 0.557702 0.0498054
0.680613 0.563821 0.0420081
0.716289 0.567376 0.0382391
0.750286 0.570245 0.0384375
0.783429 0.571618 0.0385748
0.816388 0.572686 0.0394751
0.848264 0.572992 0.0401923
0.879789 0.573068 0.0414282
0.909804 0.572534 0.0426032
0.939971 0.572168 0.0439918
0.968109 0.570855 0.0454108
0.0910506 0.489677 0.201724
0.103578 0.49044 0.197208
0.116121 0.491203 0.192813
0.130037 0.491676 0.189944
0.144884 0.492164 0.185031
0.160098 0.492592 0.18024
0.175525 0.493187 0.175372
0.195483 0.496391 0.178653
0.215686 0.499382 0.184512
0.234302 0.500938 0.193927
0.253376 0.501808 0.209369
0.273045 0.503334 0.223407
0.292836 0.506081 0.236439
0.313771 0.508843 0.247395
0.337591 0.513313 0.249088
0.361822 0.517845 0.249668
0.391745 0.524102 0.241108
0.421851 0.53048 0.23331
0.466514 0.541115 0.195087
0.508354 0.552209 0.159762
0.552209 0.563195 0.124697
0.595499 0.57467 0.0911116
0.636423 0.583673 0.0695659
0.676219 0.591394 0.0532845
0.713359 0.596124 0.0439307
0.748562 0.599847 0.0413825
0.782773 0.601862 0.0396735
0.81593 0.603479 0.0405127
0.847929 0.603967 0.0412757
0.879698 0.604242 0.0425574
0.909728 0.603738 0.0439918
0.93959 0.60325 0.0454719
0.967712 0.602075 0.0468757
0.101091 0.519219 0.210712
0.113497 0.519951 0.20618
0.125994 0.520653 0.201572
0.140261 0.521065 0.197482
0.154986 0.521447 0.192813
0.170031 0.522026 0.188296
0.186557 0.523507 0.184649
0.206363 0.526741 0.185473
0.226001 0.529747 0.187381
0.245106 0.531518 0.194186
0.265721 0.532952 0.208179
0.285725 0.534508 0.222126
0.304982 0.536675 0.239719
0.325933 0.538888 0.254047
0.348684 0.543069 0.256031
0.371481 0.547295 0.257786
0.39794 0.552499 0.255863
0.424552 0.557702 0.25417
0.462638 0.566384 0.227008
0.498817 0.575402 0.203861
0.543389 0.586435 0.16202
0.587137 0.598703 0.119448
0.629038 0.608927 0.0900435
0.670497 0.617761 0.0651102
0.709453 0.623987 0.0496071
0.746303 0.628672 0.0436866
0.781384 0.631586 0.0401312
0.814969 0.633692 0.041001
0.84715 0.634348 0.0418555
0.879149 0.634928 0.0434272
0.909285 0.63473 0.0451514
0.939208 0.634379 0.0469062
0.967391 0.633066 0.0486
0.11191 0.549126 0.218235
0.124361 0.549859 0.213733
0.136904 0.550408 0.208789
0.151278 0.550958 0.203967
0.165927 0.5514 0.199542
0.180896 0.552026 0.195056
0.198596 0.554452 0.192035
0.217731 0.557473 0.190585
0.236896 0.56051 0.189761
0.256977 0.562707 0.194553
0.278141 0.564645 0.206043
0.298772 0.566796 0.218372
0.318822 0.568719 0.235538
0.339803 0.570748 0.249912
0.361975 0.574609 0.253956
0.384924 0.578622 0.25771
0.410346 0.583535 0.256596
0.435737 0.588434 0.255299
0.46833 0.595666 0.239475
0.499855 0.602762 0.224216
0.541115 0.612726 0.187457
0.581872 0.623621 0.148714
0.622965 0.63357 0.11519
0.664378 0.643351 0.085008
0.704219 0.650858 0.0637064
0.742184 0.656703 0.0516823
0.778653 0.66041 0.043534
0.813031 0.663249 0.0428626
0.846098 0.664469 0.0425879
0.878187 0.665568 0.044419
0.908492 0.6654 0.0462959
0.938704 0.665232 0.0483864
0.966842 0.663981 0.0501869
0.122621 0.579141 0.225422
0.135103 0.579843 0.220966
0.148013 0.58053 0.21503
0.16228 0.580987 0.210361
0.176791 0.581567 0.205737
0.192081 0.582559 0.201389
0.210147 0.585245 0.197818
0.228534 0.588022 0.194522
0.247272 0.59086 0.191363
0.268467 0.594141 0.194919
0.290074 0.59678 0.203342
0.311391 0.599481 0.213367
0.332753 0.601404 0.227817
0.354192 0.603662 0.240909
0.37612 0.607202 0.247486
0.399115 0.610651 0.253574
0.424628 0.615549 0.25005
0.449989 0.620539 0.246525
0.478447 0.626337 0.239414
0.506416 0.632013 0.232395
0.542428 0.640223 0.205676
0.578256 0.649104 0.177737
0.617395 0.658549 0.143252
0.658289 0.668421 0.10663
0.697993 0.676875 0.080354
0.736812 0.683528 0.0609598
0.774411 0.688258 0.0475319
0.809979 0.691859 0.0445258
0.843931 0.693812 0.0425574
0.87657 0.69546 0.0447242
0.907347 0.695628 0.0469673
0.937682 0.695796 0.0496986
0.966033 0.694835 0.0519722
0.131029 0.609949 0.224598
0.143801 0.610636 0.220172
0.157137 0.61117 0.213779
0.171557 0.61178 0.208927
0.186252 0.612375 0.204013
0.202548 0.613901 0.199634
0.220722 0.616571 0.195575
0.239261 0.619425 0.191577
0.258762 0.622782 0.188067
0.280598 0.626612 0.190143
0.302892 0.629938 0.195743
0.324941 0.633158 0.203143
0.347387 0.635157 0.213947
0.36965 0.637675 0.225605
0.391821 0.640726 0.23389
0.414771 0.643671 0.241581
0.439902 0.648508 0.238453
0.464942 0.653269 0.235523
0.491005 0.658122 0.232151
0.517037 0.663111 0.228702
0.54818 0.669642 0.211719
0.579263 0.676631 0.194202
0.615732 0.684886 0.163073
0.654078 0.694072 0.127932
0.692607 0.70248 0.0993515
0.731411 0.709895 0.0756085
0.769467 0.715633 0.0572213
0.80589 0.720058 0.0499275
0.841031 0.722942 0.0447852
0.874449 0.725124 0.0460822
0.905882 0.725734 0.0478065
0.936538 0.726375 0.0508278
0.96527 0.725414 0.0535592
0.136965 0.641382 0.217182
0.150164 0.641932 0.21294
0.164187 0.642603 0.206424
0.178866 0.64303 0.201068
0.193881 0.64361 0.195804
0.211002 0.645502 0.191287
0.229999 0.648585 0.187488
0.249454 0.652033 0.183749
0.270024 0.655955 0.180789
0.292348 0.660182 0.181247
0.315129 0.664057 0.183993
0.337804 0.66743 0.188754
0.360998 0.669886 0.197528
0.384543 0.672557 0.205936
0.407218 0.675319 0.214847
0.430274 0.677821 0.223438
0.454841 0.6822 0.222431
0.478981 0.686427 0.221958
0.504265 0.690867 0.218387
0.52961 0.695415 0.214664
0.557183 0.700496 0.206928
0.584878 0.70573 0.19855
0.617411 0.712474 0.176623
0.651789 0.720241 0.149142
0.687938 0.727718 0.120912
0.725978 0.7355 0.0928054
0.763653 0.741985 0.0704204
0.800565 0.747005 0.0573739
0.836561 0.750652 0.0476387
0.87068 0.75346 0.0472419
0.903304 0.754818 0.0477455
0.9346 0.755932 0.0515145
0.963836 0.755352 0.0548562
0.142794 0.672892 0.206851
0.156603 0.673457 0.202884
0.17113 0.673991 0.19678
0.186465 0.674571 0.191165
