LUTS/Secondary LUTS/ALL QUIET ON THE WESTERN FRONT.cube
TITLE "Generated by Resolve"
LUT_3D_SIZE 9
0.0011902 4.57771e-05 0.000183108
0.081651 0.0009308 0.000411994
0.188342 0.00306706 0.00225834
0.307515 0.00645457 0.00471504
0.432761 0.0108949 0.00639353
0.562051 0.0153506 0.00808728
0.693553 0.0190127 0.0103761
0.824643 0.0213474 0.0143587
0.950668 0.0224002 0.0189822
0.00341802 0.0736706 0.0322728
0.0679332 0.0764019 0.0390326
0.187594 0.0896925 0.0109102
0.315511 0.0965896 0.00668345
0.441855 0.10135 0.00968948
0.572808 0.107027 0.0130312
0.70547 0.111421 0.0183261
0.837095 0.113725 0.0253605
0.960296 0.115496 0.0336614
0.0132296 0.165545 0.0773175
0.0683604 0.166217 0.0945602
0.159915 0.18175 0.0770581
0.31136 0.209522 0.0212863
0.447807 0.215106 0.0114748
0.579736 0.2215 0.0151827
0.710582 0.226581 0.0210422
0.840726 0.229328 0.027924
0.963821 0.23035 0.0368353
0.0323339 0.265492 0.122698
0.0886702 0.26836 0.117571
0.154314 0.271763 0.157076
0.276951 0.298939 0.10161
0.441871 0.330388 0.0306706
0.584024 0.344121 0.0198062
0.714885 0.350103 0.0244297
0.843915 0.35288 0.0304723
0.966384 0.352621 0.0371252
0.057557 0.373785 0.163958
0.111833 0.376181 0.15111
0.178302 0.378912 0.176226
0.257969 0.390799 0.207782
0.410651 0.425956 0.116548
0.578637 0.462959 0.0391394
0.717296 0.475807 0.0319219
0.847135 0.478599 0.0359503
0.968048 0.477195 0.0412299
0.0910506 0.489677 0.201724
0.144884 0.492164 0.185031
0.215686 0.499382 0.184512
0.292836 0.506081 0.236439
0.391745 0.524102 0.241108
0.552209 0.563195 0.124697
0.713359 0.596124 0.0439307
0.847929 0.603967 0.0412757
0.967712 0.602075 0.0468757
0.131029 0.609949 0.224598
0.186252 0.612375 0.204013
0.258762 0.622782 0.188067
0.347387 0.635157 0.213947
0.439902 0.648508 0.238453
0.54818 0.669642 0.211719
0.692607 0.70248 0.0993515
0.841031 0.722942 0.0447852
0.96527 0.725414 0.0535592
0.152209 0.736004 0.17937
0.216281 0.738033 0.160571
0.304494 0.755688 0.15346
0.395926 0.770031 0.154681
0.490959 0.780316 0.175647
0.58616 0.792798 0.173816
0.689921 0.80763 0.152422
0.821927 0.830442 0.0710918
0.956786 0.842481 0.0570687
0.169772 0.85687 0.126833
0.249042 0.865034 0.118959
0.336263 0.878325 0.11397
0.422217 0.889845 0.107286
0.514672 0.899229 0.111086
0.609384 0.907759 0.11284
0.705684 0.917342 0.096376
0.812085 0.928756 0.076524
0.937514 0.945693 0.0538949
0.00302129 0.00440986 0.0542153
0.0560769 0.0107576 0.087953
0.163256 0.00840772 0.10251
0.293645 0.00672923 0.105791
0.42501 0.00840772 0.110307
0.558679 0.0124056 0.115251
0.692454 0.0173648 0.12108
0.824598 0.0209049 0.12781
0.951232 0.0227817 0.134142
0.00703441 0.0771954 0.108858
0.0642863 0.0839399 0.116075
0.176394 0.0874495 0.112123
0.307164 0.0897231 0.106188
0.436408 0.0918746 0.107729
0.568597 0.0959029 0.111192
0.701579 0.100023 0.116823
0.832822 0.103105 0.123674
0.957519 0.108217 0.136721
0.0208896 0.164828 0.161395
0.0728008 0.174136 0.1561
0.156359 0.183902 0.158297
0.312062 0.209369 0.12343
0.449149 0.213321 0.110903
0.580926 0.217655 0.113512
0.71194 0.221698 0.119631
0.842268 0.223911 0.127596
0.964309 0.226658 0.142565
0.0444495 0.263996 0.215824
0.0913252 0.27425 0.199695
0.152529 0.278065 0.21735
0.268147 0.302235 0.189593
0.4421 0.333257 0.13228
0.583886 0.343023 0.120867
0.715862 0.348363 0.124224
0.844938 0.350744 0.13077
0.966628 0.351247 0.143984
0.072221 0.373663 0.259846
0.117159 0.381872 0.241627
0.179263 0.387778 0.244907
0.251865 0.394278 0.277928
0.403174 0.429725 0.205432
0.578668 0.464027 0.140902
0.718059 0.475593 0.133516
0.848203 0.477791 0.137011
0.968231 0.476875 0.148913
0.101961 0.491768 0.299931
0.148379 0.498375 0.280537
0.209842 0.504952 0.266789
0.283314 0.510063 0.303487
0.379522 0.526497 0.315633
0.549554 0.565972 0.210727
0.713924 0.597177 0.145556
0.848402 0.603998 0.142809
0.967865 0.602441 0.154238
0.137911 0.614328 0.326802
0.187655 0.619501 0.304738
0.250309 0.62591 0.279911
0.333684 0.636316 0.280125
0.430182 0.650401 0.308598
0.543725 0.672312 0.283909
0.692317 0.704158 0.187945
0.841764 0.723812 0.145495
0.965408 0.726223 0.160388
0.156573 0.741436 0.282277
0.21738 0.744976 0.262043
0.290227 0.751766 0.235843
0.384634 0.768521 0.226978
0.484871 0.781826 0.243351
0.583734 0.794842 0.245304
0.68925 0.809766 0.228748
0.82211 0.83154 0.165103
0.957305 0.843656 0.163165
0.173007 0.860563 0.221805
0.247059 0.866423 0.210193
0.328328 0.875731 0.195987
0.419348 0.890684 0.189761
0.513085 0.901305 0.19176
0.609094 0.910307 0.19501
0.706416 0.920089 0.183093
0.813413 0.931319 0.169451
0.938567 0.948028 0.163348
0.00660716 0.0166476 0.128206
0.0510262 0.0256504 0.157961
0.116976 0.0314031 0.196124
0.234363 0.0248875 0.215793
0.398428 0.0122988 0.224582
0.548928 0.0115663 0.235065
0.688899 0.0157321 0.246296
0.823377 0.0200351 0.256229
0.951034 0.0225376 0.263874
0.00973526 0.0873884 0.179339
0.056199 0.0929122 0.192615
0.131884 0.101305 0.218036
0.254704 0.0988479 0.22797
0.413214 0.09308 0.231235
0.55935 0.0937972 0.240467
0.698131 0.0976883 0.251575
0.831647 0.101579 0.261799
0.957473 0.107958 0.273182
0.0207828 0.174762 0.219806
0.0680858 0.178882 0.228428
0.145159 0.191531 0.244083
0.279713 0.200977 0.246555
0.437613 0.205631 0.240589
0.579873 0.206073 0.243793
0.715297 0.206104 0.249805
0.846601 0.205921 0.257435
0.965621 0.214694 0.272435
0.0451514 0.269352 0.279774
0.0917525 0.273762 0.283299
0.155825 0.288014 0.284611
0.255802 0.304738 0.286046
0.439689 0.33611 0.257877
0.587564 0.340322 0.247318
0.721386 0.341192 0.248859
0.850736 0.340581 0.25362
0.969238 0.344045 0.269917
0.0842603 0.372717 0.340658
0.127779 0.37818 0.340337
0.182208 0.39382 0.328786
0.251225 0.402777 0.344518
0.387884 0.432776 0.314931
0.579507 0.467842 0.26067
0.72195 0.47396 0.254353
0.852659 0.47396 0.25713
0.970153 0.474128 0.273976
0.119646 0.488319 0.396933
0.160891 0.495445 0.390509
0.210636 0.509972 0.368582
0.281132 0.519631 0.373602
0.366934 0.529671 0.401328
0.542565 0.570153 0.316777
0.715999 0.598901 0.261326
0.85127 0.603265 0.259846
0.969268 0.601633 0.277272
0.150683 0.612589 0.43534
0.194614 0.619928 0.422217
0.247929 0.632044 0.39202
0.324926 0.643458 0.370474
0.420462 0.65481 0.387549
0.537346 0.675395 0.374487
0.691691 0.706981 0.288502
0.843793 0.725231 0.257664
0.966552 0.726879 0.2813
0.162249 0.745098 0.402365
0.221805 0.749828 0.38587
0.288502 0.757916 0.350683
0.372946 0.768841 0.318502
0.4766 0.784329 0.318715
0.58085 0.797681 0.33019
0.688441 0.81265 0.316732
0.822889 0.833783 0.26511
0.958282 0.845319 0.281102
0.180774 0.865309 0.337545
0.253574 0.870542 0.325582
0.328939 0.879164 0.301869
0.414878 0.890974 0.283024
0.510002 0.903914 0.280095
0.608545 0.913436 0.286976
0.707225 0.923079 0.280232
0.814771 0.934081 0.272251
0.939834 0.95024 0.284855
0.0112154 0.0331121 0.2168
0.0535134 0.0404974 0.232532
0.100389 0.0542 0.257542
0.181338 0.0580148 0.298283
0.297353 0.0528725 0.321904
0.494881 0.0242161 0.339742
0.672007 0.0175021 0.358953
0.817609 0.0196994 0.378012
0.949035 0.0222324 0.391318
0.0166934 0.0998093 0.25388
0.0602274 0.105592 0.264302
0.109743 0.117815 0.285374
0.193393 0.12726 0.321996
0.3149 0.122942 0.338231
0.513207 0.103258 0.348943
0.683467 0.0987564 0.367254
0.826322 0.101396 0.386633
0.955322 0.10779 0.401907
0.0240482 0.185153 0.290959
0.0687572 0.189578 0.299443
0.12224 0.199863 0.316823
0.216693 0.212573 0.350607
0.352575 0.213855 0.361212
0.547173 0.207965 0.36585
0.705104 0.205692 0.381201
0.842603 0.205051 0.396933
0.963928 0.214023 0.409308
0.0432288 0.280659 0.335561
0.0887922 0.284642 0.342138
0.142824 0.294057 0.353536
0.23386 0.312322 0.374914
0.390082 0.325841 0.384207
0.570459 0.334051 0.381918
0.717861 0.334173 0.389364
0.852018 0.331792 0.397604
0.967605 0.341604 0.410483
0.079881 0.38056 0.401038
0.123903 0.384527 0.405493
0.175418 0.393881 0.412802
0.250126 0.413413 0.418952
0.370077 0.435569 0.419852
0.570901 0.468162 0.396765
0.722362 0.471412 0.392782
0.856123 0.468666 0.397055
0.970169 0.472572 0.412985
0.121523 0.490761 0.466499
0.164797 0.495506 0.470375
0.213275 0.50576 0.472145
0.277928 0.525399 0.463981
0.364309 0.538827 0.474479
0.52575 0.571557 0.442237
0.71426 0.601373 0.395819
0.854276 0.602014 0.393957
0.970535 0.601328 0.411414
0.152422 0.612222 0.518944
0.196872 0.617548 0.519371
0.245624 0.628916 0.509728
0.313008 0.647425 0.482856
0.410361 0.662409 0.47248
0.527962 0.678676 0.47866
0.688899 0.710384 0.415198
0.84593 0.727367 0.387533
0.968139 0.727794 0.410468
0.160616 0.744396 0.516732
0.218616 0.749691 0.510445
0.282277 0.759655 0.488548
0.362829 0.773358 0.44979
0.465156 0.787793 0.421942
0.577401 0.801801 0.430396
0.688731 0.815976 0.428153
0.823331 0.836454 0.384009
0.959609 0.847272 0.407477
0.178592 0.867674 0.47039
0.251011 0.872801 0.460456
0.328923 0.88159 0.43714
0.412879 0.893675 0.405158
0.506386 0.906554 0.387076
0.607935 0.917128 0.393622
0.708721 0.926207 0.393988
0.816632 0.936584 0.39086
0.940261 0.951736 0.412955
0.0159152 0.0529335 0.29662
0.0576944 0.0584878 0.306203
0.103914 0.0713359 0.325795
0.156802 0.0889448 0.354726
0.252613 0.0880293 0.401923
0.359762 0.0905776 0.423987
0.585 0.0448768 0.446662
0.786313 0.0262608 0.47541
0.938537 0.0239567 0.503395
0.0220798 0.116899 0.327153
0.0644541 0.122576 0.336004
0.110903 0.134401 0.354711
0.166644 0.150713 0.381247
0.261479 0.158099 0.426673
0.37615 0.158419 0.443473
0.605539 0.122194 0.457176
0.798733 0.10753 0.485359
0.944656 0.109651 0.513313
0.0285191 0.198657 0.36318
0.0717784 0.203433 0.371344
0.120256 0.21355 0.387991
0.182422 0.227619 0.414954
0.284581 0.240787 0.459709
0.414801 0.240558 0.471366
0.646464 0.219226 0.477272
0.821332 0.209094 0.503212
0.954742 0.215183 0.525689
0.0484627 0.292714 0.401358
0.0927443 0.296803 0.410315
0.142275 0.305364 0.425757
0.205127 0.320226 0.451225
0.314305 0.336278 0.488136
0.473487 0.340139 0.497414
0.683268 0.33666 0.501686
0.839261 0.332403 0.521004
0.961913 0.341588 0.536065
0.0707408 0.394034 0.457267
0.114702 0.397818 0.463355
0.16466 0.406012 0.474235
0.229175 0.421271 0.490242
0.332784 0.44358 0.509316
0.518639 0.458808 0.52163
0.703273 0.466117 0.521981
0.847501 0.465873 0.532723
0.965667 0.472724 0.543893
0.114534 0.499229 0.528542
0.157076 0.503944 0.53344
0.205005 0.512123 0.541466
0.263935 0.525917 0.550927
0.356405 0.548074 0.556039
0.508034 0.572961 0.550515
0.704112 0.600168 0.532845
0.849928 0.601953 0.53315
0.967971 0.602975 0.546563
0.143221 0.616175 0.587198
0.187427 0.621088 0.590555
0.237339 0.629358 0.594797
0.299016 0.643946 0.592554
0.392081 0.665858 0.577646
0.520317 0.684535 0.572931
0.681865 0.712245 0.548486
0.843015 0.730419 0.528511
0.966461 0.730312 0.542443
0.143282 0.745037 0.605737
0.200565 0.749783 0.606226
0.264057 0.757473 0.604608
0.339269 0.770687 0.590936
0.442023 0.7888 0.560464
0.568444 0.805707 0.544778
0.689052 0.819303 0.54873
0.822828 0.838834 0.522896
0.959045 0.849577 0.539284
0.150851 0.867308 0.590692
0.223377 0.872099 0.588174
0.303471 0.879957 0.578866
0.392935 0.891325 0.557473
0.493538 0.90692 0.527245
0.603372 0.92015 0.51754
0.710994 0.928588 0.519509
0.819333 0.938643 0.517433
0.939696 0.952468 0.540047
0.0218814 0.0758221 0.375296
0.0635233 0.0796368 0.381216
0.108736 0.0920729 0.398535
0.159792 0.109239 0.423545
0.222019 0.126574 0.457481
0.329213 0.122469 0.507851
0.430915 0.135241 0.525658
0.673381 0.0760052 0.545632
0.888502 0.0404669 0.583444
0.0271916 0.137774 0.401801
0.0690471 0.143114 0.409888
0.114366 0.154025 0.426657
0.166705 0.170352 0.450462
0.23032 0.18854 0.483726
0.339544 0.192615 0.532815
0.448142 0.200992 0.54638
0.695521 0.152575 0.558602
0.899184 0.122972 0.593118
0.0334936 0.215824 0.436606
0.0761578 0.220813 0.4448
0.123095 0.231006 0.461234
0.178592 0.24567 0.485588
0.247822 0.262623 0.518425
0.361257 0.274907 0.566186
0.486625 0.277714 0.573968
0.734722 0.242786 0.581537
0.919066 0.221805 0.611154
0.0534218 0.306798 0.476448
0.0965744 0.311208 0.485634
0.143526 0.320531 0.501244
0.196567 0.334401 0.521523
0.268193 0.35082 0.551049
0.395438 0.365911 0.597086
0.546792 0.367254 0.601282
0.777371 0.348714 0.608347
0.938354 0.34522 0.634043
0.0714122 0.409003 0.518914
0.115023 0.413062 0.526986
0.16376 0.421271 0.539925
0.220493 0.433692 0.557641
0.300664 0.451972 0.586175
0.435325 0.467506 0.618997
0.620508 0.471885 0.626001
0.81323 0.467872 0.634195
0.952071 0.472557 0.652674
0.100267 0.51429 0.583078
0.142779 0.518669 0.589151
0.190341 0.526345 0.598611
0.246799 0.53756 0.611429
0.328664 0.55581 0.627695
0.466789 0.577859 0.639124
0.66804 0.593423 0.647745
0.831083 0.597406 0.653864
0.957641 0.602777 0.665537
0.13341 0.623636 0.653849
0.17763 0.628443 0.657984
0.226825 0.636301 0.664088
0.287709 0.647852 0.671748
0.373983 0.664988 0.676265
0.50837 0.687907 0.671397
0.67425 0.711345 0.662165
0.833021 0.728664 0.660792
0.959319 0.731731 0.668284
0.125811 0.747616 0.686549
0.1823 0.751812 0.689128
0.243717 0.758785 0.692058
0.316899 0.768582 0.694484
0.413886 0.783658 0.687541
0.547433 0.803967 0.668132
0.68632 0.821454 0.660487
0.819654 0.839887 0.65539
0.956725 0.854551 0.663035
0.118166 0.865904 0.691218
0.188144 0.870268 0.692348
0.264546 0.877226 0.691112
0.352773 0.886931 0.685557
0.461738 0.900252 0.671427
0.586786 0.917769 0.648905
0.709178 0.930083 0.641321
0.82153 0.940383 0.640986
0.938796 0.953353 0.659052
0.0283818 0.101381 0.455024
0.06981 0.105058 0.460304
0.11429 0.115953 0.475181
0.164462 0.131746 0.496971
0.221439 0.150607 0.524651
0.291936 0.167193 0.562783
0.424308 0.152316 0.617578
0.515587 0.187213 0.624567
0.761364 0.118944 0.641611
0.0326238 0.161471 0.479103
0.0742046 0.166613 0.486748
0.119112 0.177111 0.502297
0.170001 0.193057 0.524834
0.22826 0.2121 0.552666
0.300862 0.229999 0.589166
0.438941 0.224582 0.640894
0.536049 0.250919 0.643793
0.783719 0.192859 0.656519
0.0391089 0.236286 0.512398
0.0815137 0.241474 0.520592
0.127489 0.251911 0.536721
0.18056 0.266667 0.559808
0.242222 0.284123 0.585901
0.320897 0.302434 0.621012
0.465064 0.307607 0.670085
0.572549 0.322881 0.668177
0.818677 0.277287 0.680034
0.0582437 0.324178 0.55201
0.100679 0.329091 0.560693
0.146593 0.338979 0.575708
0.197879 0.353094 0.59556
0.258915 0.369085 0.618128
0.349477 0.385443 0.652598
0.501457 0.397772 0.696925
0.628397 0.403326 0.694423
0.859236 0.372396 0.706737
0.0780041 0.424231 0.589517
0.121096 0.428794 0.598428
0.168612 0.437186 0.612055
0.22327 0.449271 0.630289
0.288792 0.463813 0.651133
0.383795 0.480888 0.681437
0.547875 0.494301 0.719142
0.706554 0.493233 0.719753
0.903304 0.479576 0.734905
0.0934157 0.530571 0.637964
0.136156 0.534798 0.644907
0.183673 0.54229 0.655329
0.239628 0.553094 0.669139
0.312657 0.566629 0.685008
0.432319 0.586221 0.711208
0.606027 0.598947 0.738994
0.77702 0.599634 0.747051
0.930144 0.600443 0.75877
0.120562 0.637781 0.709377
0.166033 0.642191 0.714748
0.216373 0.649592 0.723049
0.277928 0.660105 0.733974
0.360739 0.673182 0.74548
0.487449 0.692103 0.754452
0.650217 0.711009 0.756695
0.80798 0.719997 0.765927
0.938857 0.726009 0.77528
0.11606 0.752743 0.766262
0.173342 0.756603 0.769512
0.235004 0.763043 0.774533
0.307057 0.771817 0.780621
0.401221 0.782925 0.784207
0.5299 0.799268 0.77882
0.678569 0.819745 0.768566
0.81442 0.835615 0.769207
0.944808 0.84863 0.780179
0.0982681 0.865797 0.782666
0.168078 0.869886 0.785458
0.24239 0.87599 0.788022
0.327031 0.884443 0.788952
0.432944 0.895521 0.784863
0.56524 0.910124 0.772869
0.701747 0.927687 0.758312
0.822003 0.940169 0.758923
0.937758 0.953872 0.772488
0.0348211 0.129152 0.536553
0.0763714 0.133165 0.541985
0.12076 0.142672 0.554803
0.170459 0.157031 0.573449
0.22623 0.174792 0.598077
0.288991 0.19617 0.629374
0.371221 0.211688 0.66952
0.56759 0.164126 0.734081
0.61532 0.245502 0.71809
0.038529 0.187762 0.558373
0.0802472 0.192874 0.565957
0.125185 0.203235 0.580789
0.175463 0.218372 0.601831
0.232715 0.235904 0.62565
0.297917 0.256382 0.654551
0.383154 0.274144 0.692897
0.588754 0.240269 0.752682
0.638163 0.305165 0.73489
0.0459602 0.259419 0.589563
0.0882277 0.26482 0.597818
0.133913 0.275364 0.613306
0.185336 0.290013 0.633753
0.245533 0.306828 0.657526
0.315679 0.325765 0.684474
0.406332 0.344411 0.719524
0.620264 0.326101 0.77702
0.675227 0.370062 0.755474
0.0646677 0.34461 0.627527
0.106889 0.349477 0.635431
0.152682 0.35935 0.649805
0.203677 0.373236 0.668818
0.262959 0.38883 0.689479
0.339391 0.405341 0.71429
0.44358 0.422629 0.747082
0.656428 0.417975 0.798825
0.730999 0.438911 0.780285
0.0864424 0.440909 0.662913
0.129488 0.445716 0.671916
0.176257 0.454154 0.685145
0.229252 0.46598 0.701946
0.291005 0.479988 0.720577
0.367269 0.495644 0.73991
0.4916 0.510658 0.773175
0.6981 0.514275 0.817823
0.807492 0.514626 0.80975
0.0973373 0.546197 0.698512
0.140642 0.550332 0.706096
0.188708 0.557626 0.717083
0.245823 0.56788 0.731594
0.318212 0.580484 0.749859
0.414923 0.594934 0.77319
0.561318 0.608362 0.80737
0.745922 0.614267 0.83801
0.865217 0.611612 0.836759
0.111879 0.654017 0.761776
0.159594 0.658122 0.768353
0.211948 0.664973 0.778103
0.27454 0.674723 0.790951
0.354772 0.686641 0.805234
0.466896 0.700496 0.817884
0.622705 0.714 0.835035
0.782544 0.72105 0.853651
0.903548 0.722698 0.859693
0.111833 0.762463 0.836179
0.171313 0.765927 0.840116
0.235599 0.771786 0.84625
0.309133 0.779522 0.853681
0.401679 0.789166 0.860166
0.525933 0.801282 0.86157
0.669947 0.816922 0.860166
0.803998 0.830823 0.865309
0.925414 0.838636 0.873182
0.0950942 0.869108 0.870817
0.166567 0.872847 0.873945
0.242161 0.878386 0.877562
0.326589 0.885496 0.880598
0.430106 0.894362 0.880247
0.561028 0.906325 0.873976
0.698909 0.92192 0.866728
0.820722 0.936873 0.866545
0.933547 0.948898 0.874525
0.0424048 0.159182 0.619547
0.0839704 0.162905 0.62504
0.128649 0.17116 0.635477
0.178088 0.184634 0.652049
0.233127 0.201251 0.673838
0.295338 0.221042 0.70132
0.366217 0.243565 0.732937
0.466285 0.257267 0.77174
0.79855 0.126955 0.870024
0.0460365 0.215839 0.63859
0.0880446 0.221424 0.647135
0.133303 0.231388 0.661433
0.18378 0.245075 0.679255
0.24033 0.261509 0.700526
0.304448 0.28072 0.726192
0.378347 0.302724 0.755673
0.481254 0.318868 0.790799
0.81976 0.216358 0.884153
0.0549325 0.284611 0.666896
0.0967575 0.290135 0.675196
0.141985 0.300679 0.690578
0.193942 0.314611 0.710216
0.25359 0.330159 0.731579
0.322179 0.347875 0.755764
0.399969 0.368566 0.78172
0.503929 0.386938 0.811612
0.842893 0.309468 0.900999
0.0737163 0.366598 0.702083
0.11574 0.371527 0.710185
0.160693 0.381033 0.724361
0.21033 0.39443 0.743206
0.269688 0.409064 0.763592
0.345663 0.424323 0.786679
0.432532 0.442359 0.810101
0.543206 0.460334 0.835645
0.868574 0.404547 0.913787
0.0953536 0.458991 0.73521
0.138231 0.463874 0.744106
0.184222 0.472236 0.757061
0.234791 0.483558 0.773968
0.292088 0.496895 0.792599
0.367773 0.511208 0.812894
0.476982 0.525322 0.840467
0.610162 0.539223 0.86807
0.886442 0.506844 0.924605
0.109422 0.561196 0.76405
0.153414 0.565301 0.772381
0.201617 0.57232 0.784558
0.256916 0.582101 0.801404
0.323568 0.593896 0.823056
0.413993 0.606653 0.84863
0.547021 0.61825 0.87808
0.693217 0.627649 0.897993
0.895903 0.615976 0.933974
0.111666 0.669291 0.820096
0.161303 0.673152 0.827939
0.214664 0.679835 0.839536
0.277058 0.688853 0.854231
0.35758 0.69929 0.870298
0.472282 0.709911 0.887312
0.623468 0.717983 0.909941
0.758541 0.725597 0.922683
0.905562 0.726467 0.942077
0.115358 0.775097 0.892546
0.179385 0.778912 0.898528
0.247303 0.784115 0.905684
0.324269 0.790661 0.913466
0.421988 0.798978 0.920348
0.545327 0.809323 0.924422
0.673686 0.820615 0.929534
0.798871 0.82858 0.942763
0.918853 0.836713 0.949737
0.0966201 0.873762 0.949264
0.173342 0.878645 0.953475
0.253391 0.883665 0.956588
0.342596 0.889204 0.958038
0.451698 0.896544 0.956359
0.5823 0.906752 0.951614
0.707668 0.920165 0.949798
0.821424 0.934188 0.950851
0.92517 0.941329 0.951568
