LUTS/Secondary LUTS/BANSHEES OF INISHERIN.cube
TITLE "Generated by Resolve"
LUT_3D_SIZE 9
0 0.0174258 0.0194095
0.066331 0.0160067 0.016434
0.173495 0.0138094 0.00991836
0.309483 0.0136873 0.00810254
0.445457 0.0191501 0.00695811
0.580957 0.032166 0.00630198
0.715175 0.0485542 0.00588998
0.841779 0.0678874 0.00575265
0.9608 0.0888991 0.00581369
0 0.102052 0.034287
0.0796979 0.100542 0.0226291
0.190951 0.0981613 0.0159609
0.327779 0.0988785 0.013489
0.463127 0.106279 0.0124666
0.600122 0.118654 0.0117494
0.735088 0.134646 0.0113069
0.860151 0.153506 0.0111543
0.974823 0.175311 0.0194095
0 0.211841 0.06421
0.038407 0.218784 0.0539559
0.214923 0.212558 0.0246586
0.350362 0.21265 0.020676
0.484169 0.218982 0.0196078
0.619318 0.229175 0.0187686
0.750515 0.242069 0.0181582
0.869505 0.257755 0.0178683
0.979049 0.276295 0.0259098
0 0.355337 0.121126
0.0397955 0.361669 0.117815
0.206332 0.359411 0.0954299
0.379568 0.355993 0.0373083
0.507515 0.356069 0.0324254
0.636774 0.358434 0.027039
0.76228 0.36492 0.0260777
0.87834 0.376532 0.0277104
0.989456 0.393973 0.0386358
0 0.498451 0.178058
0.0441596 0.502297 0.172885
0.119829 0.509636 0.141955
0.382422 0.491707 0.117433
0.535882 0.493263 0.0571298
0.661585 0.4934 0.0497444
0.78262 0.497215 0.0491646
0.895293 0.506889 0.0517739
1 0.522301 0.0614023
0 0.636484 0.231006
0.0484321 0.640192 0.227131
0.110735 0.646891 0.214023
0.334096 0.637659 0.172839
0.543023 0.62475 0.129656
0.690761 0.631647 0.0837262
0.805798 0.633951 0.0789044
0.912963 0.639963 0.0814374
1 0.650752 0.0890364
0 0.771801 0.28368
0.0526131 0.774945 0.280461
0.11487 0.780133 0.267521
0.309972 0.775296 0.219242
0.539849 0.752758 0.195117
0.703014 0.744991 0.128695
0.83032 0.758999 0.115068
0.930846 0.761242 0.113024
1 0.766796 0.116381
0 0.894118 0.32781
0.0563211 0.896269 0.323857
0.175006 0.89836 0.296574
0.354528 0.885832 0.250889
0.558923 0.862318 0.23035
0.712673 0.852186 0.19147
0.837598 0.851926 0.151339
0.948074 0.866102 0.149538
1 0.868437 0.149981
0.0658579 0.994492 0.355169
0.15729 0.993103 0.338415
0.254536 0.991409 0.308171
0.415427 0.978714 0.270939
0.590906 0.958816 0.260945
0.72639 0.948333 0.236103
0.843336 0.943114 0.198672
0.951843 0.949477 0.185824
1 0.960983 0.185489
0 0.0248875 0.0888685
0.0703899 0.0227207 0.0873884
0.181491 0.0175784 0.0791028
0.316045 0.0208743 0.0720836
0.452277 0.028809 0.0650034
0.588235 0.0415351 0.0611276
0.723308 0.0579995 0.0614481
0.850141 0.0771344 0.0693675
0.968383 0.0985733 0.0840467
0 0.107683 0.103502
0.0844434 0.109606 0.0966964
0.197574 0.107988 0.0908064
0.334035 0.108782 0.0828107
0.469718 0.116655 0.0787518
0.607767 0.129213 0.0775158
0.74226 0.145022 0.0795453
0.865904 0.163439 0.0859846
0.979156 0.184787 0.0965286
0 0.220981 0.133349
0.0477455 0.228946 0.131014
0.222873 0.224323 0.10193
0.357763 0.224643 0.0947433
0.490837 0.230884 0.0914626
0.625116 0.239872 0.0899062
0.755123 0.251774 0.0902266
0.87277 0.266728 0.093904
0.981949 0.284886 0.102174
0 0.364462 0.187243
0.0408637 0.370596 0.183871
0.2103 0.369299 0.162432
0.385565 0.36466 0.114992
0.512551 0.36463 0.109483
0.64123 0.366445 0.102358
0.7664 0.372366 0.100313
0.882048 0.384237 0.10518
0.992599 0.401358 0.115908
0 0.503822 0.239673
0.0450752 0.507759 0.234745
0.138705 0.514885 0.208972
0.384558 0.498573 0.185107
0.539971 0.499794 0.132662
0.665278 0.499947 0.12607
0.785702 0.503288 0.125521
0.897841 0.513039 0.128222
1 0.527626 0.137255
0 0.640879 0.291508
0.0493172 0.644648 0.287831
0.11165 0.651255 0.277745
0.334798 0.64332 0.235111
0.54493 0.629602 0.197833
0.692866 0.636027 0.156374
0.807111 0.637705 0.152544
0.913985 0.643915 0.155627
1 0.654261 0.163622
0 0.774273 0.34374
0.0534371 0.777249 0.340566
0.115724 0.782467 0.330343
0.315816 0.779202 0.283772
0.541299 0.755978 0.259785
0.704128 0.747723 0.200137
0.830365 0.76083 0.188067
0.930297 0.762844 0.18674
1 0.768124 0.190478
0.00715648 0.894194 0.387121
0.0794232 0.896101 0.383093
0.199542 0.898116 0.36051
0.360357 0.888472 0.316838
0.559533 0.864469 0.295247
0.712764 0.854002 0.25977
0.837232 0.852811 0.223087
0.946807 0.866484 0.221592
1 0.86862 0.222507
0.0905776 0.995254 0.41796
0.17734 0.993957 0.402869
0.270466 0.99234 0.374029
0.420493 0.980728 0.338552
0.590768 0.96051 0.325719
0.725734 0.949859 0.302983
0.842817 0.944854 0.26772
0.950469 0.949615 0.255833
1 0.960784 0.255131
0 0.0433814 0.170245
0.0749065 0.0386358 0.172549
0.188952 0.0344396 0.1673
0.329519 0.0265812 0.152407
0.464149 0.0325475 0.143694
0.598566 0.0502785 0.146838
0.732815 0.0684977 0.152438
0.859083 0.088777 0.162264
0.975113 0.113024 0.179583
0 0.124056 0.182803
0.0885176 0.125017 0.183352
0.206836 0.122393 0.179324
0.342123 0.125368 0.174899
0.47808 0.133639 0.172885
0.615854 0.14551 0.172198
0.748882 0.160403 0.173693
0.870253 0.178119 0.179522
0.981445 0.198489 0.189029
0.0124361 0.233433 0.211475
0.0926986 0.240009 0.211887
0.231525 0.240543 0.192584
0.365713 0.241413 0.187076
0.496986 0.247059 0.184497
0.630411 0.254826 0.182742
0.758679 0.265568 0.182467
0.874601 0.278859 0.185962
0.983902 0.297063 0.195392
0.000671397 0.37406 0.260822
0.0738994 0.379919 0.257664
0.208118 0.383886 0.239094
0.391211 0.376211 0.205386
0.517296 0.375189 0.2
0.645792 0.37702 0.195071
0.770321 0.383291 0.19411
0.885145 0.394629 0.199512
0.99501 0.411933 0.210834
0 0.510216 0.309148
0.0579538 0.514168 0.30454
0.167483 0.520958 0.289723
0.383474 0.508385 0.265232
0.543969 0.507805 0.221912
0.668559 0.50808 0.216892
0.788113 0.511879 0.217197
0.899397 0.520943 0.221088
1 0.535515 0.230503
0 0.64564 0.359014
0.0544289 0.649195 0.355688
0.138888 0.655741 0.350469
0.3337 0.652537 0.31133
0.54609 0.636072 0.280156
0.694331 0.641108 0.2448
0.807721 0.643122 0.242176
0.913802 0.648966 0.245533
1 0.658289 0.253422
0.0183566 0.776104 0.409415
0.0902419 0.77882 0.406165
0.169268 0.783917 0.400687
0.324163 0.785351 0.358358
0.542535 0.760388 0.334478
0.704585 0.752239 0.28484
0.829358 0.76289 0.273976
0.928603 0.764675 0.273091
1 0.76936 0.276768
0.0787976 0.892653 0.450416
0.146288 0.894438 0.44654
0.234104 0.896971 0.432441
0.36846 0.892912 0.391699
0.560052 0.867414 0.368215
0.712093 0.856504 0.33817
0.836057 0.853925 0.305364
0.944274 0.866682 0.303655
1 0.868437 0.304402
0.131792 0.99585 0.48217
0.20647 0.994797 0.472847
0.296803 0.993271 0.447623
0.427878 0.983993 0.414008
0.589288 0.963272 0.397574
0.724804 0.951904 0.37734
0.842084 0.947234 0.344381
0.94818 0.949706 0.333501
1 0.960159 0.332662
0 0.0784772 0.272236
0.0653086 0.078996 0.272755
0.210132 0.0579995 0.27219
0.3393 0.0570993 0.268589
0.477714 0.0556802 0.260548
0.618479 0.058854 0.253361
0.754971 0.067689 0.249363
0.875944 0.0872358 0.255909
0.984985 0.112535 0.270375
0 0.154528 0.283299
0.0868849 0.156924 0.285496
0.22771 0.144396 0.286976
0.354894 0.149767 0.283452
0.493034 0.151278 0.278157
0.63061 0.156237 0.272908
0.757855 0.17055 0.274739
0.871458 0.192676 0.285878
0.978515 0.215305 0.298802
0.0207065 0.261082 0.306508
0.118868 0.262959 0.307927
0.239506 0.262715 0.307286
0.371221 0.26482 0.301839
0.501167 0.269368 0.299474
0.632746 0.275868 0.296986
0.758267 0.284199 0.296025
0.873976 0.297246 0.299748
0.983612 0.315312 0.30956
0.059617 0.386419 0.347723
0.157153 0.385626 0.347509
0.233768 0.395438 0.341894
0.395483 0.390158 0.316381
0.521141 0.389899 0.311833
0.649149 0.391928 0.307698
0.772412 0.398291 0.307347
0.886351 0.409537 0.312566
0.995453 0.426535 0.323156
0.0816358 0.513344 0.38938
0.153704 0.517922 0.387182
0.226246 0.525689 0.381659
0.37792 0.523003 0.36112
0.546593 0.519127 0.329915
0.670741 0.519249 0.325292
0.788998 0.523018 0.3252
0.89958 0.532235 0.329122
1 0.545892 0.338155
0.0878614 0.648035 0.435615
0.154696 0.65156 0.432822
0.226627 0.657923 0.428489
0.333806 0.666835 0.401648
0.545327 0.645747 0.377935
0.695262 0.648463 0.347494
0.807263 0.650004 0.345281
0.91194 0.655314 0.348028
1 0.664286 0.354681
0.11046 0.776059 0.481849
0.176638 0.778622 0.478782
0.246799 0.783368 0.473732
0.348684 0.789593 0.447837
0.542245 0.767681 0.420249
0.704082 0.75903 0.379934
0.826947 0.765713 0.370306
0.925536 0.767071 0.36936
1 0.771695 0.372045
0.145373 0.889982 0.519295
0.210529 0.891585 0.515572
0.27866 0.894789 0.509804
0.381109 0.898665 0.474998
0.559762 0.87248 0.449042
0.710781 0.860456 0.425269
0.83447 0.855711 0.3953
0.940444 0.867079 0.393698
1 0.868711 0.39408
0.183337 0.993378 0.549325
0.247974 0.994369 0.545464
0.329229 0.994263 0.528511
0.437156 0.989258 0.496361
0.587655 0.967269 0.476387
0.723018 0.955032 0.459953
0.840131 0.949889 0.431708
0.944915 0.949935 0.419806
1 0.959426 0.41886
0 0.12137 0.380972
0.0697185 0.122896 0.382315
0.199466 0.11017 0.388876
0.375357 0.076051 0.388846
0.491676 0.096437 0.386709
0.62739 0.101625 0.381521
0.762814 0.106004 0.37705
0.883909 0.117494 0.377279
0.9944 0.134661 0.382986
0 0.196735 0.391562
0.0925765 0.199603 0.394232
0.213611 0.19826 0.397406
0.383886 0.173312 0.401907
0.499184 0.189624 0.397818
0.63563 0.191913 0.392065
0.766445 0.19646 0.387411
0.884153 0.206821 0.38732
0.994461 0.224033 0.394461
0.0402991 0.294667 0.411292
0.136187 0.295613 0.411887
0.245655 0.297169 0.41355
0.38529 0.290791 0.414694
0.509392 0.29456 0.410132
0.641398 0.295064 0.404395
0.76582 0.301106 0.402457
0.875761 0.315908 0.409567
0.982696 0.337209 0.423194
0.0742809 0.411597 0.441962
0.170703 0.409827 0.440208
0.28246 0.407294 0.437842
0.395361 0.409903 0.432563
0.525521 0.409323 0.425086
0.651835 0.4121 0.421881
0.773754 0.418524 0.421622
0.886381 0.429465 0.426261
0.994827 0.445975 0.435859
0.12079 0.526757 0.474891
0.210422 0.525658 0.474159
0.297597 0.529702 0.473045
0.376959 0.541741 0.466606
0.550286 0.533227 0.439063
0.672999 0.534417 0.435111
0.789899 0.538079 0.434592
0.898741 0.546807 0.437781
1 0.560098 0.445808
0.157504 0.650309 0.51632
0.227329 0.654261 0.515511
0.299825 0.660578 0.513237
0.373587 0.669947 0.506905
0.54229 0.659022 0.479912
0.696742 0.657923 0.452476
0.806622 0.659602 0.450324
0.909636 0.664378 0.452354
1 0.671977 0.45745
0.183078 0.775814 0.559869
0.249851 0.778317 0.557687
0.316304 0.782559 0.552956
0.388037 0.789242 0.545571
0.538689 0.778012 0.511254
0.70312 0.766049 0.483207
0.824659 0.769818 0.470893
0.921813 0.771038 0.469627
1 0.775021 0.472236
0.211917 0.886015 0.594247
0.275639 0.887373 0.590738
0.341405 0.890211 0.58529
0.420172 0.893858 0.570764
0.555306 0.880354 0.53727
0.708659 0.865583 0.520806
0.830991 0.859953 0.494331
0.935714 0.867933 0.4916
1 0.869276 0.491814
0.242237 0.986984 0.622553
0.305867 0.987823 0.619013
0.371145 0.989731 0.613611
0.456336 0.991211 0.590112
0.581537 0.97409 0.563149
0.719005 0.959548 0.551919
0.83595 0.95346 0.529503
0.94078 0.950774 0.515557
1 0.958801 0.514519
0 0.16585 0.486549
0.0851301 0.168261 0.488762
0.199771 0.168276 0.489998
0.371527 0.143557 0.494804
0.52488 0.123888 0.505226
0.637751 0.142733 0.498314
0.760998 0.150256 0.493599
0.880385 0.157259 0.49305
0.992187 0.172732 0.499489
0.0114443 0.24152 0.497826
0.10837 0.2439 0.500023
0.223301 0.246983 0.502403
0.377264 0.228946 0.507561
0.52665 0.215549 0.513024
0.639216 0.229099 0.505074
0.764172 0.233356 0.500664
0.882658 0.241505 0.501808
0.994461 0.257603 0.509712
0.0567636 0.331914 0.51519
0.147311 0.332906 0.516167
0.253834 0.334569 0.517876
0.379889 0.328511 0.522942
0.524514 0.320424 0.520943
0.643717 0.32694 0.515755
0.77174 0.329442 0.513481
0.888624 0.33901 0.516625
0.999344 0.35462 0.525567
0.0925612 0.437598 0.540032
0.18555 0.436316 0.538689
0.291752 0.435386 0.537362
0.40647 0.435554 0.537057
0.533288 0.433768 0.536141
0.660044 0.434852 0.532799
0.779599 0.439704 0.53257
0.885603 0.452338 0.539559
0.992081 0.469429 0.550271
0.138903 0.550896 0.567758
0.227588 0.549615 0.566537
0.326894 0.548516 0.56553
0.43331 0.548775 0.565454
0.550011 0.552407 0.554147
0.675898 0.552666 0.547646
0.790066 0.556405 0.547158
0.89691 0.564569 0.550607
0.999969 0.576791 0.557916
0.185534 0.665614 0.603189
0.266865 0.664866 0.602609
0.360052 0.663447 0.601999
0.443381 0.671 0.599664
0.534203 0.67953 0.584237
0.696544 0.668544 0.562631
0.804776 0.670802 0.560616
0.905669 0.674678 0.562081
1 0.681437 0.566552
0.239902 0.77351 0.640986
0.314534 0.773495 0.639658
0.385153 0.778744 0.637552
0.456291 0.785443 0.632395
0.540627 0.79205 0.614313
0.698787 0.774777 0.593973
0.820874 0.774762 0.578088
0.916945 0.776043 0.577066
1 0.779568 0.579416
0.273991 0.87866 0.67277
0.341253 0.880461 0.67097
0.408972 0.88333 0.667445
0.475319 0.887633 0.660517
0.559762 0.891859 0.639414
0.703014 0.872984 0.623468
0.827344 0.867658 0.599145
0.929732 0.869734 0.596246
1 0.870756 0.596216
0.306828 0.978546 0.701762
0.369467 0.979278 0.698466
0.433082 0.980957 0.693568
0.498878 0.983642 0.686931
0.5823 0.985733 0.664332
0.710811 0.966934 0.649668
0.829557 0.958221 0.634333
0.934981 0.953445 0.617731
1 0.959289 0.615702
0.00747692 0.213703 0.594095
0.108248 0.2159 0.59617
0.220935 0.21883 0.598901
0.350576 0.202945 0.608347
0.52282 0.180987 0.60354
0.668345 0.168536 0.618662
0.768399 0.188052 0.610254
0.879026 0.199207 0.61146
0.985397 0.21648 0.618723
0.032929 0.287266 0.604837
0.129046 0.289174 0.606622
0.239353 0.292683 0.6094
0.357885 0.286732 0.613779
0.526421 0.262272 0.612879
0.668177 0.253193 0.624567
0.771176 0.269718 0.618006
0.88159 0.280995 0.620432
0.990753 0.296971 0.628702
0.0712291 0.370367 0.62005
0.161227 0.371206 0.620798
0.264256 0.373495 0.622889
0.375692 0.376715 0.625605
0.53373 0.355993 0.627619
0.669154 0.351583 0.633875
0.776837 0.363027 0.629679
0.88539 0.374182 0.632639
0.996582 0.387579 0.640879
0.121386 0.465522 0.638498
0.208042 0.465766 0.638682
0.302342 0.467628 0.640482
0.409018 0.470497 0.643259
0.538521 0.463249 0.648234
0.666728 0.463493 0.644388
0.781476 0.46862 0.64416
0.893477 0.475975 0.647471
1 0.488701 0.655238
0.155184 0.578805 0.668406
0.239948 0.578073 0.667521
0.335271 0.577401 0.666606
0.444434 0.576211 0.66511
0.561502 0.574792 0.663142
0.680201 0.573693 0.661494
0.790631 0.577249 0.661524
0.893339 0.585275 0.665232
0.994324 0.595743 0.671473
0.201923 0.689342 0.698161
0.283406 0.687831 0.696742
0.375616 0.685573 0.694697
0.478706 0.682704 0.692317
0.585702 0.680674 0.69073
0.694514 0.683635 0.677501
0.803357 0.683894 0.673213
0.902037 0.686976 0.673838
0.998428 0.693187 0.677363
0.256443 0.789883 0.727626
0.332555 0.788281 0.726055
0.416968 0.785992 0.72398
0.512032 0.782361 0.721141
0.594797 0.786908 0.716747
0.689891 0.788128 0.702968
0.817441 0.781674 0.687739
0.912261 0.783047 0.686549
1 0.786114 0.688426
0.303105 0.882811 0.754864
0.377707 0.880568 0.752972
0.460166 0.877241 0.750362
0.538628 0.878523 0.746715
0.608499 0.884108 0.740902
0.693294 0.88629 0.725841
0.820172 0.874037 0.712169
0.92401 0.873121 0.702541
1 0.874098 0.702022
0.35259 0.970413 0.780285
0.424521 0.968292 0.778271
0.490898 0.970794 0.775418
0.559442 0.97406 0.771603
0.625132 0.977279 0.765255
0.702724 0.979706 0.750469
0.820142 0.965774 0.73904
0.928344 0.961456 0.721981
1 0.961898 0.718273
0.0407111 0.259144 0.698253
0.13608 0.261143 0.700175
0.243458 0.26511 0.703563
0.34696 0.26453 0.704555
0.49984 0.232715 0.721706
0.675288 0.210925 0.713085
0.809445 0.211612 0.734142
0.889052 0.240452 0.728908
0.997696 0.254673 0.736965
0.0613565 0.329747 0.707805
0.153414 0.331563 0.709545
0.257176 0.33547 0.71281
0.364446 0.33785 0.715892
0.504982 0.310124 0.733257
0.680674 0.291112 0.72285
0.81117 0.29279 0.741299
0.892119 0.318791 0.736355
0.99942 0.33286 0.744427
0.0927138 0.408499 0.721141
0.180682 0.410285 0.722683
0.279057 0.41384 0.725841
0.389456 0.41912 0.730388
0.514427 0.404623 0.738476
0.684565 0.383978 0.734859
0.810788 0.385702 0.749432
0.894743 0.407202 0.745815
0.999741 0.420615 0.753368
0.137682 0.499428 0.739025
0.220127 0.50074 0.740322
0.312703 0.503426 0.742947
0.417838 0.507118 0.746227
0.530831 0.509758 0.74847
0.686061 0.489296 0.749905
0.805936 0.490074 0.757794
0.896819 0.504982 0.756771
0.997513 0.517143 0.762997
0.177569 0.604013 0.76495
0.259495 0.603647 0.764431
0.352514 0.603418 0.763882
0.457847 0.603174 0.763363
0.564263 0.6047 0.76524
0.684001 0.599008 0.768566
0.798749 0.599237 0.767224
0.896712 0.605539 0.768109
0.995666 0.613382 0.772198
0.219486 0.713237 0.794797
0.299336 0.711589 0.793164
0.388846 0.709285 0.790906
0.489052 0.706203 0.787869
0.595209 0.702754 0.784344
0.702052 0.699886 0.781247
0.803952 0.698878 0.780118
0.901198 0.700816 0.780056
0.993774 0.706844 0.783642
0.267185 0.809857 0.818708
0.34432 0.807355 0.816358
0.42945 0.803891 0.813169
0.523644 0.79939 0.809064
0.623453 0.7944 0.8047
0.719921 0.791424 0.801907
0.812879 0.792523 0.794736
0.909499 0.792111 0.79089
1 0.794903 0.791959
0.317754 0.896254 0.838941
0.392264 0.893584 0.836561
0.474006 0.889754 0.833249
0.560418 0.885832 0.829602
0.64889 0.882078 0.826154
0.732479 0.881651 0.822644
0.809628 0.885618 0.814038
0.920653 0.878798 0.803403
1 0.879622 0.802518
0.364034 0.981781 0.859953
0.434577 0.979782 0.85803
0.510155 0.97702 0.855421
0.590951 0.973449 0.852262
0.675578 0.969116 0.849073
0.743404 0.973785 0.844678
0.813382 0.977249 0.837903
0.919097 0.969314 0.826932
1 0.967437 0.81593
0.0794385 0.300679 0.79649
0.169757 0.303349 0.799054
0.269612 0.308263 0.803388
0.374395 0.311589 0.807401
0.496178 0.293294 0.81706
0.659419 0.272999 0.816495
0.826474 0.249409 0.82771
0.941772 0.259617 0.848234
1 0.28658 0.8551
0.0971847 0.370565 0.805997
0.184634 0.373114 0.808301
0.282414 0.377859 0.812497
0.391821 0.3841 0.818357
0.504723 0.372412 0.823697
0.663645 0.349432 0.827253
0.826291 0.329122 0.834775
0.941741 0.337469 0.854185
1 0.362844 0.859602
0.123384 0.44831 0.819257
0.207828 0.450614 0.821302
0.302312 0.454688 0.825101
0.409445 0.460349 0.830243
0.516838 0.46096 0.832441
0.666697 0.435035 0.842176
0.822293 0.41976 0.842573
0.939223 0.424491 0.860487
1 0.44773 0.864134
0.160998 0.535973 0.836881
0.241398 0.537606 0.838483
0.332265 0.540413 0.84126
0.434867 0.544396 0.844816
0.545754 0.54876 0.848478
0.667094 0.531929 0.857221
0.814847 0.520623 0.852354
0.933104 0.519875 0.866621
1 0.540063 0.867552
0.207202 0.631525 0.85771
0.285603 0.631846 0.857984
0.372152 0.63299 0.859144
0.469047 0.634653 0.861036
0.572793 0.636408 0.862928
0.677287 0.637186 0.863203
0.805646 0.623224 0.864836
0.924269 0.616876 0.872312
0.999405 0.633371 0.871534
0.242008 0.732692 0.885283
0.320104 0.731197 0.883772
0.406897 0.729183 0.881834
0.503609 0.726558 0.879286
0.604547 0.724102 0.877058
0.701549 0.723613 0.876966
0.800839 0.720302 0.87837
0.919646 0.710597 0.880735
0.997604 0.721736 0.880049
0.283986 0.825956 0.90782
0.359655 0.823667 0.905669
0.443107 0.820478 0.902678
0.534371 0.816449 0.898924
0.62977 0.812161 0.894881
0.724834 0.808728 0.891493
0.815915 0.807141 0.890181
0.916518 0.801617 0.890639
1 0.806027 0.890791
0.330953 0.912932 0.927321
0.404135 0.910246 0.924804
0.483619 0.906493 0.921324
0.569055 0.901854 0.917052
0.656962 0.897139 0.912749
0.745266 0.893019 0.90898
0.832746 0.889845 0.906126
0.91928 0.887877 0.904448
1 0.887999 0.904082
0.372076 0.999313 0.948363
0.443091 0.996857 0.946105
0.518471 0.993606 0.94313
0.598352 0.989715 0.93959
0.680919 0.985641 0.935912
0.764706 0.981811 0.932509
0.848539 0.978607 0.929717
0.930556 0.977142 0.928222
1 0.977951 0.920913
