LUTS/Secondary LUTS/BANSHEES OF INISHERIN.cube
TITLE "Generated by Resolve"
LUT_3D_SIZE 5
0 0.0174258 0.0194095
0.173495 0.0138094 0.00991836
0.445457 0.0191501 0.00695811
0.715175 0.0485542 0.00588998
0.9608 0.0888991 0.00581369
0 0.211841 0.06421
0.214923 0.212558 0.0246586
0.484169 0.218982 0.0196078
0.750515 0.242069 0.0181582
0.979049 0.276295 0.0259098
0 0.498451 0.178058
0.119829 0.509636 0.141955
0.535882 0.493263 0.0571298
0.78262 0.497215 0.0491646
1 0.522301 0.0614023
0 0.771801 0.28368
0.11487 0.780133 0.267521
0.539849 0.752758 0.195117
0.83032 0.758999 0.115068
1 0.766796 0.116381
0.0658579 0.994492 0.355169
0.254536 0.991409 0.308171
0.590906 0.958816 0.260945
0.843336 0.943114 0.198672
1 0.960983 0.185489
0 0.0433814 0.170245
0.188952 0.0344396 0.1673
0.464149 0.0325475 0.143694
0.732815 0.0684977 0.152438
0.975113 0.113024 0.179583
0.0124361 0.233433 0.211475
0.231525 0.240543 0.192584
0.496986 0.247059 0.184497
0.758679 0.265568 0.182467
0.983902 0.297063 0.195392
0 0.510216 0.309148
0.167483 0.520958 0.289723
0.543969 0.507805 0.221912
0.788113 0.511879 0.217197
1 0.535515 0.230503
0.0183566 0.776104 0.409415
0.169268 0.783917 0.400687
0.542535 0.760388 0.334478
0.829358 0.76289 0.273976
1 0.76936 0.276768
0.131792 0.99585 0.48217
0.296803 0.993271 0.447623
0.589288 0.963272 0.397574
0.842084 0.947234 0.344381
1 0.960159 0.332662
0 0.12137 0.380972
0.199466 0.11017 0.388876
0.491676 0.096437 0.386709
0.762814 0.106004 0.37705
0.9944 0.134661 0.382986
0.0402991 0.294667 0.411292
0.245655 0.297169 0.41355
0.509392 0.29456 0.410132
0.76582 0.301106 0.402457
0.982696 0.337209 0.423194
0.12079 0.526757 0.474891
0.297597 0.529702 0.473045
0.550286 0.533227 0.439063
0.789899 0.538079 0.434592
1 0.560098 0.445808
0.183078 0.775814 0.559869
0.316304 0.782559 0.552956
0.538689 0.778012 0.511254
0.824659 0.769818 0.470893
1 0.775021 0.472236
0.242237 0.986984 0.622553
0.371145 0.989731 0.613611
0.581537 0.97409 0.563149
0.83595 0.95346 0.529503
1 0.958801 0.514519
0.00747692 0.213703 0.594095
0.220935 0.21883 0.598901
0.52282 0.180987 0.60354
0.768399 0.188052 0.610254
0.985397 0.21648 0.618723
0.0712291 0.370367 0.62005
0.264256 0.373495 0.622889
0.53373 0.355993 0.627619
0.776837 0.363027 0.629679
0.996582 0.387579 0.640879
0.155184 0.578805 0.668406
0.335271 0.577401 0.666606
0.561502 0.574792 0.663142
0.790631 0.577249 0.661524
0.994324 0.595743 0.671473
0.256443 0.789883 0.727626
0.416968 0.785992 0.72398
0.594797 0.786908 0.716747
0.817441 0.781674 0.687739
1 0.786114 0.688426
0.35259 0.970413 0.780285
0.490898 0.970794 0.775418
0.625132 0.977279 0.765255
0.820142 0.965774 0.73904
1 0.961898 0.718273
0.0794385 0.300679 0.79649
0.269612 0.308263 0.803388
0.496178 0.293294 0.81706
0.826474 0.249409 0.82771
1 0.28658 0.8551
0.123384 0.44831 0.819257
0.302312 0.454688 0.825101
0.516838 0.46096 0.832441
0.822293 0.41976 0.842573
1 0.44773 0.864134
0.207202 0.631525 0.85771
0.372152 0.63299 0.859144
0.572793 0.636408 0.862928
0.805646 0.623224 0.864836
0.999405 0.633371 0.871534
0.283986 0.825956 0.90782
0.443107 0.820478 0.902678
0.62977 0.812161 0.894881
0.815915 0.807141 0.890181
1 0.806027 0.890791
0.372076 0.999313 0.948363
0.518471 0.993606 0.94313
0.680919 0.985641 0.935912
0.848539 0.978607 0.929717
1 0.977951 0.920913
