LUTS/Secondary LUTS/BANSHEES OF INISHERIN.cube
TITLE "Generated by Resolve"
LUT_3D_SIZE 33
0 0.0174258 0.0194095
0.00144961 0.0171359 0.0187381
0.021973 0.0168765 0.018204
0.0435798 0.0164797 0.0174258
0.066331 0.0160067 0.016434
0.0905623 0.0154574 0.0152132
0.116396 0.0148775 0.0137331
0.143969 0.0142824 0.0119783
0.173495 0.0138094 0.00991836
0.205737 0.0134737 0.00924697
0.23949 0.0133364 0.00886549
0.27454 0.0132601 0.00846876
0.309483 0.0136873 0.00810254
0.344686 0.014435 0.00776684
0.379126 0.0156252 0.00746166
0.412161 0.0171817 0.00720226
0.445457 0.0191501 0.00695811
0.479164 0.0218662 0.00675975
0.51313 0.0250401 0.0065919
0.547219 0.0285801 0.00645457
0.580957 0.032166 0.00630198
0.614923 0.0360113 0.0061799
0.648707 0.0400854 0.00607309
0.682094 0.0441444 0.00596628
0.715175 0.0485542 0.00588998
0.747799 0.0531167 0.00582895
0.779583 0.057908 0.00578317
0.810987 0.0627909 0.00576791
0.841779 0.0678874 0.00575265
0.872038 0.0729229 0.00575265
0.901808 0.0780957 0.00575265
0.931487 0.0832532 0.00576791
0.9608 0.0888991 0.00581369
0 0.0370336 0.0228275
0.00383001 0.0364233 0.0203555
0.0249332 0.0361944 0.0196994
0.0467384 0.0358282 0.0189822
0.0696422 0.0352941 0.0179294
0.0940719 0.0347753 0.0166781
0.120027 0.0342107 0.0151675
0.148013 0.0336767 0.0133974
0.177829 0.0332036 0.0113832
0.210315 0.0327611 0.0104524
0.244266 0.0324559 0.0100557
0.279286 0.0327306 0.00968948
0.31426 0.0334173 0.00935378
0.349447 0.0346075 0.00903334
0.383566 0.0364233 0.00877394
0.416815 0.0386053 0.00854505
0.450294 0.0411078 0.00834669
0.484077 0.0438087 0.00814832
0.518135 0.0469978 0.00798047
0.551827 0.050248 0.00781262
0.585962 0.0538033 0.00767529
0.619959 0.0575265 0.00753796
0.653712 0.0614176 0.00741588
0.687358 0.0656748 0.00732433
0.720607 0.0700542 0.00723278
0.753262 0.0746777 0.00717174
0.785168 0.0792706 0.00712596
0.816571 0.0841077 0.00709544
0.847135 0.0888533 0.00706493
0.877272 0.0937972 0.00704967
0.906905 0.0989853 0.00706493
0.9364 0.104356 0.00709544
0.965484 0.110185 0.00891127
0 0.0583963 0.0256046
0.00358587 0.0569009 0.0242161
0.0278325 0.0566262 0.0212253
0.0498207 0.0563516 0.0204318
0.0728618 0.0561227 0.0195773
0.0977646 0.0554665 0.018204
0.123934 0.054963 0.0166781
0.151904 0.0544442 0.0149538
0.182254 0.0539254 0.0129091
0.214603 0.0536507 0.01178
0.24892 0.053666 0.0113985
0.283528 0.0540475 0.0110323
0.318853 0.055024 0.0107118
0.353933 0.0563821 0.0104067
0.387793 0.0581369 0.0101472
0.421164 0.0601968 0.00991836
0.454704 0.0626688 0.00970474
0.488579 0.0655375 0.00952163
0.52256 0.068452 0.00932326
0.556405 0.0717021 0.00917067
0.590539 0.0750591 0.00900282
0.624659 0.0787976 0.00888075
0.658701 0.082826 0.00875868
0.692409 0.0869306 0.00865187
0.725597 0.09131 0.00857557
0.758129 0.0956893 0.00849927
0.790234 0.100221 0.00843824
0.821515 0.104967 0.00840772
0.851942 0.109743 0.0083772
0.881727 0.114809 0.0083772
0.911315 0.120119 0.00839246
0.940581 0.125628 0.00921645
0.969329 0.131502 0.0130312
0 0.07953 0.0301366
0.000717174 0.079057 0.0282292
0.0290837 0.0781872 0.0242618
0.0527199 0.0778515 0.0220188
0.0762341 0.0775006 0.0210117
0.101015 0.0770123 0.0199893
0.127672 0.0764477 0.0183108
0.155856 0.0757916 0.0164645
0.186297 0.0752728 0.014374
0.218997 0.0749523 0.0131228
0.253315 0.0749981 0.0127413
0.287892 0.0755779 0.0124056
0.32314 0.0764019 0.0120699
0.357916 0.07776 0.0117647
0.391836 0.0795453 0.0115053
0.425193 0.0816968 0.0112764
0.458778 0.0841077 0.0110628
0.492561 0.0867933 0.0108644
0.526345 0.0896468 0.0106813
0.560647 0.0927596 0.0104982
0.595026 0.0962692 0.0103456
0.629343 0.100038 0.0102083
0.663386 0.103868 0.0100862
0.697215 0.107988 0.0099794
0.730129 0.112276 0.0099031
0.762798 0.116625 0.00981155
0.794842 0.121324 0.00976577
0.825956 0.126162 0.00973526
0.856199 0.130968 0.00972
0.885679 0.136095 0.00973526
0.915007 0.14139 0.00975052
0.943923 0.146944 0.0128176
0.972305 0.152834 0.0164187
0 0.102052 0.034287
0 0.103517 0.0310063
0.0261845 0.101366 0.0308537
0.0549783 0.100862 0.0247807
0.0796979 0.100542 0.0226291
0.104952 0.100099 0.0214084
0.131548 0.0995193 0.0202029
0.160342 0.0988632 0.0181735
0.190951 0.0981613 0.0159609
0.223896 0.0977035 0.0145571
0.25774 0.0976577 0.0141756
0.292622 0.098024 0.0138094
0.327779 0.0988785 0.013489
0.362127 0.100038 0.0131838
0.396155 0.101839 0.0129244
0.429465 0.103944 0.0126802
0.463127 0.106279 0.0124666
0.496696 0.108782 0.012253
0.531075 0.111788 0.0120699
0.565606 0.115099 0.011902
0.600122 0.118654 0.0117494
0.63444 0.122286 0.0116121
0.668589 0.126314 0.01149
0.702235 0.13051 0.0113985
0.735088 0.134646 0.0113069
0.767681 0.139193 0.0112459
0.799466 0.143877 0.0112001
0.830182 0.148516 0.0111543
0.860151 0.153506 0.0111543
0.889265 0.158618 0.0111696
0.918227 0.163806 0.0130312
0.946822 0.169467 0.0160983
0.974823 0.175311 0.0194095
0 0.12636 0.0392767
0 0.128038 0.0375525
0.0180972 0.127794 0.0351873
0.0518196 0.125963 0.0336919
0.0832074 0.125338 0.0251316
0.109041 0.125078 0.0231632
0.136294 0.124529 0.0216983
0.165026 0.123766 0.0202487
0.196323 0.122896 0.0177157
0.228992 0.122347 0.0161135
0.263142 0.122164 0.0157168
0.297887 0.122438 0.0153506
0.332403 0.123186 0.0150149
0.36701 0.124483 0.014725
0.4009 0.126116 0.0144503
0.434333 0.128206 0.0142214
0.467826 0.130663 0.0140078
0.502068 0.133425 0.0138094
0.536583 0.136477 0.0136263
0.571145 0.13959 0.0134432
0.605646 0.14313 0.0132906
0.639948 0.146883 0.0131685
0.673915 0.150835 0.0130465
0.706935 0.154681 0.0129244
0.739895 0.158984 0.0128481
0.772152 0.163439 0.0127718
0.803525 0.167849 0.012726
0.833921 0.172625 0.0126955
0.863462 0.177569 0.0126955
0.892317 0.182666 0.0135348
0.920958 0.187808 0.0160678
0.948974 0.193332 0.0187839
0.976791 0.199115 0.0217746
0 0.152575 0.0459602
0 0.154376 0.045182
0.0059968 0.155856 0.0412299
0.0418708 0.154513 0.040116
0.0793774 0.152605 0.0372168
0.113481 0.151965 0.0253758
0.141146 0.15172 0.0236515
0.170718 0.151003 0.0218357
0.201831 0.150179 0.0198825
0.235019 0.149355 0.0178073
0.269078 0.149004 0.0174105
0.303304 0.149279 0.0170596
0.33817 0.150072 0.0167239
0.372671 0.151415 0.0164187
0.40647 0.153246 0.0161746
0.439612 0.155428 0.0159457
0.473472 0.157626 0.0157168
0.507713 0.160342 0.0155032
0.542138 0.163302 0.0153201
0.576577 0.166461 0.0151522
0.610864 0.169863 0.0149844
0.644892 0.173236 0.0148318
0.678187 0.177005 0.0147097
0.71136 0.180972 0.0146029
0.743999 0.185138 0.0145113
0.775906 0.189319 0.014435
0.806943 0.193713 0.014374
0.836957 0.198413 0.0143435
0.865934 0.203204 0.0143435
0.894697 0.207965 0.0161746
0.923003 0.213169 0.0183719
0.950607 0.218479 0.0208591
0.978103 0.224048 0.0236362
0 0.180972 0.0541695
0 0.182742 0.0535286
0.00321965 0.184421 0.0525978
0.0223087 0.185931 0.0466926
0.0672465 0.183719 0.0464637
0.109071 0.181567 0.0416114
0.146029 0.18088 0.0262913
0.176349 0.18056 0.0238651
0.208286 0.179812 0.0218814
0.241474 0.179187 0.0201877
0.275151 0.179034 0.0193179
0.309773 0.179049 0.0189212
0.344396 0.179797 0.0185855
0.378485 0.181094 0.0182956
0.411566 0.182864 0.0180514
0.445014 0.18497 0.0178225
0.478874 0.187289 0.0175937
0.512978 0.189837 0.01738
0.547234 0.192493 0.0171817
0.581445 0.1953 0.0169833
0.615167 0.198459 0.0168154
0.648859 0.201846 0.0166629
0.682231 0.205432 0.0165255
0.71519 0.209094 0.0164034
0.747478 0.212818 0.0162814
0.779049 0.216922 0.0162051
0.80972 0.221195 0.016144
0.839048 0.225589 0.0160983
0.867994 0.229862 0.0161898
0.896422 0.234623 0.0180667
0.924361 0.239551 0.0201267
0.951583 0.244541 0.0222629
0.978714 0.2495 0.0247959
0 0.211841 0.06421
0 0.213504 0.0637675
0.00415045 0.215152 0.0629892
0.0197452 0.2168 0.0617533
0.038407 0.218784 0.0539559
0.0945602 0.215793 0.0542916
0.141894 0.213428 0.0470741
0.182589 0.212741 0.0273594
0.214923 0.212558 0.0246586
0.248203 0.21207 0.0226596
0.282017 0.211749 0.0214847
0.316503 0.211963 0.0210117
0.350362 0.21265 0.020676
0.38407 0.213794 0.0203861
0.417166 0.21529 0.0201114
0.450507 0.216938 0.019852
0.484169 0.218982 0.0196078
0.518074 0.221241 0.019379
0.552102 0.223697 0.0191653
0.58555 0.226322 0.018967
0.619318 0.229175 0.0187686
0.652811 0.231876 0.0185855
0.685939 0.23508 0.0184176
0.718532 0.238483 0.0182803
0.750515 0.242069 0.0181582
0.781689 0.245808 0.0180667
0.811887 0.249516 0.0179751
0.840909 0.253483 0.0179141
0.869505 0.257755 0.0178683
0.897551 0.26215 0.019379
0.924834 0.266651 0.0211643
0.952071 0.271321 0.0233158
0.979049 0.276295 0.0259098
0 0.245289 0.076463
0 0.24715 0.0762341
0.00518807 0.248981 0.0757
0.020798 0.250782 0.0749065
0.0363928 0.252872 0.0727245
0.0582132 0.255207 0.0623484
0.128466 0.250568 0.0636759
0.179904 0.247913 0.0519265
0.222263 0.247135 0.029221
0.255985 0.247028 0.026276
0.289464 0.246738 0.0242313
0.323156 0.246693 0.023209
0.356909 0.24712 0.022858
0.390219 0.248035 0.0225528
0.423041 0.249378 0.0222782
0.456214 0.250889 0.0220035
0.489433 0.252537 0.0217441
0.522972 0.254337 0.0214847
0.556512 0.256062 0.0212253
0.590143 0.258305 0.0210117
0.623575 0.260731 0.020798
0.656718 0.263355 0.0205997
0.689448 0.266133 0.0204166
0.72166 0.269123 0.0202487
0.753216 0.272282 0.0201114
0.783993 0.275288 0.0199741
0.813458 0.278782 0.0198672
0.842329 0.282475 0.019791
0.870512 0.28632 0.0197299
0.898314 0.290394 0.0204929
0.925628 0.294514 0.0223697
0.953033 0.29926 0.0247196
0.980194 0.304448 0.0275273
0 0.280827 0.0903792
0 0.282673 0.0901961
0.00628672 0.284474 0.0897383
0.0218967 0.286244 0.0890211
0.0375067 0.288334 0.0878309
0.0530709 0.290562 0.0820478
0.102815 0.290166 0.0739605
0.170703 0.285466 0.0725414
0.221668 0.283421 0.0544594
0.263416 0.283101 0.0319982
0.297475 0.283207 0.0288701
0.331044 0.283116 0.0268254
0.364141 0.283299 0.0258183
0.396643 0.283879 0.0256352
0.428931 0.284581 0.024506
0.461738 0.285557 0.0242161
0.494926 0.286809 0.0239261
0.528267 0.288212 0.0236515
0.561624 0.289784 0.0233768
0.594873 0.291554 0.0231327
0.627909 0.293507 0.0228885
0.660639 0.295644 0.0226596
0.692943 0.297765 0.022446
0.724697 0.300038 0.0222477
0.755749 0.302708 0.0220798
0.785687 0.305516 0.0219272
0.815061 0.308583 0.0218051
0.843717 0.311971 0.0216983
0.871931 0.315602 0.021622
0.899611 0.319295 0.0222782
0.927352 0.32369 0.0244755
0.95494 0.328466 0.0271153
0.982284 0.333593 0.0300603
0 0.31812 0.105699
0 0.319875 0.10547
0.0074464 0.321553 0.104982
0.0230564 0.323201 0.104219
0.0386664 0.32517 0.102953
0.0542611 0.327337 0.100557
0.0710307 0.329778 0.0874647
0.155001 0.324849 0.0850233
0.216587 0.320714 0.079469
0.265782 0.319295 0.0535439
0.305516 0.319371 0.0355993
0.338842 0.3196 0.0326085
0.371435 0.319692 0.0305791
0.403433 0.320089 0.0295872
0.435599 0.320562 0.0291295
0.468071 0.321096 0.0286107
0.500984 0.321843 0.0265507
0.53402 0.322744 0.0258488
0.567025 0.323812 0.0255436
0.599832 0.324727 0.0252384
0.632425 0.326024 0.0249638
0.664683 0.327581 0.0247196
0.696254 0.32932 0.0244755
0.727337 0.331258 0.0242618
0.758083 0.333471 0.0240635
0.78822 0.336049 0.0238956
0.817594 0.338949 0.0237583
0.846281 0.341924 0.0236362
0.874617 0.345541 0.0235599
0.902388 0.349447 0.0252995
0.930282 0.35378 0.0277714
0.957794 0.358434 0.0306096
0.98555 0.363577 0.0339971
0 0.355337 0.121126
0 0.356924 0.12076
0.00860609 0.358404 0.120104
0.0242008 0.359884 0.119188
0.0397955 0.361669 0.117815
0.0554055 0.363806 0.115923
0.0709239 0.366018 0.10692
0.130358 0.365148 0.0966964
0.206332 0.359411 0.0954299
0.262058 0.35613 0.0844739
0.309163 0.354955 0.0539712
0.347173 0.355657 0.040238
0.379568 0.355993 0.0373083
0.411185 0.356146 0.0353399
0.443122 0.356085 0.0338903
0.475242 0.355932 0.032929
0.507515 0.356069 0.0324254
0.540078 0.35639 0.0306554
0.572427 0.356909 0.0285039
0.604532 0.35758 0.0273442
0.636774 0.358434 0.027039
0.668666 0.359594 0.0267643
0.700328 0.361044 0.0265049
0.731563 0.362829 0.026276
0.76228 0.36492 0.0260777
0.792309 0.367117 0.0258793
0.821591 0.369818 0.025742
0.850294 0.373022 0.0259403
0.87834 0.376532 0.0277104
0.906432 0.380407 0.0298772
0.93431 0.384665 0.0324102
0.961746 0.389227 0.0352026
0.989456 0.393973 0.0386358
0 0.392508 0.136599
0 0.393866 0.135973
0.00975052 0.395178 0.135119
0.0253452 0.396521 0.134005
0.04094 0.398123 0.132586
0.0565347 0.400046 0.130663
0.0720836 0.40209 0.124025
0.10132 0.404379 0.108507
0.193469 0.39765 0.106905
0.257542 0.392691 0.10277
0.307912 0.390204 0.0857862
0.352163 0.388815 0.053193
0.387259 0.3906 0.0456703
0.418936 0.390799 0.0426184
0.450538 0.39057 0.0401312
0.482322 0.390311 0.0381933
0.514199 0.390036 0.0367895
0.546181 0.389899 0.035935
0.578225 0.389975 0.0350195
0.610468 0.390448 0.0327153
0.642527 0.39118 0.0308232
0.674357 0.392187 0.0294347
0.705821 0.393317 0.0285649
0.736843 0.394751 0.0283055
0.767315 0.39675 0.0281224
0.797162 0.39913 0.0286412
0.826017 0.401877 0.0296483
0.854429 0.404959 0.0308843
0.882643 0.408392 0.0326696
0.910613 0.412177 0.0348058
0.938155 0.416114 0.0373236
0.965682 0.420371 0.0402838
0.993088 0.425284 0.0435035
0 0.428519 0.151141
0 0.429725 0.15024
0.0108492 0.430869 0.149218
0.0264439 0.432074 0.147982
0.0420386 0.433478 0.146456
0.0576181 0.435203 0.144518
0.0731823 0.437064 0.1393
0.0928969 0.439399 0.124437
0.180682 0.434653 0.118059
0.250446 0.428962 0.115862
0.304265 0.425391 0.107179
0.34995 0.423789 0.0868391
0.391714 0.422248 0.0547189
0.426108 0.424735 0.05037
0.457847 0.424704 0.0469215
0.489479 0.424399 0.0441444
0.521324 0.424125 0.0420539
0.553231 0.423972 0.0406348
0.585046 0.423865 0.0397955
0.616754 0.423728 0.0395056
0.6486 0.424277 0.0377966
0.680232 0.425177 0.0361028
0.711498 0.426368 0.0348669
0.74229 0.427893 0.0341497
0.772503 0.429755 0.0340124
0.801694 0.431998 0.0344244
0.830518 0.434638 0.0353246
0.858915 0.437613 0.0366522
0.886961 0.440742 0.0382391
0.914611 0.444099 0.0402533
0.942077 0.448066 0.0427253
0.969573 0.452476 0.045655
0.996872 0.457267 0.0489967
0 0.464088 0.165057
0 0.46508 0.163958
0.0119478 0.466026 0.162814
0.0275273 0.467063 0.161471
0.0431067 0.468254 0.159915
0.0587015 0.469749 0.157961
0.0742657 0.471504 0.153918
0.0897231 0.473335 0.141451
0.155673 0.472114 0.129427
0.233326 0.465766 0.12607
0.293965 0.461158 0.123049
0.342931 0.458518 0.112673
0.387228 0.457313 0.0911727
0.429557 0.455711 0.0589914
0.464515 0.458579 0.0552529
0.496941 0.458503 0.0515908
0.528603 0.458244 0.0486915
0.560296 0.458091 0.0466011
0.591867 0.458061 0.0451972
0.623728 0.458183 0.044358
0.654963 0.458534 0.0441138
0.685863 0.459129 0.044007
0.716823 0.460212 0.0424964
0.747387 0.461601 0.0414588
0.777371 0.463325 0.0409552
0.806638 0.465461 0.0411536
0.835218 0.467979 0.0419013
0.863401 0.470558 0.0430457
0.891264 0.473533 0.0446174
0.918639 0.476982 0.0465705
0.946059 0.480812 0.0487831
0.97319 0.485008 0.0515755
1 0.489708 0.0549935
0 0.498451 0.178058
0 0.499336 0.176852
0.0130007 0.500191 0.175677
0.0285801 0.501167 0.17438
0.0441596 0.502297 0.172885
0.0597391 0.503822 0.170977
0.0753338 0.505608 0.168826
0.0908217 0.50721 0.157992
0.119829 0.509636 0.141955
0.21268 0.503105 0.13727
0.280171 0.497642 0.134859
0.334447 0.493996 0.130068
0.382422 0.491707 0.117433
0.426688 0.490654 0.0928359
0.468284 0.489616 0.0642863
0.50396 0.493217 0.0608225
0.535882 0.493263 0.0571298
0.567483 0.49308 0.0541238
0.599008 0.493034 0.0519875
0.630411 0.493141 0.0505684
0.661585 0.4934 0.0497444
0.692439 0.493904 0.0495003
0.722896 0.494652 0.0497597
0.752941 0.49575 0.049897
0.78262 0.497215 0.0491646
0.811551 0.498909 0.0489204
0.839918 0.501259 0.049424
0.867857 0.503929 0.0503853
0.895293 0.506889 0.0517739
0.922728 0.510201 0.0535897
0.949981 0.513878 0.0558175
0.976928 0.517876 0.0584878
1 0.522301 0.0614023
0 0.532494 0.190845
0 0.533394 0.189715
0.0140383 0.534249 0.188602
0.0296178 0.53521 0.187366
0.0452125 0.53637 0.185962
0.0608072 0.537881 0.184253
0.0764019 0.539666 0.18233
0.0919051 0.541344 0.174319
0.108598 0.54377 0.160708
0.185153 0.541711 0.150347
0.256107 0.536034 0.144823
0.320043 0.531228 0.14374
0.373404 0.527703 0.137255
0.421042 0.525567 0.122759
0.4663 0.52459 0.0948196
0.507332 0.523964 0.0700389
0.543572 0.52813 0.0667735
0.575265 0.528222 0.0633249
0.606592 0.52813 0.0602731
0.637781 0.528176 0.0580606
0.668711 0.528389 0.0566262
0.699306 0.528527 0.0558328
0.729473 0.528984 0.0556344
0.759106 0.529946 0.0559854
0.788144 0.531243 0.0568551
0.816358 0.532937 0.0580911
0.844327 0.535103 0.0582742
0.872023 0.537575 0.0588235
0.899519 0.540383 0.06009
0.926757 0.543496 0.0616464
0.953536 0.546899 0.0635538
0.980529 0.550729 0.0658427
1 0.554559 0.0683452
0 0.567193 0.204211
0 0.568093 0.203128
0.0151217 0.569024 0.202045
0.0307012 0.56994 0.200961
0.0462806 0.571145 0.199619
0.0618753 0.572564 0.198138
0.0774701 0.574289 0.196429
0.093019 0.576104 0.190539
0.108507 0.57818 0.17966
0.143511 0.580911 0.164752
0.233371 0.574762 0.159014
0.302586 0.568917 0.15436
0.362921 0.564279 0.151675
0.414694 0.561013 0.143038
0.461646 0.559152 0.126177
0.505379 0.558297 0.0975052
0.545907 0.558022 0.076112
0.582544 0.562585 0.0730602
0.613931 0.562661 0.0697795
0.644877 0.562646 0.0671244
0.675532 0.562799 0.0650034
0.705852 0.563134 0.0635996
0.735912 0.563714 0.0628977
0.765072 0.564584 0.0628367
0.793759 0.565789 0.0633249
0.82179 0.567361 0.0643168
0.849378 0.569207 0.0656596
0.876646 0.571328 0.0673228
0.903685 0.57377 0.0691539
0.930388 0.576623 0.0702068
0.957198 0.579828 0.0716716
0.983719 0.583032 0.0735027
1 0.586877 0.0757153
0 0.602014 0.2177
0.000610361 0.602914 0.216693
0.0161898 0.603845 0.215656
0.0317845 0.604715 0.214694
0.047364 0.605905 0.213489
0.0629587 0.607294 0.212192
0.0785534 0.609049 0.21062
0.0941329 0.610895 0.207111
0.109636 0.612741 0.19794
0.13257 0.61532 0.184604
0.207858 0.613367 0.173144
0.281315 0.606958 0.165667
0.348486 0.601205 0.163165
0.406241 0.596613 0.15845
0.45742 0.593469 0.146944
0.503105 0.591913 0.127535
0.545647 0.590784 0.0994736
0.585092 0.591974 0.0822766
0.621836 0.597192 0.0796063
0.652674 0.597345 0.0766003
0.683024 0.597436 0.0741741
0.713008 0.597711 0.0724041
0.742519 0.598215 0.0712749
0.771481 0.598993 0.0706493
0.799756 0.600107 0.0706493
0.827451 0.601541 0.0712444
0.854765 0.60322 0.0721752
0.881682 0.605158 0.0734569
0.908217 0.607172 0.0749828
0.934707 0.6094 0.0768139
0.960922 0.612222 0.0788586
0.987091 0.615351 0.0809796
1 0.61886 0.0834821
0 0.636484 0.231006
0.00167849 0.637308 0.23006
0.017258 0.638193 0.229084
0.0328374 0.639048 0.228214
0.0484321 0.640192 0.227131
0.0640269 0.641535 0.225986
0.0796216 0.643244 0.224613
0.0952316 0.645136 0.222904
0.110735 0.646891 0.214023
0.126223 0.64918 0.202502
0.179294 0.651087 0.187243
0.264408 0.644221 0.179767
0.334096 0.637659 0.172839
0.396918 0.632456 0.170764
0.450477 0.62858 0.163836
0.498573 0.626078 0.150759
0.543023 0.62475 0.129656
0.584955 0.623285 0.102281
0.623911 0.625803 0.088777
0.660609 0.631464 0.0864118
0.690761 0.631647 0.0837262
0.720333 0.63183 0.08159
0.749432 0.632258 0.0800793
0.777966 0.632944 0.0791943
0.805798 0.633951 0.0789044
0.833127 0.634928 0.0789654
0.859815 0.636225 0.0793774
0.886534 0.637964 0.0802472
0.912963 0.639963 0.0814374
0.939147 0.642222 0.0827955
0.964965 0.644739 0.084535
0.990921 0.647593 0.0866407
1 0.650752 0.0890364
0 0.671046 0.244495
0.00274662 0.671855 0.243671
0.0183261 0.67274 0.242817
0.0339208 0.673564 0.242023
0.0495003 0.674678 0.241062
0.065095 0.676066 0.239979
0.080705 0.677607 0.238819
0.0962997 0.67953 0.237354
0.111818 0.681132 0.229862
0.127321 0.683146 0.219242
0.16907 0.685771 0.203983
0.250034 0.681071 0.193408
0.318288 0.674266 0.183612
0.385443 0.668299 0.18117
0.444038 0.663432 0.176959
0.494942 0.659998 0.167773
0.541039 0.657893 0.152636
0.583932 0.656855 0.129534
0.624125 0.654902 0.104433
0.661601 0.658915 0.0955367
0.697978 0.664836 0.0934768
0.727428 0.664988 0.0910658
0.756069 0.665156 0.0892195
0.784115 0.665751 0.0880293
0.811521 0.66659 0.0873884
0.838544 0.667674 0.0871901
0.865202 0.668956 0.0873426
0.891585 0.670466 0.0877546
0.917647 0.672206 0.0884108
0.943252 0.674159 0.0895552
0.968963 0.676387 0.0910353
0.994308 0.678843 0.0928054
1 0.68162 0.0949111
0 0.705318 0.257893
0.00381476 0.706081 0.25716
0.0193942 0.706935 0.256382
0.0349737 0.707805 0.255619
0.0505684 0.708797 0.25481
0.0661631 0.710094 0.253758
0.0817578 0.711559 0.252598
0.0973526 0.713375 0.251118
0.112886 0.714885 0.244343
0.128374 0.716838 0.233616
0.167041 0.719158 0.219852
0.237308 0.717021 0.20679
0.310994 0.709575 0.196612
0.376974 0.703059 0.190295
0.437995 0.697643 0.187915
0.490791 0.693477 0.181598
0.538491 0.690532 0.170352
0.583352 0.68864 0.152499
0.624903 0.687663 0.12697
0.664363 0.685588 0.10457
0.699611 0.691295 0.102327
0.735195 0.697444 0.100603
0.763333 0.697658 0.0986191
0.790814 0.6981 0.0971084
0.817777 0.698772 0.0961929
0.844358 0.699626 0.0956741
0.870634 0.700679 0.0955367
0.896345 0.7019 0.0957656
0.922026 0.703334 0.0963149
0.947478 0.704982 0.0971847
0.972549 0.706828 0.0982376
0.997681 0.708888 0.0995804
1 0.710964 0.101335
0 0.739086 0.271092
0.00485237 0.739818 0.27039
0.0204318 0.740566 0.269657
0.0360266 0.74136 0.268849
0.051606 0.742275 0.267964
0.0672007 0.743435 0.266865
0.0827802 0.744854 0.265538
0.0983749 0.746426 0.264103
0.113893 0.747768 0.25658
0.129381 0.749493 0.246189
0.170947 0.751598 0.232868
0.236332 0.750423 0.218357
0.308019 0.743053 0.20824
0.370703 0.736233 0.198672
0.434363 0.730358 0.197284
0.490333 0.725414 0.19234
0.538796 0.722011 0.18349
0.583413 0.719738 0.16994
0.625071 0.71841 0.150851
0.66392 0.717174 0.128252
0.701503 0.716991 0.111345
0.735897 0.722789 0.109621
0.770306 0.728893 0.10837
0.797391 0.729305 0.106722
0.823896 0.729747 0.105501
0.85005 0.730358 0.104738
0.875883 0.731121 0.104341
0.901411 0.732006 0.104265
0.926604 0.732891 0.104494
0.951385 0.734066 0.105058
0.976211 0.735546 0.105913
1 0.737255 0.107118
1 0.739315 0.10869
0 0.771801 0.28368
0.00585946 0.772549 0.282918
0.0214389 0.77322 0.282216
0.0370336 0.773999 0.281407
0.0526131 0.774945 0.280461
0.0682078 0.776013 0.279438
0.0837873 0.777401 0.278126
0.099382 0.778851 0.275898
0.11487 0.780133 0.267521
0.13193 0.78175 0.257511
0.182528 0.783764 0.243534
0.240345 0.782803 0.229664
0.309972 0.775296 0.219242
0.371374 0.767956 0.20705
0.435767 0.761791 0.206058
0.490791 0.75668 0.202304
0.539849 0.752758 0.195117
0.585275 0.749905 0.183856
0.627558 0.748058 0.167987
0.666697 0.747051 0.14728
0.703014 0.744991 0.128695
0.738415 0.747585 0.118685
0.771557 0.753185 0.117342
0.804395 0.758862 0.116381
0.83032 0.758999 0.115068
0.855924 0.759335 0.114122
0.881239 0.759793 0.113497
0.906157 0.760418 0.113176
0.930846 0.761242 0.113024
0.955489 0.762264 0.113329
0.979782 0.7635 0.114
1 0.764965 0.114992
1 0.766796 0.116381
0 0.804089 0.295964
0.0068513 0.804776 0.295155
0.0224308 0.805417 0.294408
0.0380255 0.806119 0.293568
0.0536049 0.806989 0.292592
0.0691844 0.808026 0.291493
0.0847791 0.809293 0.29015
0.100313 0.810498 0.285344
0.115816 0.811627 0.277256
0.150362 0.813077 0.26627
0.195682 0.814923 0.253147
0.250828 0.813336 0.239841
0.318547 0.805432 0.228672
0.374472 0.798321 0.215839
0.438239 0.791974 0.214618
0.494804 0.786343 0.211261
0.54374 0.781949 0.205081
0.588449 0.778683 0.195468
0.63003 0.776364 0.182284
0.668879 0.77499 0.165118
0.705211 0.773846 0.145418
0.739406 0.771115 0.129625
0.772625 0.776349 0.126253
0.804822 0.781888 0.125185
0.836225 0.787289 0.124468
0.86128 0.787411 0.123369
0.886183 0.787686 0.122591
0.910811 0.788113 0.122148
0.935241 0.788739 0.122011
0.959335 0.789548 0.12221
0.983474 0.79057 0.122683
1 0.791821 0.123293
1 0.793271 0.124392
0 0.835126 0.307347
0.00781262 0.835767 0.306493
0.0233921 0.836408 0.305623
0.0389715 0.836988 0.304829
0.054551 0.837797 0.303777
0.0701305 0.838804 0.302571
0.0857099 0.839872 0.300801
0.101213 0.840696 0.293568
0.124331 0.841718 0.285115
0.170901 0.842954 0.273884
0.210513 0.84477 0.260868
0.268391 0.841245 0.24799
0.32842 0.833768 0.23711
0.382223 0.826535 0.223972
0.445426 0.819913 0.222492
0.499214 0.814389 0.219516
0.547356 0.809888 0.214084
0.59147 0.806363 0.205905
0.633387 0.803708 0.194217
