LUTS/Secondary LUTS/BLADE RUNNER.cube
TITLE "Generated by Resolve"
LUT_3D_SIZE 33
0.00392157 0.00392157 0.00392157
0.00355535 0.00378424 0.00201419
0.00889601 0.0077821 0.0040589
0.0167239 0.0155337 0.0116732
0.0246433 0.0171511 0.0107424
0.0349279 0.0278782 0.0165103
0.0500343 0.0405737 0.0215915
0.0712139 0.0513161 0.0319524
0.0851148 0.0527352 0.0291295
0.103304 0.0629435 0.0369421
0.12285 0.0684825 0.0381323
0.142351 0.0757153 0.0410315
0.166217 0.0754101 0.0439307
0.18645 0.0806897 0.0473945
0.207309 0.0760052 0.0457618
0.227619 0.0700999 0.0407263
0.246098 0.0610361 0.0368353
0.273213 0.0627604 0.0404517
0.2981 0.0666819 0.0410773
0.322759 0.0722362 0.0456092
0.348211 0.0778973 0.0479744
0.371847 0.0851453 0.0521859
0.395621 0.0894484 0.054963
0.421958 0.0965591 0.0597238
0.442176 0.0989242 0.0609293
0.466361 0.106676 0.0658122
0.484154 0.108324 0.0674296
0.506142 0.113237 0.0697337
0.522942 0.117006 0.0725261
0.543923 0.126635 0.0773632
0.573892 0.171603 0.100404
0.59202 0.213916 0.125017
0.604715 0.246021 0.137392
0.00883497 0.0197604 0.0136873
0.00721752 0.0166323 0.0102235
0.00900282 0.0198825 0.0136873
0.0174258 0.0306554 0.0193027
0.0218662 0.0321965 0.0204318
0.0415656 0.0447395 0.0267796
0.0536202 0.0531167 0.0293584
0.0703899 0.060502 0.0357824
0.0867781 0.0686961 0.038941
0.110262 0.0765393 0.047013
0.128496 0.0797131 0.0495613
0.147951 0.0830091 0.0479591
0.17203 0.090425 0.0502785
0.192081 0.0924849 0.0507057
0.216342 0.0914626 0.0526741
0.233951 0.0850843 0.0490883
0.255528 0.0764172 0.0455482
0.273289 0.0658427 0.0399481
0.30042 0.0672313 0.0422065
0.326452 0.0731365 0.0476081
0.350561 0.0802625 0.0499123
0.376715 0.0843671 0.0519417
0.401907 0.0919203 0.0569619
0.420233 0.0948653 0.0596475
0.444663 0.102388 0.0631418
0.46627 0.106645 0.0653849
0.486885 0.10898 0.0689555
0.509453 0.116548 0.0730449
0.527077 0.118715 0.0730144
0.557107 0.153445 0.0910048
0.585824 0.200458 0.114656
0.598001 0.229831 0.129351
0.610788 0.259174 0.147662
0.0168612 0.0390478 0.0234531
0.0168612 0.0390478 0.0234531
0.0203403 0.0426795 0.0267643
0.0208896 0.0433356 0.0273289
0.0241703 0.0466773 0.0278172
0.0395056 0.0556802 0.037232
0.055024 0.0626383 0.0395056
0.0733959 0.0730755 0.0456245
0.0919051 0.0794385 0.04654
0.109621 0.0842145 0.0500191
0.132418 0.0903029 0.054902
0.155932 0.0974441 0.0594186
0.176898 0.100374 0.0570535
0.199847 0.105409 0.0601205
0.224201 0.104875 0.0620584
0.241428 0.100099 0.0584421
0.262303 0.0954452 0.0542
0.285206 0.0873732 0.0509346
0.302373 0.0753948 0.0454414
0.324254 0.0725414 0.0446784
0.345907 0.0776532 0.0488899
0.373495 0.0835889 0.0526436
0.402182 0.0900587 0.0584878
0.42417 0.0949416 0.0603647
0.445747 0.0997482 0.0627604
0.46627 0.106645 0.0654154
0.485023 0.108522 0.067277
0.509544 0.117433 0.0734874
0.535683 0.142641 0.0849317
0.574502 0.188968 0.112276
0.593713 0.219455 0.124208
0.604746 0.246113 0.137438
0.615503 0.272007 0.150515
0.028748 0.0654307 0.042237
0.0285801 0.0651102 0.0417945
0.0293126 0.0625467 0.0406806
0.0259251 0.0593271 0.0374609
0.0286564 0.0649577 0.0415961
0.0383764 0.0704204 0.04448
0.0517433 0.0739757 0.0500343
0.0729381 0.0843214 0.0575113
0.0934005 0.0926223 0.0568856
0.121645 0.10399 0.064744
0.136294 0.107027 0.0643778
0.162127 0.115404 0.071397
0.186419 0.117327 0.0689403
0.207095 0.119203 0.0725719
0.227268 0.121706 0.0730755
0.252964 0.121721 0.0722667
0.275441 0.120623 0.0713207
0.296025 0.114611 0.0655833
0.319203 0.105318 0.062562
0.336629 0.0984817 0.0583963
0.357595 0.0905623 0.05626
0.376333 0.0859998 0.0538643
0.39968 0.0894331 0.055787
0.422431 0.0944991 0.0582589
0.444816 0.101549 0.0624094
0.463615 0.104906 0.0644541
0.491096 0.124681 0.0752575
0.525704 0.156222 0.0927596
0.556603 0.189914 0.109148
0.583337 0.219577 0.126986
0.604349 0.245136 0.13695
0.613779 0.267887 0.148333
0.622141 0.287984 0.158556
0.0415045 0.0920729 0.0641489
0.0390631 0.088426 0.0582742
0.0391546 0.0884565 0.0587625
0.0392462 0.0859846 0.0530556
0.0389868 0.088365 0.0566415
0.040238 0.0916304 0.0577401
0.0519722 0.0918898 0.0606851
0.0759594 0.101701 0.0681773
0.0952316 0.109331 0.0737469
0.113359 0.116991 0.0804913
0.144335 0.12369 0.0849317
0.172473 0.133791 0.0859846
0.196201 0.135988 0.0883497
0.220584 0.14493 0.0887922
0.240452 0.142245 0.0884871
0.262898 0.141756 0.0862593
0.286717 0.145159 0.0866407
0.31339 0.146426 0.0865644
0.334951 0.143343 0.0831159
0.352621 0.138521 0.0785229
0.379355 0.134966 0.0806744
0.399954 0.135149 0.0807202
0.420279 0.135775 0.0811627
0.4421 0.142214 0.0822309
0.463981 0.147585 0.0857862
0.491341 0.16173 0.0959487
0.516838 0.183154 0.104189
0.545937 0.205066 0.117113
0.571588 0.225315 0.129442
0.595438 0.246769 0.137499
0.61503 0.270802 0.150027
0.623636 0.29099 0.161501
0.63003 0.307042 0.16791
0.0552377 0.119295 0.0819715
0.0547951 0.121126 0.0775921
0.0501259 0.114611 0.0707561
0.0500343 0.114427 0.070573
0.049836 0.110765 0.0733654
0.0498817 0.113222 0.073228
0.051545 0.116106 0.076524
0.0689555 0.117296 0.0745861
0.0937362 0.124437 0.0809186
0.118944 0.135348 0.0907454
0.146319 0.146532 0.100755
0.173861 0.153353 0.108995
0.204181 0.162753 0.115709
0.230411 0.168429 0.115587
0.250736 0.168566 0.108385
0.275685 0.172915 0.109545
0.302953 0.175586 0.110552
0.330648 0.175158 0.107607
0.349355 0.178882 0.104601
0.373175 0.178103 0.100038
0.395743 0.178973 0.100404
0.414939 0.178317 0.098909
0.441184 0.187152 0.104891
0.4663 0.190906 0.109499
0.488319 0.196658 0.111467
0.512657 0.208865 0.116976
0.533837 0.22298 0.124361
0.560006 0.242771 0.135882
0.584024 0.258244 0.143435
0.612268 0.281559 0.156588
0.624231 0.296803 0.162844
0.631601 0.310857 0.169833
0.641123 0.33315 0.182574
0.0716869 0.155352 0.110948
0.0720226 0.157687 0.108431
0.0682078 0.154437 0.101076
0.0655528 0.150317 0.0940108
0.0646525 0.146822 0.0955673
0.0641642 0.143496 0.0991379
0.0634165 0.140749 0.0992142
0.0680247 0.146685 0.097673
0.0918746 0.152789 0.101061
0.122789 0.158923 0.109178
0.146426 0.166308 0.112535
0.173358 0.175006 0.119844
0.203616 0.185565 0.136828
0.231403 0.195743 0.143297
0.262165 0.204852 0.146151
0.294347 0.208911 0.140368
0.320684 0.211566 0.140002
0.346136 0.215213 0.141161
0.372168 0.21651 0.137148
0.393759 0.219501 0.134554
0.418235 0.223011 0.132097
0.438712 0.225956 0.127657
0.463661 0.23653 0.12874
0.484352 0.241703 0.131853
0.506798 0.247272 0.13547
0.531548 0.259297 0.141787
0.553231 0.270604 0.147921
0.580575 0.285695 0.15613
0.601282 0.300069 0.16669
0.624399 0.320195 0.174502
0.64004 0.335286 0.183444
0.64622 0.348592 0.19205
0.651026 0.362432 0.19556
0.0891127 0.192157 0.142504
0.0879988 0.191135 0.137865
0.0848402 0.189517 0.131472
0.0816205 0.184085 0.123095
0.0824598 0.182452 0.118837
0.0793927 0.178653 0.117571
0.0771649 0.172839 0.118181
0.0760815 0.167819 0.118135
0.0799268 0.172808 0.120439
0.114992 0.178759 0.122667
0.151568 0.18764 0.129992
0.174395 0.192355 0.130007
0.204593 0.20528 0.145373
0.237598 0.215091 0.154788
0.263828 0.22623 0.165377
0.296269 0.237949 0.174487
0.33193 0.243397 0.171405
0.364401 0.251423 0.169497
0.385687 0.254795 0.168704
0.41146 0.256733 0.164721
0.435462 0.264057 0.164263
0.45803 0.267094 0.162615
0.481102 0.274784 0.157137
0.50222 0.280247 0.154742
0.523445 0.286961 0.156542
0.547829 0.297551 0.161349
0.569451 0.305135 0.166415
0.596933 0.324727 0.175601
0.616831 0.337163 0.184833
0.640177 0.34995 0.189609
0.654368 0.365026 0.199268
0.658335 0.377752 0.20618
0.664073 0.392676 0.211124
0.105592 0.232349 0.170474
0.104585 0.227619 0.165347
0.101854 0.223911 0.16199
0.101778 0.223316 0.157473
0.0987564 0.219577 0.146334
0.0958877 0.215869 0.141604
0.0918441 0.206577 0.139605
0.0889296 0.198108 0.138857
0.0889296 0.196124 0.140581
0.101579 0.199283 0.138903
0.141833 0.212055 0.143709
0.180117 0.222599 0.149844
0.206668 0.230442 0.154955
0.236774 0.233707 0.164599
0.266026 0.244816 0.174777
0.294713 0.254994 0.181308
0.33164 0.271809 0.200458
0.368261 0.287709 0.211383
0.403708 0.293782 0.208331
0.432883 0.297795 0.200107
0.457404 0.305623 0.202502
0.475807 0.308522 0.194644
0.500511 0.315145 0.191501
0.522087 0.322972 0.187732
0.542245 0.326711 0.182467
0.568231 0.337438 0.183215
0.585199 0.34609 0.186084
0.607736 0.358801 0.193744
0.630564 0.37377 0.201053
0.653773 0.386252 0.207401
0.667735 0.397971 0.213397
0.672938 0.4103 0.220066
0.677256 0.420172 0.226398
0.121736 0.267613 0.196979
0.121004 0.266194 0.195483
0.118578 0.261341 0.190112
0.117342 0.259342 0.187182
0.118517 0.262303 0.187381
0.113344 0.253239 0.170108
0.112016 0.246677 0.164767
0.105638 0.236576 0.162539
0.102892 0.227985 0.160632
0.100832 0.222461 0.159319
0.125643 0.231205 0.164263
0.174334 0.244663 0.169574
0.208194 0.256062 0.17406
0.241367 0.261219 0.179431
0.265644 0.265995 0.184176
0.296086 0.275563 0.193393
0.331914 0.290898 0.20795
0.364233 0.30132 0.218036
0.401389 0.320897 0.237201
0.436439 0.332036 0.242191
0.468376 0.342443 0.240162
0.497642 0.350484 0.233509
0.520516 0.359045 0.229679
0.539788 0.362173 0.2224
0.563348 0.372824 0.221912
0.582788 0.381369 0.215412
0.602564 0.38909 0.208835
0.623682 0.396704 0.212665
0.645701 0.403738 0.216052
0.666056 0.423362 0.226978
0.682231 0.433753 0.232547
0.686534 0.442817 0.23714
0.689174 0.453086 0.240925
0.141558 0.306477 0.23032
0.139101 0.304891 0.226902
0.138811 0.305684 0.223621
0.140139 0.303258 0.221775
0.138155 0.301472 0.216358
0.131487 0.294331 0.202533
0.12813 0.289906 0.191424
0.124071 0.279805 0.185397
0.121462 0.268376 0.186007
0.114885 0.255177 0.18088
0.116808 0.249546 0.177249
0.161715 0.263584 0.185092
0.203387 0.277882 0.19295
0.2392 0.28455 0.194873
0.272816 0.297108 0.201846
0.296986 0.298543 0.201312
0.329107 0.309758 0.21471
0.364355 0.321904 0.225223
0.400443 0.33727 0.239048
0.432685 0.350896 0.252964
0.467735 0.369284 0.267567
0.499092 0.38291 0.272725
0.533227 0.396979 0.271077
0.560983 0.405844 0.264759
0.58323 0.41236 0.259068
0.602304 0.419623 0.255711
0.620829 0.427237 0.244205
0.64419 0.437903 0.236225
0.66183 0.447028 0.237171
0.678233 0.457847 0.243061
0.693828 0.466987 0.247913
0.69894 0.473198 0.251102
0.702205 0.482567 0.25568
0.160937 0.352407 0.263127
0.160433 0.352209 0.260578
0.158511 0.348791 0.25565
0.157244 0.348272 0.249393
0.155337 0.345022 0.244526
0.154147 0.339376 0.238758
0.147707 0.330556 0.22768
0.14342 0.323522 0.216129
0.137194 0.310216 0.20531
0.135241 0.297887 0.205982
0.128099 0.283604 0.199817
0.142885 0.279118 0.198459
0.194034 0.298116 0.209186
0.233631 0.304021 0.20943
0.27158 0.3178 0.217166
0.298116 0.323919 0.219928
0.327626 0.328511 0.222461
0.360128 0.341253 0.23209
0.396597 0.355489 0.245121
0.427726 0.368154 0.256733
0.465766 0.386282 0.275166
0.500465 0.403296 0.287236
0.532403 0.422004 0.300496
0.565881 0.440024 0.307927
0.595773 0.452918 0.305013
0.624079 0.463294 0.2972
0.638193 0.469032 0.28336
0.660685 0.478996 0.276982
0.67451 0.485161 0.266636
0.692363 0.494255 0.262837
0.70988 0.502754 0.265843
0.709819 0.504036 0.266468
0.715999 0.513313 0.273579
0.180026 0.394537 0.293721
0.18143 0.396277 0.291432
0.178332 0.392599 0.287556
0.177691 0.389563 0.28246
0.177707 0.390539 0.282231
0.172763 0.383871 0.271717
0.168826 0.376242 0.259831
0.164218 0.367864 0.243229
0.157839 0.357458 0.231937
0.152819 0.345434 0.228977
0.148821 0.328374 0.228305
0.141604 0.309957 0.218952
0.17673 0.312901 0.224414
0.227329 0.3234 0.226139
0.265415 0.339269 0.234958
0.300008 0.347433 0.237156
0.333745 0.361471 0.243
0.363638 0.365423 0.243946
0.388571 0.371633 0.247196
0.422858 0.388159 0.259525
0.459709 0.402136 0.276905
0.493889 0.418006 0.289738
0.530205 0.438529 0.304356
0.564767 0.458549 0.321187
0.597498 0.478202 0.336248
0.625483 0.494911 0.342809
0.654139 0.506874 0.339025
0.677989 0.517754 0.323781
0.694041 0.522637 0.30753
0.710979 0.531029 0.301015
0.721996 0.537194 0.287373
0.72726 0.546166 0.287495
0.730144 0.547967 0.289601
0.20293 0.445579 0.329427
0.200702 0.441535 0.324071
0.201602 0.44332 0.321324
0.198688 0.438224 0.318791
0.197436 0.435172 0.311315
0.19379 0.42829 0.303426
0.190173 0.423407 0.296132
0.184512 0.416068 0.27834
0.177584 0.403571 0.260105
0.172122 0.387472 0.254215
0.167193 0.374502 0.25095
0.158083 0.354192 0.242878
0.160159 0.340764 0.238193
0.215335 0.341299 0.241688
0.26096 0.358618 0.249577
0.295995 0.368704 0.252308
0.330388 0.379583 0.255924
0.362356 0.390295 0.26038
0.392172 0.395407 0.262867
0.414633 0.400763 0.262943
0.448386 0.41294 0.271641
0.486046 0.431205 0.286183
0.524163 0.455848 0.307057
0.558114 0.475151 0.321645
0.591608 0.492638 0.334112
0.621317 0.510384 0.348653
0.656199 0.532052 0.369558
0.68307 0.550332 0.375555
0.705928 0.562188 0.369162
0.730358 0.569162 0.356054
0.741176 0.574075 0.336736
0.745892 0.57969 0.320729
0.743618 0.582361 0.30898
0.224521 0.494392 0.361746
0.223178 0.491493 0.359472
0.221729 0.489342 0.354726
0.219959 0.486061 0.351141
0.216312 0.480766 0.339956
0.218082 0.479576 0.342962
0.212741 0.46981 0.331014
0.206302 0.459586 0.314519
0.199817 0.450263 0.292165
0.193149 0.439261 0.280583
0.188037 0.425681 0.276829
0.178607 0.402731 0.269474
0.171618 0.383627 0.26302
0.192767 0.370901 0.258579
0.248478 0.373449 0.260273
0.288304 0.386343 0.264973
0.329931 0.402121 0.272633
0.36405 0.410758 0.275349
0.393454 0.423621 0.27921
0.423301 0.431769 0.28191
0.445151 0.432258 0.282429
0.475654 0.443442 0.286717
0.513375 0.465034 0.303319
0.549783 0.486839 0.319738
0.585168 0.506416 0.334691
0.617487 0.526085 0.35053
0.651102 0.547814 0.368231
0.68481 0.571283 0.388785
0.71342 0.58819 0.405051
0.737346 0.603922 0.412726
0.760678 0.613626 0.404883
0.766339 0.617288 0.385458
0.767514 0.621561 0.366629
0.246876 0.53991 0.398886
0.244862 0.539162 0.394614
0.244862 0.534646 0.391409
0.241001 0.5308 0.387549
0.238895 0.528939 0.379278
0.236332 0.525078 0.371756
0.234165 0.519921 0.362997
0.229068 0.510781 0.350607
0.222232 0.50045 0.333501
0.213199 0.486122 0.306828
0.207019 0.473838 0.298726
0.200504 0.452888 0.289403
0.193149 0.42974 0.28159
0.184909 0.415244 0.279042
0.228382 0.399298 0.277211
0.283299 0.405371 0.277974
0.325444 0.418601 0.284977
0.35819 0.431617 0.287129
0.38941 0.440085 0.292393
0.423987 0.454063 0.297612
0.450034 0.464378 0.293965
0.477897 0.469078 0.299123
0.502937 0.4748 0.30222
0.53872 0.496529 0.315557
0.573343 0.514931 0.32665
0.609949 0.537255 0.344915
0.644465 0.559396 0.365148
0.679683 0.583505 0.383078
0.708202 0.601923 0.40293
0.733745 0.622126 0.421653
0.76286 0.640864 0.442847
0.784802 0.656428 0.451041
0.792157 0.659022 0.438972
0.26566 0.583917 0.430091
0.264408 0.582071 0.426368
0.263188 0.580316 0.422568
0.261555 0.577096 0.419242
0.258595 0.572091 0.411551
0.258686 0.571679 0.40795
0.255802 0.565225 0.399069
0.25066 0.557641 0.387137
0.245914 0.549279 0.373999
0.237415 0.53875 0.347494
0.227268 0.522225 0.323964
0.220081 0.505394 0.314321
0.214481 0.485405 0.308644
0.206439 0.466255 0.304219
0.208988 0.44007 0.294331
0.271458 0.437201 0.296086
0.313664 0.437293 0.295918
0.35108 0.449882 0.300053
0.388312 0.464363 0.307118
0.420371 0.473533 0.308751
0.450629 0.487648 0.313039
0.481025 0.497795 0.3149
0.507744 0.505165 0.315282
0.528405 0.509896 0.313756
0.560265 0.524742 0.321965
0.597498 0.546746 0.336355
0.634134 0.569818 0.353902
0.671611 0.59324 0.377508
0.705028 0.617533 0.39852
0.733288 0.635019 0.415946
0.76022 0.650675 0.438193
0.782223 0.670466 0.455177
0.808362 0.691447 0.482918
0.284901 0.62385 0.460441
0.286534 0.625727 0.460426
0.284138 0.623575 0.456504
0.283116 0.622171 0.453147
0.278416 0.613611 0.447547
0.27715 0.613001 0.441337
0.274861 0.608759 0.431128
0.270115 0.601831 0.421561
0.264881 0.592325 0.407691
0.259693 0.584924 0.389242
0.249393 0.570672 0.356588
0.242298 0.55758 0.34168
0.234028 0.537499 0.334127
0.228733 0.517754 0.328313
0.217243 0.493721 0.320348
0.243336 0.47892 0.312093
0.308812 0.467109 0.311757
0.347921 0.47013 0.316533
0.382467 0.482673 0.317845
0.417792 0.494362 0.324315
0.448203 0.5084 0.328435
0.477806 0.519753 0.327611
0.510033 0.532998 0.330968
0.538399 0.541238 0.330037
0.558587 0.54638 0.324437
0.585306 0.56022 0.326406
0.622477 0.581018 0.339223
0.662638 0.606683 0.36463
0.696132 0.627771 0.385092
0.725002 0.647684 0.404791
0.756939 0.669688 0.42707
0.782055 0.68632 0.450706
0.804883 0.705028 0.470695
0.30309 0.662303 0.491814
0.301228 0.6589 0.489036
0.300862 0.658946 0.485557
0.298909 0.655177 0.481025
0.29897 0.653681 0.480629
0.294331 0.648493 0.472526
0.289982 0.642603 0.457191
0.287739 0.639139 0.452888
0.286259 0.634241 0.442374
0.277256 0.622751 0.423102
0.269245 0.611093 0.395087
0.260258 0.598428 0.36849
0.253223 0.581659 0.353277
0.245686 0.565316 0.348775
0.239292 0.54168 0.344045
0.230015 0.520775 0.33492
0.295399 0.506523 0.33547
0.345876 0.495857 0.329259
0.379599 0.49984 0.33167
0.411307 0.514885 0.335592
0.446921 0.526818 0.336614
0.475639 0.538293 0.340215
0.507805 0.553246 0.343526
0.53518 0.564584 0.340536
0.564034 0.576455 0.339956
0.584939 0.581949 0.332433
0.606897 0.588907 0.324254
0.645151 0.612238 0.33431
0.68394 0.636286 0.361547
0.715618 0.658228 0.383688
0.747112 0.677455 0.408682
0.774685 0.697292 0.4383
0.800504 0.718456 0.460014
0.316213 0.692012 0.517876
0.315923 0.69189 0.516335
0.31371 0.688289 0.510323
0.312413 0.68632 0.506508
0.313039 0.685389 0.503838
0.308995 0.678721 0.494667
0.307958 0.677852 0.489906
0.303563 0.67248 0.481285
0.299077 0.665797 0.467903
0.295033 0.659449 0.456382
0.288991 0.650568 0.431922
0.278264 0.636469 0.400031
0.270222 0.622843 0.378027
0.262989 0.605158 0.371374
0.257725 0.590372 0.368338
0.247929 0.567391 0.357916
0.26833 0.549096 0.348928
0.345281 0.539895 0.351186
0.376822 0.525353 0.343648
0.411185 0.533715 0.346502
0.445029 0.549142 0.353246
0.473274 0.558877 0.351705
0.503166 0.572473 0.353765
0.533272 0.582696 0.352819
0.564126 0.596002 0.351659
0.589822 0.611124 0.343847
0.61091 0.61735 0.333013
0.636728 0.623941 0.327306
0.665309 0.638331 0.331609
0.701274 0.664256 0.351232
0.733654 0.683726 0.376242
0.768902 0.708629 0.41445
0.79498 0.723232 0.442115
0.328359 0.71722 0.536049
0.33077 0.719661 0.538491
0.328115 0.717144 0.534813
0.328023 0.718059 0.532479
0.325673 0.712108 0.527611
0.325353 0.712215 0.525231
0.320439 0.706783 0.514
0.318135 0.704021 0.505882
0.313695 0.69453 0.494881
0.31017 0.691447 0.483406
0.305531 0.686213 0.463554
0.297124 0.675212 0.433478
0.288182 0.661662 0.406409
0.281529 0.646296 0.395666
0.273289 0.630228 0.38526
0.26772 0.610544 0.378836
0.258152 0.589914 0.370748
0.330892 0.582834 0.369207
0.382574 0.57171 0.366323
0.410666 0.557641 0.359045
0.441718 0.569787 0.360174
0.473518 0.580987 0.363836
0.502312 0.588266 0.364462
0.534066 0.605188 0.366796
0.562768 0.616861 0.363592
0.590204 0.627436 0.355856
0.616571 0.644999 0.344991
0.639155 0.651423 0.337346
0.660685 0.660197 0.341329
0.691478 0.676387 0.350027
0.722072 0.695186 0.360082
0.750988 0.714183 0.372915
0.788983 0.737209 0.407141
0.342626 0.746212 0.56051
0.342748 0.746258 0.561166
0.33962 0.74258 0.557443
0.338964 0.74229 0.554162
0.337728 0.74023 0.550881
0.335241 0.737026 0.542443
0.333959 0.7346 0.536416
0.330434 0.728496 0.529091
0.330083 0.726223 0.522576
0.325475 0.717159 0.512016
0.318517 0.709789 0.489326
0.310002 0.702937 0.460121
0.302464 0.692561 0.433494
0.295583 0.68014 0.416526
0.29102 0.667491 0.409033
0.28394 0.650736 0.402716
0.274952 0.630945 0.393576
0.293202 0.614313 0.378134
0.379461 0.612985 0.38323
0.412802 0.598291 0.377096
0.441794 0.589426 0.377401
0.472374 0.600488 0.373846
0.502693 0.612085 0.37525
0.532326 0.626032 0.376196
0.558587 0.635843 0.372732
0.586267 0.648356 0.371313
0.614954 0.662608 0.357168
0.644373 0.677821 0.351171
0.672541 0.692027 0.35729
0.691722 0.696757 0.360693
0.715648 0.704585 0.364599
0.745022 0.722698 0.374212
0.779355 0.745144 0.389242
0.352697 0.769329 0.578882
0.352041 0.766262 0.576791
0.352026 0.766171 0.57673
0.351049 0.765026 0.573251
0.349889 0.763485 0.569894
0.346609 0.760739 0.563348
0.344503 0.75639 0.555749
0.342992 0.75552 0.552148
0.339467 0.750454 0.541314
0.337224 0.745678 0.534722
0.331563 0.738888 0.516121
0.325429 0.732677 0.490883
0.318486 0.724865 0.462989
0.309178 0.709987 0.436942
0.303899 0.698482 0.426902
0.298665 0.686458 0.421744
0.29546 0.673884 0.415137
0.284001 0.651911 0.398764
0.361471 0.649683 0.401526
0.422492 0.642359 0.396185
0.446159 0.62269 0.388205
0.472206 0.623667 0.384344
0.505653 0.633417 0.389273
0.532738 0.646326 0.387594
0.559625 0.653941 0.384955
0.587213 0.668711 0.385519
0.612207 0.681041 0.368292
0.644099 0.69723 0.363149
0.670695 0.710277 0.365988
0.698894 0.727047 0.375082
0.72311 0.73228 0.379965
0.7467 0.74052 0.384192
0.775876 0.755917 0.392569
0.361486 0.789151 0.595682
0.361273 0.789075 0.594614
0.360418 0.786618 0.594339
0.360189 0.787701 0.590875
0.358358 0.782925 0.589426
0.358923 0.782528 0.585184
0.355749 0.7785 0.575875
0.353491 0.775555 0.570703
0.354574 0.773983 0.566751
0.348165 0.767819 0.552758
0.34229 0.760922 0.537591
0.33872 0.757366 0.515221
0.330175 0.749081 0.487282
0.323552 0.740536 0.462348
0.319966 0.727977 0.448524
0.313069 0.717708 0.444099
0.306508 0.704799 0.436027
0.297429 0.684153 0.422629
0.326345 0.679255 0.413504
0.422873 0.681559 0.418845
0.457496 0.667521 0.410315
0.48072 0.65745 0.402213
0.506889 0.658701 0.398795
0.538888 0.673396 0.40119
0.560357 0.678065 0.395666
0.589181 0.690959 0.396918
0.614694 0.705272 0.386481
0.642344 0.716838 0.370428
0.670695 0.728618 0.376196
0.699962 0.743862 0.383703
0.729778 0.75758 0.390799
0.754665 0.769467 0.398322
0.772351 0.778561 0.402228
0.368811 0.80415 0.609735
0.36907 0.804944 0.609689
0.372122 0.805631 0.610071
0.371878 0.804822 0.609201
0.366659 0.799954 0.601587
0.365423 0.798001 0.596811
0.363516 0.795438 0.593286
0.363638 0.795041 0.58793
0.362142 0.79382 0.581872
0.358358 0.788205 0.572946
0.352834 0.78027 0.557351
0.349615 0.779522 0.536019
0.341955 0.772564 0.509117
0.335042 0.765774 0.485588
0.330938 0.757855 0.474266
0.324987 0.744778 0.46714
0.320134 0.734279 0.454627
0.313329 0.719051 0.445365
0.320699 0.709499 0.434928
0.413291 0.714137 0.436576
0.463432 0.705455 0.431022
0.491844 0.695888 0.421698
0.510002 0.68629 0.411826
0.539849 0.691783 0.409415
0.56762 0.702235 0.409689
0.590555 0.711589 0.408194
0.615076 0.721782 0.397986
0.641962 0.732052 0.385428
0.671427 0.750286 0.385595
0.700496 0.76524 0.394095
0.730816 0.778775 0.401297
0.759945 0.792737 0.409262
0.785763 0.810315 0.419547
0.376761 0.820951 0.62385
0.377096 0.821622 0.624552
0.375692 0.819135 0.621134
0.37438 0.817304 0.616999
0.374929 0.81857 0.617731
0.372732 0.812558 0.608881
0.373663 0.812436 0.609064
0.369131 0.808682 0.602243
0.368978 0.810971 0.597482
0.367651 0.806394 0.589548
0.362539 0.801297 0.578317
0.358038 0.798581 0.555566
0.353735 0.794781 0.529259
0.345357 0.786496 0.50454
0.341634 0.780575 0.494255
0.337896 0.771069 0.487327
0.331884 0.757321 0.474327
0.325978 0.746731 0.464973
0.319738 0.735607 0.452964
0.407553 0.739055 0.454627
0.468376 0.741833 0.449241
0.502098 0.736065 0.444099
0.521874 0.722499 0.42916
0.546334 0.719036 0.425742
0.573831 0.726513 0.424186
0.597711 0.737606 0.420096
0.62182 0.748791 0.413397
0.648798 0.760037 0.404456
0.670878 0.764889 0.393378
0.701732 0.783963 0.404334
0.730846 0.797208 0.412375
0.75845 0.813916 0.419089
0.785199 0.829435 0.427848
0.382086 0.832258 0.63331
0.381781 0.831632 0.632654
0.381903 0.831662 0.633371
0.382544 0.833646 0.631281
0.380179 0.829725 0.626703
0.380514 0.83064 0.627146
0.380209 0.828061 0.622797
0.376471 0.824216 0.615885
0.375647 0.823545 0.61236
0.373846 0.822629 0.603464
0.368765 0.817487 0.583581
0.366155 0.815595 0.565805
0.360525 0.811048 0.542489
0.354604 0.803525 0.525307
0.349447 0.793271 0.511696
0.349065 0.792981 0.50985
0.341344 0.778241 0.498482
0.339422 0.774609 0.490791
0.332586 0.762768 0.476036
0.403082 0.767178 0.476661
0.476738 0.774289 0.475212
0.512886 0.769421 0.465919
0.540291 0.763027 0.457786
0.560861 0.753811 0.447135
0.582788 0.754498 0.438895
0.608957 0.764584 0.436896
0.634897 0.774411 0.435431
