LUTS/Secondary LUTS/BLADE RUNNER.cube
TITLE "Generated by Resolve"
LUT_3D_SIZE 9
0.00392157 0.00392157 0.00392157
0.0246433 0.0171511 0.0107424
0.0851148 0.0527352 0.0291295
0.166217 0.0754101 0.0439307
0.246098 0.0610361 0.0368353
0.348211 0.0778973 0.0479744
0.442176 0.0989242 0.0609293
0.522942 0.117006 0.0725261
0.604715 0.246021 0.137392
0.0415045 0.0920729 0.0641489
0.0389868 0.088365 0.0566415
0.0952316 0.109331 0.0737469
0.196201 0.135988 0.0883497
0.286717 0.145159 0.0866407
0.379355 0.134966 0.0806744
0.463981 0.147585 0.0857862
0.571588 0.225315 0.129442
0.63003 0.307042 0.16791
0.105592 0.232349 0.170474
0.0987564 0.219577 0.146334
0.0889296 0.196124 0.140581
0.206668 0.230442 0.154955
0.33164 0.271809 0.200458
0.457404 0.305623 0.202502
0.542245 0.326711 0.182467
0.630564 0.37377 0.201053
0.677256 0.420172 0.226398
0.180026 0.394537 0.293721
0.177707 0.390539 0.282231
0.157839 0.357458 0.231937
0.17673 0.312901 0.224414
0.333745 0.361471 0.243
0.459709 0.402136 0.276905
0.597498 0.478202 0.336248
0.694041 0.522637 0.30753
0.730144 0.547967 0.289601
0.26566 0.583917 0.430091
0.258595 0.572091 0.411551
0.245914 0.549279 0.373999
0.214481 0.485405 0.308644
0.313664 0.437293 0.295918
0.450629 0.487648 0.313039
0.560265 0.524742 0.321965
0.705028 0.617533 0.39852
0.808362 0.691447 0.482918
0.328359 0.71722 0.536049
0.325673 0.712108 0.527611
0.313695 0.69453 0.494881
0.288182 0.661662 0.406409
0.258152 0.589914 0.370748
0.441718 0.569787 0.360174
0.562768 0.616861 0.363592
0.660685 0.660197 0.341329
0.788983 0.737209 0.407141
0.368811 0.80415 0.609735
0.366659 0.799954 0.601587
0.362142 0.79382 0.581872
0.341955 0.772564 0.509117
0.320134 0.734279 0.454627
0.463432 0.705455 0.431022
0.56762 0.702235 0.409689
0.671427 0.750286 0.385595
0.785763 0.810315 0.419547
0.394217 0.857496 0.655695
0.39263 0.849943 0.652171
0.386526 0.847623 0.629282
0.375174 0.841443 0.574838
0.366018 0.821363 0.544762
0.511971 0.831144 0.529
0.620508 0.821378 0.498024
0.708797 0.846998 0.48304
0.786419 0.874067 0.451164
0.393408 0.857206 0.651499
0.39118 0.856397 0.639918
0.385763 0.851652 0.617304
0.387152 0.85478 0.612238
0.429969 0.864302 0.61622
0.638331 0.908919 0.638972
0.741695 0.933257 0.657359
0.81062 0.948623 0.665187
0.860075 0.95697 0.652903
0.0408331 0.0585184 0.126604
0.0322423 0.0285649 0.127901
0.129488 0.0688487 0.128618
0.19733 0.138613 0.168109
0.28333 0.0655375 0.119432
0.374945 0.0848554 0.0882582
0.451133 0.103395 0.0717174
0.531228 0.118883 0.0732128
0.555444 0.12694 0.0799725
0.0730297 0.136416 0.16492
0.0787976 0.139513 0.166384
0.143847 0.148119 0.18967
0.223423 0.170367 0.193545
0.282902 0.0652171 0.0979782
0.369604 0.0834974 0.0769513
0.461143 0.103822 0.0883497
0.532082 0.119448 0.0766766
0.594247 0.224414 0.126574
0.132372 0.259617 0.266026
0.136217 0.269703 0.272923
0.13257 0.267247 0.257862
0.241032 0.267521 0.244068
0.369512 0.293309 0.254368
0.460304 0.285283 0.233677
0.543847 0.294163 0.221729
0.628275 0.337911 0.220813
0.664118 0.389288 0.211536
0.223331 0.464347 0.413031
0.21976 0.456535 0.402441
0.20444 0.431312 0.365545
0.188418 0.379446 0.303166
0.36759 0.393637 0.311299
0.497475 0.433814 0.344045
0.62446 0.498146 0.382864
0.704784 0.5243 0.368368
0.739376 0.546365 0.34699
0.299245 0.633173 0.532067
0.295338 0.626932 0.520623
0.281865 0.603998 0.485023
0.256397 0.558175 0.415518
0.347585 0.485786 0.363134
0.478462 0.512657 0.371542
0.59057 0.55259 0.383825
0.726879 0.635203 0.458091
0.814878 0.700175 0.520882
0.352239 0.749249 0.61236
0.348547 0.742199 0.602243
0.340291 0.727504 0.576486
0.32047 0.698207 0.52842
0.28925 0.636973 0.442878
0.458762 0.590021 0.408438
0.579324 0.632242 0.420447
0.681865 0.675242 0.406409
0.801694 0.746319 0.485695
0.381659 0.81677 0.658305
0.37995 0.814786 0.652079
0.375463 0.807599 0.638102
0.363745 0.789425 0.606897
0.338231 0.75491 0.519921
0.476371 0.732357 0.485466
0.577752 0.713054 0.456916
0.684092 0.756909 0.455283
0.785992 0.811353 0.418814
0.401099 0.859922 0.689998
0.399908 0.858686 0.685374
0.395193 0.85008 0.675807
0.386954 0.844892 0.636606
0.3738 0.830869 0.586587
0.521813 0.838407 0.5729
0.631693 0.832181 0.541253
0.716503 0.85127 0.528954
0.799847 0.87921 0.518959
0.400061 0.859602 0.686015
0.399359 0.859342 0.682322
0.396124 0.858167 0.665248
0.392813 0.8551 0.643412
0.490364 0.876905 0.65275
0.650095 0.914107 0.667094
0.742687 0.930053 0.670863
0.809781 0.945541 0.677409
0.862196 0.958343 0.672816
0.0992752 0.145617 0.292775
0.0867323 0.10602 0.289311
0.203464 0.0941176 0.326131
0.44332 0.109499 0.363943
0.446204 0.18616 0.335027
0.506401 0.307332 0.377264
0.525597 0.123247 0.277073
0.582879 0.136339 0.229572
0.565103 0.12813 0.141695
0.13051 0.238041 0.305943
0.135698 0.240879 0.322698
0.126925 0.206256 0.34052
0.422736 0.241215 0.407401
0.489845 0.279744 0.395026
0.52256 0.354467 0.406043
0.548135 0.17406 0.303105
0.580636 0.133654 0.214282
0.562951 0.127947 0.128267
0.171527 0.326711 0.374502
0.172793 0.329213 0.375784
0.170336 0.327138 0.363989
0.303532 0.356344 0.401617
0.538781 0.413184 0.4757
0.539727 0.408499 0.434348
0.549508 0.20119 0.283879
0.56759 0.129549 0.160281
0.574044 0.14342 0.156634
0.238499 0.46865 0.488777
0.238285 0.470161 0.487694
0.238743 0.470222 0.486
0.234379 0.462577 0.476173
0.457435 0.495491 0.483055
0.552529 0.439429 0.413947
0.625071 0.434501 0.386358
0.695277 0.460578 0.38085
0.72874 0.498634 0.382406
0.357488 0.714885 0.70602
0.355535 0.712764 0.703151
0.351797 0.708965 0.689876
0.334432 0.678019 0.6477
0.439643 0.648341 0.586358
0.541436 0.584619 0.506477
0.658549 0.623972 0.528298
0.77145 0.688197 0.588983
0.829572 0.70544 0.568994
0.390829 0.796735 0.748135
0.389227 0.797467 0.742321
0.38436 0.785702 0.727138
0.371298 0.764202 0.69485
0.393851 0.738781 0.64445
0.544427 0.707424 0.573861
0.620783 0.680186 0.533089
0.726299 0.714092 0.53312
0.831373 0.775006 0.598215
0.40589 0.840925 0.754269
0.407172 0.841917 0.753384
0.39971 0.82974 0.737408
0.391959 0.816266 0.716899
0.461341 0.814878 0.694636
0.542733 0.797467 0.627863
0.605753 0.741772 0.552407
0.706386 0.776242 0.550286
0.813397 0.827436 0.549477
0.412039 0.863249 0.748241
0.412863 0.863752 0.748455
0.410498 0.860792 0.742367
0.409537 0.855085 0.738201
0.506889 0.868391 0.716152
0.58529 0.867353 0.67422
0.659861 0.856733 0.632792
0.733791 0.859342 0.608804
0.814755 0.885771 0.607019
0.411948 0.861677 0.748943
0.46482 0.873137 0.756115
0.556848 0.896345 0.770245
0.517571 0.886824 0.737652
0.582132 0.900282 0.723156
0.681193 0.922499 0.72517
0.759258 0.93904 0.722026
0.822919 0.946838 0.721202
0.871077 0.958099 0.715343
0.178286 0.281483 0.498268
0.169299 0.256092 0.492622
0.153613 0.213214 0.488792
0.448402 0.25069 0.545357
0.641566 0.305791 0.59144
0.746487 0.419318 0.642588
0.73962 0.497017 0.615625
0.764126 0.570871 0.62678
0.695186 0.345876 0.475776
0.215625 0.380896 0.525704
0.212726 0.372473 0.528252
0.20119 0.331243 0.530434
0.426474 0.351247 0.57116
0.656687 0.422858 0.642969
0.781811 0.515038 0.691371
0.754086 0.544259 0.640787
0.767056 0.59765 0.642847
0.699825 0.361654 0.477134
0.239094 0.450523 0.527062
0.237583 0.448692 0.523919
0.244144 0.457023 0.544381
0.372152 0.477867 0.594095
0.619486 0.538567 0.671031
0.805615 0.651637 0.755444
0.775326 0.633433 0.692348
0.776715 0.630045 0.659388
0.7066 0.385138 0.469642
0.285695 0.549523 0.611826
0.286244 0.549065 0.61059
0.284367 0.545983 0.605112
0.27953 0.539284 0.594385
0.52253 0.595743 0.631373
0.732647 0.691035 0.742596
0.77348 0.700862 0.720699
0.784634 0.624872 0.643214
0.647883 0.272175 0.342168
0.341283 0.671244 0.705455
0.340902 0.670817 0.703792
0.339467 0.666835 0.701762
0.338827 0.665766 0.698543
0.540551 0.701152 0.712535
0.658991 0.714458 0.7093
0.744869 0.728145 0.712062
0.774578 0.615763 0.576562
0.816815 0.660319 0.588632
0.402197 0.799603 0.812055
0.402182 0.797101 0.809461
0.401663 0.797498 0.81033
0.401648 0.797055 0.808026
0.587472 0.83949 0.833173
0.70251 0.842573 0.814694
0.720836 0.783871 0.72668
0.784695 0.777188 0.697261
0.866361 0.826505 0.748287
0.432868 0.867185 0.855436
0.431449 0.865888 0.854307
0.428565 0.857343 0.846357
0.432044 0.850492 0.832731
0.645258 0.886564 0.841947
0.717617 0.881331 0.817411
0.718608 0.844495 0.746914
0.749447 0.809522 0.680003
0.840116 0.844343 0.671641
0.425711 0.868772 0.818082
0.425818 0.868589 0.818753
0.426551 0.86894 0.817563
0.592264 0.904585 0.835355
0.690349 0.919387 0.837934
0.732143 0.912856 0.817548
0.72639 0.892836 0.75697
0.749935 0.865217 0.691127
0.834714 0.897368 0.703838
0.421546 0.865248 0.789807
0.505089 0.883268 0.803983
0.609262 0.90837 0.819409
0.693645 0.928176 0.835111
0.718837 0.933501 0.826764
0.732616 0.934157 0.796689
0.783886 0.946746 0.787015
0.837522 0.950668 0.773816
0.887114 0.968139 0.778729
0.242939 0.405722 0.636103
0.236469 0.391485 0.626352
0.220371 0.347829 0.617121
0.417975 0.393057 0.654673
0.632471 0.475746 0.711711
0.793149 0.600946 0.785855
0.883741 0.724865 0.849775
0.883787 0.73817 0.829282
0.889723 0.766964 0.814847
0.270451 0.480491 0.658
0.270802 0.478019 0.665507
0.261875 0.45211 0.659525
0.41529 0.457755 0.678355
0.640436 0.543801 0.740505
0.797391 0.647837 0.802838
0.896971 0.762875 0.865965
0.893858 0.760433 0.84094
0.893767 0.778073 0.817075
0.298314 0.555962 0.676234
0.300603 0.55639 0.680201
0.301137 0.558389 0.688151
0.498299 0.602182 0.731441
0.641001 0.633463 0.768261
0.79144 0.7205 0.827863
0.897871 0.809506 0.884871
0.906111 0.810925 0.868391
0.894133 0.80235 0.831312
0.32195 0.614908 0.697398
0.322042 0.615244 0.694911
0.322011 0.616556 0.694743
0.407355 0.639048 0.710063
0.633433 0.709499 0.774258
0.756329 0.758587 0.827253
0.883055 0.843946 0.890257
0.90518 0.848798 0.880934
0.882063 0.815625 0.826185
0.355291 0.68838 0.754589
0.35584 0.688685 0.754345
0.355917 0.687297 0.750301
0.400717 0.698192 0.754711
0.599237 0.744183 0.778851
0.696971 0.768124 0.787305
0.833234 0.839506 0.864759
0.893889 0.867903 0.878706
0.884077 0.800137 0.803891
0.391943 0.7691 0.813657
0.392294 0.767132 0.813809
0.392432 0.765759 0.812146
0.454566 0.782269 0.81767
0.645167 0.822477 0.839826
0.736034 0.840558 0.84892
0.7991 0.852827 0.846708
0.85417 0.85861 0.845014
0.884321 0.824842 0.786954
0.427039 0.845747 0.871382
0.428122 0.845975 0.872297
0.427512 0.84715 0.871489
0.614633 0.887449 0.89749
0.733181 0.914641 0.914473
0.809613 0.93048 0.922789
0.843061 0.923781 0.904784
0.817807 0.869764 0.825345
0.870405 0.874174 0.799161
0.438056 0.872862 0.882918
0.437568 0.873045 0.880339
0.566049 0.901762 0.898589
0.687037 0.928695 0.911131
0.767178 0.943908 0.91487
0.815183 0.944701 0.908705
0.836454 0.937743 0.887343
0.818112 0.908888 0.822156
0.85774 0.906859 0.793194
0.428412 0.869764 0.832944
0.430549 0.870268 0.83444
0.611185 0.910719 0.860761
0.712322 0.932555 0.879637
0.78677 0.949432 0.891066
0.829694 0.958724 0.892576
0.829664 0.958877 0.863981
0.860395 0.96025 0.841611
0.895644 0.969726 0.837293
0.289036 0.507362 0.715938
0.288136 0.500984 0.716167
0.280781 0.485008 0.710704
0.46125 0.51368 0.734554
0.635615 0.5935 0.781628
0.763088 0.673457 0.831327
0.865339 0.76585 0.880217
0.935805 0.862684 0.930877
0.946944 0.874601 0.93109
0.312749 0.565621 0.742397
0.31223 0.562158 0.741848
0.411627 0.575647 0.75465
0.513451 0.579522 0.765301
0.65153 0.63566 0.802426
0.773114 0.709087 0.843976
0.866697 0.787488 0.889769
0.93579 0.872755 0.936034
0.94995 0.886915 0.938308
0.335149 0.623545 0.760021
0.338735 0.623728 0.761318
0.50782 0.670268 0.790738
0.616419 0.69955 0.815976
0.679057 0.709499 0.830396
0.783932 0.766537 0.865736
0.871443 0.829694 0.906783
0.935103 0.895079 0.942443
0.950256 0.907546 0.944732
0.354498 0.675059 0.770336
0.35378 0.674571 0.769802
0.476478 0.707225 0.794995
0.61117 0.745922 0.823041
0.719661 0.786465 0.852049
0.782864 0.806683 0.877348
0.870649 0.861891 0.91577
0.931273 0.914015 0.95082
0.948287 0.920897 0.950927
0.373449 0.720073 0.796292
0.37348 0.719738 0.794736
0.448844 0.740001 0.805386
0.582956 0.771099 0.822568
0.673304 0.796582 0.837766
0.777737 0.839384 0.874067
0.856062 0.875456 0.910002
0.931975 0.93022 0.953964
0.943267 0.930297 0.945037
0.396628 0.769345 0.832105
0.395514 0.766598 0.828901
0.512383 0.796323 0.844572
0.620096 0.821958 0.860929
0.698543 0.841642 0.870649
0.762875 0.856413 0.874846
0.818921 0.874205 0.883589
0.912932 0.929915 0.938598
0.92871 0.928527 0.929915
0.417258 0.817761 0.868147
0.432227 0.828672 0.872328
0.566064 0.854154 0.890135
0.661875 0.877089 0.902464
0.739055 0.895613 0.912322
0.807187 0.911391 0.920699
0.853193 0.917845 0.923064
0.889448 0.926055 0.921614
0.909255 0.920699 0.904219
0.608713 0.909834 0.928695
0.635798 0.915999 0.93228
0.689662 0.929198 0.942061
0.750652 0.942229 0.951415
0.815946 0.958358 0.961395
0.871946 0.970993 0.968948
0.89836 0.970993 0.958312
0.900389 0.956527 0.934051
0.885039 0.926192 0.879271
0.460685 0.876616 0.892622
0.477714 0.882216 0.892714
0.577966 0.904555 0.9037
0.701381 0.932006 0.914733
0.80412 0.955062 0.931624
0.865858 0.968887 0.940093
0.894591 0.975189 0.939467
0.892454 0.970779 0.91162
0.909758 0.971405 0.893935
0.485374 0.637842 0.804196
0.50219 0.63975 0.806088
0.544808 0.645945 0.811399
0.594659 0.651911 0.817563
0.680888 0.690623 0.837919
0.771176 0.742672 0.867811
0.841688 0.796948 0.895262
0.905379 0.859266 0.927337
0.945159 0.912902 0.955901
0.562112 0.691402 0.829343
0.573312 0.693889 0.830549
0.599237 0.694041 0.832593
0.639292 0.700694 0.840711
0.700298 0.718959 0.854063
0.778302 0.767346 0.87805
0.850721 0.816068 0.905852
0.908125 0.870817 0.934096
0.948135 0.922179 0.960525
0.598428 0.737011 0.848508
0.621515 0.745876 0.85275
0.666362 0.763973 0.864805
0.70486 0.775769 0.873259
0.737346 0.778851 0.876631
0.800839 0.808637 0.899397
0.860761 0.84773 0.919982
0.9122 0.890867 0.944167
0.946654 0.93286 0.964981
0.6065 0.773495 0.859159
0.625299 0.78085 0.862272
0.669535 0.794018 0.870314
0.726894 0.816175 0.886
0.784985 0.83856 0.902068
0.816724 0.848157 0.911025
0.869459 0.877455 0.932204
0.914595 0.912093 0.950927
0.948608 0.948837 0.9729
0.594003 0.802899 0.863508
0.61004 0.806439 0.86389
0.648432 0.815625 0.870863
0.706661 0.833936 0.884993
0.772595 0.854078 0.900938
0.837018 0.884428 0.923903
0.872862 0.900603 0.935347
0.918593 0.931365 0.960433
0.952361 0.962371 0.978851
0.618952 0.832227 0.885176
0.633799 0.83563 0.885817
0.664866 0.843732 0.890013
0.707088 0.856779 0.896162
0.754223 0.869291 0.902602
0.807141 0.887434 0.91194
0.873747 0.91487 0.936812
0.920363 0.942077 0.959304
0.958251 0.975677 0.986221
0.647013 0.865202 0.907286
0.662623 0.870359 0.910048
0.690562 0.87715 0.912917
0.734508 0.88751 0.918456
0.781247 0.901518 0.925826
0.825757 0.911955 0.930266
0.862089 0.925017 0.934112
0.902327 0.938399 0.943984
0.954894 0.978531 0.982544
0.669612 0.904158 0.935119
0.685252 0.908339 0.938064
0.716762 0.917372 0.941176
0.762814 0.926604 0.948058
0.810788 0.939269 0.95375
0.858717 0.951888 0.962356
0.898405 0.960113 0.964599
0.924117 0.968002 0.967254
0.934295 0.96762 0.961532
0.707591 0.932235 0.954772
0.719768 0.934295 0.955718
0.757305 0.943938 0.962737
0.797299 0.95462 0.970993
0.844556 0.965148 0.975464
0.881437 0.973236 0.974426
0.918242 0.980758 0.973938
0.930282 0.983719 0.964782
0.927581 0.976623 0.942458
0.675471 0.76054 0.873808
0.681498 0.761944 0.874662
0.69247 0.762051 0.873198
0.714809 0.764111 0.876524
0.747326 0.776989 0.883772
0.800305 0.80763 0.897993
0.850614 0.844053 0.919173
0.893751 0.876249 0.936507
0.924514 0.908995 0.951751
0.705791 0.7879 0.887999
0.708904 0.785931 0.886961
0.72137 0.790188 0.888869
0.735821 0.787991 0.88893
0.761593 0.796063 0.892866
0.811307 0.824552 0.908736
0.857786 0.854871 0.92491
0.894957 0.88278 0.93959
0.93051 0.918608 0.958068
0.738277 0.822431 0.90399
0.748592 0.828519 0.908003
0.763424 0.833722 0.911467
0.779461 0.835508 0.912276
0.797436 0.83827 0.914748
0.831006 0.853498 0.923354
0.870253 0.876478 0.935912
0.904036 0.901808 0.947478
0.933196 0.930434 0.964126
0.743572 0.841276 0.910994
0.75433 0.845762 0.913573
0.77612 0.853223 0.917556
0.811475 0.870832 0.929427
0.832532 0.878431 0.934203
0.850004 0.881834 0.93576
0.882155 0.900633 0.948119
0.911192 0.919844 0.957259
0.934569 0.939818 0.966934
0.746029 0.862593 0.919966
0.753521 0.866575 0.92256
0.770489 0.869276 0.922042
0.801953 0.881971 0.930098
0.841154 0.900084 0.942
0.875303 0.912902 0.952758
0.892454 0.917815 0.953536
0.918547 0.934905 0.964324
0.942855 0.95729 0.977508
0.748547 0.884016 0.927184
0.750149 0.884215 0.924208
0.767849 0.889769 0.929244
0.789517 0.895476 0.932204
0.82536 0.904768 0.939727
0.869749 0.921401 0.951919
0.905211 0.94052 0.964462
0.925399 0.949508 0.968566
0.948577 0.968902 0.983352
0.753109 0.89781 0.935958
0.76199 0.901259 0.937545
0.777584 0.906844 0.942809
0.797498 0.911025 0.941817
0.828687 0.921324 0.948135
0.859648 0.932494 0.9523
0.889723 0.943877 0.95877
0.927611 0.962646 0.976028
0.951843 0.978225 0.986099
0.762219 0.917144 0.948791
0.767544 0.91873 0.950286
0.787686 0.926055 0.954604
0.810086 0.931456 0.956619
0.843534 0.941375 0.963027
0.873121 0.951125 0.96791
0.903883 0.961059 0.971572
0.925216 0.968429 0.974853
0.94789 0.981872 0.983764
0.747555 0.942763 0.964614
0.753353 0.941451 0.96434
0.778302 0.947662 0.966873
0.812314 0.955016 0.972686
0.853758 0.966888 0.978592
0.892592 0.975677 0.982773
0.92079 0.979904 0.983368
0.94876 0.988434 0.989105
0.95288 0.989227 0.984634
0.79704 0.852842 0.922347
0.801007 0.854093 0.923079
0.805524 0.855482 0.923873
0.81294 0.855253 0.923262
0.825681 0.857755 0.925566
0.851896 0.875212 0.934844
0.87837 0.889738 0.942687
0.905623 0.910384 0.951888
0.929366 0.930282 0.962036
0.808957 0.866728 0.929473
0.812451 0.865232 0.928008
0.813535 0.864332 0.926421
0.824079 0.86923 0.929946
0.834485 0.87129 0.931594
0.856916 0.880308 0.937377
0.884886 0.897551 0.946685
0.907286 0.916396 0.956268
0.930755 0.936996 0.967254
0.832364 0.886931 0.940002
0.833234 0.886809 0.938552
0.836896 0.887755 0.940536
0.845365 0.88954 0.941115
0.854887 0.890837 0.942321
0.870604 0.897063 0.945861
0.894011 0.912871 0.954437
0.913497 0.924804 0.960159
0.935805 0.94522 0.970947
0.837354 0.897765 0.945434
0.843458 0.899229 0.946227
0.857023 0.907317 0.950652
0.869307 0.912016 0.953048
0.875074 0.913115 0.953658
0.885664 0.916426 0.955474
0.901656 0.925704 0.960433
0.920592 0.936706 0.965789
0.94139 0.955825 0.976043
0.827451 0.900038 0.946273
0.83418 0.903227 0.94789
0.845426 0.907027 0.949004
0.868162 0.920165 0.956298
0.892103 0.934707 0.965042
0.902434 0.936248 0.965133
0.913329 0.940551 0.967559
0.930632 0.951553 0.974365
0.94519 0.965286 0.981491
0.829862 0.913283 0.952087
0.833173 0.916365 0.953689
0.843153 0.919173 0.956054
0.857893 0.925322 0.959487
0.880659 0.932845 0.961913
0.907591 0.946639 0.971038
0.923217 0.955032 0.97525
0.938277 0.96524 0.981262
0.953246 0.977569 0.987716
0.834043 0.929183 0.96022
0.837049 0.93193 0.962112
0.842969 0.932692 0.962661
0.857816 0.938262 0.965621
0.874434 0.943771 0.966125
0.897093 0.950301 0.972091
0.925444 0.965362 0.980606
0.943038 0.973007 0.983764
0.954696 0.984619 0.991196
0.809964 0.933913 0.96231
0.814878 0.939635 0.964828
0.825345 0.937072 0.964111
0.84593 0.945449 0.968353
0.868009 0.951202 0.972412
0.891203 0.960037 0.977142
0.919142 0.968215 0.980514
0.941604 0.981231 0.988952
0.957458 0.987823 0.99118
0.640909 0.91368 0.947601
0.661494 0.918242 0.94876
0.708354 0.932509 0.958724
0.766751 0.944762 0.964004
0.828763 0.958648 0.973022
0.888792 0.973983 0.983413
0.926375 0.98349 0.988418
0.952453 0.986374 0.991989
0.960891 0.991257 0.994614
