LUTS/Secondary LUTS/BLADE RUNNER.cube
TITLE "Generated by Resolve"
LUT_3D_SIZE 5
0.00392157 0.00392157 0.00392157
0.0851148 0.0527352 0.0291295
0.246098 0.0610361 0.0368353
0.442176 0.0989242 0.0609293
0.604715 0.246021 0.137392
0.105592 0.232349 0.170474
0.0889296 0.196124 0.140581
0.33164 0.271809 0.200458
0.542245 0.326711 0.182467
0.677256 0.420172 0.226398
0.26566 0.583917 0.430091
0.245914 0.549279 0.373999
0.313664 0.437293 0.295918
0.560265 0.524742 0.321965
0.808362 0.691447 0.482918
0.368811 0.80415 0.609735
0.362142 0.79382 0.581872
0.320134 0.734279 0.454627
0.56762 0.702235 0.409689
0.785763 0.810315 0.419547
0.393408 0.857206 0.651499
0.385763 0.851652 0.617304
0.429969 0.864302 0.61622
0.741695 0.933257 0.657359
0.860075 0.95697 0.652903
0.0992752 0.145617 0.292775
0.203464 0.0941176 0.326131
0.446204 0.18616 0.335027
0.525597 0.123247 0.277073
0.565103 0.12813 0.141695
0.171527 0.326711 0.374502
0.170336 0.327138 0.363989
0.538781 0.413184 0.4757
0.549508 0.20119 0.283879
0.574044 0.14342 0.156634
0.357488 0.714885 0.70602
0.351797 0.708965 0.689876
0.439643 0.648341 0.586358
0.658549 0.623972 0.528298
0.829572 0.70544 0.568994
0.40589 0.840925 0.754269
0.39971 0.82974 0.737408
0.461341 0.814878 0.694636
0.605753 0.741772 0.552407
0.813397 0.827436 0.549477
0.411948 0.861677 0.748943
0.556848 0.896345 0.770245
0.582132 0.900282 0.723156
0.759258 0.93904 0.722026
0.871077 0.958099 0.715343
0.242939 0.405722 0.636103
0.220371 0.347829 0.617121
0.632471 0.475746 0.711711
0.883741 0.724865 0.849775
0.889723 0.766964 0.814847
0.298314 0.555962 0.676234
0.301137 0.558389 0.688151
0.641001 0.633463 0.768261
0.897871 0.809506 0.884871
0.894133 0.80235 0.831312
0.355291 0.68838 0.754589
0.355917 0.687297 0.750301
0.599237 0.744183 0.778851
0.833234 0.839506 0.864759
0.884077 0.800137 0.803891
0.427039 0.845747 0.871382
0.427512 0.84715 0.871489
0.733181 0.914641 0.914473
0.843061 0.923781 0.904784
0.870405 0.874174 0.799161
0.428412 0.869764 0.832944
0.611185 0.910719 0.860761
0.78677 0.949432 0.891066
0.829664 0.958877 0.863981
0.895644 0.969726 0.837293
0.485374 0.637842 0.804196
0.544808 0.645945 0.811399
0.680888 0.690623 0.837919
0.841688 0.796948 0.895262
0.945159 0.912902 0.955901
0.598428 0.737011 0.848508
0.666362 0.763973 0.864805
0.737346 0.778851 0.876631
0.860761 0.84773 0.919982
0.946654 0.93286 0.964981
0.594003 0.802899 0.863508
0.648432 0.815625 0.870863
0.772595 0.854078 0.900938
0.872862 0.900603 0.935347
0.952361 0.962371 0.978851
0.647013 0.865202 0.907286
0.690562 0.87715 0.912917
0.781247 0.901518 0.925826
0.862089 0.925017 0.934112
0.954894 0.978531 0.982544
0.707591 0.932235 0.954772
0.757305 0.943938 0.962737
0.844556 0.965148 0.975464
0.918242 0.980758 0.973938
0.927581 0.976623 0.942458
0.79704 0.852842 0.922347
0.805524 0.855482 0.923873
0.825681 0.857755 0.925566
0.87837 0.889738 0.942687
0.929366 0.930282 0.962036
0.832364 0.886931 0.940002
0.836896 0.887755 0.940536
0.854887 0.890837 0.942321
0.894011 0.912871 0.954437
0.935805 0.94522 0.970947
0.827451 0.900038 0.946273
0.845426 0.907027 0.949004
0.892103 0.934707 0.965042
0.913329 0.940551 0.967559
0.94519 0.965286 0.981491
0.834043 0.929183 0.96022
0.842969 0.932692 0.962661
0.874434 0.943771 0.966125
0.925444 0.965362 0.980606
0.954696 0.984619 0.991196
0.640909 0.91368 0.947601
0.708354 0.932509 0.958724
0.828763 0.958648 0.973022
0.926375 0.98349 0.988418
0.960891 0.991257 0.994614
