LUTS/Secondary LUTS/BREAKING BAD.cube
TITLE "Generated by Resolve"
LUT_3D_SIZE 33
0 0.00105287 0.00105287
0.00708019 0 0
0.0182498 0 0
0.0378729 0 0
0.058793 0 0
0.088014 0 0
0.120409 0 0
0.157656 0 0
0.19791 0 0
0.237491 0 0
0.275837 0 0
0.313878 0 0
0.35079 0 0
0.387518 0 0
0.423392 0 0
0.459144 0 0
0.494011 0 0
0.528649 0 0
0.56231 0 0
0.594461 0 0
0.625223 0 0
0.656138 0 0
0.68835 0 0
0.722164 0 0
0.756664 0 0
0.791531 0 0
0.826673 0 0
0.861708 0 0
0.896803 0 0
0.931655 0 0
0.966873 0 0
1 0 0
1 0 0
0 0.00941482 0.00134279
0.00767529 0.00631724 0
0.0186923 0.00328069 0
0.0390021 0 0
0.060853 0 0
0.0907759 0 0
0.123476 0 0
0.160586 0 0
0.200458 0 0
0.239643 0 0
0.277699 0 0
0.315465 0 0
0.352148 0 0
0.388769 0 0
0.424552 0 0
0.460166 0 0
0.49482 0 0
0.529534 0 0
0.563134 0 0
0.595178 0 0
0.625895 0 0
0.656809 0 0
0.689021 0 0
0.722835 0 0
0.757321 0 0
0.792081 0 0
0.827237 0 0
0.862318 0 0
0.897383 0 0
0.932235 0 0
0.967437 0 0
1 0 0
1 0 0
0 0.0178988 0.00128176
0.0077821 0.0173648 0.000793469
0.0188296 0.0168765 0.000350958
0.0403754 0.0157778 0
0.0633402 0.0146334 0
0.0937819 0.0133974 0
0.126833 0.0121614 0
0.163622 0.00613413 0
0.203021 0 0
0.241672 0 0
0.279561 0 0
0.316869 0 0
0.353567 0 0
0.390021 0 0
0.425696 0 0
0.461021 0 0
0.495781 0 0
0.530419 0 0
0.563943 0 0
0.595911 0 0
0.626581 0 0
0.657465 0 0
0.689693 0 0
0.723507 0 0
0.757977 0 0
0.792721 0 0
0.827741 0 0
0.862928 0 0
0.897978 0 0
0.932799 0 0
0.967987 0 0
1 0 0
1 0 0
0 0.0303044 0.00123598
0.00825513 0.0301213 0.00103761
0.0192874 0.029984 0.000885023
0.039704 0.0293889 0
0.0614023 0.0287938 0
0.092668 0.0277409 0
0.12726 0.0265812 0
0.165866 0.0221256 0
0.20705 0.0155337 0
0.246799 0.00823987 0
0.284459 0.000244144 0
0.321569 0 0
0.358007 0 0
0.394003 0 0
0.42945 0 0
0.464744 0 0
0.499138 0 0
0.533394 0 0
0.566567 0 0
0.598154 0 0
0.628626 0 0
0.659419 0 0
0.69163 0 0
0.725414 0 0
0.759793 0 0
0.794476 0 0
0.829374 0 0
0.864302 0 0
0.899504 0 0
0.934249 0 0
0.96939 0 0
1 0 0
1 0 0
0 0.0433967 0.000991836
0.00860609 0.0432136 0.000793469
0.0196231 0.0430762 0.000640879
0.0386206 0.04271 0
0.0588693 0.0423133 0
0.090959 0.0411078 0
0.127504 0.0395666 0
0.168032 0.0370031 0
0.21117 0.0337835 0
0.25185 0.0305943 0
0.289693 0.0274357 0
0.326787 0.0245365 0
0.362814 0.0220493 0
0.398764 0.0195315 0
0.434028 0.0170748 0
0.468925 0.0137636 0
0.502922 0 0
0.536477 0 0
0.569284 0 0
0.600488 0 0
0.630808 0 0
0.66154 0 0
0.693782 0 0
0.727504 0 0
0.761791 0 0
0.796384 0 0
0.831205 0 0
0.866056 0 0
0.900954 0 0
0.935851 0 0
0.970916 0 0
1 0 0
1 0 0
0 0.0621653 0.000915541
0.00927749 0.0620127 0.000747692
0.0203861 0.0618448 0.000564584
0.0390021 0.0615396 0.000259403
0.0588083 0.0612192 0
0.0893568 0.0602731 0
0.123903 0.0590829 0
0.164157 0.0572824 0
0.208331 0.0550393 0
0.250614 0.0526589 0
0.290761 0.0500801 0
0.329747 0.0475929 0
0.366766 0.0451667 0
0.403296 0.0428321 0
0.438529 0.0406653 0
0.473457 0.0378576 0
0.5075 0.0249027 0
0.541207 0.0120546 0
0.573846 0.00175479 0
0.604501 0 0
0.634638 0 0
0.665339 0 0
0.697643 0 0
0.731395 0 0
0.765484 0 0
0.799893 0 0
0.83447 0 0
0.869123 0 0
0.903822 0 0
0.938338 0 0
0.973281 0 0
1 0 0
1 0 0
0 0.0831159 0.000610361
0.00985733 0.0829786 0.000457771
0.0210269 0.0827802 0.000259403
0.0396429 0.0824903 0
0.0593729 0.0821698 0
0.0876173 0.0816052 0
0.119188 0.0808881 0
0.15845 0.079408 0
0.203098 0.0773632 0
0.247211 0.0745861 0
0.29041 0.0710307 0
0.332235 0.0674601 0
0.370398 0.0641337 0
0.408057 0.060914 0
0.443381 0.0581826 0
0.47834 0.0553292 0
0.51223 0.0497444 0
0.545876 0.0442206 0
0.578256 0.0395209 0
0.608942 0.0353399 0
0.6392 0.0317845 0
0.670024 0.0282292 0
0.702571 0.0242771 0
0.736309 0.0200809 0
0.770367 0.00527962 0
0.803906 0 0
0.838071 0 0
0.872557 0 0
0.907118 0 0
0.941451 0 0
0.976211 0 0
1 0 0
1 0 0
0 0.109148 0.00030518
0.0107729 0.10901 0.000167849
0.0219272 0.108812 0
0.040528 0.108522 0
0.0601205 0.108248 0
0.0875257 0.107805 0
0.1178 0.107301 0
0.155596 0.106188 0
0.198688 0.104616 0
0.242222 0.10219 0
0.286244 0.0988022 0
0.328862 0.0953078 0
0.369192 0.0913558 0
0.408911 0.0874342 0
0.445319 0.0838483 0
0.481834 0.0802014 0
0.516258 0.0768597 0
0.550515 0.0735332 0
0.582742 0.0706493 0
0.613336 0.0682078 0
0.643503 0.0657511 0
0.674556 0.063035 0
0.707042 0.0598611 0
0.740887 0.0562753 0
0.774701 0.0433356 0
0.808927 0.0220493 0
0.843153 0.00404364 0
0.877455 0 0
0.911559 0 0
0.9458 0 0
0.980667 0 0
1 0 0
1 0 0
0.000793469 0.138613 0.000137331
0.0119173 0.138415 0
0.0230564 0.138231 0
0.0416419 0.137926 0
0.0612345 0.137652 0
0.0886397 0.137209 0
0.118883 0.136706 0
0.15494 0.135973 0
0.1953 0.134981 0
0.236652 0.13344 0
0.279347 0.131197 0
0.321935 0.128344 0
0.364889 0.124056 0
0.406958 0.119677 0
0.445686 0.114839 0
0.484321 0.110002 0
0.519661 0.105501 0
0.554681 0.101091 0
0.586923 0.0974289 0
0.617716 0.0941787 0
0.647898 0.0910811 0
0.679179 0.0876783 0
0.711879 0.0838331 0
0.745769 0.0796216 0
0.77969 0.0720684 0
0.813825 0.0615396 0
0.848157 0.0520333 0
0.882582 0.0441138 0
0.917098 0.0364385 0
0.951247 0.0295872 0
0.986053 0.0227665 0
1 0.0163729 0
1 0.0099031 0
0.00201419 0.168658 0
0.0131228 0.168475 0
0.0242466 0.168276 0
0.0426947 0.168017 0
0.0623941 0.167712 0
0.0897841 0.167254 0
0.119844 0.166796 0
0.155138 0.166217 0
0.193912 0.165576 0
0.233616 0.164599 0
0.274571 0.16321 0
0.316136 0.161089 0
0.359335 0.157336 0
0.402029 0.153307 0
0.442847 0.148165 0
0.483268 0.143038 0
0.520027 0.137942 0
0.556527 0.132921 0
0.589563 0.128618 0
0.621073 0.124727 0
0.651835 0.121019 0
0.683574 0.117067 0
0.716731 0.112642 0
0.750484 0.108049 0
0.784649 0.103227 0
0.818799 0.0983291 0
0.853468 0.0931563 0
0.887755 0.0879683 0
0.922164 0.0826429 0
0.956207 0.0772564 0
0.991058 0.0717784 0
1 0.066331 0
1 0.0606546 0
0.00331121 0.199451 0
0.0144045 0.199268 0
0.0253147 0.19913 0
0.0438697 0.198825 0
0.0636149 0.198505 0
0.0910048 0.198047 0
0.12105 0.197589 0
0.156313 0.197009 0
0.195041 0.196353 0
0.233707 0.195605 0
0.272633 0.194675 0
0.311971 0.193378 0
0.352804 0.191135 0
0.393896 0.188495 0
0.436118 0.184176 0
0.477836 0.179904 0
0.517082 0.174685 0
0.555505 0.169711 0
0.590051 0.164965 0
0.623117 0.16054 0
0.654704 0.15642 0
0.687617 0.151873 0
0.721294 0.147112 0
0.755581 0.142138 0
0.790005 0.137041 0
0.824414 0.131838 0
0.858747 0.126558 0
0.892989 0.12108 0
0.927352 0.11545 0
0.961425 0.10959 0
0.996048 0.10367 0
1 0.0973831 0
1 0.0910048 0
0.00450141 0.230442 0
0.0155795 0.230243 0
0.0264591 0.230106 0
0.0449989 0.229816 0
0.0647288 0.22948 0
0.0921035 0.229038 0
0.122133 0.228565 0
0.157366 0.227985 0
0.19585 0.227375 0
0.233982 0.226734 0
0.271473 0.226123 0
0.309239 0.225376 0
0.348165 0.224201 0
0.387564 0.222644 0
0.429816 0.219333 0
0.471839 0.215946 0
0.512337 0.21117 0
0.55256 0.206424 0
0.588785 0.20148 0
0.623209 0.196933 0
0.656107 0.192401 0
0.690074 0.187518 0
0.72488 0.1823 0
0.759731 0.17702 0
0.794491 0.171679 0
0.82919 0.166247 0
0.863737 0.160769 0
0.89839 0.155032 0
0.932631 0.14931 0
0.966842 0.143236 0
1 0.137194 0
1 0.130571 0
1 0.123751 0
0.0059205 0.261601 0
0.0167849 0.261463 0
0.0278477 0.26128 0
0.0463722 0.260975 0
0.0660716 0.260639 0
0.0932479 0.260243 0
0.123461 0.259724 0
0.158648 0.259144 0
0.197086 0.258534 0
0.235157 0.257893 0
0.272587 0.257267 0
0.309789 0.256641 0
0.347097 0.255818 0
0.384649 0.254795 0
0.424308 0.252735 0
0.463798 0.250614 0
0.505028 0.246754 0
0.545785 0.24303 0
0.58378 0.238437 0
0.619715 0.234287 0
0.653742 0.229877 0
0.689418 0.224796 0
0.725582 0.219257 0
0.762066 0.213428 0
0.797925 0.207752 0
0.833249 0.202152 0
0.868559 0.19649 0
0.903166 0.190936 0
0.937957 0.18529 0
0.97258 0.179614 0
1 0.173831 0
1 0.167803 0
1 0.161578 0
0.00733959 0.292836 0
0.0182193 0.292683 0
0.0292668 0.2925 0
0.0477607 0.292195 0
0.0673991 0.291875 0
0.0946059 0.291463 0
0.124819 0.290944 0
0.15996 0.290349 0
0.198337 0.289738 0
0.236347 0.289097 0
0.273533 0.288533 0
0.310445 0.287938 0
0.346471 0.287388 0
0.382696 0.286763 0
0.419684 0.285832 0
0.457069 0.284749 0
0.498192 0.281895 0
0.539101 0.279088 0
0.578195 0.275074 0
0.615412 0.271427 0
0.650889 0.267094 0
0.687602 0.26215 0
0.725353 0.256321 0
0.762966 0.250263 0
0.800092 0.244251 0
0.836347 0.238407 0
0.872251 0.232639 0
0.907622 0.226963 0
0.942901 0.221378 0
0.978347 0.215869 0
1 0.210437 0
1 0.204807 0
1 0.198993 0
0.00874342 0.324315 0
0.0197604 0.324132 0
0.0307927 0.323934 0
0.0492714 0.323629 0
0.0687419 0.323354 0
0.0960708 0.322896 0
0.126223 0.322377 0
0.161166 0.321843 0
0.199649 0.321172 0
0.237613 0.320531 0
0.274723 0.319966 0
0.311589 0.319371 0
0.34757 0.318807 0
0.383383 0.318273 0
0.419333 0.317556 0
0.455421 0.316793 0
0.493706 0.315007 0
0.532006 0.313207 0
0.571267 0.310094 0
0.608499 0.307454 0
0.644724 0.303792 0
0.682155 0.299504 0
0.720562 0.294163 0
0.759777 0.288212 0
0.798138 0.282185 0
0.83595 0.27602 0
0.873274 0.269902 0
0.909575 0.26389 0
0.946075 0.257893 0
0.982361 0.252232 0
1 0.246555 0
1 0.240833 0
1 0.235096 0
0.0103151 0.355764 0
0.0213169 0.355581 0
0.0323339 0.355383 0
0.0505989 0.355138 0
0.0702373 0.354803 0
0.0975509 0.354345 0
0.127535 0.353872 0
0.162585 0.353292 0
0.200992 0.352621 0
0.238682 0.352026 0
0.275929 0.351415 0
0.312734 0.350805 0
0.348653 0.350256 0
0.384176 0.349767 0
0.419074 0.349279 0
0.453956 0.348791 0
0.489693 0.347982 0
0.525322 0.347204 0
0.564431 0.345022 0
0.601816 0.343267 0
0.638346 0.340429 0
0.676493 0.336767 0
0.715908 0.331823 0
0.756161 0.326162 0
0.796002 0.320073 0
0.835081 0.313741 0
0.87396 0.30724 0
0.911482 0.300832 0
0.948959 0.294545 0
0.986419 0.288594 0
1 0.28278 0
1 0.276997 0
1 0.27129 0
0.0120241 0.387427 0
0.0230106 0.387228 0
0.033814 0.387091 0
0.0522469 0.386801 0
0.07187 0.386465 0
0.0991531 0.386007 0
0.129122 0.385534 0
0.164096 0.384939 0
0.202426 0.384283 0
0.240009 0.383688 0
0.277195 0.383062 0
0.313939 0.382467 0
0.349645 0.381964 0
0.38529 0.38143 0
0.420157 0.380926 0
0.454948 0.380453 0
0.48983 0.379828 0
0.524575 0.379248 0
0.561166 0.377874 0
0.596338 0.376867 0
0.631968 0.37496 0
0.66894 0.372488 0
0.708461 0.368338 0
0.749172 0.363394 0
0.789792 0.357809 0
0.830137 0.351766 0
0.869947 0.345556 0
0.908705 0.339147 0
0.947463 0.332799 0
0.986191 0.326513 0
1 0.320333 0
1 0.314244 0
1 0.30811 0
0.0137484 0.419074 0
0.024506 0.418952 0
0.0354925 0.418753 0
0.0538949 0.418448 0
0.0734874 0.418112 0
0.10074 0.41767 0
0.130709 0.417182 0
0.165621 0.416602 0
0.203738 0.415961 0
0.241352 0.415335 0
0.278462 0.414725 0
0.314946 0.414176 0
0.350805 0.413611 0
0.386419 0.413077 0
0.421241 0.412589 0
0.455955 0.412116 0
0.489952 0.411688 0
0.523842 0.411292 0
0.558053 0.410681 0
0.590723 0.410498 0
0.62565 0.409476 0
0.661768 0.408087 0
0.700877 0.404898 0
0.742321 0.40058 0
0.783642 0.39556 0
0.825071 0.389822 0
0.86598 0.383841 0
0.90602 0.377462 0
0.945953 0.371038 0
0.985946 0.364446 0
1 0.357931 0
1 0.351431 0
1 0.344976 0
0.0153964 0.450965 0
0.0263371 0.450767 0
0.0372931 0.450584 0
0.0556802 0.450278 0
0.0751202 0.449973 0
0.102312 0.449531 0
0.132433 0.449012 0
0.167269 0.448417 0
0.205188 0.447807 0
0.242786 0.447166 0
0.279789 0.446555 0
0.316213 0.446006 0
0.35201 0.445441 0
0.387579 0.444907 0
0.42237 0.444419 0
0.457038 0.443946 0
0.490959 0.443519 0
0.524773 0.443137 0
0.558251 0.442725 0
0.59028 0.442695 0
0.623194 0.442283 0
0.657069 0.441566 0
0.694331 0.439384 0
0.734737 0.436072 0
0.775906 0.43183 0
0.817441 0.426856 0
0.859174 0.421347 0
0.89987 0.415427 0
0.940902 0.409262 0
0.981231 0.402899 0
1 0.396551 0
1 0.389914 0
1 0.383383 0
0.0172427 0.482795 0
0.0281834 0.482612 0
0.0391241 0.482414 0
0.0573434 0.482155 0
0.0768292 0.481834 0
0.104051 0.481376 0
0.134157 0.480842 0
0.168872 0.480278 0
0.206714 0.479652 0
0.244221 0.479011 0
0.280964 0.478447 0
0.317479 0.477852 0
0.353231 0.477287 0
0.388739 0.476738 0
0.423514 0.476249 0
0.458091 0.475792 0
0.491951 0.47538 0
0.525704 0.474998 0
0.558633 0.474723 0
0.590143 0.474815 0
0.621103 0.474952 0
0.65243 0.474937 0
0.688121 0.473655 0
0.727123 0.471427 0
0.767895 0.468055 0
0.809873 0.463737 0
0.851881 0.4589 0
0.893751 0.4533 0
0.935195 0.447593 0
0.97641 0.441352 0
1 0.435233 0
1 0.428534 0
1 0.421881 0
0.0192264 0.514763 0
0.0301518 0.51458 0
0.0408789 0.514427 0
0.059205 0.514138 0
0.0787213 0.513802 0
0.105928 0.513329 0
0.135805 0.512856 0
0.170489 0.512276 0
0.208347 0.51162 0
0.24564 0.511009 0
0.282368 0.510414 0
0.318807 0.509819 0
0.354498 0.509255 0
0.389944 0.508721 0
0.424521 0.508263 0
0.459068 0.507805 0
0.492943 0.507378 0
0.526696 0.506996 0
0.559411 0.506767 0
0.590707 0.506905 0
0.621118 0.507179 0
0.651728 0.507378 0
0.685618 0.506645 0
0.722515 0.505074 0
0.761654 0.50251 0
0.802594 0.499123 0
0.844099 0.495064 0
0.886137 0.490135 0
0.927977 0.484977 0
0.969329 0.47921 0
1 0.473411 0
1 0.466987 0
1 0.460517 0
0.0212406 0.546761 0
0.0320287 0.546593 0
0.0428626 0.546426 0
0.0611582 0.54612 0
0.0806439 0.545785 0
0.10782 0.545327 0
0.137682 0.544854 0
0.172274 0.544274 0
0.209995 0.543618 0
0.247059 0.543023 0
0.283803 0.542412 0
0.32015 0.541817 0
0.355764 0.541253 0
0.390982 0.540764 0
0.425666 0.540276 0
0.460212 0.539803 0
0.494057 0.539376 0
0.527764 0.538994 0
0.560433 0.538766 0
0.591653 0.538933 0
0.621683 0.539315 0
0.651896 0.539635 0
0.684123 0.5393 0
0.718441 0.538369 0
0.755825 0.536553 0
0.79559 0.534035 0
0.836118 0.530907 0
0.878294 0.526665 0
0.920272 0.522133 0
0.961746 0.516899 0
1 0.511467 0
1 0.505455 0
1 0.499229 0
0.0231632 0.578897 0
0.0340429 0.578698 0
0.0449378 0.578515 0
0.0632181 0.57821 0
0.0825513 0.577905 0
0.109621 0.577462 0
0.139666 0.576944 0
0.174151 0.576349 0
0.211521 0.575753 0
0.248646 0.575113 0
0.285283 0.574502 0
0.321508 0.573922 0
0.356893 0.573404 0
0.392233 0.572869 0
0.426871 0.572366 0
0.461372 0.571908 0
0.495186 0.571481 0
0.528862 0.571084 0
0.561486 0.570871 0
0.592615 0.571038 0
0.622507 0.571466 0
0.652567 0.571817 0
0.684138 0.571664 0
0.717571 0.570962 0
0.753262 0.569665 0
0.791012 0.567819 0
0.830274 0.565301 0
0.871092 0.562005 0
0.912551 0.55819 0
0.954177 0.553521 0
0.996262 0.548775 0
1 0.54316 0
1 0.537377 0
0.0253147 0.611017 0
0.0361944 0.610834 0
0.0470741 0.610651 0
0.0653239 0.610346 0
0.0845502 0.610056 0
0.111681 0.609598 0
0.141695 0.609064 0
0.176059 0.608484 0
0.213275 0.607889 0
0.250278 0.607263 0
0.286778 0.606638 0
0.322744 0.606104 0
0.358236 0.605539 0
0.393515 0.605005 0
0.428092 0.604517 0
0.462562 0.604044 0
0.49633 0.603616 0
0.529976 0.603235 0
0.562539 0.603021 0
0.593576 0.603204 0
0.623438 0.603632 0
0.653513 0.603983 0
0.684932 0.603891 0
0.717983 0.603311 0
0.752544 0.602274 0
0.787976 0.600946 0
0.825055 0.59913 0
0.864744 0.596582 0
0.904891 0.593668 0
0.946334 0.5897 0
0.98822 0.585626 0
1 0.580575 0
1 0.57528 0
0.0275731 0.643214 0
0.0384375 0.64303 0
0.0491035 0.642893 0
0.0673228 0.642588 0
0.086717 0.642252 0
0.113817 0.641794 0
0.143603 0.641321 0
0.177859 0.640742 0
0.215106 0.640085 0
0.251957 0.63946 0
0.288136 0.638911 0
0.324193 0.638315 0
0.359609 0.637751 0
0.394812 0.637217 0
0.429358 0.636728 0
0.463767 0.636255 0
0.497505 0.635828 0
0.531106 0.635447 0
0.563607 0.635233 0
0.594568 0.635447 0
0.624399 0.635874 0
0.654475 0.63621 0
0.685863 0.636118 0
0.718746 0.635615 0
0.752621 0.634745 0
0.786923 0.633692 0
0.822705 0.632273 0
0.860395 0.630396 0
0.899062 0.628092 0
0.939635 0.624887 0
0.980621 0.621561 0
1 0.617075 0
1 0.612512 0
0.0298924 0.675471 0
0.0405432 0.675334 0
0.0514076 0.675151 0
0.0695964 0.674846 0
0.0889601 0.67451 0
0.115953 0.674067 0
0.145785 0.673564 0
0.179934 0.672999 0
0.216983 0.672343 0
0.253468 0.671778 0
0.289738 0.671168 0
0.325673 0.670573 0
0.361013 0.670024 0
0.396139 0.66949 0
0.43064 0.668986 0
0.464973 0.668528 0
0.49868 0.668101 0
0.53225 0.66772 0
0.564691 0.667521 0
0.595575 0.667735 0
0.62536 0.668162 0
0.655467 0.668482 0
0.6869 0.668391 0
0.719829 0.667857 0
0.75346 0.667079 0
0.787655 0.666087 0
0.822446 0.664912 0
0.858167 0.663417 0
0.894911 0.661646 0
0.933852 0.65922 0
0.973526 0.656596 0
1 0.652918 0
1 0.649058 0
0.0320897 0.70782 0
0.0429236 0.707637 0
0.0537728 0.707439 0
0.071931 0.707134 0
0.0910658 0.706859 0
0.118105 0.706401 0
0.148028 0.705867 0
0.18204 0.705287 0
0.218753 0.704692 0
0.255222 0.704082 0
0.291356 0.703471 0
0.327184 0.702892 0
0.362448 0.702342 0
0.397391 0.701823 0
0.431739 0.701366 0
0.466041 0.700893 0
0.499702 0.700465 0
0.533227 0.700084 0
0.565637 0.699886 0
0.596521 0.700099 0
0.626352 0.700511 0
0.656458 0.700816 0
0.687953 0.700694 0
0.720928 0.700145 0
0.754482 0.699397 0
0.788357 0.698528 0
0.822705 0.697444 0
0.857084 0.696254 0
0.892393 0.694865 0
0.929854 0.693004 0
0.967865 0.69099 0
1 0.687984 0
1 0.685084 0
0.0345769 0.740185 0
0.0454108 0.739986 0
0.0560464 0.739849 0
0.0741741 0.739544 0
0.0934768 0.739208 0
0.120485 0.73875 0
0.15021 0.738277 0
0.184146 0.737682 0
0.220691 0.737072 0
