LUTS/Secondary LUTS/BREAKING BAD.cube
TITLE "Generated by Resolve"
LUT_3D_SIZE 5
0 0.00105287 0.00105287
0.19791 0 0
0.494011 0 0
0.756664 0 0
1 0 0
0.000793469 0.138613 0.000137331
0.1953 0.134981 0
0.519661 0.105501 0
0.77969 0.0720684 0
1 0.0099031 0
0.0120241 0.387427 0
0.202426 0.384283 0
0.48983 0.379828 0
0.789792 0.357809 0
1 0.30811 0
0.0275731 0.643214 0
0.215106 0.640085 0
0.497505 0.635828 0
0.752621 0.634745 0
1 0.612512 0
0.0477302 0.902739 0
0.23122 0.899611 0
0.507195 0.895476 0
0.761181 0.894255 0
1 0.885893 0
0 0.00169375 0.108339
0.189624 0 0.105119
0.480186 0 0.100298
0.744137 0 0.0923934
1 0 0.0507362
0.00183108 0.139254 0.107332
0.193957 0.136034 0.104005
0.511528 0.111955 0.0733501
0.785275 0.0618906 0.0318914
1 0.0383612 0.0191348
0.0131228 0.388037 0.106294
0.167742 0.389364 0.084535
0.492393 0.381186 0.0612039
0.806806 0.349157 0
1 0.313176 0
0.0286717 0.643824 0.106966
0.151095 0.645762 0.0707866
0.485145 0.639612 0.061265
0.754314 0.636103 0.0426642
1 0.611933 0
0.0488136 0.903319 0.109361
0.232303 0.900206 0.10631
0.508217 0.896086 0.102495
0.762249 0.894835 0.101839
1 0.886503 0.0949874
0 0.00277714 0.31722
0.191836 0 0.314092
0.481209 0 0.309575
0.737652 0 0.308507
1 0 0.300191
0.00395209 0.14052 0.315892
0.192401 0.13518 0.323049
0.495537 0.122835 0.31696
0.761379 0.103426 0.310597
1 0.120363 0.298512
0.0150912 0.389212 0.313756
0.164385 0.389868 0.31371
0.492454 0.381491 0.305699
0.780438 0.364416 0.283742
1 0.349477 0.272755
0.0307622 0.644938 0.31252
0.14548 0.647059 0.300816
0.475486 0.642756 0.285588
0.757321 0.637568 0.272465
1 0.609201 0.141375
0.0509194 0.904402 0.312108
0.234333 0.901289 0.308934
0.510109 0.897185 0.304829
0.764172 0.895857 0.303716
1 0.88751 0.296025
0.00236515 0.00411994 0.543252
0.194369 0.0010071 0.540017
0.483284 0 0.535546
0.739544 0 0.534798
1 0 0.526711
0.00675975 0.142031 0.541802
0.18732 0.131426 0.559823
0.495796 0.118318 0.554604
0.760662 0.10135 0.549325
1 0.125216 0.525338
0.0172274 0.390616 0.539391
0.160693 0.389151 0.552056
0.491768 0.381231 0.544533
0.76112 0.37406 0.540383
1 0.373602 0.522683
0.0328527 0.646265 0.537346
0.146105 0.647562 0.538231
0.475349 0.642908 0.53315
0.758358 0.637461 0.528298
1 0.620981 0.508064
0.0533303 0.905638 0.535943
0.236545 0.902541 0.532845
0.51223 0.898421 0.528618
0.766354 0.896986 0.527291
1 0.88864 0.519295
0.00555428 0.00572213 0.779431
0.197284 0.00256352 0.77615
0.485603 0 0.771603
0.741482 0 0.770672
1 0 0.762921
0.0101015 0.143786 0.77792
0.201312 0.140734 0.774685
0.489158 0.136599 0.770153
0.745159 0.136019 0.769177
1 0.127962 0.761334
0.0202335 0.392065 0.77557
0.210315 0.388907 0.772351
0.496239 0.384634 0.767895
0.752163 0.383642 0.766827
1 0.375433 0.758953
0.0349889 0.647684 0.773251
0.222416 0.644556 0.770016
0.504555 0.640299 0.765576
0.759869 0.639155 0.764309
1 0.63093 0.756329
0.0555123 0.906996 0.771084
0.238636 0.903929 0.767926
0.514382 0.899718 0.763561
0.768597 0.898177 0.761883
1 0.88983 0.753399
