LUTS/Secondary LUTS/BREAKING BAD.cube
TITLE "Generated by Resolve"
LUT_3D_SIZE 9
0 0.00105287 0.00105287
0.058793 0 0
0.19791 0 0
0.35079 0 0
0.494011 0 0
0.625223 0 0
0.756664 0 0
0.896803 0 0
1 0 0
0 0.0433967 0.000991836
0.0588693 0.0423133 0
0.21117 0.0337835 0
0.362814 0.0220493 0
0.502922 0 0
0.630808 0 0
0.761791 0 0
0.900954 0 0
1 0 0
0.000793469 0.138613 0.000137331
0.0612345 0.137652 0
0.1953 0.134981 0
0.364889 0.124056 0
0.519661 0.105501 0
0.647898 0.0910811 0
0.77969 0.0720684 0
0.917098 0.0364385 0
1 0.0099031 0
0.0059205 0.261601 0
0.0660716 0.260639 0
0.197086 0.258534 0
0.347097 0.255818 0
0.505028 0.246754 0
0.653742 0.229877 0
0.797925 0.207752 0
0.937957 0.18529 0
1 0.161578 0
0.0120241 0.387427 0
0.07187 0.386465 0
0.202426 0.384283 0
0.349645 0.381964 0
0.48983 0.379828 0
0.631968 0.37496 0
0.789792 0.357809 0
0.947463 0.332799 0
1 0.30811 0
0.0192264 0.514763 0
0.0787213 0.513802 0
0.208347 0.51162 0
0.354498 0.509255 0
0.492943 0.507378 0
0.621118 0.507179 0
0.761654 0.50251 0
0.927977 0.484977 0
1 0.460517 0
0.0275731 0.643214 0
0.086717 0.642252 0
0.215106 0.640085 0
0.359609 0.637751 0
0.497505 0.635828 0
0.624399 0.635874 0
0.752621 0.634745 0
0.899062 0.628092 0
1 0.612512 0
0.0371099 0.772564 0
0.0959335 0.771603 0
0.222721 0.769467 0
0.365194 0.767178 0
0.502174 0.76527 0
0.628183 0.765408 0
0.756725 0.764141 0
0.893141 0.760128 0
1 0.754253 0
0.0477302 0.902739 0
0.10634 0.901732 0
0.23122 0.899611 0
0.371405 0.897322 0
0.507195 0.895476 0
0.63238 0.895689 0
0.761181 0.894255 0
0.897475 0.890089 0
1 0.885893 0
0 0.00128176 0.0345312
0.0569314 0.000381476 0.0335699
0.18996 0 0.0312352
0.343328 0 0.0238346
0.48957 0 0.0148623
0.623102 0 0
0.755047 0 0
0.895674 0 0
1 0 0
0 0.0436255 0.0344091
0.0584268 0.0426642 0.0334478
0.206073 0.0365606 0.0214084
0.364752 0.0234379 0.0138094
0.507485 0 0
0.635843 0 0
0.767056 0 0
0.905898 0 0
1 0 0
0.00114443 0.138827 0.0336919
0.0537118 0.139651 0.0301518
0.196628 0.135378 0.0173648
0.37293 0.121019 0
0.52665 0.100313 0
0.653208 0.0853742 0
0.784726 0.0551919 0
0.921843 0.026276 0
1 0.0146334 0
0.00627146 0.26183 0.0328069
0.051545 0.263005 0.0275578
0.190036 0.260304 0.0244907
0.348241 0.256306 0
0.510216 0.245136 0
0.659342 0.226322 0
0.802823 0.203128 0
0.942351 0.179721 0
1 0.164858 0
0.0123903 0.38764 0.0323796
0.0545052 0.388525 0.0260166
0.190906 0.38616 0.0230411
0.346777 0.383154 0.0204166
0.490593 0.380301 0
0.634928 0.374395 0
0.794247 0.355825 0
0.951934 0.3299 0
1 0.309026 0
0.0195926 0.514977 0.0322881
0.0603494 0.515557 0.025391
0.194812 0.513329 0.0224155
0.34934 0.510567 0.0198672
0.491722 0.508232 0.0178836
0.621637 0.507622 0
0.76379 0.502297 0
0.931334 0.483848 0
1 0.460441 0
0.0279393 0.643442 0.0326085
0.0681468 0.643763 0.02533
0.200961 0.64155 0.0222782
0.353536 0.638941 0.0198215
0.494942 0.63679 0.0179446
0.623835 0.63653 0.0180667
0.753094 0.635157 0
0.900679 0.628061 0
1 0.612497 0
0.0374762 0.772793 0.0334173
0.0775616 0.772915 0.0258183
0.208423 0.770748 0.0227665
0.358602 0.768246 0.0203861
0.498924 0.766186 0.0185855
0.626993 0.766094 0.0188449
0.756436 0.764691 0.0179141
0.893645 0.760479 0.00288396
1 0.754452 0
0.0480812 0.902922 0.0348669
0.106645 0.901946 0.0338598
0.231586 0.899809 0.031754
0.37171 0.897551 0.0296025
0.50753 0.895689 0.0279393
0.632715 0.895903 0.0284428
0.761517 0.894438 0.0274205
0.897826 0.890272 0.0238499
1 0.886107 0.0204166
0 0.00169375 0.108339
0.0576944 0.000732433 0.107317
0.189624 0 0.105119
0.339376 0 0.102647
0.480186 0 0.100298
0.612238 0 0.0980545
0.744137 0 0.0923934
0.886748 0 0.0793469
1 0 0.0507362
0 0.0440375 0.108049
0.0583352 0.0426947 0.111437
0.196933 0.0390784 0.108339
0.351583 0.0335088 0.103853
0.494255 0.0267948 0.0978408
0.625071 0 0.0925917
0.757076 0 0.0836194
0.898222 0 0.0579232
1 0 0.0428016
0.00183108 0.139254 0.107332
0.0529793 0.139773 0.107469
0.193957 0.136034 0.104005
0.360403 0.126482 0.0937514
0.511528 0.111955 0.0733501
0.646647 0.0938125 0.0564279
0.785275 0.0618906 0.0318914
0.926894 0.0146181 0.00494392
1 0.0383612 0.0191348
0.00698863 0.262242 0.106554
0.0505837 0.263401 0.102327
0.184131 0.261585 0.0961929
0.350134 0.256458 0.0837873
0.518853 0.242313 0.00148013
0.666438 0.221683 0
0.809308 0.196735 0
0.949523 0.169528 0
1 0.179126 0
0.0131228 0.388037 0.106294
0.0532235 0.389044 0.099321
0.167742 0.389364 0.084535
0.339483 0.385504 0.0788891
0.492393 0.381186 0.0612039
0.643473 0.372152 0
0.806806 0.349157 0
0.96318 0.321233 0
1 0.313176 0
0.020325 0.515373 0.106416
0.0589456 0.516091 0.0982376
0.155413 0.517372 0.0756847
0.332647 0.51397 0.0693065
0.48687 0.510521 0.065919
0.623026 0.50869 0.047364
0.771054 0.500984 0
0.942153 0.479393 0
1 0.459846 0
0.0286717 0.643824 0.106966
0.0666819 0.644282 0.0982528
0.151095 0.645762 0.0707866
0.329686 0.642618 0.0639353
0.485145 0.639612 0.061265
0.621088 0.638392 0.0605478
0.754314 0.636103 0.0426642
0.905928 0.627482 0
1 0.611933 0
0.0382086 0.773175 0.107958
0.0760662 0.773434 0.0990616
0.152697 0.774777 0.068513
0.3299 0.771878 0.0612955
0.485603 0.7691 0.0588998
0.621378 0.768261 0.0586099
0.754452 0.766339 0.0574044
0.894759 0.761318 0.045243
1 0.754726 0
0.0488136 0.903319 0.109361
0.107301 0.902358 0.108415
0.232303 0.900206 0.10631
0.372351 0.897963 0.104189
0.508217 0.896086 0.102495
0.633356 0.896315 0.102968
0.762249 0.894835 0.101839
0.898543 0.890654 0.0983139
1 0.886503 0.0949874
0 0.00218204 0.209705
0.0588693 0.00122072 0.208667
0.190585 0 0.206424
0.340047 0 0.203922
0.480385 0 0.201938
0.61059 0 0.201297
0.736904 0 0.200641
0.874693 0 0.195392
1 0 0.186831
0 0.0446174 0.209247
0.0578317 0.0425116 0.216434
0.196933 0.0386816 0.214527
0.35111 0.0335851 0.210513
0.492164 0.0294041 0.205264
0.620432 0.0276188 0.202258
0.747494 0.0204623 0.198947
0.885023 0 0.191592
1 0 0.185504
0.0027924 0.139864 0.208408
0.0525826 0.139467 0.213977
0.193408 0.135897 0.210681
0.350149 0.130617 0.206989
0.495247 0.123705 0.203128
0.629633 0.114153 0.199222
0.765301 0.0977646 0.191226
0.909651 0.0692302 0.177081
1 0.089662 0.178058
0.00791943 0.262806 0.20734
0.051133 0.263584 0.208087
0.18381 0.261616 0.205737
0.347707 0.257084 0.201343
0.50454 0.248554 0.188022
0.643336 0.238453 0.178378
0.784726 0.221408 0.164523
0.933318 0.193881 0.14313
1 0.206806 0.153903
0.0140993 0.388602 0.206699
0.054139 0.389441 0.204013
0.165484 0.389822 0.197345
0.340093 0.385657 0.193149
0.494408 0.381018 0.181827
0.649104 0.370504 0.121675
0.808942 0.348592 0.0425879
0.961913 0.323018 0
1 0.325353 0.0568246
0.0213169 0.515908 0.206302
0.0599527 0.516564 0.201968
0.150912 0.518135 0.189059
0.324498 0.515663 0.179522
0.48452 0.511864 0.174609
0.624537 0.509453 0.161868
0.780133 0.499184 0.0269627
0.954238 0.47364 0
1 0.459968 0
0.0296635 0.644358 0.206165
0.0677195 0.6448 0.200977
0.144808 0.646708 0.183246
0.306462 0.64596 0.16437
0.47509 0.642451 0.158648
0.618402 0.640406 0.155322
0.756085 0.637217 0.143893
0.913863 0.626413 0
1 0.610651 0
0.0391852 0.773709 0.206332
0.0771038 0.773953 0.200702
0.145266 0.775769 0.17998
0.292485 0.776043 0.152255
0.466789 0.772931 0.145251
0.61387 0.771069 0.14316
0.751934 0.768582 0.139956
0.896422 0.762509 0.129625
1 0.755413 0.0592355
0.0498054 0.903838 0.206821
0.108293 0.902861 0.205829
0.233265 0.900725 0.203677
0.373266 0.898482 0.201465
0.509117 0.896605 0.199664
0.634195 0.896834 0.200046
0.763149 0.895323 0.198764
0.899458 0.891127 0.19501
1 0.886976 0.191379
0 0.00277714 0.31722
0.0601205 0.00180056 0.316243
0.191836 0 0.314092
0.341085 0 0.311574
0.481209 0 0.309575
0.611276 0 0.30898
0.737652 0 0.308507
0.874113 0 0.30454
1 0 0.300191
0.000762951 0.0452583 0.316777
0.0560616 0.0417487 0.328649
0.195911 0.0378576 0.326772
0.350179 0.0335088 0.321782
0.491539 0.0298314 0.316609
0.62034 0.0282597 0.313283
0.747051 0.0265812 0.310109
0.882765 0.0220035 0.304616
1 0.0274205 0.299962
0.00395209 0.14052 0.315892
0.0520485 0.13875 0.325383
0.192401 0.13518 0.323049
0.350027 0.129885 0.319661
0.495537 0.122835 0.31696
0.628946 0.114427 0.31519
0.761379 0.103426 0.310597
0.899687 0.0901808 0.302327
1 0.120363 0.298512
0.00883497 0.263478 0.314687
0.0515755 0.263661 0.318776
0.182254 0.261448 0.319753
0.347143 0.257099 0.315236
0.494301 0.252399 0.311833
0.627512 0.248356 0.309743
0.76199 0.240467 0.305608
0.908217 0.223407 0.295705
1 0.237415 0.293584
0.0150912 0.389212 0.313756
0.0549783 0.389792 0.314168
0.164385 0.389868 0.31371
0.340139 0.385687 0.309575
0.492454 0.381491 0.305699
0.635798 0.375662 0.29482
0.780438 0.364416 0.283742
0.930343 0.346807 0.268956
1 0.349477 0.272755
0.022385 0.516518 0.313039
0.0609751 0.517037 0.311391
0.151003 0.518364 0.306355
0.324453 0.515816 0.30103
0.486519 0.51162 0.298146
0.626383 0.509117 0.289784
0.785916 0.497154 0.241672
0.954635 0.474098 0.182559
1 0.466285 0.202243
0.0307622 0.644938 0.31252
0.0688182 0.645319 0.309728
0.14548 0.647059 0.300816
0.304814 0.646448 0.289799
0.475486 0.642756 0.285588
0.619028 0.640742 0.282918
0.757321 0.637568 0.272465
0.921645 0.62533 0.175463
1 0.609201 0.141375
0.0401617 0.774319 0.31223
0.0782483 0.774502 0.308766
0.146227 0.776211 0.297063
0.288273 0.776959 0.27953
0.457923 0.774823 0.26865
0.610437 0.77261 0.265431
0.750759 0.769985 0.260731
0.897719 0.763424 0.249088
1 0.755535 0.22211
0.0509194 0.904402 0.312108
0.109407 0.903426 0.311116
0.234333 0.901289 0.308934
0.374289 0.899046 0.306676
0.510109 0.897185 0.304829
0.635111 0.897429 0.305135
0.764172 0.895857 0.303716
0.900481 0.891661 0.299809
1 0.88751 0.296025
0.000869764 0.00341802 0.428702
0.0613413 0.00247196 0.427726
0.193057 0.000289921 0.425498
0.342229 0 0.423011
0.482261 0 0.421073
0.612268 0 0.420645
0.738567 0 0.420142
0.874861 0 0.416175
1 0 0.411841
0.00207523 0.0460059 0.428214
0.053727 0.0407263 0.44387
0.194003 0.0370947 0.441474
0.34902 0.0333867 0.435813
0.490822 0.0302281 0.430518
0.620081 0.0289616 0.427115
0.747082 0.0274052 0.42414
0.883116 0.0228733 0.418326
1 0.0288701 0.411704
0.00529488 0.141253 0.427268
0.051545 0.13785 0.439643
0.190463 0.133761 0.43975
0.349737 0.12842 0.436164
0.495857 0.121065 0.434134
0.629068 0.112871 0.433204
0.76109 0.102541 0.429145
0.89958 0.090013 0.421225
1 0.124117 0.410651
0.00999466 0.264179 0.426078
0.052079 0.26363 0.432547
0.179873 0.260853 0.43711
0.346807 0.25658 0.432074
0.494408 0.251911 0.428977
0.627619 0.247898 0.427512
0.761807 0.240253 0.424811
0.904997 0.226276 0.418265
1 0.246998 0.409216
0.0161288 0.389883 0.424933
0.0558328 0.390127 0.427543
0.162661 0.389654 0.431968
0.339345 0.38558 0.42771
0.491829 0.381613 0.424231
0.626795 0.378973 0.42269
0.760967 0.374304 0.419242
0.905364 0.363745 0.412161
1 0.371038 0.407126
0.0233921 0.517174 0.423987
0.0619516 0.517525 0.424216
0.150622 0.518441 0.424781
0.32343 0.515846 0.421881
0.486656 0.511711 0.417914
0.625132 0.509438 0.415869
0.770321 0.502342 0.404501
0.92459 0.488289 0.390295
1 0.486152 0.389609
0.0318914 0.645579 0.423209
0.0699474 0.645869 0.422065
0.145937 0.647334 0.418875
0.304295 0.646586 0.413443
0.475944 0.642832 0.409628
0.620462 0.64062 0.408255
0.759091 0.637278 0.400458
0.928756 0.6224 0.350469
1 0.607874 0.335851
0.0413062 0.774945 0.422629
0.0794232 0.775067 0.420706
0.147097 0.776623 0.41445
0.288365 0.777203 0.404807
0.458091 0.775021 0.397925
0.613703 0.772183 0.398016
0.75259 0.769757 0.394232
0.898604 0.763531 0.383764
1 0.754574 0.348806
0.0521248 0.905013 0.422171
0.110597 0.904036 0.42118
0.235477 0.9019 0.418982
0.375372 0.899672 0.416709
0.511162 0.897795 0.414816
0.635981 0.898085 0.415122
0.765255 0.896422 0.413581
0.901579 0.892226 0.409583
1 0.888075 0.405707
0.00236515 0.00411994 0.543252
0.0626383 0.00320439 0.54229
0.194369 0.0010071 0.540017
0.343389 0 0.53753
0.483284 0 0.535546
0.613123 0 0.535103
0.739544 0 0.534798
0.87599 0 0.53109
1 0 0.526711
0.00343328 0.0468147 0.542794
0.0522469 0.0400244 0.559686
0.191913 0.0366827 0.557275
0.347875 0.0333867 0.551781
0.490181 0.0306249 0.546609
0.619837 0.0296788 0.543221
0.747066 0.0283818 0.540063
0.883345 0.0238651 0.534493
1 0.0299687 0.526375
0.00675975 0.142031 0.541802
0.0512245 0.137072 0.55555
0.18732 0.131426 0.559823
0.348959 0.125963 0.55639
0.495796 0.118318 0.554604
0.628809 0.11075 0.553323
0.760662 0.10135 0.549325
0.899199 0.0896162 0.541711
1 0.125216 0.525338
0.0114595 0.264866 0.540627
0.052781 0.263539 0.548714
0.176364 0.259739 0.557565
0.345968 0.25565 0.551705
0.494392 0.25095 0.548684
0.627939 0.246799 0.547707
0.762112 0.239017 0.545861
0.905165 0.225177 0.540566
1 0.247944 0.523964
0.0172274 0.390616 0.539391
0.0568551 0.390402 0.543572
0.160693 0.389151 0.552056
0.337896 0.385183 0.548592
0.491768 0.381231 0.544533
0.626963 0.378653 0.543252
0.76112 0.37406 0.540383
0.905058 0.363684 0.535103
1 0.373602 0.522683
0.0243687 0.517861 0.538293
0.0629129 0.517983 0.53991
0.14992 0.518395 0.544594
0.321706 0.515679 0.544259
0.486412 0.51165 0.539269
0.624582 0.509606 0.537942
0.760159 0.505913 0.53521
0.903777 0.498024 0.528923
1 0.500816 0.521447
0.0328527 0.646265 0.537346
0.0709544 0.646418 0.537377
0.146105 0.647562 0.538231
0.303181 0.646571 0.537133
0.475349 0.642908 0.53315
0.620737 0.640711 0.531136
0.758358 0.637461 0.528298
0.91249 0.627237 0.514717
1 0.620981 0.508064
0.0424506 0.775586 0.536614
0.0805829 0.775631 0.535744
0.147799 0.776974 0.533486
0.288167 0.777325 0.529076
0.457633 0.775128 0.524483
0.614023 0.772366 0.523186
0.753506 0.769787 0.520745
0.899886 0.763439 0.511681
1 0.751553 0.477897
0.0533303 0.905638 0.535943
0.111818 0.904662 0.534981
0.236545 0.902541 0.532845
0.376471 0.900282 0.530541
0.51223 0.898421 0.528618
0.636957 0.898711 0.528908
0.766354 0.896986 0.527291
0.902693 0.892775 0.523232
1 0.88864 0.519295
0.00378424 0.00491341 0.660395
0.0641642 0.00395209 0.659388
0.195773 0.00175479 0.657115
0.344579 0 0.654597
0.484398 0 0.652583
0.614069 0 0.652125
0.740444 0 0.651743
0.876814 0 0.648066
1 0 0.644007
0.005066 0.0476387 0.659892
0.0514229 0.0398108 0.67657
0.190509 0.0365606 0.674434
0.346944 0.0335546 0.669322
0.489677 0.0310826 0.664302
0.619715 0.0303655 0.661311
0.747082 0.0293278 0.658213
0.883558 0.0250248 0.652445
1 0.03122 0.643473
0.00836194 0.14287 0.658885
0.0513008 0.136492 0.673167
0.182239 0.127779 0.68365
0.347189 0.121981 0.680339
0.495293 0.115068 0.677028
0.62829 0.108431 0.675029
0.759976 0.100038 0.670924
0.898604 0.0892195 0.663294
1 0.126497 0.642435
0.013077 0.265599 0.657755
0.0536812 0.263462 0.666865
0.172351 0.258167 0.679927
0.343389 0.253239 0.677546
0.494392 0.24802 0.674357
0.629236 0.243442 0.673075
0.763439 0.236042 0.670161
0.905119 0.223743 0.66424
1 0.248951 0.641138
0.018616 0.391333 0.656428
0.0580758 0.390677 0.66157
0.158404 0.388479 0.67393
0.334386 0.384314 0.67335
0.49073 0.379995 0.670161
0.627588 0.377035 0.668559
0.762875 0.372015 0.665553
0.905089 0.363058 0.659129
1 0.374472 0.639826
0.0254978 0.518593 0.655268
0.0640879 0.518441 0.657954
0.149126 0.518212 0.666209
0.319554 0.515251 0.668299
0.484703 0.511299 0.664149
0.624552 0.509087 0.662501
0.760739 0.505318 0.659663
0.904036 0.497688 0.653574
1 0.501671 0.638529
0.033753 0.646983 0.654169
0.0719615 0.646967 0.655146
0.14609 0.6477 0.65919
0.301472 0.646433 0.661692
0.473884 0.642847 0.658228
0.620478 0.640665 0.655634
0.757778 0.637675 0.653162
0.902373 0.630777 0.647562
1 0.630137 0.637247
0.043473 0.776272 0.653162
0.0816358 0.776242 0.653056
0.148287 0.777325 0.653941
0.287526 0.77734 0.653819
0.456504 0.775128 0.651423
0.613657 0.772473 0.648814
0.753796 0.769894 0.646174
0.899931 0.763531 0.639902
1 0.756115 0.631006
0.0545205 0.906294 0.652262
0.112993 0.905333 0.65127
0.237598 0.903243 0.649119
0.3776 0.900969 0.646769
0.513329 0.899092 0.644831
0.63798 0.899351 0.645121
0.767498 0.897597 0.643427
0.903868 0.89337 0.639323
1 0.889235 0.63534
0.00555428 0.00572213 0.779431
0.0658274 0.00476081 0.778439
0.197284 0.00256352 0.77615
0.345724 0.000213626 0.773678
0.485603 0 0.771603
0.615122 0 0.77113
0.741482 0 0.770672
0.87776 0 0.766949
1 0 0.762921
0.00691234 0.0485084 0.779019
0.067155 0.0475471 0.778012
0.198566 0.0453956 0.775708
0.346929 0.0430915 0.773236
0.486778 0.0412299 0.771176
0.616175 0.0409857 0.770748
0.742565 0.0406958 0.770306
0.879072 0.0369268 0.766522
1 0.032639 0.762478
0.0101015 0.143786 0.77792
0.0702678 0.14284 0.776913
0.201312 0.140734 0.774685
0.349645 0.138399 0.772168
0.489158 0.136599 0.770153
0.61828 0.136446 0.769772
0.745159 0.136019 0.769177
0.881758 0.132235 0.765347
1 0.127962 0.761334
0.014786 0.266392 0.776791
0.0747692 0.265431 0.775784
0.205676 0.263233 0.773541
0.353307 0.260914 0.771145
0.49276 0.258991 0.769131
0.621302 0.258854 0.768902
0.74873 0.258152 0.768139
0.885267 0.254292 0.764324
1 0.250034 0.760311
0.0202335 0.392065 0.77557
0.0799878 0.391104 0.774594
0.210315 0.388907 0.772351
0.357351 0.386526 0.769879
0.496239 0.384634 0.767895
0.624247 0.384543 0.767742
0.752163 0.383642 0.766827
0.888914 0.37966 0.762921
1 0.375433 0.758953
0.0269627 0.519295 0.774426
0.0864271 0.518334 0.773419
0.2159 0.516152 0.771176
0.361807 0.513787 0.768704
0.500328 0.511849 0.76669
0.627588 0.511864 0.766644
0.755917 0.510781 0.765576
0.892592 0.506798 0.761669
1 0.502571 0.757702
0.0349889 0.647684 0.773251
0.0941329 0.646723 0.772244
0.222416 0.644556 0.770016
0.366751 0.642222 0.76759
0.504555 0.640299 0.765576
0.631037 0.640436 0.765637
0.759869 0.639155 0.764309
0.89659 0.635111 0.760357
1 0.63093 0.756329
0.04448 0.776974 0.772137
0.103288 0.775998 0.77113
0.229969 0.773877 0.768917
0.372488 0.771527 0.766491
0.509361 0.769635 0.764508
0.634928 0.769879 0.764675
0.763973 0.76846 0.763165
0.900526 0.764416 0.759075
1 0.760296 0.754879
0.0555123 0.906996 0.771084
0.114 0.90602 0.770077
0.238636 0.903929 0.767926
0.378637 0.90164 0.76556
0.514382 0.899718 0.763561
0.638987 0.899977 0.763745
0.768597 0.898177 0.761883
0.905013 0.893965 0.757595
1 0.88983 0.753399
