LUTS/Secondary LUTS/CRYSTAL AURA.cube
TITLE "Generated by Resolve"
LUT_3D_SIZE 33
0.000793469 0.00015259 4.57771e-05
0.0121614 0.00123598 0.000961318
0.0235599 0.00233463 0.00195315
0.0356146 0.00350958 0.0031281
0.0489509 0.00469978 0.00428778
0.066804 0.0061799 0.00553903
0.0853285 0.00767529 0.00654612
0.106188 0.0093843 0.0075227
0.131609 0.0108492 0.00828565
0.158038 0.0123293 0.0090486
0.186465 0.0137331 0.00961318
0.215335 0.0147402 0.010132
0.245167 0.0157321 0.0105287
0.274922 0.0167086 0.0109407
0.305699 0.0176699 0.0112917
0.337102 0.0189364 0.0115511
0.369558 0.0204471 0.01178
0.403265 0.0221866 0.0119783
0.438483 0.0242313 0.012192
0.475654 0.0266728 0.0124361
0.513985 0.0293736 0.0127718
0.554086 0.0323186 0.0131838
0.594049 0.0353094 0.0136873
0.634379 0.0383307 0.0143435
0.673457 0.0411688 0.0150607
0.710658 0.0437018 0.0158999
0.746654 0.0460365 0.0167391
0.779156 0.0480507 0.0173953
0.811261 0.0498817 0.0180819
0.839063 0.051194 0.0178225
0.866484 0.0524147 0.0175326
0.890425 0.0527504 0.0163882
0.913893 0.052903 0.0150149
0.000793469 0.00859083 0
0.012253 0.00993362 0.000854505
0.0237583 0.0113069 0.00207523
0.0360571 0.0128481 0.00349432
0.0497902 0.014374 0.00469978
0.0678569 0.0162203 0.00590524
0.0867628 0.0180972 0.00689708
0.107958 0.0200504 0.00784314
0.134554 0.0217136 0.00856031
0.161334 0.0234073 0.00927749
0.190158 0.0248569 0.00978103
0.219211 0.0259403 0.0102541
0.249653 0.0269322 0.0106355
0.279591 0.0280003 0.0110018
0.311147 0.029099 0.0112612
0.342794 0.0306706 0.0114595
0.376257 0.0326085 0.0116426
0.410666 0.0348211 0.0118257
0.446906 0.0373236 0.0120699
0.484535 0.0402838 0.012314
0.523659 0.0435492 0.012665
0.563912 0.0470741 0.0130922
0.603998 0.0505226 0.0136263
0.64416 0.0538491 0.0142824
0.68278 0.0570687 0.0150912
0.719829 0.0603189 0.0160067
0.755062 0.0634318 0.0169375
0.787167 0.0658427 0.0177462
0.818265 0.0681468 0.0184176
0.845472 0.069688 0.0183566
0.872358 0.0711986 0.0182345
0.895674 0.0713512 0.0171511
0.918624 0.0713817 0.016022
0.000823987 0.0170443 0
0.0123903 0.0186313 0.000747692
0.024033 0.0202792 0.00224308
0.0365148 0.0221714 0.00387579
0.05066 0.024094 0.00509651
0.068864 0.0263066 0.00628672
0.0882582 0.0285344 0.00727855
0.110353 0.0307469 0.00814832
0.137499 0.0326085 0.00883497
0.164706 0.0345006 0.00949111
0.193835 0.0359655 0.00993362
0.223362 0.0370794 0.0103609
0.254032 0.0381933 0.0106813
0.284352 0.039292 0.011017
0.316762 0.0406348 0.0112154
0.348745 0.042771 0.011368
0.383078 0.045182 0.0115816
0.418158 0.048249 0.01178
0.4551 0.0516976 0.0120699
0.493156 0.0560311 0.0124208
0.532799 0.0607614 0.0129244
0.573404 0.0655833 0.0135195
0.61384 0.0702983 0.0142367
0.653956 0.0747387 0.0150607
0.692226 0.0788891 0.0159609
0.729244 0.0826734 0.0169528
0.763806 0.0856947 0.0178683
0.795666 0.0884718 0.0187076
0.825833 0.0905013 0.0193179
0.852445 0.0921645 0.0193637
0.87863 0.0934768 0.0193332
0.901274 0.093431 0.0184634
0.923903 0.0934462 0.0175631
0.00102235 0.0256962 0
0.0128176 0.0275731 0.00077821
0.0245365 0.0295109 0.00244144
0.0371862 0.0316472 0.00425727
0.0514992 0.0338445 0.00543221
0.0697337 0.0366979 0.00648508
0.0892195 0.0397498 0.00737011
0.112245 0.0426947 0.00807202
0.139834 0.0453346 0.00859083
0.167224 0.0476997 0.00920119
0.196399 0.0489815 0.00982681
0.226169 0.050309 0.0103761
0.257343 0.052079 0.0106966
0.28835 0.0539864 0.0110018
0.321157 0.0562142 0.0112459
0.353719 0.0594644 0.011429
0.388678 0.063035 0.0116884
0.424079 0.067216 0.0119631
0.461723 0.0717937 0.0123445
0.500252 0.076936 0.0127718
0.540261 0.0822003 0.0133669
0.581079 0.087602 0.0140078
0.621347 0.0928206 0.0147707
0.661494 0.0978103 0.0156405
0.699641 0.102235 0.0165713
0.736431 0.106157 0.0175631
0.770611 0.109483 0.0184939
0.802045 0.112047 0.0193637
0.831601 0.114244 0.0199588
0.857893 0.115648 0.0201419
0.883513 0.116747 0.0201724
0.905882 0.11664 0.019501
0.928237 0.11667 0.0188907
0.00170901 0.0347601 0
0.01355 0.0369268 0.000610361
0.02533 0.0391241 0.00215152
0.0377966 0.0415198 0.00363165
0.0519722 0.0442359 0.00495918
0.0698405 0.0479591 0.00633249
0.0894331 0.0521706 0.00732433
0.1131 0.0563973 0.00788891
0.141405 0.0604257 0.00825513
0.169467 0.0636606 0.00889601
0.198978 0.0649729 0.00975052
0.228809 0.066453 0.0104067
0.260426 0.0687266 0.0107271
0.292134 0.0710002 0.0110475
0.325521 0.0738231 0.0113222
0.358541 0.0776684 0.0115511
0.393957 0.0819409 0.0118257
0.430091 0.0869306 0.0121309
0.468284 0.0923323 0.0125887
0.507256 0.0979934 0.0131075
0.547631 0.104051 0.0137484
0.58854 0.110002 0.0144656
0.628779 0.115724 0.0152743
0.668635 0.121263 0.0161746
0.706447 0.126085 0.0171359
0.742992 0.130388 0.018143
0.776486 0.133776 0.0190738
0.807355 0.136446 0.0200198
0.836347 0.138415 0.0206302
0.862287 0.13959 0.0209506
0.887404 0.14049 0.0210727
0.909651 0.140169 0.0205844
0.931899 0.140124 0.0202182
0.00239567 0.0446784 0
0.0142061 0.0469825 0
0.0259709 0.0495155 0.00129702
0.038407 0.0523537 0.00273136
0.0525216 0.0556802 0.00445563
0.0699626 0.060029 0.00628672
0.0890669 0.0645914 0.00750744
0.112566 0.0695811 0.00801099
0.141131 0.074815 0.00833143
0.169619 0.0793164 0.00881971
0.200275 0.08159 0.00958267
0.231006 0.0839399 0.0101778
0.263035 0.0864118 0.010544
0.295399 0.0889906 0.0109407
0.329259 0.092546 0.0112612
0.362722 0.0969558 0.0115358
0.39881 0.102083 0.011841
0.43508 0.107744 0.0121767
0.473747 0.114168 0.0126802
0.512795 0.121187 0.0132296
0.55314 0.128161 0.0139315
0.593835 0.135225 0.0146639
0.633555 0.141527 0.0154879
0.673289 0.147555 0.0163882
0.710567 0.152422 0.0173495
0.746609 0.156634 0.0183261
0.779751 0.159808 0.0192721
0.810437 0.162295 0.0202029
0.839017 0.164065 0.0208438
0.864759 0.165133 0.0212711
0.889693 0.165743 0.0214847
0.911925 0.165377 0.0211948
0.933974 0.165225 0.0210574
0.00357061 0.0557565 0
0.0153811 0.0581979 0
0.0271763 0.0607156 0.000503548
0.0394751 0.0637522 0.00198367
0.0536355 0.0673686 0.0041352
0.0703441 0.071809 0.00645457
0.0885634 0.076463 0.00781262
0.111528 0.0821088 0.00825513
0.13991 0.0888533 0.00852979
0.168704 0.0949721 0.00881971
0.200656 0.0987564 0.00936904
0.232166 0.102388 0.00982681
0.264912 0.105226 0.0103761
0.297871 0.108293 0.0109102
0.332265 0.113008 0.0112154
0.366506 0.118349 0.01149
0.402975 0.12459 0.0118563
0.439551 0.131472 0.0122072
0.478416 0.138842 0.0127108
0.517464 0.146456 0.0132906
0.557916 0.154055 0.0140078
0.598367 0.161547 0.0147555
0.637934 0.168276 0.01561
0.677165 0.17438 0.0164797
0.714153 0.179416 0.0173953
0.749905 0.183474 0.0183566
0.782681 0.186374 0.0192721
0.812924 0.188663 0.0201877
0.841184 0.190295 0.0208591
0.866804 0.191165 0.0213779
0.891569 0.191531 0.0217136
0.913771 0.191104 0.021622
0.936019 0.190799 0.0216983
0.00523384 0.067216 0
0.0169223 0.069688 0
0.0285496 0.0721447 0
0.0406195 0.0754253 0.00131228
0.0546426 0.0793317 0.00367742
0.0706645 0.0838636 0.00584421
0.0883345 0.0886702 0.00703441
0.110506 0.094789 0.00793469
0.138201 0.102266 0.00880446
0.166766 0.109758 0.00909438
0.199725 0.11545 0.00959792
0.232425 0.121263 0.00996414
0.26627 0.125658 0.0104982
0.300084 0.129915 0.0109712
0.334997 0.135607 0.0112306
0.370031 0.141695 0.0115053
0.406806 0.148699 0.0118715
0.443732 0.156222 0.012253
0.482658 0.164263 0.0127718
0.522026 0.172686 0.0133364
0.562142 0.18088 0.0140536
0.602274 0.188739 0.0148165
0.64155 0.195682 0.0156252
0.680293 0.202182 0.0164187
0.716976 0.207141 0.0172885
0.7523 0.211383 0.0181735
0.78468 0.214435 0.019028
0.814618 0.216632 0.0198672
0.84271 0.218051 0.0205386
0.868315 0.21883 0.0211032
0.893019 0.219196 0.0214694
0.915297 0.218524 0.0215152
0.93756 0.218097 0.0217746
0.00688182 0.0793622 0
0.0182956 0.0819257 0
0.0296788 0.0845502 0
0.0414588 0.0877852 0.000610361
0.0554818 0.0917983 0.00263981
0.0712902 0.0964675 0.00453193
0.0884718 0.101457 0.00605783
0.110109 0.107958 0.00766003
0.136706 0.115709 0.00929274
0.164446 0.12372 0.00976577
0.197955 0.131441 0.0102235
0.231769 0.139727 0.0104219
0.266712 0.146288 0.0107424
0.301472 0.152575 0.0110323
0.337057 0.159121 0.0112917
0.372763 0.165911 0.0116121
0.409979 0.173754 0.0119936
0.447028 0.182071 0.0123751
0.486259 0.191058 0.0128939
0.525567 0.200076 0.0134127
0.565667 0.208789 0.0140688
0.605432 0.21677 0.0147707
0.644465 0.224063 0.0155184
0.682902 0.230411 0.0162509
0.719158 0.235691 0.0170291
0.754208 0.239887 0.0178531
0.786313 0.242954 0.0186007
0.816083 0.24509 0.019379
0.844022 0.246464 0.0199893
0.869673 0.246983 0.0205234
0.894377 0.247105 0.0209049
0.916609 0.246433 0.0210422
0.93904 0.245716 0.0213931
0.00889601 0.0922866 0
0.0201114 0.0949416 0
0.0311284 0.0976425 0
0.0429084 0.101305 0
0.0569772 0.105699 0.0016022
0.0724804 0.110643 0.00318914
0.0892195 0.115816 0.00515755
0.110307 0.122057 0.00740063
0.135775 0.129809 0.00968948
0.162753 0.138262 0.0102998
0.196719 0.147753 0.0106508
0.231281 0.158114 0.0107118
0.266758 0.166171 0.0109865
0.302144 0.174426 0.0112612
0.33872 0.182742 0.0115969
0.375235 0.191073 0.0119783
0.412757 0.199985 0.0123293
0.45034 0.209049 0.0126955
0.48954 0.218555 0.013138
0.528862 0.228016 0.0135653
0.568811 0.237018 0.0141146
0.608469 0.245274 0.0147402
0.64715 0.25275 0.0154421
0.685374 0.259327 0.0161288
0.721401 0.264561 0.016846
0.756085 0.268894 0.0175326
0.787991 0.271809 0.0181735
0.8177 0.273808 0.0188144
0.845441 0.274952 0.0193637
0.870954 0.275319 0.0198367
0.895644 0.275212 0.0202182
0.917922 0.274266 0.0203708
0.940307 0.273411 0.020798
0.0110933 0.106691 0
0.0220035 0.109575 0
0.0328069 0.112505 0
0.0445716 0.116213 0
0.0586557 0.12047 0.000411994
0.0738384 0.125307 0.00164797
0.090074 0.130541 0.00419623
0.11107 0.137041 0.00706493
0.136263 0.145281 0.00979629
0.162875 0.154147 0.0105287
0.196628 0.164477 0.0108949
0.230579 0.175738 0.0112917
0.266056 0.185763 0.0117952
0.302373 0.196658 0.0118257
0.339544 0.206973 0.0121157
0.376699 0.216953 0.0124361
0.414618 0.227039 0.0126955
0.45243 0.236912 0.0130465
0.491875 0.246952 0.0134737
0.531395 0.256779 0.013901
0.571435 0.266148 0.014374
0.610925 0.274846 0.0149081
0.649607 0.282475 0.0154574
0.687541 0.289128 0.0160372
0.723369 0.294347 0.0166018
0.757992 0.298405 0.0171359
0.7897 0.301183 0.0176394
0.819226 0.302861 0.0181735
0.846891 0.303853 0.0185702
0.872297 0.303853 0.0189212
0.896803 0.303487 0.0191806
0.919188 0.302281 0.0193179
0.941573 0.301137 0.0196994
0.0131685 0.122011 0
0.0235752 0.124941 0
0.0340429 0.128084 0
0.0459907 0.131975 0
0.0602121 0.136233 0
0.0756695 0.140993 0.000259403
0.0916915 0.146548 0.00340276
0.113207 0.153719 0.0069276
0.137942 0.162188 0.00987259
0.164034 0.171206 0.0106661
0.196841 0.181857 0.0114748
0.229618 0.193515 0.0124208
0.265522 0.20531 0.0127413
0.302586 0.218708 0.0123751
0.340124 0.230579 0.0126192
0.377752 0.241825 0.0129549
0.416037 0.253071 0.0133516
0.454261 0.264118 0.0137636
0.494148 0.275212 0.0141299
0.5337 0.285801 0.0144961
0.573693 0.295735 0.0148165
0.613275 0.304814 0.0151675
0.651759 0.31252 0.0155337
0.689738 0.319173 0.0159915
0.725383 0.324178 0.0164034
0.759854 0.328161 0.0168307
0.791424 0.33077 0.0172122
0.820768 0.332158 0.0175479
0.848386 0.332815 0.0178531
0.873594 0.332479 0.0180972
0.898207 0.331884 0.018265
0.920439 0.330373 0.0183413
0.942855 0.328878 0.0186465
0.0144656 0.138506 0
0.024094 0.141466 0
0.0350652 0.144732 0
0.047837 0.148699 0
0.0623636 0.152941 0
0.0778515 0.157839 0
0.0939193 0.16408 0.00292973
0.116075 0.172076 0.00715648
0.139895 0.18056 0.00993362
0.165682 0.189212 0.0108034
0.197559 0.200214 0.0121309
0.229969 0.212589 0.0136416
0.266255 0.225589 0.0135195
0.30341 0.240009 0.0128481
0.340352 0.252018 0.013901
0.378149 0.265126 0.0139315
0.416983 0.278233 0.014313
0.455634 0.291051 0.0146181
0.495766 0.30341 0.0148623
0.535103 0.3149 0.0150607
0.575418 0.325521 0.0152743
0.614969 0.335012 0.0155337
0.653544 0.342962 0.0157778
0.691554 0.350011 0.0161288
0.72723 0.355108 0.0164034
0.7617 0.358923 0.0167239
0.793118 0.361135 0.0169528
0.822416 0.362356 0.0171664
0.849851 0.362554 0.017319
0.875135 0.361852 0.0174563
0.899657 0.360845 0.0175174
0.921736 0.358953 0.0175174
0.943999 0.356985 0.0178073
0.0154574 0.155703 0
0.0246891 0.158892 0
0.0366369 0.162615 0
0.0502785 0.166934 0
0.0654002 0.17145 0
0.0810101 0.176974 0
0.0979171 0.183505 0.00291447
0.1196 0.191653 0.0069276
0.142473 0.199908 0.00851453
0.168673 0.209262 0.010071
0.200366 0.221103 0.0133059
0.23238 0.232944 0.0149233
0.26775 0.245472 0.014847
0.303197 0.259007 0.0155337
0.340108 0.272587 0.0158694
0.378332 0.288029 0.0149538
0.417609 0.302846 0.0151675
0.456626 0.317067 0.0154116
0.49688 0.330388 0.0156863
0.536294 0.34313 0.0158236
0.576837 0.354803 0.0159915
0.616419 0.365072 0.0161135
0.655146 0.373693 0.0161746
0.693401 0.38088 0.0163119
0.729046 0.385977 0.0164187
0.763546 0.389654 0.0166018
0.794903 0.391669 0.0167086
0.824079 0.392569 0.0168002
0.851377 0.39237 0.0168307
0.8766 0.391333 0.0168612
0.900954 0.389822 0.0168002
0.923003 0.387442 0.0167391
0.945235 0.385107 0.0169528
0.0165866 0.175158 0
0.0269932 0.178836 0
0.0395514 0.182635 0
0.0543679 0.187167 0
0.0698711 0.191959 0
0.0850233 0.197955 0
0.102998 0.204822 0.000915541
0.123949 0.212863 0.00366217
0.145647 0.220859 0.00602731
0.172671 0.231113 0.010132
0.20383 0.242634 0.0149081
0.235035 0.253391 0.0162814
0.26978 0.26569 0.0168002
0.304265 0.279225 0.0183108
0.340993 0.294148 0.0175631
0.379187 0.310689 0.0156252
0.417884 0.325185 0.0168917
0.457023 0.340658 0.0165408
0.497337 0.355734 0.0167391
0.537179 0.370428 0.0166323
0.578042 0.383505 0.0167544
0.617899 0.394873 0.0166781
0.656809 0.404059 0.0166476
0.694881 0.411795 0.0166934
0.730709 0.417197 0.0166781
0.764996 0.421073 0.0167544
0.796292 0.423026 0.0167697
0.825589 0.423514 0.0168002
0.852842 0.422995 0.0168612
0.878126 0.4215 0.0168307
0.902403 0.419638 0.0167391
0.924468 0.416922 0.0166323
0.946487 0.41413 0.0168765
0.0186007 0.195377 0
0.0306859 0.199222 0
0.0435492 0.203174 0
0.0589761 0.208087 0
0.0741894 0.213153 0
0.0892195 0.219409 0
0.108186 0.226902 0
0.129015 0.234974 0.00108339
0.15053 0.243717 0.0052491
0.178378 0.254093 0.0117342
0.208164 0.264408 0.0163729
0.239033 0.274891 0.0172732
0.273442 0.28777 0.0192111
0.307729 0.30132 0.0210422
0.343648 0.315358 0.0200656
0.380011 0.330129 0.0197452
0.418189 0.345907 0.0197452
0.457343 0.363622 0.0177615
0.497871 0.380545 0.0176547
0.537682 0.396689 0.0174411
0.578851 0.410773 0.0174868
0.618708 0.423728 0.0173037
0.657938 0.43389 0.0172274
0.696223 0.442481 0.0171511
0.732189 0.448218 0.0170291
0.766323 0.452399 0.0169375
0.79765 0.454231 0.016846
0.826963 0.454704 0.016846
0.854276 0.45388 0.0168612
0.879667 0.451896 0.0168307
0.903868 0.449744 0.0166629
0.925856 0.446586 0.0165255
0.947631 0.443381 0.016846
0.0225681 0.216983 0
0.0355077 0.221134 0
0.049485 0.225666 0
0.0652781 0.230915 0
0.0797894 0.236637 0
0.0956283 0.243656 0
0.115389 0.251591 0
0.135866 0.259785 0.000915541
0.15874 0.268925 0.00579843
0.18584 0.278462 0.0120546
0.214008 0.287816 0.0155337
0.244755 0.298924 0.0184939
0.278416 0.311208 0.0227359
0.311559 0.322942 0.0244755
0.346792 0.336156 0.0240024
0.381903 0.35024 0.0241398
0.419272 0.367224 0.0222477
0.457984 0.385657 0.0187839
0.497749 0.402304 0.019913
0.537469 0.419821 0.0186313
0.578515 0.435981 0.018204
0.618708 0.450858 0.0178378
0.658656 0.462425 0.0177768
0.697169 0.472023 0.0176852
0.733364 0.478813 0.0175326
0.767773 0.483406 0.0174411
0.799023 0.485573 0.0173342
0.828351 0.486061 0.017258
0.85568 0.485206 0.0172122
0.880964 0.483116 0.0171206
0.905226 0.480491 0.0169528
0.927153 0.476982 0.0168002
0.948959 0.473274 0.0172732
0.0278019 0.240009 0
0.041001 0.244327 0
0.0559701 0.249226 0
0.0715648 0.254917 0
0.0854963 0.261128 0
0.103105 0.268666 0
0.122866 0.276692 0
0.143084 0.284886 0.00169375
0.167422 0.293935 0.00634775
0.194232 0.303441 0.011902
0.221759 0.312932 0.0153353
0.252247 0.323995 0.0209659
0.283909 0.334585 0.0268864
0.316472 0.345205 0.0280919
0.351919 0.358312 0.0280156
0.38645 0.37229 0.0280003
0.422309 0.388113 0.025864
0.458885 0.404318 0.0243534
0.497871 0.422415 0.0230106
0.537087 0.441962 0.0197757
0.577752 0.460349 0.0188907
0.618326 0.476661 0.0185397
0.658366 0.489891 0.0182193
0.697505 0.501381 0.0180819
0.734127 0.508949 0.0180362
0.769055 0.51429 0.0180209
0.800427 0.516747 0.0179446
0.829557 0.517449 0.0177005
0.856687 0.516686 0.0175174
0.881987 0.514366 0.0173953
0.906264 0.511727 0.017258
0.928359 0.507698 0.0172122
0.950134 0.503548 0.017792
0.0336919 0.264271 0
0.0477607 0.268956 0
0.0632486 0.274418 0
0.0781109 0.280507 0
0.0926375 0.286885 0
0.112184 0.294789 0
0.131884 0.302861 0.000823987
0.152438 0.311345 0.00393683
0.178225 0.320424 0.00773632
0.204486 0.329885 0.0115511
0.231678 0.339712 0.0166781
0.260212 0.349508 0.0247807
0.290211 0.358495 0.0310216
0.323522 0.36994 0.0316625
0.358572 0.382406 0.0330663
0.391226 0.394369 0.0335088
0.425711 0.408591 0.0315557
0.460441 0.42359 0.0297093
0.498482 0.442969 0.0258335
0.536645 0.462821 0.0214542
0.57702 0.480964 0.0213779
0.616999 0.499016 0.0194858
0.656641 0.514885 0.0185092
0.696132 0.52813 0.0184024
0.733532 0.536995 0.0185092
0.769039 0.543709 0.0186007
0.800824 0.546975 0.0186007
0.830274 0.548165 0.0183261
0.85774 0.547692 0.0181277
0.883162 0.545495 0.0179751
0.907546 0.54284 0.0178683
0.929595 0.538552 0.0178683
0.951476 0.534279 0.0185397
0.0406806 0.289189 0.000228885
0.0556802 0.294377 0.000244144
0.0710307 0.300038 0.000335698
0.0854353 0.306325 0.000885023
0.102129 0.3131 0.00128176
0.12195 0.321248 0.00155642
0.140917 0.329244 0.00341802
0.163439 0.337819 0.00596628
0.189105 0.347036 0.00816358
0.214313 0.356237 0.0112001
0.241001 0.365789 0.01944
0.268421 0.375418 0.0284733
0.299626 0.385016 0.0318303
0.332662 0.396109 0.0347906
0.365606 0.406394 0.0397803
0.397116 0.417182 0.0394293
0.431586 0.430686 0.037171
0.465324 0.445029 0.0342565
0.500862 0.462821 0.030396
0.537026 0.480369 0.0272831
0.576013 0.499626 0.0243687
0.615137 0.519936 0.0204166
0.654307 0.538552 0.0189059
0.694438 0.553155 0.0191196
0.732143 0.564034 0.0188907
0.768307 0.572213 0.0189517
0.800717 0.576577 0.018967
0.830747 0.578668 0.0189059
0.858518 0.578607 0.0188754
0.884092 0.576562 0.0188296
0.908553 0.573892 0.0188296
0.930663 0.569635 0.0188754
0.952499 0.565103 0.0195621
0.0485389 0.314916 0.00222782
0.0637675 0.320409 0.00221256
0.0784009 0.326375 0.00265507
0.0937057 0.332891 0.00318914
0.112367 0.340047 0.00341802
0.132265 0.348211 0.00404364
0.151156 0.356222 0.00608835
0.175906 0.365072 0.00766003
0.201297 0.37438 0.00923171
0.225666 0.383841 0.0150912
0.251926 0.39321 0.0237125
0.279713 0.402777 0.0297704
0.310857 0.41239 0.032639
0.342061 0.421881 0.0400702
0.372671 0.430381 0.0482032
0.404974 0.441764 0.0451362
0.4392 0.454414 0.0435645
0.470192 0.466621 0.0415351
0.503929 0.482216 0.037171
0.537957 0.498222 0.0328069
0.575769 0.519005 0.0272221
0.613794 0.539605 0.0229038
0.65275 0.558007 0.0215763
0.692195 0.574929 0.0199893
0.72932 0.588617 0.0190585
0.766125 0.598932 0.0191043
0.799191 0.604746 0.0191958
0.830121 0.607782 0.019379
0.858534 0.60856 0.0196078
0.884489 0.606928 0.0197452
0.909407 0.604639 0.0198978
0.931777 0.600397 0.0200046
0.953597 0.595834 0.0206455
0.0566415 0.341573 0.004654
0.071458 0.347219 0.00489815
0.0864729 0.353277 0.00547799
0.104433 0.360113 0.00581369
0.124041 0.367498 0.00602731
0.142565 0.375418 0.00730907
0.164172 0.383612 0.00852979
0.188708 0.392737 0.00953689
0.212345 0.40206 0.0124666
0.237201 0.411399 0.0181735
0.263554 0.420737 0.0230869
0.292058 0.429969 0.0253452
0.321904 0.439384 0.0349889
0.352041 0.448356 0.0456245
0.383078 0.457862 0.0488899
0.414939 0.468269 0.0494698
0.447135 0.478569 0.0529793
0.476387 0.489296 0.0492714
0.509422 0.503609 0.0440223
0.542138 0.518624 0.0381018
0.577173 0.53756 0.0330358
0.612985 0.5561 0.0289616
0.650492 0.575174 0.0246586
0.689036 0.594614 0.0208896
0.725795 0.611444 0.0193637
0.763302 0.623148 0.0197757
0.79707 0.631006 0.0197147
0.82887 0.635462 0.0201267
0.857893 0.637201 0.0205081
0.884428 0.63624 0.0208286
0.909804 0.634363 0.0211337
0.932219 0.630274 0.0213321
0.954269 0.625834 0.0220798
0.0646372 0.368643 0.00759899
0.0799725 0.374365 0.00810254
0.0966354 0.380591 0.00851453
0.116457 0.387823 0.00869764
0.135607 0.395285 0.009308
0.154482 0.403159 0.0105592
0.17734 0.411719 0.0115511
0.201526 0.421195 0.012604
0.224506 0.430182 0.0161898
0.250233 0.439414 0.0195773
0.277058 0.448844 0.022385
0.30547 0.458351 0.0290074
0.334417 0.467399 0.039704
0.364065 0.476204 0.0482338
0.394873 0.485512 0.0505837
0.425483 0.494499 0.056611
0.455207 0.502998 0.0632029
0.484489 0.513771 0.0567788
0.516777 0.52665 0.051545
0.546426 0.539406 0.0471504
0.579126 0.555993 0.0413519
0.612512 0.572732 0.0352178
0.648981 0.592935 0.0281224
0.686381 0.613031 0.0243992
0.723186 0.629969 0.0222477
0.760433 0.644495 0.0209049
0.794064 0.655222 0.0202182
0.826413 0.661631 0.0206607
0.856291 0.664714 0.0212406
0.883574 0.664683 0.0217441
0.909575 0.663386 0.0223087
0.932418 0.659541 0.0226596
0.954818 0.655329 0.0236057
0.071931 0.395941 0.0110933
0.088365 0.401617 0.0116426
0.108171 0.408347 0.0119173
0.129458 0.415503 0.0121309
0.146258 0.423117 0.0133211
0.168399 0.431586 0.0142672
0.191241 0.440589 0.0151675
0.214038 0.449805 0.0169833
0.238285 0.458595 0.0191043
0.264378 0.467933 0.0207523
0.291402 0.477913 0.024445
0.319066 0.4869 0.0328985
0.347021 0.495567 0.040116
0.376699 0.50425 0.0438544
0.406546 0.512963 0.052903
0.436988 0.521462 0.062623
0.466087 0.530587 0.0641794
0.494896 0.540459 0.0615396
0.525093 0.550896 0.0625467
0.55227 0.561746 0.0569162
0.58352 0.576379 0.0495613
0.615198 0.591653 0.0415503
0.649149 0.610101 0.0355535
0.684291 0.628565 0.0310521
0.719707 0.646128 0.0257725
0.756466 0.663325 0.0218967
0.790112 0.677241 0.0207675
0.82327 0.685328 0.0214694
0.853895 0.690059 0.0221408
0.881804 0.691341 0.0227054
0.908553 0.691096 0.0235142
0.93193 0.688014 0.0240177
0.954803 0.684474 0.0252689
0.0808576 0.42327 0.0149996
0.100114 0.429343 0.0154726
0.122255 0.436515 0.0156863
0.140795 0.443595 0.0163729
0.160555 0.451835 0.0172427
0.182727 0.460578 0.0181125
0.205081 0.469581 0.0191806
0.22797 0.478416 0.021088
0.252903 0.487465 0.0227665
0.279347 0.497398 0.0241398
0.305806 0.506737 0.0293736
0.333104 0.515435 0.0352941
0.360678 0.524147 0.0399023
0.390829 0.533196 0.046128
0.420386 0.541436 0.0561074
0.450492 0.549447 0.0658732
0.478004 0.55816 0.0670024
0.50544 0.566751 0.0702678
0.533333 0.575357 0.0752575
0.559625 0.585473 0.0664225
0.589731 0.59826 0.0582132
0.618402 0.611063 0.0525521
0.649744 0.627176 0.0454871
0.682582 0.644129 0.0382086
0.717006 0.662547 0.0299687
0.75285 0.680827 0.0259709
0.786999 0.695201 0.0248875
0.820142 0.705699 0.0236515
0.851118 0.71313 0.0234684
0.879515 0.716533 0.0235294
0.906813 0.717891 0.0245823
0.930877 0.715709 0.0252995
0.954345 0.712932 0.0268711
0.0922255 0.450874 0.0192111
0.115038 0.457862 0.0194095
0.135943 0.465034 0.0198215
0.153475 0.472419 0.0206912
0.174929 0.480842 0.0215915
0.197009 0.489525 0.0225223
0.218723 0.49839 0.0242313
0.243519 0.507454 0.0256352
0.269169 0.517113 0.0270237
0.295247 0.527016 0.029572
0.321065 0.5355 0.0336004
0.347829 0.544182 0.0364843
0.375769 0.553307 0.0396735
0.40499 0.561746 0.0496071
0.434134 0.569482 0.060029
0.46247 0.577173 0.0672313
0.489067 0.585168 0.0720989
0.516396 0.593301 0.0774853
0.543435 0.601892 0.0775464
0.568978 0.611017 0.0716869
0.596674 0.62118 0.0697795
0.623072 0.631952 0.06421
0.652583 0.646174 0.0553292
0.683421 0.66157 0.0459602
0.715846 0.678492 0.0390173
0.749996 0.69575 0.0341039
0.783001 0.710582 0.0297704
0.81593 0.723476 0.0254826
0.847166 0.733944 0.0247196
0.875914 0.740185 0.024094
0.904021 0.74316 0.0254215
0.928603 0.742397 0.0263828
0.953017 0.740612 0.0282902
0.107683 0.479332 0.0232853
0.131197 0.486503 0.0235599
0.147311 0.493462 0.0243839
0.168505 0.501579 0.02533
0.190021 0.510063 0.026276
0.211322 0.518395 0.027512
0.235004 0.527611 0.0289158
0.259953 0.536889 0.0301213
0.285725 0.547082 0.0315404
