LUTS/Secondary LUTS/CRYSTAL AURA.cube
TITLE "Generated by Resolve"
LUT_3D_SIZE 5
0.000793469 0.00015259 4.57771e-05
0.131609 0.0108492 0.00828565
0.369558 0.0204471 0.01178
0.673457 0.0411688 0.0150607
0.913893 0.052903 0.0150149
0.00688182 0.0793622 0
0.136706 0.115709 0.00929274
0.409979 0.173754 0.0119936
0.719158 0.235691 0.0170291
0.93904 0.245716 0.0213931
0.0225681 0.216983 0
0.15874 0.268925 0.00579843
0.419272 0.367224 0.0222477
0.733364 0.478813 0.0175326
0.948959 0.473274 0.0172732
0.0808576 0.42327 0.0149996
0.252903 0.487465 0.0227665
0.478004 0.55816 0.0670024
0.717006 0.662547 0.0299687
0.954345 0.712932 0.0268711
0.196109 0.646555 0.0524453
0.377966 0.711192 0.0575875
0.571725 0.768597 0.0786908
0.739132 0.813642 0.112001
0.922026 0.884489 0.0747997
0.00357061 0.00741588 0.0754711
0.0959793 0.0122835 0.0912337
0.335271 0.014725 0.114992
0.642924 0.0197757 0.159915
0.907134 0.0295109 0.183856
0.00598154 0.0979934 0.0985122
0.0963912 0.118151 0.120668
0.4224 0.141817 0.124727
0.736828 0.144701 0.123308
0.946059 0.161898 0.137087
0.0112306 0.244373 0.137087
0.106172 0.265858 0.105211
0.419272 0.376379 0.117906
0.751064 0.468772 0.113405
0.955261 0.454994 0.135897
0.0380255 0.437919 0.151461
0.197284 0.466972 0.0970779
0.46096 0.558022 0.128527
0.721843 0.668757 0.105516
0.959289 0.712596 0.142779
0.142794 0.641718 0.124407
0.350072 0.703899 0.12813
0.564019 0.771282 0.151736
0.743297 0.821454 0.175433
0.92813 0.894148 0.1691
0.00560006 0.0343786 0.209949
0.0684367 0.0316167 0.219959
0.242008 0.0287938 0.225925
0.543008 0.0276188 0.288075
0.857694 0.0309148 0.390631
0.00733959 0.150149 0.246174
0.0623331 0.163836 0.275395
0.26215 0.155108 0.29514
0.640711 0.123857 0.342229
0.908309 0.137102 0.411414
0.0119631 0.299046 0.307729
0.0697795 0.326528 0.335607
0.283955 0.386435 0.381689
0.753384 0.408286 0.410788
0.954803 0.404746 0.410361
0.0388342 0.490181 0.396338
0.112016 0.516625 0.403143
0.337621 0.57116 0.352819
0.738369 0.691646 0.345022
0.967666 0.705226 0.393729
0.0787671 0.685832 0.401419
0.220813 0.711498 0.355322
0.49073 0.775708 0.314733
0.748089 0.836576 0.306767
0.935607 0.906783 0.321187
0.00683604 0.09337 0.372168
0.062211 0.0728466 0.378897
0.167071 0.0599832 0.378882
0.430625 0.05066 0.367712
0.736797 0.0488899 0.455055
0.00740063 0.224338 0.400992
0.0623026 0.240604 0.435889
0.152209 0.240879 0.47303
0.525322 0.17583 0.437293
0.807904 0.164981 0.510521
0.0102693 0.375875 0.474998
0.0651102 0.401236 0.504723
0.17734 0.455802 0.566476
0.64007 0.441169 0.554376
0.898909 0.416983 0.604974
0.0291295 0.567041 0.576074
0.086656 0.59086 0.599741
0.206638 0.651652 0.652415
0.686412 0.709377 0.664897
0.95111 0.715663 0.701488
0.0728618 0.765896 0.669825
0.144747 0.790188 0.686076
0.319692 0.82002 0.679835
0.693843 0.876356 0.636118
0.934524 0.927169 0.633494
0.00962844 0.165225 0.526177
0.062974 0.151186 0.543877
0.140749 0.123796 0.549142
0.346395 0.109789 0.557061
0.666758 0.0876173 0.520745
0.0111543 0.296498 0.553033
0.0686809 0.309407 0.579019
0.147631 0.318379 0.616495
0.394202 0.294957 0.659113
0.755108 0.233173 0.590494
0.0175021 0.45124 0.635706
0.0773938 0.47306 0.661845
0.172671 0.509224 0.704494
0.479545 0.526268 0.747951
0.825162 0.468086 0.675776
0.0451514 0.647913 0.749752
0.112032 0.67042 0.774197
0.227909 0.706615 0.808637
0.579171 0.750072 0.827695
0.874418 0.736034 0.803616
0.078584 0.832044 0.837003
0.148455 0.8486 0.852094
0.271015 0.871519 0.865385
0.601923 0.902571 0.873747
0.8869 0.928847 0.870497
