LUTS/Secondary LUTS/CRYSTAL AURA.cube
TITLE "Generated by Resolve"
LUT_3D_SIZE 9
0.000793469 0.00015259 4.57771e-05
0.0489509 0.00469978 0.00428778
0.131609 0.0108492 0.00828565
0.245167 0.0157321 0.0105287
0.369558 0.0204471 0.01178
0.513985 0.0293736 0.0127718
0.673457 0.0411688 0.0150607
0.811261 0.0498817 0.0180819
0.913893 0.052903 0.0150149
0.00170901 0.0347601 0
0.0519722 0.0442359 0.00495918
0.141405 0.0604257 0.00825513
0.260426 0.0687266 0.0107271
0.393957 0.0819409 0.0118257
0.547631 0.104051 0.0137484
0.706447 0.126085 0.0171359
0.836347 0.138415 0.0206302
0.931899 0.140124 0.0202182
0.00688182 0.0793622 0
0.0554818 0.0917983 0.00263981
0.136706 0.115709 0.00929274
0.266712 0.146288 0.0107424
0.409979 0.173754 0.0119936
0.565667 0.208789 0.0140688
0.719158 0.235691 0.0170291
0.844022 0.246464 0.0199893
0.93904 0.245716 0.0213931
0.0144656 0.138506 0
0.0623636 0.152941 0
0.139895 0.18056 0.00993362
0.266255 0.225589 0.0135195
0.416983 0.278233 0.014313
0.575418 0.325521 0.0152743
0.72723 0.355108 0.0164034
0.849851 0.362554 0.017319
0.943999 0.356985 0.0178073
0.0225681 0.216983 0
0.0797894 0.236637 0
0.15874 0.268925 0.00579843
0.278416 0.311208 0.0227359
0.419272 0.367224 0.0222477
0.578515 0.435981 0.018204
0.733364 0.478813 0.0175326
0.85568 0.485206 0.0172122
0.948959 0.473274 0.0172732
0.0485389 0.314916 0.00222782
0.112367 0.340047 0.00341802
0.201297 0.37438 0.00923171
0.310857 0.41239 0.032639
0.4392 0.454414 0.0435645
0.575769 0.519005 0.0272221
0.72932 0.588617 0.0190585
0.858534 0.60856 0.0196078
0.953597 0.595834 0.0206455
0.0808576 0.42327 0.0149996
0.160555 0.451835 0.0172427
0.252903 0.487465 0.0227665
0.360678 0.524147 0.0399023
0.478004 0.55816 0.0670024
0.589731 0.59826 0.0582132
0.717006 0.662547 0.0299687
0.851118 0.71313 0.0234684
0.954345 0.712932 0.0268711
0.138415 0.536797 0.0324559
0.220844 0.568139 0.0364996
0.317128 0.604181 0.0409094
0.421912 0.638483 0.0553902
0.527977 0.667857 0.0800336
0.623529 0.694881 0.0923323
0.719402 0.730465 0.0740978
0.834363 0.784131 0.0468147
0.943358 0.813748 0.0352331
0.196109 0.646555 0.0524453
0.287739 0.679362 0.0555734
0.377966 0.711192 0.0575875
0.473045 0.741054 0.0603799
0.571725 0.768597 0.0786908
0.658839 0.792676 0.102602
0.739132 0.813642 0.112001
0.821942 0.843549 0.100389
0.922026 0.884489 0.0747997
0.002121 0.00254826 0.0311284
0.042771 0.0059968 0.0369879
0.116228 0.0102388 0.0442206
0.232639 0.0124361 0.0504768
0.360098 0.0134432 0.0573281
0.504128 0.0173342 0.0654002
0.665705 0.0240635 0.0765393
0.810758 0.0314946 0.0851911
0.917739 0.0315557 0.0729839
0.00334173 0.0387274 0.0358129
0.0445716 0.0449226 0.0425269
0.134722 0.0541085 0.0478676
0.263645 0.0560006 0.0479744
0.395743 0.0595254 0.048249
0.545251 0.070634 0.0505074
0.701991 0.0841382 0.0552224
0.833341 0.0940566 0.0586404
0.933532 0.100328 0.061387
0.00329595 0.0854658 0.0406806
0.0418097 0.0933394 0.0403143
0.131151 0.117952 0.0463569
0.275746 0.148547 0.0487984
0.421622 0.167193 0.0486458
0.578027 0.194827 0.0497444
0.72958 0.216083 0.0530251
0.850965 0.223743 0.0557717
0.94406 0.221027 0.0618143
0.00614939 0.145815 0.0445563
0.0449378 0.152361 0.0351873
0.12784 0.181415 0.0425269
0.264988 0.229328 0.0489967
0.423789 0.280522 0.0522927
0.584894 0.322469 0.0525826
0.735546 0.347494 0.0533913
0.855177 0.352743 0.0539101
0.947723 0.346273 0.0607614
0.0133059 0.22472 0.0433509
0.0620737 0.231785 0.0292668
0.143038 0.266255 0.0358282
0.26952 0.311284 0.0539406
0.419638 0.369863 0.0581064
0.583444 0.437766 0.0556802
0.738811 0.477089 0.0547189
0.859464 0.480797 0.0540017
0.951247 0.468544 0.0616312
0.0337682 0.320394 0.0475624
0.0880598 0.33077 0.0345617
0.185183 0.369802 0.0415045
0.300221 0.410788 0.0619516
0.435538 0.455314 0.0755932
0.577203 0.521279 0.0632486
0.732845 0.590509 0.0540322
0.861585 0.607675 0.0567636
0.955352 0.594278 0.0661631
0.0633249 0.424536 0.052079
0.138323 0.440284 0.0458381
0.237797 0.481849 0.0542153
0.349767 0.521965 0.0724498
0.473289 0.558465 0.0966049
0.589273 0.599954 0.0916609
0.718837 0.665019 0.0658579
0.853483 0.714488 0.0590829
0.9561 0.713481 0.0734874
0.120546 0.535592 0.0652476
0.198856 0.555825 0.0647898
0.303609 0.598917 0.0714733
0.412161 0.636011 0.0855573
0.524056 0.668162 0.109422
0.623316 0.696788 0.123156
0.72047 0.732769 0.107958
0.835966 0.786374 0.084535
0.945144 0.816052 0.080705
0.17705 0.644892 0.0841077
0.272816 0.674754 0.0862593
0.369329 0.709606 0.0887465
0.46659 0.740978 0.0931563
0.570123 0.770306 0.114214
0.660014 0.795819 0.134325
0.741573 0.817594 0.143969
0.824674 0.847669 0.135348
0.925048 0.889128 0.118425
0.00357061 0.00741588 0.0754711
0.037171 0.00958267 0.0827192
0.0959793 0.0122835 0.0912337
0.203922 0.0143893 0.100435
0.335271 0.014725 0.114992
0.479683 0.0155947 0.13434
0.642924 0.0197757 0.159915
0.795056 0.0262455 0.181796
0.907134 0.0295109 0.183856
0.00485237 0.0468757 0.0893568
0.0366979 0.0503548 0.0998398
0.0978408 0.0547951 0.107301
0.226078 0.056199 0.111925
0.369207 0.0531014 0.122225
0.519814 0.0538949 0.138979
0.67982 0.0597543 0.160342
0.81973 0.0664988 0.17464
0.925887 0.0725109 0.17734
0.00598154 0.0979934 0.0985122
0.0365148 0.105043 0.10634
0.0963912 0.118151 0.120668
0.251926 0.139391 0.12668
0.4224 0.141817 0.124727
0.585931 0.142672 0.121553
0.736828 0.144701 0.123308
0.856931 0.145083 0.124315
0.946059 0.161898 0.137087
0.00840772 0.1626 0.114443
0.0383917 0.170245 0.116411
0.0949416 0.187808 0.116991
0.247593 0.236164 0.126223
0.435706 0.28304 0.128511
0.603815 0.307332 0.119646
0.752514 0.320775 0.114443
0.868162 0.320302 0.110292
0.952911 0.317845 0.133562
0.0112306 0.244373 0.137087
0.0424048 0.251133 0.131563
0.106172 0.265858 0.105211
0.242634 0.312078 0.105135
0.419272 0.376379 0.117906
0.595438 0.440345 0.118212
0.751064 0.468772 0.113405
0.868925 0.466499 0.108248
0.955261 0.454994 0.135897
0.0197147 0.339208 0.155215
0.0555428 0.3449 0.133455
0.13843 0.36054 0.0939345
0.27219 0.407309 0.103548
0.425315 0.456947 0.116472
0.580392 0.526345 0.111208
0.741268 0.593011 0.105577
0.868544 0.603601 0.106264
0.958679 0.587762 0.138857
0.0380255 0.437919 0.151461
0.0914015 0.442237 0.118776
0.197284 0.466972 0.0970779
0.322988 0.515938 0.111238
0.46096 0.558022 0.128527
0.587243 0.602045 0.128145
0.721843 0.668757 0.105516
0.858289 0.716243 0.102525
0.959289 0.712596 0.142779
0.0778668 0.537408 0.134493
0.163699 0.550729 0.11252
0.266743 0.581216 0.108339
0.388144 0.628809 0.12076
0.513039 0.666682 0.137789
0.620737 0.698207 0.153628
0.720394 0.734768 0.14023
0.838041 0.789075 0.120714
0.948363 0.818586 0.141588
0.142794 0.641718 0.124407
0.246143 0.668849 0.122698
0.350072 0.703899 0.12813
0.452583 0.739208 0.132799
0.564019 0.771282 0.151736
0.659632 0.798489 0.165988
0.743297 0.821454 0.175433
0.826886 0.851728 0.168521
0.92813 0.894148 0.1691
0.00477607 0.0170291 0.137072
0.0336156 0.018265 0.143725
0.0785382 0.0190738 0.150042
0.164446 0.0198215 0.155825
0.294148 0.0201114 0.168322
0.438682 0.0200961 0.196902
0.601068 0.020737 0.238926
0.765881 0.024567 0.277653
0.889418 0.0295872 0.29456
0.00549325 0.062501 0.156191
0.0320745 0.0648051 0.166979
0.0746777 0.0655833 0.174792
0.166369 0.0634318 0.176654
0.319097 0.0594034 0.183093
0.472465 0.0567636 0.21181
0.637247 0.0575113 0.252567
0.792569 0.0615702 0.284657
0.909361 0.0709544 0.30135
0.00700389 0.119768 0.16733
0.0331579 0.125841 0.181247
0.0721752 0.133547 0.197299
0.162554 0.139284 0.210269
0.360067 0.139208 0.216449
0.540307 0.12726 0.241276
0.702037 0.119829 0.267613
0.834913 0.118624 0.283482
0.933806 0.139361 0.289662
0.00946059 0.187488 0.189517
0.0359197 0.195178 0.197894
0.073579 0.210208 0.212726
0.163836 0.234852 0.233677
0.397726 0.265949 0.2542
0.596796 0.269673 0.254368
0.755306 0.259373 0.246448
0.873854 0.246525 0.239765
0.95201 0.268162 0.260243
0.0153964 0.267659 0.223789
0.043183 0.275883 0.229419
0.081117 0.292424 0.236851
0.171923 0.322957 0.240665
0.392828 0.384955 0.254093
0.606134 0.435691 0.25568
0.765896 0.441703 0.237598
0.882414 0.431815 0.220783
0.959228 0.43032 0.253834
0.0234989 0.360723 0.262837
0.0523079 0.370855 0.266072
0.0994125 0.385092 0.25568
0.199466 0.410681 0.217151
0.391669 0.462654 0.206546
0.584817 0.53785 0.219059
0.754894 0.592981 0.217792
0.880598 0.591196 0.205478
0.963394 0.575051 0.252476
0.0332952 0.46186 0.287404
0.0665446 0.47219 0.280522
0.132052 0.479912 0.236545
0.260716 0.508965 0.193454
0.42739 0.560067 0.18735
0.584817 0.609476 0.194095
0.728969 0.677089 0.180331
0.867994 0.718822 0.183078
0.96405 0.710216 0.251621
0.0535897 0.562173 0.282048
0.103609 0.567559 0.254337
0.1991 0.576593 0.203525
0.336858 0.616983 0.189975
0.484886 0.665064 0.186007
0.616098 0.701793 0.198749
0.722042 0.740108 0.189395
0.842603 0.794644 0.174975
0.954086 0.82237 0.23151
0.0897993 0.656184 0.256291
0.178149 0.66714 0.217105
0.301991 0.697963 0.205539
0.421653 0.734966 0.203494
0.544152 0.77142 0.207294
0.654932 0.801221 0.215412
0.74461 0.825864 0.223072
0.829786 0.857237 0.216556
0.931609 0.899855 0.23476
0.00560006 0.0343786 0.209949
0.0318608 0.0336614 0.21593
0.0684367 0.0316167 0.219959
0.131472 0.0303197 0.223453
0.242008 0.0287938 0.225925
0.386511 0.0281224 0.241627
0.543008 0.0276188 0.288075
0.712215 0.0284428 0.347921
0.857694 0.0309148 0.390631
0.00614939 0.087129 0.229938
0.030808 0.0878614 0.240528
0.0643931 0.085893 0.248234
0.123949 0.0799573 0.253391
0.249256 0.0727703 0.248737
0.412482 0.0656901 0.25864
0.573602 0.0637522 0.305699
0.740642 0.0650034 0.362737
0.877653 0.0731212 0.403555
0.00733959 0.150149 0.246174
0.0314488 0.156786 0.259174
0.0623331 0.163836 0.275395
0.115633 0.164813 0.293172
0.26215 0.155108 0.29514
0.470253 0.13814 0.298222
0.640711 0.123857 0.342229
0.790356 0.118929 0.387869
0.908309 0.137102 0.411414
0.00848402 0.221561 0.271901
0.0335851 0.229084 0.282124
0.0644846 0.243824 0.302159
0.115267 0.261814 0.323461
0.270253 0.270604 0.34847
0.531365 0.267826 0.355383
0.714061 0.247669 0.390372
0.845563 0.23032 0.40531
0.937804 0.254154 0.41387
0.0119631 0.299046 0.307729
0.0379492 0.308049 0.317006
0.0697795 0.326528 0.335607
0.12311 0.354635 0.361105
0.283955 0.386435 0.381689
0.576288 0.414237 0.402365
0.753384 0.408286 0.410788
0.876646 0.393454 0.402228
0.954803 0.404746 0.410361
0.0202792 0.38996 0.352728
0.0478523 0.400015 0.3608
0.0824598 0.417945 0.373526
0.140398 0.443687 0.385763
0.302007 0.481025 0.387488
0.568414 0.546822 0.398428
0.759167 0.584161 0.403861
0.8869 0.566857 0.389532
0.964889 0.557733 0.407614
0.0388342 0.490181 0.396338
0.0688182 0.50071 0.401495
0.112016 0.516625 0.403143
0.184482 0.535805 0.38677
0.337621 0.57116 0.352819
0.564706 0.625666 0.337667
0.738369 0.691646 0.345022
0.879316 0.718456 0.348135
0.967666 0.705226 0.393729
0.0592813 0.590021 0.415335
0.103059 0.600687 0.411795
0.158236 0.612131 0.390082
0.247272 0.628824 0.347814
0.414786 0.668635 0.304143
0.598611 0.71313 0.289418
0.728588 0.753628 0.291341
0.853025 0.805707 0.281346
0.959731 0.827131 0.364584
0.0787671 0.685832 0.401419
0.136522 0.698512 0.386465
0.220813 0.711498 0.355322
0.336172 0.737316 0.332555
0.49073 0.775708 0.314733
0.639078 0.81001 0.305776
0.748089 0.836576 0.306767
0.837812 0.868376 0.295674
0.935607 0.906783 0.321187
0.00613413 0.0604868 0.290349
0.0311131 0.0564584 0.296895
0.0635233 0.0494087 0.297841
0.111727 0.0441749 0.298512
0.197147 0.0419013 0.299397
0.329625 0.0388495 0.29691
0.48394 0.0374609 0.317571
0.645197 0.0368658 0.37583
0.800946 0.0370794 0.439277
0.00715648 0.120134 0.306798
0.0311437 0.120012 0.31754
0.0607919 0.115801 0.327092
0.103929 0.105516 0.335897
0.192599 0.0965896 0.335256
0.348318 0.0826123 0.320592
0.512779 0.0755932 0.333791
0.672267 0.0741894 0.392004
0.823651 0.0808728 0.456855
0.00668345 0.186831 0.323873
0.0307164 0.193744 0.335378
0.060029 0.201968 0.353109
0.100618 0.203235 0.373953
0.183703 0.192828 0.393164
0.388434 0.164645 0.36788
0.576699 0.141924 0.375738
0.725765 0.130663 0.427512
0.86128 0.145769 0.480812
0.00747692 0.258259 0.353658
0.0323033 0.266468 0.364431
0.0605631 0.28275 0.386282
0.100984 0.298848 0.408881
0.182116 0.310811 0.433646
0.426947 0.292592 0.430701
0.652995 0.267033 0.437369
0.795605 0.243732 0.47866
0.906371 0.25948 0.511711
0.0105592 0.337148 0.39234
0.0361791 0.346197 0.402533
0.0654612 0.36437 0.423209
0.110414 0.390784 0.451987
0.201297 0.420569 0.482094
0.463203 0.427008 0.489158
0.707118 0.415167 0.503014
0.843778 0.39762 0.533211
0.938491 0.4047 0.544503
0.0175784 0.426123 0.436759
0.0440986 0.435523 0.445945
0.0740215 0.452705 0.462684
0.119203 0.481971 0.490257
0.214267 0.521813 0.520272
0.487984 0.552361 0.529839
0.741054 0.57026 0.552544
0.874205 0.558022 0.563836
0.958663 0.554696 0.560922
0.0316777 0.525963 0.48777
0.0587167 0.535286 0.495659
0.090486 0.5505 0.507866
0.138018 0.575036 0.525231
0.24097 0.608454 0.536263
0.497215 0.649042 0.524269
0.732036 0.701167 0.54313
0.878508 0.719646 0.553323
0.967742 0.701823 0.553948
0.0539864 0.626703 0.531441
0.082887 0.635447 0.537041
0.122377 0.649241 0.542382
0.183185 0.667521 0.54052
0.306188 0.691417 0.516136
0.53077 0.735821 0.485054
0.725185 0.776761 0.472541
0.85951 0.820661 0.476982
0.963668 0.834577 0.525139
0.0866407 0.720882 0.55169
0.128298 0.733593 0.552865
0.180194 0.748119 0.543542
0.258015 0.763348 0.518303
0.397665 0.791867 0.499565
0.58851 0.829465 0.477165
0.738018 0.858244 0.449302
0.842847 0.88484 0.434134
0.938399 0.916945 0.461662
0.00683604 0.09337 0.372168
0.0311742 0.0865492 0.380224
0.062211 0.0728466 0.378897
0.102281 0.0630808 0.376593
0.167071 0.0599832 0.378882
0.280064 0.0553902 0.37586
0.430625 0.05066 0.367712
0.587213 0.0502022 0.393088
0.736797 0.0488899 0.455055
0.00856031 0.157183 0.38584
0.0318608 0.158206 0.396078
0.0605173 0.153796 0.409262
0.0961013 0.141527 0.420829
0.157794 0.129381 0.424735
0.288777 0.112612 0.413169
0.460548 0.0944381 0.390799
0.615335 0.0893111 0.411444
0.763943 0.0950179 0.476356
0.00740063 0.224338 0.400992
0.0334325 0.231022 0.414923
0.0623026 0.240604 0.435889
0.0959029 0.244373 0.452766
0.152209 0.240879 0.47303
0.302831 0.217838 0.47921
0.525322 0.17583 0.437293
0.672557 0.154009 0.45095
0.807904 0.164981 0.510521
0.00761425 0.297154 0.435218
0.0328985 0.305165 0.445502
0.061326 0.320943 0.466728
0.0975967 0.335805 0.488258
0.154681 0.350927 0.51014
0.319295 0.344564 0.541772
0.590677 0.30457 0.497002
0.745159 0.274617 0.509377
0.859709 0.281773 0.55668
0.0102693 0.375875 0.474998
0.036347 0.384237 0.484627
0.0651102 0.401236 0.504723
0.105974 0.426276 0.534203
0.17734 0.455802 0.566476
0.347723 0.470726 0.583978
0.64007 0.441169 0.554376
0.794553 0.416358 0.569162
0.898909 0.416983 0.604974
0.016846 0.466957 0.52253
0.0437781 0.476417 0.532662
0.073106 0.492882 0.550835
0.11577 0.520912 0.580957
0.19762 0.559335 0.617624
0.390372 0.587518 0.636057
0.67332 0.584146 0.622843
0.832288 0.569589 0.638621
0.933501 0.566705 0.664775
0.0291295 0.567041 0.576074
0.0565194 0.576532 0.585519
0.086656 0.59086 0.599741
0.129244 0.616297 0.624231
0.206638 0.651652 0.652415
0.408392 0.687312 0.669001
0.686412 0.709377 0.664897
0.856413 0.719203 0.69337
0.95111 0.715663 0.701488
0.0480659 0.671214 0.630472
0.0759594 0.679698 0.63798
0.107744 0.691936 0.648295
0.150958 0.712154 0.664012
0.226963 0.736812 0.675563
0.431846 0.763638 0.673182
0.68188 0.799451 0.651835
0.847349 0.831128 0.671336
0.954864 0.843015 0.703151
0.0728618 0.765896 0.669825
0.104814 0.776928 0.67808
0.144747 0.790188 0.686076
0.204257 0.805402 0.689647
0.319692 0.82002 0.679835
0.50692 0.845823 0.659907
0.693843 0.876356 0.636118
0.83003 0.900511 0.613596
0.934524 0.927169 0.633494
0.00828565 0.129763 0.451087
0.0323491 0.125246 0.4598
0.0625467 0.110216 0.461479
0.0984817 0.0967422 0.461662
0.14902 0.0903639 0.46479
0.241764 0.0857862 0.468498
0.390249 0.0741588 0.455756
0.546212 0.0667582 0.442985
0.68806 0.0658122 0.471275
0.0104219 0.194369 0.463325
0.0353857 0.195087 0.472435
0.0640421 0.192203 0.486748
0.0959029 0.183413 0.499489
0.141268 0.173907 0.509896
0.238849 0.161715 0.516472
0.420493 0.133898 0.491096
0.581811 0.112245 0.465278
0.721325 0.115114 0.4981
0.0107118 0.261509 0.482017
0.0359503 0.268757 0.492805
0.0634165 0.279011 0.510307
0.0976272 0.283238 0.525719
0.149325 0.284352 0.546899
0.242512 0.277699 0.578546
0.46949 0.234989 0.545968
0.642939 0.191699 0.507774
0.769802 0.195163 0.535348
0.00967422 0.334371 0.513695
0.035462 0.341894 0.523384
0.0639506 0.356924 0.543191
0.0981765 0.369619 0.562005
0.14847 0.384192 0.583978
0.25922 0.394491 0.615427
0.515496 0.353399 0.606912
0.709392 0.314565 0.562127
0.819883 0.310933 0.581155
0.0127108 0.414862 0.556878
0.0395361 0.423316 0.566812
0.0692912 0.439323 0.586572
0.108522 0.460533 0.612329
0.17116 0.485847 0.64094
0.288365 0.508263 0.666255
0.5579 0.481865 0.664805
0.750607 0.446632 0.61442
0.854902 0.438666 0.627771
0.0204166 0.50901 0.610269
0.0486 0.518166 0.6206
0.0800183 0.533928 0.638941
0.124071 0.55874 0.667018
0.195483 0.588647 0.69723
0.335073 0.617975 0.719615
0.599496 0.616968 0.715816
0.782254 0.589578 0.677852
0.886519 0.580102 0.689311
0.0342718 0.612345 0.667796
0.0636606 0.621103 0.676997
0.0963912 0.63447 0.691402
0.138842 0.656855 0.714839
0.208286 0.685054 0.741009
0.367178 0.71725 0.761273
0.623743 0.732097 0.760784
0.806058 0.72694 0.750256
0.914931 0.725963 0.762051
0.0529946 0.713954 0.7205
0.0820783 0.72195 0.728313
0.114015 0.733089 0.739193
0.154086 0.750652 0.75613
0.217441 0.772671 0.773907
0.368597 0.799924 0.785275
0.626322 0.819699 0.785275
0.806622 0.836194 0.778973
0.922957 0.848447 0.807355
0.0726482 0.804685 0.761791
0.10396 0.814801 0.771008
0.140093 0.826627 0.781262
0.187335 0.840772 0.791409
0.264698 0.854948 0.794553
0.431052 0.870375 0.790936
0.642695 0.888548 0.7832
0.79733 0.910369 0.772122
0.915343 0.931609 0.78645
0.00962844 0.165225 0.526177
0.0335851 0.164431 0.53666
0.062974 0.151186 0.543877
0.0970321 0.135058 0.547539
0.140749 0.123796 0.549142
0.212909 0.11754 0.556008
0.346395 0.109789 0.557061
0.526131 0.0961013 0.532677
0.666758 0.0876173 0.520745
0.0187381 0.227649 0.538079
0.0442512 0.230869 0.54815
0.0695201 0.23241 0.564233
0.0981613 0.230076 0.58053
0.138247 0.223148 0.598245
0.213794 0.215976 0.610773
0.369924 0.193591 0.605676
0.575418 0.162173 0.566644
0.704097 0.143984 0.549249
0.0111543 0.296498 0.553033
0.0375372 0.303197 0.563333
0.0686809 0.309407 0.579019
0.104936 0.313695 0.59649
0.147631 0.318379 0.616495
0.22652 0.321263 0.647364
0.394202 0.294957 0.659113
0.627512 0.259953 0.611017
0.755108 0.233173 0.590494
0.0123293 0.367514 0.586908
0.0391089 0.37554 0.596963
0.0675975 0.386313 0.611688
0.101778 0.397513 0.628672
0.150149 0.411017 0.649302
0.235996 0.427283 0.677272
0.426841 0.404898 0.711391
0.668055 0.369512 0.656291
0.796872 0.345296 0.63212
0.0175021 0.45124 0.635706
0.0462348 0.460792 0.646769
0.0773938 0.47306 0.661845
0.116304 0.488533 0.680797
0.172671 0.509224 0.704494
0.262089 0.533104 0.731228
0.479545 0.526268 0.747951
0.705562 0.48986 0.705119
0.825162 0.468086 0.675776
0.0288548 0.54789 0.694148
0.059968 0.558679 0.706218
0.0945602 0.571496 0.720974
0.137133 0.587686 0.739437
0.201984 0.610346 0.762539
0.31194 0.637217 0.783688
0.532845 0.644327 0.785809
0.734585 0.623453 0.762127
0.850919 0.603037 0.733379
0.0451514 0.647913 0.749752
0.0766918 0.657984 0.760525
0.112032 0.67042 0.774197
0.156008 0.686427 0.790997
0.227909 0.706615 0.808637
0.365545 0.732692 0.824048
0.579171 0.750072 0.827695
0.759808 0.747997 0.817609
0.874418 0.736034 0.803616
0.0610513 0.744701 0.79852
0.0930648 0.753628 0.807614
0.128954 0.764309 0.818372
0.174517 0.776898 0.829831
0.250492 0.794079 0.841566
0.402152 0.816831 0.851987
0.600961 0.834791 0.858686
0.773358 0.844129 0.85687
0.886061 0.848127 0.853147
0.078584 0.832044 0.837003
0.111498 0.839857 0.844343
0.148455 0.8486 0.852094
0.194522 0.858625 0.859449
0.271015 0.871519 0.865385
0.420218 0.888075 0.869413
0.601923 0.902571 0.873747
0.770306 0.915846 0.874266
0.8869 0.928847 0.870497
