LUTS/Secondary LUTS/DARK.cube
TITLE "Generated by Resolve"
LUT_3D_SIZE 9
0 0 0
0.0165103 0 0
0.0988022 0 0
0.180346 0 0
0.27779 0 0
0.389807 0.020264 0.0144198
0.515175 0.0276036 0.0222477
0.652918 0.0323644 0.0309453
0.795636 0.035172 0.041062
0 0.0186923 0
0.0200656 0.019852 0
0.10074 0.0226291 0
0.182193 0.0296483 0
0.280171 0.0526894 0
0.392218 0.0645914 0.01561
0.517937 0.0709697 0.0229191
0.655818 0.0783246 0.0317845
0.798016 0.0772564 0.0414893
0 0.106111 0
0.0371099 0.107057 0
0.110002 0.110536 0
0.190707 0.117235 0
0.288746 0.128084 0.0103456
0.400702 0.13904 0.0197299
0.526436 0.149889 0.0262303
0.663905 0.154025 0.0349432
0.805707 0.160204 0.0440986
0.0231174 0.199802 0.0113222
0.0650339 0.200671 0.012314
0.126787 0.203235 0.0145418
0.20679 0.208453 0.0177157
0.303471 0.217807 0.0213321
0.416022 0.229206 0.0259556
0.541848 0.240711 0.0323339
0.678828 0.251911 0.0402228
0.81886 0.263066 0.0487831
0.0402838 0.308873 0.0246128
0.0827497 0.309545 0.0249943
0.145251 0.311833 0.0260014
0.22768 0.316304 0.0276036
0.324239 0.323186 0.0304417
0.436835 0.334249 0.0349737
0.563149 0.346578 0.0407568
0.699153 0.358877 0.0478981
0.836378 0.371527 0.0561379
0.049012 0.434989 0.036408
0.0930343 0.435645 0.0368505
0.161318 0.437705 0.0380102
0.249531 0.44155 0.0397803
0.350164 0.448005 0.0415961
0.462562 0.456336 0.045243
0.588983 0.468544 0.0510872
0.724147 0.481178 0.0575723
0.856489 0.493706 0.0644846
0.0602579 0.57673 0.049134
0.101732 0.577554 0.0495155
0.176028 0.579278 0.0507362
0.27248 0.582727 0.0528115
0.379065 0.58851 0.0545968
0.494224 0.59617 0.0569924
0.619486 0.605447 0.061738
0.752544 0.616617 0.0680247
0.876677 0.62742 0.0742657
0.0854505 0.727962 0.0632029
0.134936 0.728725 0.0637675
0.201663 0.730236 0.0649729
0.302358 0.733013 0.0672465
0.412726 0.737865 0.0687114
0.529351 0.743969 0.070634
0.653437 0.751293 0.0746014
0.782315 0.758999 0.0806134
0.894835 0.766583 0.0865644
0.142931 0.874449 0.0831769
0.185672 0.874723 0.0836194
0.24712 0.875776 0.084535
0.339132 0.877623 0.085481
0.451743 0.880919 0.0864729
0.566979 0.884642 0.0885939
0.687221 0.888655 0.092134
0.810224 0.893065 0.0971542
0.911086 0.897612 0.102495
0 0 0.0201724
0.0172427 0 0.0211337
0.0996414 0 0.0207065
0.181064 0 0.0218967
0.278706 0 0.0434119
0.390494 0.0200504 0.0560006
0.515862 0.0268101 0.0611276
0.653513 0.0319524 0.0733043
0.796277 0.0354162 0.0795911
0 0.018967 0.0226291
0.0206607 0.0200961 0.0234531
0.101488 0.022858 0.0225834
0.182956 0.0299535 0.0258183
0.281132 0.0526894 0.0467689
0.393011 0.0630503 0.0556497
0.518486 0.0688182 0.0603952
0.656306 0.0755474 0.071519
0.798505 0.0748608 0.0776074
0 0.106905 0.0281682
0.0379339 0.107805 0.0298924
0.110399 0.111147 0.0345617
0.191577 0.117449 0.0426795
0.289387 0.127657 0.0531167
0.401343 0.138323 0.05626
0.527047 0.148699 0.0649424
0.664454 0.152758 0.073518
0.806165 0.159152 0.0799115
0.0227054 0.200565 0.0541543
0.0640421 0.201312 0.054078
0.126177 0.203876 0.0551308
0.20705 0.209049 0.0565957
0.30399 0.218021 0.0569467
0.416617 0.229053 0.0639658
0.542351 0.240238 0.0715343
0.679194 0.251423 0.076173
0.819425 0.262516 0.0856489
0.0385748 0.309392 0.0640879
0.0807813 0.31014 0.0632944
0.144396 0.31223 0.0648203
0.227497 0.316701 0.0676127
0.324758 0.323629 0.0679484
0.437369 0.334356 0.0713359
0.563531 0.346426 0.0762951
0.699596 0.358694 0.0853285
0.836728 0.371221 0.0937667
0.0479896 0.435401 0.0732891
0.0919203 0.436194 0.0730755
0.160876 0.43801 0.074052
0.249546 0.441855 0.0758679
0.350545 0.44828 0.0774853
0.463249 0.456825 0.0820783
0.589517 0.468528 0.088838
0.724544 0.480995 0.0941939
0.856794 0.493477 0.101518
0.0588083 0.577081 0.0875715
0.101335 0.577859 0.0872206
0.175463 0.579568 0.0882277
0.272221 0.583108 0.0900893
0.379141 0.589044 0.0912642
0.494636 0.596536 0.0934462
0.620005 0.605814 0.0990463
0.752911 0.616693 0.105333
0.877089 0.627573 0.111376
0.0852522 0.728511 0.101991
0.133913 0.728985 0.101518
0.200916 0.730495 0.102739
0.301793 0.733288 0.104952
0.412695 0.738125 0.106157
0.529458 0.744259 0.107973
0.653758 0.751522 0.111589
0.78262 0.759274 0.117037
0.89514 0.766766 0.12282
0.141817 0.874708 0.120348
0.184298 0.875029 0.120104
0.24625 0.87599 0.120882
0.338643 0.877852 0.121828
0.451408 0.881086 0.122805
0.566781 0.88484 0.125002
0.687221 0.888869 0.128573
0.810437 0.893217 0.133623
0.911269 0.897856 0.138918
0 0 0.09337
0.0199283 0 0.0937819
0.103975 0 0.0964065
0.184283 0 0.102708
0.281483 0 0.110933
0.392935 0.0206455 0.12134
0.518288 0.0272068 0.13106
0.655589 0.0327001 0.139101
0.797787 0.0364691 0.144854
0 0.0200198 0.0946212
0.0235294 0.0209354 0.095201
0.105379 0.0231327 0.0978714
0.185916 0.0319677 0.103517
0.28333 0.053254 0.111711
0.395239 0.0625467 0.121111
0.520943 0.0683452 0.130678
0.658335 0.0754864 0.137682
0.800198 0.0754864 0.144686
0 0.109987 0.101671
0.0411994 0.110506 0.102251
0.111757 0.112902 0.104036
0.193683 0.117906 0.108232
0.291341 0.126589 0.115434
0.403326 0.136141 0.120912
0.528862 0.145754 0.131762
0.66601 0.149279 0.13434
0.807599 0.155337 0.144594
0.0224765 0.202747 0.116762
0.063447 0.203296 0.116655
0.126146 0.205493 0.117388
0.20827 0.21033 0.119249
0.305806 0.218433 0.122789
0.418433 0.228367 0.129534
0.543954 0.238926 0.133257
0.680674 0.249836 0.138048
0.820523 0.260716 0.149187
0.0389868 0.311131 0.132586
0.0807813 0.311818 0.131807
0.143252 0.313787 0.131548
0.22771 0.317968 0.133364
0.326055 0.324636 0.127916
0.438895 0.334722 0.130648
0.565087 0.346151 0.13994
0.70103 0.357839 0.150835
0.837598 0.370581 0.148623
0.0484169 0.436698 0.139391
0.091249 0.437339 0.138109
0.158862 0.439185 0.137057
0.248905 0.443 0.139055
0.351202 0.449409 0.138094
0.464607 0.457771 0.14258
0.590784 0.468864 0.14667
0.725765 0.481132 0.149035
0.857816 0.493309 0.15729
0.0580453 0.578164 0.146288
0.102159 0.578866 0.144533
0.174197 0.580591 0.143725
0.271702 0.584009 0.145403
0.379187 0.589761 0.14641
0.495369 0.597391 0.149401
0.62118 0.606622 0.156374
0.753979 0.61709 0.155001
0.877791 0.627649 0.158785
0.0872511 0.729198 0.157015
0.134112 0.72987 0.155245
0.19939 0.731121 0.154314
0.301198 0.734157 0.155337
0.412634 0.738949 0.154376
0.529961 0.745083 0.156039
0.654414 0.752285 0.160876
0.78352 0.759976 0.167025
0.89575 0.767224 0.16994
0.14226 0.875212 0.172763
0.183215 0.8757 0.171374
0.244266 0.876554 0.170352
0.337697 0.878599 0.17052
0.451209 0.881804 0.170214
0.567041 0.885313 0.172015
0.687556 0.889464 0.175097
0.810864 0.893858 0.17937
0.911757 0.898222 0.184146
0 0 0.167941
0.0250553 0 0.16817
0.109636 0 0.170108
0.189837 0 0.174929
0.285893 0.0016022 0.183902
0.397467 0.0220035 0.194919
0.522545 0.0282139 0.206699
0.659739 0.0337072 0.219226
0.801617 0.0376287 0.231495
0 0.0225681 0.168795
0.0281834 0.0230259 0.169284
0.110643 0.0256657 0.171572
0.191226 0.036286 0.176318
0.287785 0.0556954 0.185092
0.399588 0.063859 0.195529
0.525002 0.06981 0.207004
0.662318 0.0765698 0.219104
0.803876 0.0767224 0.231647
0 0.115023 0.174548
0.0459602 0.115328 0.175433
0.114977 0.116213 0.178271
0.197833 0.120577 0.18233
0.29514 0.12874 0.189395
0.407065 0.137407 0.198383
0.532631 0.146822 0.208576
0.669825 0.149538 0.219913
0.810941 0.156085 0.231083
0.0250095 0.206073 0.187427
0.066453 0.206683 0.187869
0.129091 0.208621 0.189685
0.211444 0.212924 0.19324
0.309163 0.219837 0.198413
0.421851 0.228641 0.205631
0.547433 0.23827 0.214237
0.68394 0.248325 0.223987
0.823209 0.25919 0.231815
0.0401312 0.314397 0.205539
0.0823835 0.315068 0.205631
0.145159 0.31664 0.206119
0.229847 0.320256 0.208164
0.329 0.326955 0.212131
0.44239 0.335866 0.217945
0.568399 0.346441 0.224964
0.703899 0.357687 0.231907
0.840269 0.370031 0.236469
0.0516976 0.439551 0.224521
0.0949874 0.440269 0.224094
0.161395 0.441932 0.223453
0.249989 0.445365 0.223621
0.35314 0.451423 0.223377
0.467552 0.459525 0.227695
0.593805 0.470161 0.233097
0.728496 0.481682 0.239536
0.85977 0.493568 0.244068
0.0631113 0.580346 0.237964
0.109438 0.581125 0.23714
0.177569 0.582742 0.235706
0.272053 0.586175 0.235401
0.380529 0.591821 0.236576
0.497505 0.599344 0.239277
0.623606 0.608408 0.243992
0.756115 0.618296 0.240787
0.879484 0.628534 0.248676
0.0949264 0.731197 0.248081
0.139834 0.731624 0.246723
0.201694 0.733028 0.245121
0.300862 0.735759 0.24416
0.413184 0.740566 0.24477
0.531167 0.746807 0.248737
0.656123 0.753841 0.254963
0.785275 0.761456 0.25362
0.896788 0.768154 0.237568
0.145769 0.876814 0.257053
0.186069 0.877012 0.25565
0.244923 0.877852 0.253193
0.337102 0.879774 0.247852
0.451575 0.882872 0.242557
0.567773 0.88632 0.244907
0.688655 0.890547 0.250416
0.811917 0.894865 0.256962
0.912459 0.899123 0.25507
0 0 0.251759
0.0330205 0 0.252018
0.116121 0 0.253895
0.197681 0 0.257969
0.292454 0.00805676 0.264897
0.403784 0.023209 0.276066
0.529 0.0292973 0.288243
0.665537 0.0346838 0.300954
0.806806 0.0386664 0.313863
0 0.0268101 0.252842
0.035996 0.0274052 0.253208
0.116655 0.0316167 0.25539
0.198871 0.0457923 0.259556
0.294347 0.0583047 0.266392
0.405982 0.0632334 0.277089
0.531411 0.071809 0.289021
0.668193 0.0776379 0.301427
0.809018 0.0781109 0.314321
0.000991836 0.120943 0.258656
0.0515145 0.1205 0.259663
0.119417 0.119661 0.262211
0.204074 0.123964 0.265721
0.301396 0.131762 0.271473
0.413153 0.139483 0.280934
0.538643 0.149096 0.291707
0.675486 0.151034 0.303563
0.816098 0.15816 0.315572
0.0298924 0.212299 0.268956
0.071458 0.212665 0.269596
0.133516 0.213825 0.271748
0.216373 0.216846 0.275761
0.314534 0.22295 0.281041
0.427161 0.231174 0.288991
0.552483 0.240497 0.298268
0.68867 0.250202 0.308888
0.827665 0.260716 0.319829
0.043183 0.318746 0.285466
0.0861219 0.319295 0.285801
0.149813 0.321035 0.287251
0.234821 0.324041 0.290364
0.333776 0.329992 0.295171
0.447318 0.338201 0.301335
0.573098 0.347967 0.309239
0.708446 0.358862 0.318608
0.844297 0.371313 0.328618
0.0528267 0.444053 0.306355
0.0969863 0.444785 0.306477
0.164263 0.44654 0.30695
0.25452 0.44892 0.309285
0.357336 0.454673 0.312535
0.472068 0.46273 0.31751
0.598474 0.472511 0.324376
0.732738 0.483574 0.332158
0.863554 0.495476 0.340825
0.0690471 0.584726 0.328527
0.115068 0.585473 0.328374
0.182605 0.58703 0.32813
0.276326 0.589929 0.328954
0.384344 0.594827 0.331395
0.501411 0.602304 0.335317
0.627726 0.611139 0.340917
0.759945 0.620661 0.347784
0.882475 0.630884 0.354177
0.103792 0.7346 0.350759
0.147814 0.735027 0.35021
0.207935 0.73637 0.349798
0.305684 0.738842 0.34963
0.416648 0.743297 0.35079
0.5346 0.749493 0.353368
0.659403 0.756329 0.357122
0.78822 0.763745 0.360052
0.899077 0.770504 0.361898
0.151919 0.879469 0.368414
0.19202 0.879652 0.367803
0.250385 0.880644 0.366857
0.34049 0.882338 0.364965
0.454246 0.885176 0.364279
0.570474 0.888716 0.367163
0.691066 0.892546 0.371496
0.814176 0.896971 0.374334
0.914153 0.901106 0.368322
0 0 0.343999
0.0436713 0 0.344396
0.12314 0 0.346288
0.206409 0 0.350408
0.302342 0.0162356 0.356664
0.412207 0.0248722 0.366003
0.537316 0.0303502 0.378943
0.673686 0.0351568 0.39234
0.814084 0.0394751 0.405478
0 0.0365911 0.345357
0.0475471 0.0371557 0.345892
0.123079 0.0450141 0.34815
0.207218 0.054902 0.352193
0.30399 0.0621805 0.358297
0.41442 0.0653391 0.367437
0.539727 0.0740063 0.379995
0.676295 0.0762493 0.393271
0.816297 0.079881 0.406241
0.0103609 0.126726 0.351919
0.059617 0.125643 0.352911
0.12488 0.124315 0.355352
0.2112 0.128328 0.358862
0.310262 0.135454 0.364034
0.421698 0.142641 0.372351
0.547051 0.151293 0.383764
0.683528 0.149599 0.396185
0.823148 0.160357 0.408484
0.0342412 0.219593 0.362005
0.0755627 0.219577 0.362737
0.137469 0.219608 0.36527
0.221622 0.221302 0.369604
0.322652 0.226764 0.374304
0.435172 0.234836 0.381674
0.560403 0.243671 0.39176
0.696056 0.253147 0.402853
0.83418 0.263172 0.414191
0.0485695 0.325719 0.37644
0.0920729 0.325978 0.37702
0.155657 0.32752 0.37879
0.24033 0.330037 0.382681
0.340703 0.334783 0.38851
0.454398 0.342443 0.395346
0.579889 0.351583 0.4038
0.71458 0.362219 0.413718
0.849409 0.374762 0.424323
0.0558938 0.449775 0.397833
0.101411 0.450248 0.398138
0.169787 0.45211 0.399329
0.260929 0.454475 0.402335
0.364477 0.459007 0.407126
0.478584 0.46688 0.412894
0.604669 0.476341 0.420218
0.738338 0.487083 0.428809
0.868193 0.499397 0.438346
0.0714122 0.590921 0.421958
0.117693 0.591409 0.421927
0.186084 0.593027 0.422339
0.28188 0.595163 0.424674
0.391211 0.598688 0.429145
0.507179 0.606088 0.43328
0.633295 0.61503 0.439536
0.765011 0.62446 0.447028
0.886183 0.634623 0.45481
0.107607 0.740383 0.446708
0.15172 0.74078 0.446555
0.21117 0.742107 0.446754
0.311513 0.743542 0.448585
0.423239 0.746899 0.452003
0.540032 0.752804 0.455222
0.664103 0.75967 0.460075
0.792203 0.767102 0.4663
0.901961 0.774151 0.472526
0.156374 0.883925 0.471244
0.196979 0.884108 0.471107
0.256031 0.88426 0.471641
0.346868 0.885298 0.47274
0.459937 0.887922 0.474113
0.575509 0.891493 0.476753
0.695323 0.895384 0.480491
0.81738 0.899626 0.485039
0.916365 0.904067 0.49012
0.00289921 0 0.446204
0.059205 0 0.44686
0.129229 0.000244144 0.449058
0.214542 0.0114443 0.453208
0.312963 0.0223697 0.459571
0.424033 0.0270085 0.46836
0.547463 0.0311742 0.479454
0.683955 0.0352331 0.493416
0.82327 0.0398413 0.507042
0.00608835 0.0543832 0.448005
0.0593423 0.0539254 0.44889
0.128359 0.0552529 0.451179
0.215045 0.0599374 0.455512
0.314351 0.0638895 0.461494
0.426093 0.0682231 0.470146
0.550179 0.0762646 0.481117
0.686366 0.0758984 0.494667
0.825559 0.0814679 0.50808
0.0210422 0.133364 0.455192
0.0649119 0.132219 0.456062
0.129778 0.130297 0.45864
0.218067 0.133349 0.462623
0.319814 0.138949 0.467689
0.432822 0.146548 0.475456
0.557458 0.153002 0.485725
0.693736 0.151736 0.498619
0.832151 0.161288 0.511269
0.0372015 0.226749 0.466499
0.078996 0.226383 0.46743
0.14168 0.22565 0.470253
0.227573 0.225895 0.474601
0.331304 0.230686 0.479164
0.445853 0.238254 0.485451
0.570779 0.247013 0.494636
0.705669 0.256245 0.506264
0.842786 0.265721 0.517861
0.0534066 0.334096 0.480446
0.0968643 0.334249 0.48127
0.160327 0.334874 0.483513
0.24535 0.336339 0.487968
0.348241 0.33994 0.493584
0.464149 0.347097 0.499504
0.589258 0.356313 0.508247
0.72314 0.366827 0.518547
0.856291 0.379232 0.529274
0.0639658 0.457481 0.499657
0.110491 0.457923 0.500191
0.178607 0.45922 0.501656
0.268635 0.461662 0.504646
0.372763 0.465675 0.510002
0.487144 0.472587 0.517922
0.612741 0.481514 0.525902
0.745724 0.49221 0.534905
0.874128 0.504341 0.544564
0.0780499 0.597574 0.525185
0.124208 0.598016 0.525444
0.193469 0.599649 0.526497
0.29012 0.601801 0.529305
0.400534 0.604685 0.534325
0.515694 0.611322 0.539986
0.64036 0.620005 0.546914
0.771191 0.629572 0.554726
0.890791 0.640177 0.563043
0.112016 0.747295 0.551843
0.156222 0.747921 0.552056
0.215198 0.74902 0.552575
0.318334 0.749859 0.555322
0.431296 0.751812 0.559976
0.547402 0.757229 0.564294
0.67042 0.764157 0.569497
0.797253 0.771542 0.575936
0.905257 0.77879 0.582437
0.161318 0.889433 0.577585
0.202426 0.889357 0.57789
0.262211 0.889113 0.579171
0.353643 0.889342 0.581231
0.466758 0.891402 0.583871
0.581781 0.89482 0.587366
0.700923 0.898756 0.591821
0.821546 0.903166 0.596689
0.918669 0.907317 0.601923
0.01355 0.00720226 0.556939
0.061738 0.00833143 0.557671
0.132311 0.0155184 0.560388
0.221622 0.0209049 0.564965
0.323369 0.0252537 0.571389
0.436484 0.0298466 0.579919
0.560433 0.0322728 0.591073
0.695674 0.0346838 0.604257
0.834043 0.0396429 0.618082
0.0171359 0.0626535 0.559197
0.0610971 0.0611124 0.560037
0.131212 0.0614939 0.562722
0.221836 0.0643778 0.567391
0.324758 0.0660563 0.57348
0.438224 0.0729534 0.581903
0.562875 0.0763409 0.592889
0.698054 0.0745556 0.605936
0.836103 0.0826581 0.619379
0.0252689 0.140581 0.566918
0.0668956 0.1393 0.567666
0.133288 0.13698 0.570504
0.224521 0.138277 0.57496
0.329473 0.143572 0.580453
0.444327 0.151324 0.587869
0.569665 0.150439 0.59826
0.705303 0.154131 0.610681
0.842481 0.163378 0.623316
0.0382849 0.233661 0.579675
0.0813153 0.232929 0.580606
0.145998 0.231678 0.583383
0.233906 0.231067 0.588144
0.339925 0.235218 0.59295
0.456733 0.242786 0.598962
0.582635 0.250263 0.608057
0.717479 0.259373 0.61941
0.852644 0.268711 0.630884
0.0568093 0.341909 0.594705
0.100572 0.341756 0.595575
0.164935 0.34168 0.598337
0.251545 0.342107 0.603311
0.356344 0.344717 0.60911
0.474601 0.351492 0.614237
0.600809 0.360311 0.62211
0.734249 0.371328 0.63238
0.865507 0.383795 0.642954
0.0747082 0.465965 0.612558
0.120684 0.466072 0.613321
0.18706 0.466987 0.615259
0.275364 0.468986 0.619074
0.379278 0.472786 0.625376
0.497047 0.478569 0.632807
0.622766 0.487327 0.640238
0.754818 0.498039 0.649638
0.880934 0.50985 0.659312
0.0901198 0.604913 0.637064
0.135302 0.60531 0.637675
0.204883 0.606699 0.639094
0.300313 0.608881 0.641779
0.409522 0.612589 0.646403
0.525719 0.61799 0.653437
0.649119 0.626551 0.661982
0.778653 0.635752 0.670588
0.896056 0.64622 0.678691
0.121233 0.754101 0.66627
0.165454 0.754574 0.666606
0.22594 0.755657 0.667628
0.328038 0.756863 0.670222
0.441062 0.758801 0.674479
0.557519 0.762798 0.680156
0.67837 0.769543 0.685481
0.802976 0.777081 0.692805
0.909133 0.784833 0.699351
0.168322 0.895293 0.692897
0.209598 0.895171 0.693095
0.268788 0.895171 0.694102
0.360464 0.895399 0.696345
0.474525 0.896178 0.699748
0.588907 0.898878 0.703899
0.706767 0.902754 0.708446
0.826047 0.907088 0.713771
0.92137 0.911269 0.718959
0.0243839 0.0205386 0.676493
0.0647898 0.020737 0.677409
0.13228 0.0217288 0.680201
0.22826 0.023621 0.684688
0.3337 0.0274052 0.690837
0.448814 0.0319982 0.699168
0.573587 0.0345922 0.710201
0.708156 0.0347295 0.723339
0.845396 0.0394293 0.737514
0.0239414 0.0674296 0.679088
0.0632181 0.0658427 0.679759
0.132006 0.065507 0.682628
0.228931 0.0650645 0.68716
0.335027 0.0699626 0.69308
0.450523 0.0775464 0.701564
0.575769 0.0771954 0.712215
0.710307 0.0748608 0.725032
0.847562 0.0834058 0.739193
0.0279393 0.146914 0.686778
0.068101 0.145556 0.687617
0.136263 0.143023 0.690105
0.231388 0.143465 0.695109
0.339391 0.148943 0.700496
0.456291 0.154986 0.707835
0.582055 0.152087 0.717983
0.717037 0.158022 0.730495
0.853513 0.162066 0.743832
0.0393072 0.240131 0.700252
0.084123 0.239475 0.701167
0.151598 0.237812 0.703868
0.241657 0.236698 0.708797
0.349645 0.240162 0.713817
0.467964 0.247303 0.719768
0.594186 0.254871 0.728557
0.728664 0.26276 0.739956
0.863111 0.271336 0.752239
0.0617227 0.349065 0.716457
0.105852 0.348623 0.717388
0.171496 0.347936 0.720424
0.259571 0.347692 0.725551
0.366262 0.349813 0.731228
0.485328 0.35639 0.736278
0.611887 0.365225 0.743587
0.745327 0.375433 0.753597
0.875715 0.388174 0.764691
0.0848249 0.473732 0.734081
0.130068 0.473854 0.73518
0.19469 0.47422 0.737697
0.282826 0.475502 0.742367
0.387961 0.478035 0.749386
0.507149 0.483619 0.756085
0.633951 0.492363 0.762173
0.765332 0.503014 0.771084
0.889387 0.515526 0.781064
0.106935 0.612146 0.756878
0.149859 0.612314 0.757336
0.2177 0.613352 0.759197
0.310628 0.615625 0.762387
0.417578 0.61944 0.767605
0.533623 0.625101 0.775128
0.659129 0.632959 0.783307
0.786938 0.642084 0.791638
0.901701 0.652384 0.799863
0.135775 0.759472 0.784588
0.179644 0.759731 0.78497
0.241688 0.760601 0.786313
0.340154 0.762463 0.788479
0.45098 0.765164 0.79202
0.567391 0.769039 0.797589
0.686885 0.775341 0.804944
0.809461 0.783123 0.812818
0.913039 0.790768 0.819196
0.17821 0.900633 0.812772
0.219516 0.900679 0.813123
0.278035 0.900999 0.813993
0.369787 0.901595 0.815778
0.483223 0.902358 0.818463
0.59791 0.903807 0.822782
0.714122 0.907088 0.827146
0.831189 0.911162 0.831495
0.924193 0.915419 0.836515
