LUTS/Secondary LUTS/DARK.cube
TITLE "Generated by Resolve"
LUT_3D_SIZE 33
0 0 0
0 0 0
0 0 0
0.00201419 0 0
0.0165103 0 0
0.0370794 0 0
0.0584573 0 0
0.0809186 0 0
0.0988022 0 0
0.117464 0 0
0.137911 0 0
0.158724 0 0
0.180346 0 0
0.203601 0 0
0.227283 0 0
0.252018 0 0
0.27779 0 0
0.30396 0.000839246 0
0.331868 0.00856031 0.00323491
0.360128 0.0161746 0.0103304
0.389807 0.020264 0.0144198
0.419776 0.0225071 0.0168002
0.450721 0.0245365 0.019028
0.482902 0.0261387 0.0205997
0.515175 0.0276036 0.0222477
0.54876 0.0289921 0.0242161
0.582803 0.0302434 0.0262455
0.617441 0.0313268 0.0284886
0.652918 0.0323644 0.0309453
0.688365 0.0331121 0.0334325
0.724636 0.0337377 0.035935
0.760601 0.0343786 0.0385138
0.795636 0.035172 0.041062
0 0 0
0 0 0
0 0 0
0.00233463 0 0
0.0170748 0 0
0.0373999 0 0
0.0587778 0 0
0.0810254 0 0
0.0989395 0 0
0.117662 0 0
0.138125 0 0
0.158907 0 0
0.180529 0 0
0.203784 0 0
0.227359 0 0
0.252186 0.00456245 0
0.278004 0.0087129 0
0.304341 0.0131991 0
0.332235 0.0194247 0.00349432
0.360479 0.0252079 0.0104829
0.38999 0.0284886 0.0143893
0.420127 0.0306706 0.0167086
0.450904 0.032578 0.0188754
0.483085 0.0341192 0.0204776
0.51545 0.0355383 0.0221714
0.548928 0.0369116 0.0241093
0.582971 0.0382544 0.0261387
0.617594 0.0394141 0.0283818
0.653101 0.0406653 0.030808
0.688579 0.0418402 0.033341
0.724987 0.0427253 0.0359197
0.760967 0.0434424 0.038529
0.796017 0.0443732 0.0410468
0 0 0
0 0 0
0 0 0
0.00265507 0 0
0.0174563 0 0
0.0377661 0 0
0.0590677 0 0
0.081239 0 0
0.0991531 0 0
0.11783 0 0
0.138186 0 0
0.158984 0 0
0.180621 0 0
0.203906 0.00555428 0
0.227573 0.0121309 0
0.252369 0.0175631 0
0.278325 0.021622 0
0.30457 0.025803 0
0.332479 0.0302281 0.00373846
0.360769 0.0342565 0.0105898
0.390265 0.0370489 0.0144045
0.420417 0.0392615 0.0166629
0.451423 0.0413214 0.0187839
0.483452 0.0433967 0.0204776
0.515862 0.0452735 0.0222324
0.549706 0.0473945 0.0242313
0.583581 0.0495155 0.0263066
0.618448 0.051194 0.0285954
0.653788 0.0524605 0.0310521
0.689235 0.053315 0.0335851
0.72549 0.0536812 0.0360876
0.761563 0.0538491 0.0386358
0.796582 0.05449 0.0411231
0 0.00489815 0
0 0.00495918 0
0 0.00508125 0
0.00329595 0.00531014 0
0.0183566 0.00575265 0
0.0386206 0.00645457 0
0.0599832 0.00727855 0
0.0818952 0.00766003 0
0.0996719 0.00708019 0
0.118334 0.0065919 0
0.138735 0.00740063 0
0.159503 0.00892653 0
0.181155 0.0110933 0
0.204334 0.0187228 0
0.228107 0.0271153 0
0.253025 0.0331121 0
0.279026 0.0370947 0
0.305364 0.0411231 0
0.333288 0.044358 0.00483711
0.361547 0.0475319 0.0113375
0.39118 0.0501411 0.0149386
0.421363 0.0520333 0.0170596
0.452415 0.0538338 0.0191196
0.484428 0.0558328 0.020798
0.516854 0.0577554 0.0225528
0.550469 0.0600748 0.0245365
0.584573 0.0625467 0.026627
0.619471 0.0642557 0.0289311
0.654749 0.0650645 0.0314031
0.690227 0.0654917 0.0339361
0.726177 0.0653849 0.0363775
0.762341 0.0650187 0.0388647
0.797208 0.0655222 0.0413062
0 0.0186923 0
0 0.0187839 0
0 0.0189975 0
0.00456245 0.0191653 0
0.0200656 0.019852 0
0.0401007 0.0207065 0
0.0614176 0.0218051 0
0.0829786 0.0225376 0
0.10074 0.0226291 0
0.119295 0.0230106 0
0.139681 0.0245365 0
0.160586 0.0267185 0
0.182193 0.0296483 0
0.205631 0.0368048 0
0.229389 0.043946 0
0.25417 0.0489662 0
0.280171 0.0526894 0
0.306584 0.0563668 0.000289921
0.334432 0.0594949 0.00646983
0.362661 0.0626688 0.0123751
0.392218 0.0645914 0.01561
0.42237 0.0656596 0.0175784
0.453407 0.0667735 0.0195315
0.485451 0.0688945 0.0211795
0.517937 0.0709697 0.0229191
0.551568 0.0736095 0.0249027
0.585687 0.0764172 0.0270085
0.620356 0.0779889 0.0292973
0.655818 0.0783246 0.0317845
0.691218 0.0782788 0.0343175
0.727169 0.0776532 0.0367132
0.763256 0.0768597 0.0391089
0.798016 0.0772564 0.0414893
0 0.0391241 0
0 0.0392004 0
0 0.0392462 0
0.00660716 0.0395514 0
0.0226444 0.0401007 0
0.0425574 0.0409705 0
0.0639658 0.0419013 0
0.0848096 0.0428321 0
0.102342 0.0435035 0
0.120897 0.044358 0
0.141253 0.0460975 0
0.16202 0.0482032 0
0.183749 0.0508583 0
0.207019 0.0562295 0
0.230854 0.0618753 0
0.255772 0.0661479 0
0.281682 0.069749 0
0.30808 0.0733196 0.00292973
0.335988 0.0763256 0.00849927
0.364019 0.0793774 0.0136416
0.393606 0.0805524 0.0165255
0.423743 0.0806439 0.0183108
0.454704 0.0811322 0.0201267
0.486931 0.08336 0.0217594
0.519326 0.0854353 0.0234989
0.552972 0.088426 0.0254673
0.587045 0.0921798 0.0275731
0.621942 0.0940414 0.0298772
0.657237 0.0944076 0.0323796
0.692683 0.0944839 0.0349279
0.728725 0.094377 0.0372778
0.764752 0.0944076 0.0396277
0.799634 0.095964 0.0420081
0 0.0613718 0
0 0.0615702 0
0 0.0616007 0
0.00914015 0.0619974 0
0.0257572 0.0626078 0
0.0454414 0.0634623 0
0.0669871 0.0644694 0
0.087129 0.0657206 0
0.104372 0.0672007 0
0.122698 0.0688334 0
0.143053 0.0708171 0
0.163821 0.0728466 0
0.185718 0.0754711 0
0.208865 0.0790875 0
0.232609 0.0825208 0
0.257557 0.0856336 0
0.283421 0.088838 0.000900282
0.309911 0.0919814 0.0059968
0.337682 0.0947738 0.0107271
0.36585 0.0976272 0.0150912
0.39559 0.0984207 0.0174868
0.425574 0.0986343 0.0191196
0.456626 0.0997177 0.0208133
0.488716 0.102556 0.0224765
0.521248 0.105165 0.0242008
0.555138 0.108522 0.026215
0.589105 0.111727 0.0282597
0.623774 0.1131 0.0305791
0.659037 0.112871 0.0330816
0.694514 0.112459 0.0356298
0.730663 0.112718 0.0378882
0.766445 0.11313 0.0401923
0.801266 0.115114 0.0425422
0 0.0854963 0
0 0.0855879 0
0.00267033 0.0856947 0
0.0133211 0.0859541 0
0.0305943 0.0864881 0
0.0496376 0.0870832 0
0.0709392 0.0878767 0
0.0899367 0.0890974 0
0.107027 0.0905013 0
0.125383 0.0920729 0
0.145602 0.0936294 0
0.166262 0.0952773 0
0.188052 0.0972763 0
0.211215 0.0996262 0
0.23505 0.102296 0
0.260105 0.105104 0.00132753
0.285863 0.108003 0.00560006
0.312322 0.110872 0.0096437
0.340139 0.113588 0.0132296
0.368246 0.116381 0.0165103
0.397864 0.117891 0.0184939
0.427939 0.119081 0.0200198
0.459083 0.121004 0.0216526
0.491218 0.123781 0.0233005
0.523705 0.126543 0.0250706
0.557382 0.129534 0.0270542
0.591424 0.132311 0.0291447
0.626078 0.133181 0.0314183
0.661265 0.132342 0.0339208
0.696651 0.131655 0.0364385
0.73254 0.132403 0.0386664
0.768627 0.133318 0.0408942
0.803311 0.136095 0.0432441
0 0.106111 0
0 0.106157 0
0.0084535 0.106264 0
0.0199435 0.106554 0
0.0371099 0.107057 0
0.0549783 0.107576 0
0.0753643 0.108309 0
0.0931563 0.109422 0
0.110002 0.110536 0
0.128496 0.111894 0
0.148531 0.113558 0
0.168887 0.115175 0
0.190707 0.117235 0
0.213962 0.119829 0
0.237736 0.12253 0.0030518
0.262852 0.125277 0.00701915
0.288746 0.128084 0.0103456
0.315175 0.130999 0.0133974
0.342931 0.133852 0.0158694
0.371023 0.136721 0.0181125
0.400702 0.13904 0.0197299
0.430823 0.141482 0.021149
0.461921 0.144121 0.0227512
0.49398 0.147143 0.024445
0.526436 0.149889 0.0262303
0.559991 0.152407 0.0281834
0.594034 0.154711 0.0302434
0.628794 0.155016 0.032517
0.663905 0.154025 0.0349432
0.699168 0.153628 0.0373846
0.735073 0.155154 0.0395514
0.771206 0.157015 0.0417639
0.805707 0.160204 0.0440986
0 0.128099 0
0.00422675 0.128145 0
0.0151369 0.128298 0
0.0279545 0.128603 0
0.0440681 0.129046 0
0.0611276 0.129625 0
0.0802014 0.130282 0
0.0969406 0.131197 0
0.113695 0.132174 0
0.13225 0.133455 0
0.151934 0.134966 0
0.172152 0.136751 0
0.193851 0.138827 0
0.216953 0.141314 0.00425727
0.240925 0.144045 0.00961318
0.266072 0.146746 0.0125124
0.291814 0.149447 0.0146944
0.31841 0.152193 0.0166781
0.346166 0.155108 0.0181735
0.374304 0.1579 0.0196536
0.403998 0.16083 0.021088
0.434012 0.163607 0.022446
0.465232 0.1664 0.0240177
0.497154 0.16907 0.0256809
0.529702 0.171649 0.0274662
0.563348 0.173953 0.0294499
0.597223 0.176226 0.0315404
0.631891 0.177203 0.0337377
0.667079 0.1776 0.035996
0.702464 0.178302 0.0383154
0.738338 0.180423 0.0404974
0.774166 0.18265 0.04271
0.808576 0.18555 0.0450446
0.00256352 0.151202 0
0.0130617 0.151339 0
0.0234989 0.151446 0
0.0363165 0.151736 0
0.0510414 0.152087 0
0.0671397 0.152575 0
0.0845502 0.153307 0
0.100877 0.154147 0
0.117693 0.155001 0
0.136202 0.156237 0
0.155734 0.157565 0.00144961
0.175952 0.159197 0.00325017
0.197848 0.161334 0.00608835
0.220768 0.163622 0.00972
0.24445 0.166125 0.0133059
0.269566 0.168627 0.0152285
0.295293 0.171344 0.0168917
0.322026 0.17409 0.0184482
0.349676 0.176837 0.0197452
0.377951 0.17969 0.0210727
0.407675 0.182559 0.022446
0.437568 0.18529 0.0238193
0.468925 0.188052 0.0254215
0.50074 0.19086 0.0270542
0.533333 0.193606 0.0288701
0.566888 0.196124 0.0308995
0.600778 0.198688 0.0330358
0.635355 0.200671 0.035172
0.670558 0.202426 0.0372931
0.705943 0.204486 0.0394446
0.741573 0.207218 0.0416419
0.777584 0.209903 0.0439155
0.811749 0.212726 0.0462043
0.0132143 0.174914 0.0018616
0.0227665 0.175021 0.00199893
0.0324407 0.175097 0.00210575
0.0446021 0.175341 0.00268559
0.0581521 0.175753 0.00349432
0.0729534 0.176242 0.0043946
0.0888075 0.176883 0.00535592
0.105043 0.177615 0.00621042
0.122072 0.1785 0.00717174
0.140551 0.179568 0.00822461
0.160067 0.180911 0.00949111
0.18024 0.182437 0.0108034
0.202075 0.184329 0.0126802
0.22472 0.186343 0.014725
0.248356 0.188754 0.0168002
0.273518 0.191333 0.0180362
0.299214 0.194034 0.0191958
0.326131 0.196857 0.0204013
0.353658 0.199649 0.0215457
0.382025 0.202472 0.0227665
0.411719 0.205341 0.0241093
0.441672 0.208148 0.0254978
0.472938 0.211048 0.0270695
0.504753 0.213886 0.0287175
0.537301 0.216648 0.0305028
0.570748 0.219379 0.0325628
0.604746 0.222202 0.0347143
0.639307 0.224857 0.0367285
0.674449 0.227558 0.0387274
0.709697 0.230182 0.0407568
0.74548 0.232792 0.0429541
0.781247 0.235538 0.0451972
0.815183 0.238087 0.047425
0.0231174 0.199802 0.0113222
0.0318303 0.199878 0.011429
0.0407568 0.200031 0.0115511
0.0523232 0.200305 0.0119326
0.0650339 0.200671 0.012314
0.0783551 0.201068 0.0127565
0.0934615 0.201587 0.0133059
0.109636 0.202426 0.013901
0.126787 0.203235 0.0145418
0.145388 0.204273 0.015259
0.164767 0.205432 0.0160067
0.18497 0.20679 0.016846
0.20679 0.208453 0.0177157
0.229191 0.210315 0.0186007
0.252689 0.212497 0.0195773
0.277775 0.215167 0.0204166
0.303471 0.217807 0.0213321
0.330388 0.220615 0.0223545
0.357992 0.223545 0.0234379
0.386374 0.226261 0.0246128
0.416022 0.229206 0.0259556
0.446189 0.232044 0.0273594
0.477394 0.234974 0.0289158
0.509255 0.237934 0.0305486
0.541848 0.240711 0.0323339
0.575265 0.243534 0.0342565
0.609049 0.246281 0.036286
0.643839 0.249104 0.0382544
0.678828 0.251911 0.0402228
0.713985 0.254612 0.0422675
0.749691 0.257435 0.0444343
0.785168 0.260197 0.0466316
0.81886 0.263066 0.0487831
0.0281224 0.225635 0.0152743
0.0364996 0.225696 0.0153201
0.0454566 0.225772 0.0154421
0.0570687 0.226093 0.0156863
0.0696117 0.226383 0.0159609
0.0825666 0.22681 0.0162814
0.0978866 0.22739 0.0166629
0.113893 0.227939 0.0171054
0.131197 0.228901 0.0175784
0.150011 0.22977 0.0180972
0.16939 0.230854 0.018677
0.189578 0.232105 0.0193027
0.211414 0.23357 0.0200046
0.233783 0.235203 0.0206607
0.25742 0.237217 0.0215152
0.282506 0.23978 0.0223697
0.308019 0.242313 0.0232547
0.334737 0.245029 0.0242924
0.36257 0.24799 0.0254215
0.391058 0.250874 0.0266117
0.420752 0.253834 0.0279545
0.450858 0.256748 0.0293584
0.482231 0.259709 0.0309148
0.513954 0.262623 0.0325475
0.546563 0.265721 0.034287
0.580011 0.268513 0.0360876
0.613794 0.27155 0.0379797
0.64831 0.274327 0.0398871
0.683268 0.277241 0.041886
0.718502 0.280156 0.0439155
0.754009 0.282979 0.046067
0.789395 0.285985 0.0482032
0.822675 0.28896 0.0504463
0.0328069 0.252308 0.0191348
0.04094 0.252445 0.0191653
0.0501717 0.252537 0.0192264
0.0618906 0.252888 0.0194095
0.0740826 0.253086 0.0195468
0.0869001 0.253468 0.0197757
0.10248 0.254063 0.0200656
0.118593 0.254704 0.0203708
0.135958 0.255467 0.0206912
0.15494 0.256443 0.021088
0.17438 0.257435 0.0215
0.194751 0.258625 0.0220035
0.216815 0.26009 0.0225376
0.239246 0.261707 0.0230564
0.262974 0.263508 0.0237888
0.287526 0.265583 0.0245518
0.312993 0.267948 0.025452
0.339986 0.270604 0.0264897
0.367529 0.273625 0.0275883
0.396185 0.276585 0.0287938
0.425834 0.279606 0.0301518
0.456016 0.282521 0.0315709
0.487358 0.285573 0.0331426
0.519249 0.288609 0.0347143
0.551812 0.291691 0.0364233
0.58526 0.294667 0.0381018
0.618997 0.297627 0.0398871
0.65333 0.300542 0.0417639
0.688243 0.303487 0.0437324
0.723415 0.306554 0.0457465
0.75874 0.30959 0.0478218
0.794034 0.312581 0.0500496
0.827024 0.31574 0.0522469
0.036759 0.28014 0.0220493
0.044831 0.280201 0.0220645
0.0545663 0.280324 0.0221256
0.0664073 0.280644 0.0222477
0.0784314 0.280919 0.0224002
0.0915084 0.281315 0.0225681
0.107012 0.281819 0.0228122
0.123171 0.282277 0.0230716
0.140459 0.283177 0.0233768
0.159655 0.284031 0.0237278
0.179278 0.285084 0.024094
0.199954 0.286305 0.0245365
0.222141 0.287602 0.024979
0.244587 0.289052 0.0254673
0.268238 0.290761 0.026154
0.292653 0.292576 0.0269169
0.318166 0.294957 0.0278019
0.345083 0.297597 0.0288548
0.372778 0.30042 0.0299687
0.401358 0.303227 0.0312047
0.431144 0.30634 0.0325017
0.461494 0.309224 0.0338598
0.49276 0.312215 0.0353094
0.524681 0.315343 0.0368353
0.55726 0.318441 0.0384527
0.590631 0.321569 0.0401617
0.624125 0.324575 0.0419013
0.658717 0.327672 0.0437629
0.693584 0.330678 0.0456703
0.728481 0.333791 0.0476539
0.763851 0.336965 0.049836
0.798871 0.339956 0.0519875
0.831479 0.34313 0.0540932
0.0402838 0.308873 0.0246128
0.0486763 0.308934 0.0246433
0.0588846 0.309133 0.0247044
0.0707561 0.309285 0.0248264
0.0827497 0.309545 0.0249943
0.0962692 0.309972 0.0251774
0.111604 0.31043 0.0254063
0.127779 0.311101 0.0256962
0.145251 0.311833 0.0260014
0.164569 0.312673 0.0263523
0.18436 0.313756 0.0267491
0.205325 0.314809 0.0271611
0.22768 0.316304 0.0276036
0.250248 0.317556 0.0280919
0.274189 0.319203 0.0287785
0.298558 0.321004 0.0295109
0.324239 0.323186 0.0304417
0.351019 0.325612 0.0314641
0.378515 0.328283 0.0325322
0.407263 0.33109 0.0337224
0.436835 0.334249 0.0349737
0.467231 0.337285 0.0362707
0.498665 0.340368 0.0376745
0.530571 0.343496 0.0391852
0.563149 0.346578 0.0407568
0.59646 0.349737 0.0424048
0.630014 0.352682 0.0441138
0.664378 0.355673 0.0459449
0.699153 0.358877 0.0478981
0.734112 0.362005 0.0499428
0.769329 0.365164 0.0520485
0.804105 0.368368 0.0541238
0.836378 0.371527 0.0561379
0.0429847 0.338735 0.0273289
0.0517586 0.338888 0.0273899
0.0624399 0.33901 0.0274815
0.0742199 0.339162 0.0275883
0.086183 0.339513 0.0277562
0.100206 0.339834 0.0279393
0.115434 0.340291 0.0281834
0.131716 0.340963 0.0284733
0.149645 0.341665 0.028809
0.169146 0.342458 0.0291905
0.189273 0.343374 0.0295567
0.210681 0.344625 0.0299687
0.233051 0.345907 0.0304417
0.256046 0.347341 0.0309453
0.28014 0.348837 0.0315709
0.304585 0.350637 0.0322271
0.330266 0.35256 0.0331121
0.356909 0.354696 0.0340276
0.384451 0.357229 0.03505
0.413138 0.360021 0.0362249
0.442725 0.363088 0.0374609
0.473136 0.366033 0.0387274
0.504463 0.369146 0.0401007
0.536446 0.37232 0.0415808
0.568978 0.375433 0.0431067
0.602441 0.378576 0.0447242
0.635859 0.381613 0.0464179
0.670497 0.384878 0.0483101
0.705013 0.388098 0.0502174
0.739818 0.391211 0.0521859
0.774792 0.394354 0.0542
0.809445 0.397543 0.0562142
0.841062 0.400641 0.0581064
0.0454566 0.36965 0.0303502
0.0544137 0.369818 0.0304112
0.0654459 0.36994 0.0305028
0.0770123 0.370092 0.0306401
0.0887617 0.37023 0.0307774
0.10338 0.370764 0.0309911
0.11873 0.371206 0.0312352
0.135042 0.371847 0.0315404
0.153658 0.372381 0.0319066
0.173541 0.373159 0.0323033
0.193957 0.374289 0.0326696
0.215793 0.375326 0.0330663
0.238483 0.376638 0.0335241
0.261769 0.378103 0.0339818
0.286275 0.379614 0.0345006
0.310811 0.381247 0.03505
0.336629 0.383154 0.0358282
0.36318 0.385153 0.0366217
0.390814 0.387503 0.0376287
0.419593 0.390295 0.0387884
0.449149 0.392996 0.0399634
0.479286 0.396017 0.0412451
0.510826 0.399313 0.0426337
0.54284 0.402335 0.0440833
0.575555 0.405539 0.045655
0.608804 0.408759 0.0473182
0.642206 0.411826 0.0489967
0.676677 0.415091 0.0508125
0.711131 0.418235 0.0526436
0.745861 0.421485 0.054551
0.780652 0.424659 0.0564889
0.815091 0.427695 0.0584268
0.846098 0.430838 0.0602274
0.0475013 0.401801 0.0334478
0.0567025 0.401892 0.0335088
0.067628 0.402014 0.0336461
0.0789349 0.402228 0.0337682
0.090959 0.402579 0.0338903
0.105684 0.402823 0.0341192
0.121141 0.403388 0.0343481
0.137636 0.403922 0.0346685
0.157351 0.40444 0.0350195
0.177707 0.405386 0.0354314
0.198627 0.406317 0.0358282
0.221073 0.407309 0.0362554
0.244175 0.408545 0.0367437
0.26775 0.409827 0.0371405
0.292485 0.411551 0.0375982
0.317433 0.413138 0.038056
0.343557 0.414862 0.0386511
0.370169 0.416754 0.0393835
0.397787 0.418921 0.0402991
0.426322 0.421332 0.0413367
0.455619 0.423957 0.0424811
0.485863 0.426825 0.0438087
0.51751 0.430076 0.045304
0.549493 0.43331 0.0467994
0.582025 0.436439 0.0483711
0.615305 0.439628 0.0499886
0.648661 0.442664 0.0516213
0.683207 0.445975 0.0533608
0.717418 0.449256 0.0551156
0.752041 0.452277 0.0569009
0.786862 0.455604 0.058732
0.820874 0.458824 0.0605936
0.851362 0.461875 0.0623178
0.049012 0.434989 0.036408
0.0585489 0.435172 0.0364691
0.0693828 0.435279 0.0365759
0.0804913 0.435416 0.0367132
0.0930343 0.435645 0.0368505
0.107912 0.436088 0.0370794
0.123857 0.436439 0.0373083
0.141039 0.436988 0.0376287
0.161318 0.437705 0.0380102
0.181903 0.438468 0.0383764
0.203052 0.439353 0.0388342
0.226139 0.440314 0.0393225
0.249531 0.44155 0.0397803
0.273533 0.442847 0.040177
0.298451 0.444358 0.0405432
0.323796 0.446021 0.0410163
0.350164 0.448005 0.0415961
0.377035 0.449775 0.0422065
0.404791 0.451835 0.0431067
0.433204 0.453758 0.0440681
0.462562 0.456336 0.045243
0.492958 0.45922 0.0465858
0.524437 0.462287 0.0480201
0.556359 0.465293 0.0495155
0.588983 0.468544 0.0510872
0.622171 0.471855 0.0526741
0.65568 0.474937 0.0542611
0.689921 0.478065 0.0559091
0.724147 0.481178 0.0575723
0.75848 0.484428 0.0593118
0.793164 0.487572 0.0610666
0.826795 0.490684 0.0628214
0.856489 0.493706 0.0644846
0.0517433 0.469108 0.039353
0.0612955 0.4692 0.0394141
0.0715953 0.469398 0.0394903
0.0822156 0.469612 0.0396124
0.095201 0.469917 0.0397803
0.109789 0.470207 0.0399634
0.126497 0.470695 0.0402533
0.144686 0.471214 0.040528
0.165331 0.471809 0.0408942
0.186114 0.472496 0.0413062
0.207752 0.47335 0.0417639
0.231312 0.47451 0.042298
0.255161 0.475654 0.0427863
0.279683 0.477058 0.0432288
0.304891 0.478416 0.0437171
0.330571 0.479973 0.0441749
0.35729 0.481926 0.0447852
0.384237 0.483726 0.0453956
0.412146 0.485756 0.0462196
0.440772 0.487663 0.0470588
0.470237 0.490074 0.048188
0.500587 0.492485 0.0494087
0.531609 0.495201 0.0507515
0.5635 0.498161 0.0522316
0.596063 0.501183 0.0537728
0.629206 0.504387 0.0553292
0.66276 0.507561 0.0568856
0.696834 0.510689 0.0584878
0.730938 0.51371 0.0600748
0.765194 0.516869 0.061738
0.799542 0.520165 0.063447
0.832563 0.523125 0.0651408
0.861723 0.526055 0.0667582
0.054551 0.504143 0.0424506
0.0638743 0.504234 0.0424964
0.0737621 0.504555 0.0425574
0.0843214 0.504677 0.04271
0.0970932 0.504967 0.0428626
0.111589 0.505165 0.0430457
0.12842 0.505699 0.0433356
0.147616 0.506264 0.0436713
0.168627 0.506737 0.044007
0.189761 0.507485 0.0444648
0.212192 0.508339 0.0449836
0.236225 0.509438 0.0456092
0.260685 0.510597 0.0460975
0.28571 0.511803 0.04654
0.311269 0.513329 0.0470893
0.337285 0.5149 0.0475166
0.364202 0.516686 0.0480049
0.391608 0.518456 0.0485695
0.419608 0.520348 0.0492866
0.448447 0.522469 0.0500496
0.477989 0.524651 0.0510719
0.508247 0.526986 0.0521553
0.539055 0.529397 0.0534676
0.57084 0.532143 0.0549325
0.603723 0.535348 0.0564279
0.636576 0.538399 0.0579538
0.670039 0.541436 0.0594949
0.704173 0.544594 0.0610971
0.737942 0.547494 0.0626688
0.771984 0.550591 0.064271
0.806088 0.55375 0.0659648
0.838422 0.556649 0.0675975
0.866804 0.559487 0.0691539
0.0574655 0.540291 0.0457923
0.0667735 0.540383 0.0457923
0.0766155 0.540475 0.0458534
0.0874342 0.540703 0.0460059
0.0995804 0.541054 0.0461585
0.113985 0.541283 0.0463569
0.130465 0.541833 0.0466468
0.150744 0.542168 0.0469825
0.172137 0.542824 0.0473182
0.193484 0.543557 0.0478065
0.216938 0.544396 0.0483406
0.241657 0.545281 0.0489204
0.266453 0.546441 0.0494545
0.292119 0.547784 0.0499886
0.317983 0.549004 0.0505226
0.344381 0.550637 0.0508888
0.37171 0.552422 0.0513161
0.399252 0.554192 0.0518502
0.427375 0.556039 0.0524605
0.456504 0.55816 0.0531319
0.486122 0.560082 0.0540475
0.516274 0.562264 0.054963
0.547326 0.564614 0.0562448
0.578882 0.567254 0.0575418
0.611368 0.570062 0.0590066
0.644099 0.572747 0.0605631
0.677546 0.575753 0.0621195
0.711467 0.578882 0.0637064
0.745129 0.58175 0.0653086
0.779141 0.584833 0.0669261
0.812772 0.587701 0.0685283
0.844266 0.590539 0.0700999
0.871916 0.593317 0.0716259
0.0602579 0.57673 0.049134
0.0695659 0.576822 0.0491493
0.0793469 0.576928 0.0492256
0.0901656 0.577081 0.0493477
0.101732 0.577554 0.0495155
0.116411 0.577752 0.0497597
0.132998 0.578195 0.0500191
0.154208 0.578744 0.05037
0.176028 0.579278 0.0507362
0.197604 0.580026 0.0511788
0.22211 0.58085 0.0517281
0.247303 0.581704 0.0522774
0.27248 0.582727 0.0528115
0.29839 0.583886 0.0534371
0.324926 0.585306 0.0539406
0.351629 0.586755 0.0542306
0.379065 0.58851 0.0545968
0.406867 0.590311 0.0550698
0.435416 0.592142 0.0555886
0.464576 0.594263 0.0562295
0.494224 0.59617 0.0569924
0.524742 0.598444 0.0578622
0.555734 0.600626 0.0590219
0.587137 0.602975 0.0602426
0.619486 0.605447 0.061738
0.652033 0.608011 0.0632486
0.685405 0.610971 0.0648356
0.719005 0.613977 0.066453
0.752544 0.616617 0.0680247
0.786084 0.619425 0.0696574
0.819287 0.622232 0.0712596
0.849836 0.624933 0.0727855
0.876677 0.62742 0.0742657
0.0633555 0.614084 0.0524758
0.0729229 0.614176 0.0524758
0.0830854 0.614466 0.0525978
0.0943313 0.61471 0.0527199
0.106279 0.614847 0.0528878
0.121096 0.61503 0.0531014
0.138735 0.615625 0.0534066
0.160128 0.616007 0.0537118
0.181918 0.616556 0.0540932
0.203845 0.617304 0.0545357
0.228672 0.618128 0.0550851
0.25362 0.618921 0.0556344
0.279072 0.619883 0.0562142
0.305516 0.621042 0.0568399
0.332265 0.622431 0.0573281
0.359411 0.623865 0.0576028
0.386999 0.625544 0.0579232
0.415 0.627314 0.0583658
0.443763 0.629114 0.0588235
0.472938 0.630976 0.0594339
0.502708 0.632868 0.0601358
0.533242 0.635081 0.0609751
0.56434 0.637247 0.0620279
0.595636 0.639307 0.0631113
0.627695 0.641642 0.0645609
0.660273 0.644251 0.0660258
0.693126 0.646723 0.0675975
0.726528 0.649317 0.0692454
0.759731 0.651865 0.0708324
0.793057 0.654597 0.0724651
0.825879 0.657298 0.0740826
0.855421 0.6598 0.0755627
0.881422 0.662181 0.076997
0.0666514 0.651652 0.0557717
0.0767071 0.651728 0.055787
0.0874342 0.651926 0.0558938
0.0990005 0.652033 0.0560311
0.111345 0.65243 0.0562142
0.126177 0.652705 0.0564431
0.144976 0.652934 0.0567025
0.166384 0.653559 0.0570382
0.188205 0.654215 0.057435
0.210498 0.654688 0.0578775
0.235355 0.655467 0.0584421
0.260471 0.656291 0.0590066
0.285985 0.657176 0.0596323
0.312825 0.658167 0.0603037
0.340093 0.659663 0.0606851
0.367437 0.660929 0.0609598
0.395132 0.662608 0.0613413
0.423362 0.664302 0.061677
0.452354 0.666056 0.0621042
0.481697 0.667903 0.0627146
0.511452 0.66981 0.0633707
0.541939 0.671885 0.06421
0.573053 0.673884 0.0651865
0.604242 0.67599 0.0662547
0.636286 0.678126 0.067628
0.668513 0.680369 0.0690013
0.701244 0.682689 0.0706188
0.734432 0.68513 0.0722667
0.767391 0.687297 0.0738689
0.800259 0.689998 0.0755322
0.832471 0.692348 0.0771344
0.860822 0.69456 0.0786145
0.886137 0.696818 0.0800488
0.0755474 0.689799 0.0594492
0.0860151 0.689967 0.0595254
0.0975662 0.690074 0.0596323
0.109728 0.69041 0.0597696
0.122927 0.690547 0.0599222
0.137392 0.690806 0.0601816
0.155779 0.691295 0.0604562
0.175387 0.691646 0.0607919
0.195102 0.692256 0.0611429
