LUTS/Secondary LUTS/DARK.cube
TITLE "Generated by Resolve"
LUT_3D_SIZE 5
0 0 0
0.0988022 0 0
0.27779 0 0
0.515175 0.0276036 0.0222477
0.795636 0.035172 0.041062
0 0.106111 0
0.110002 0.110536 0
0.288746 0.128084 0.0103456
0.526436 0.149889 0.0262303
0.805707 0.160204 0.0440986
0.0402838 0.308873 0.0246128
0.145251 0.311833 0.0260014
0.324239 0.323186 0.0304417
0.563149 0.346578 0.0407568
0.836378 0.371527 0.0561379
0.0602579 0.57673 0.049134
0.176028 0.579278 0.0507362
0.379065 0.58851 0.0545968
0.619486 0.605447 0.061738
0.876677 0.62742 0.0742657
0.142931 0.874449 0.0831769
0.24712 0.875776 0.084535
0.451743 0.880919 0.0864729
0.687221 0.888655 0.092134
0.911086 0.897612 0.102495
0 0 0.09337
0.103975 0 0.0964065
0.281483 0 0.110933
0.518288 0.0272068 0.13106
0.797787 0.0364691 0.144854
0 0.109987 0.101671
0.111757 0.112902 0.104036
0.291341 0.126589 0.115434
0.528862 0.145754 0.131762
0.807599 0.155337 0.144594
0.0389868 0.311131 0.132586
0.143252 0.313787 0.131548
0.326055 0.324636 0.127916
0.565087 0.346151 0.13994
0.837598 0.370581 0.148623
0.0580453 0.578164 0.146288
0.174197 0.580591 0.143725
0.379187 0.589761 0.14641
0.62118 0.606622 0.156374
0.877791 0.627649 0.158785
0.14226 0.875212 0.172763
0.244266 0.876554 0.170352
0.451209 0.881804 0.170214
0.687556 0.889464 0.175097
0.911757 0.898222 0.184146
0 0 0.251759
0.116121 0 0.253895
0.292454 0.00805676 0.264897
0.529 0.0292973 0.288243
0.806806 0.0386664 0.313863
0.000991836 0.120943 0.258656
0.119417 0.119661 0.262211
0.301396 0.131762 0.271473
0.538643 0.149096 0.291707
0.816098 0.15816 0.315572
0.043183 0.318746 0.285466
0.149813 0.321035 0.287251
0.333776 0.329992 0.295171
0.573098 0.347967 0.309239
0.844297 0.371313 0.328618
0.0690471 0.584726 0.328527
0.182605 0.58703 0.32813
0.384344 0.594827 0.331395
0.627726 0.611139 0.340917
0.882475 0.630884 0.354177
0.151919 0.879469 0.368414
0.250385 0.880644 0.366857
0.454246 0.885176 0.364279
0.691066 0.892546 0.371496
0.914153 0.901106 0.368322
0.00289921 0 0.446204
0.129229 0.000244144 0.449058
0.312963 0.0223697 0.459571
0.547463 0.0311742 0.479454
0.82327 0.0398413 0.507042
0.0210422 0.133364 0.455192
0.129778 0.130297 0.45864
0.319814 0.138949 0.467689
0.557458 0.153002 0.485725
0.832151 0.161288 0.511269
0.0534066 0.334096 0.480446
0.160327 0.334874 0.483513
0.348241 0.33994 0.493584
0.589258 0.356313 0.508247
0.856291 0.379232 0.529274
0.0780499 0.597574 0.525185
0.193469 0.599649 0.526497
0.400534 0.604685 0.534325
0.64036 0.620005 0.546914
0.890791 0.640177 0.563043
0.161318 0.889433 0.577585
0.262211 0.889113 0.579171
0.466758 0.891402 0.583871
0.700923 0.898756 0.591821
0.918669 0.907317 0.601923
0.0243839 0.0205386 0.676493
0.13228 0.0217288 0.680201
0.3337 0.0274052 0.690837
0.573587 0.0345922 0.710201
0.845396 0.0394293 0.737514
0.0279393 0.146914 0.686778
0.136263 0.143023 0.690105
0.339391 0.148943 0.700496
0.582055 0.152087 0.717983
0.853513 0.162066 0.743832
0.0617227 0.349065 0.716457
0.171496 0.347936 0.720424
0.366262 0.349813 0.731228
0.611887 0.365225 0.743587
0.875715 0.388174 0.764691
0.106935 0.612146 0.756878
0.2177 0.613352 0.759197
0.417578 0.61944 0.767605
0.659129 0.632959 0.783307
0.901701 0.652384 0.799863
0.17821 0.900633 0.812772
0.278035 0.900999 0.813993
0.483223 0.902358 0.818463
0.714122 0.907088 0.827146
0.924193 0.915419 0.836515
