LUTS/Secondary LUTS/FIGHT CLUB.cube
TITLE "Generated by Resolve"
LUT_3D_SIZE 5
0 0 0.000854505
0.0867475 0.0261234 0.0149844
0.285389 0.0636454 0.0214847
0.642908 0 0.0256352
1 4.57771e-05 0.0433051
0.00251774 0.206424 0.0202182
0.0202487 0.205371 0.021561
0.293919 0.220859 0.035996
0.655726 0.199573 0.0382086
1 0.0333715 0.0448005
0 0.456291 0.0028687
0.0658274 0.455375 0.00257877
0.403388 0.46067 0.00296025
0.746746 0.451926 0.00180056
1 0.429984 0.0316777
0.288548 0.741802 0
0.350927 0.743648 0.00433356
0.563836 0.739895 0
0.817899 0.739193 0.00497444
0.998367 0.723674 0.00503548
0.686671 0.929808 0.197269
0.704479 0.927825 0.199542
0.776654 0.924559 0.216785
0.898528 0.921218 0.255818
0.999588 0.917647 0.318456
0 0.0156863 0.169451
0.0754253 0.0310521 0.177172
0.29572 0.057557 0.188113
0.665415 0 0.196414
1 0 0.1879
0 0.202228 0.184955
0.00958267 0.202213 0.189517
0.309102 0.213092 0.191333
0.677317 0.171557 0.193133
0.99649 0 0.196689
0.00222782 0.459327 0.170077
0.0296178 0.456794 0.167025
0.416403 0.459266 0.168978
0.763684 0.443671 0.169558
0.998322 0.424475 0.194705
0.297658 0.743603 0.098497
0.358129 0.746059 0.106004
0.573587 0.741207 0.112398
0.828763 0.734783 0.126238
0.998322 0.723095 0.174105
0.712139 0.927825 0.276844
0.727733 0.928862 0.27602
0.799054 0.924544 0.291081
0.901396 0.921782 0.317647
0.999542 0.918471 0.378943
0.00352483 0.0348974 0.354131
0.114992 0.0342412 0.357137
0.352911 0.00447089 0.361334
0.712657 0 0.383993
1 0 0.37966
0.00352483 0.190402 0.36788
0.0607462 0.191943 0.374533
0.370779 0.184787 0.377752
0.730724 0.0900282 0.386419
1 0 0.385351
0 0.453483 0.383139
0.124269 0.455238 0.386236
0.452522 0.447242 0.389059
0.791882 0.436683 0.381018
0.999939 0.44387 0.392966
0.406897 0.739651 0.36318
0.452674 0.743252 0.362737
0.636957 0.733883 0.368353
0.852354 0.733974 0.373495
0.996872 0.725216 0.383612
0.768978 0.92549 0.44097
0.776196 0.923842 0.441596
0.822354 0.924254 0.442603
0.915297 0.920317 0.460105
1 0.920134 0.495552
0.150591 0 0.625055
0.239551 0.000595102 0.627512
0.47686 0.000671397 0.629282
0.798688 0 0.643153
0.999496 4.57771e-05 0.648493
0.0723125 0.174853 0.6327
0.197955 0.170535 0.637751
0.461952 0.1411 0.642359
0.78117 0.00358587 0.646113
0.999649 0.000350958 0.660105
0.0737011 0.422034 0.658
0.193332 0.416831 0.655756
0.483268 0.411215 0.656626
0.806867 0.396445 0.660548
1 0.407004 0.668498
0.512795 0.727687 0.671275
0.54934 0.722454 0.66511
0.687373 0.722423 0.673899
0.86717 0.716854 0.672801
0.99913 0.730953 0.68101
0.786618 0.921569 0.674235
0.804807 0.922454 0.681773
0.846479 0.921767 0.683238
0.916732 0.92076 0.711177
0.991531 0.917723 0.746334
0.12549 0 0.776471
0.231083 0 0.780392
0.47837 0 0.780362
0.78471 0 0.790921
1 0 0.792157
0.0193637 0.169604 0.781613
0.185016 0.164279 0.780728
0.457664 0.131716 0.785641
0.766583 0.000289921 0.786389
1 0 0.796078
0 0.391424 0.792157
0.108858 0.392187 0.791592
0.473426 0.391409 0.790219
0.790051 0.384497 0.796292
1 0.40734 0.799146
0.525246 0.69601 0.8
0.55758 0.696635 0.802029
0.680659 0.692882 0.803525
0.849332 0.695689 0.80148
0.998962 0.71902 0.804746
0.780392 0.941176 0.815686
0.788754 0.933852 0.824048
0.832624 0.933333 0.824933
0.9019 0.927413 0.825452
0.989761 0.921569 0.826261
