LUTS/Secondary LUTS/FIGHT CLUB.cube
TITLE "Generated by Resolve"
LUT_3D_SIZE 9
0 0 0.000854505
0.0272221 0.002533 0.00129702
0.0867475 0.0261234 0.0149844
0.171054 0.0493629 0.0173648
0.285389 0.0636454 0.0214847
0.44062 0.053193 0.0311894
0.642908 0 0.0256352
0.857969 0.00234989 0.0331884
1 4.57771e-05 0.0433051
0.000915541 0.101823 0.0155947
0.000335698 0.098497 0.0137026
0.072221 0.109026 0.0194247
0.164324 0.114458 0.0231479
0.284123 0.123873 0.027985
0.441535 0.12195 0.0318914
0.642603 0.0699474 0.0291142
0.850156 0 0.0321965
0.998077 0 0.037705
0.00251774 0.206424 0.0202182
0.00196841 0.205631 0.0204776
0.0202487 0.205371 0.021561
0.163455 0.212955 0.0243839
0.293919 0.220859 0.035996
0.46186 0.218326 0.0413977
0.655726 0.199573 0.0382086
0.852384 0.14641 0.0287785
1 0.0333715 0.0448005
0.0024567 0.318074 0.0179446
0.000518807 0.318853 0.0201114
0.00151064 0.322881 0.0229038
0.180697 0.326009 0.0292363
0.333135 0.327153 0.0244755
0.506188 0.32784 0.0247349
0.694286 0.320287 0.0295262
0.870237 0.295399 0.0252079
0.998672 0.274342 0.0413062
0 0.456291 0.0028687
0.000289921 0.45597 0.000289921
0.0658274 0.455375 0.00257877
0.249241 0.461707 0.000350958
0.403388 0.46067 0.00296025
0.574395 0.459876 6.10361e-05
0.746746 0.451926 0.00180056
0.902556 0.443442 0.00117494
1 0.429984 0.0316777
0.0944228 0.60148 0
0.105745 0.605539 0.000213626
0.209369 0.604593 0
0.338064 0.604761 0.00163272
0.483696 0.607706 0.00161746
0.640513 0.604669 0.00205997
0.795071 0.602975 0.000610361
0.923247 0.592645 0.00311284
0.997971 0.577127 0
0.288548 0.741802 0
0.298695 0.745266 0.00123598
0.350927 0.743648 0.00433356
0.445426 0.743587 0.000244144
0.563836 0.739895 0
0.695933 0.737499 0.00514229
0.817899 0.739193 0.00497444
0.93164 0.736858 0.00248722
0.998367 0.723674 0.00503548
0.488045 0.857404 0.00209049
0.493492 0.854505 0.00218204
0.528649 0.852399 9.15541e-05
0.588266 0.852522 0.00166323
0.661067 0.852201 0.00378424
0.752956 0.849928 0.00419623
0.837858 0.847059 0.0195621
0.922866 0.847166 0.0699931
0.997909 0.847364 0.125673
0.686671 0.929808 0.197269
0.687694 0.929885 0.198093
0.704479 0.927825 0.199542
0.735088 0.928756 0.212314
0.776654 0.924559 0.216785
0.840269 0.923003 0.231342
0.898528 0.921218 0.255818
0.953048 0.922942 0.283299
0.999588 0.917647 0.318456
0 0 0.0840009
0.0150301 0.00851453 0.08542
0.0809186 0.0285039 0.0905623
0.173571 0.0518502 0.0945602
0.288319 0.0627909 0.0999466
0.445777 0.0481422 0.0993668
0.652735 0.00178531 0.104982
0.864347 0.000839246 0.100206
0.998566 0.000946059 0.107866
0 0.0962234 0.0912795
0 0.101183 0.0890669
0.0621805 0.108003 0.0953689
0.164034 0.118196 0.101198
0.287694 0.124239 0.098497
0.450996 0.119097 0.104356
0.652522 0.0446937 0.104585
0.859785 0.000518807 0.105455
0.996078 0 0.110735
0.000579843 0.205219 0.0938277
0.000564584 0.203342 0.0942855
0.0201419 0.209308 0.0965133
0.170123 0.214328 0.0983902
0.298741 0.214847 0.107744
0.467582 0.213214 0.109621
0.663325 0.190311 0.106157
0.861204 0.12781 0.101289
0.996506 0 0.109041
0.00352483 0.318654 0.0889143
0.000656138 0.32015 0.0910353
0.00561532 0.318776 0.0917983
0.188983 0.322408 0.0967727
0.342473 0.325933 0.100572
0.51136 0.325704 0.0979477
0.701518 0.313924 0.101991
0.880674 0.287037 0.101686
1 0.257618 0.103746
0 0.45127 0.0620432
0.00222782 0.454246 0.0658274
0.0620279 0.457298 0.0673686
0.252186 0.459174 0.0704967
0.407385 0.460853 0.066804
0.582757 0.454139 0.0590982
0.74934 0.450477 0.0456245
0.905516 0.435477 0.0728923
0.99942 0.428855 0.100771
0.0904402 0.606531 0
0.0982528 0.605982 0.000610361
0.213718 0.604685 0.00578317
0.340917 0.606577 0.00129702
0.486915 0.604517 0.00108339
0.646723 0.603876 0.00285344
0.80238 0.597406 0.00251774
0.929946 0.591546 0.00546273
0.998749 0.575311 0.0623178
0.29427 0.741756 0.0015259
0.301366 0.742733 0.00140383
0.352224 0.743374 0.000289921
0.453956 0.741375 0.00189212
0.569451 0.740734 0
0.696223 0.73933 0
0.817197 0.737209 0.00117494
0.932662 0.734157 0.000320439
0.997406 0.727749 0.0276036
0.500893 0.853468 0.00521859
0.505592 0.854643 0.00689708
0.535637 0.856382 0.00944533
0.592096 0.854063 0.0204623
0.664698 0.851087 0.0383764
0.753613 0.848783 0.0661173
0.845594 0.847074 0.0958877
0.925292 0.846113 0.134615
0.998688 0.846296 0.173907
0.699397 0.93077 0.232731
0.698039 0.929412 0.231235
0.713954 0.930816 0.230045
0.740246 0.930556 0.237354
0.791806 0.925139 0.242786
0.841428 0.922744 0.256641
0.89601 0.917754 0.277256
0.956771 0.921035 0.302388
0.998062 0.917281 0.335149
0 0.0156863 0.169451
0 0.0178225 0.171664
0.0754253 0.0310521 0.177172
0.172747 0.0509804 0.179934
0.29572 0.057557 0.188113
0.459007 0.0154269 0.189776
0.665415 0 0.196414
0.870176 0.00366217 0.18851
1 0 0.1879
0.00309758 0.0959487 0.184482
0.00015259 0.0984817 0.180499
0.0511635 0.105974 0.183139
0.171572 0.112062 0.18735
0.298726 0.114595 0.190372
0.465248 0.0979629 0.197528
0.664073 6.10361e-05 0.194705
0.869047 0 0.193454
0.996368 0 0.202106
0 0.202228 0.184955
0.00167849 0.203006 0.185763
0.00958267 0.202213 0.189517
0.169619 0.211566 0.186618
0.309102 0.213092 0.191333
0.472572 0.206729 0.189487
0.677317 0.171557 0.193133
0.866926 0.0919051 0.192538
0.99649 0 0.196689
0.00267033 0.31667 0.184192
0.000213626 0.319478 0.184451
0.000701915 0.322667 0.182223
0.188205 0.322881 0.187457
0.352285 0.321157 0.189517
0.52015 0.318181 0.193591
0.709133 0.303426 0.194354
0.885206 0.280613 0.186221
1 0.249729 0.196628
0.00222782 0.459327 0.170077
0.00184634 0.455207 0.168704
0.0296178 0.456794 0.167025
0.248814 0.460975 0.168368
0.416403 0.459266 0.168978
0.597482 0.456275 0.167208
0.763684 0.443671 0.169558
0.912657 0.43331 0.187121
0.998322 0.424475 0.194705
0.0715953 0.60705 0.133852
0.0819562 0.607462 0.137514
0.193179 0.606424 0.138079
0.33846 0.607156 0.138277
0.489967 0.605768 0.141253
0.6542 0.603006 0.134874
0.805692 0.602625 0.132235
0.938537 0.586694 0.140337
0.998489 0.574792 0.179721
0.297658 0.743603 0.098497
0.310628 0.74461 0.10428
0.358129 0.746059 0.106004
0.460822 0.742061 0.106661
0.573587 0.741207 0.112398
0.698024 0.740108 0.116381
0.828763 0.734783 0.126238
0.937362 0.734478 0.13669
0.998322 0.723095 0.174105
0.52958 0.851835 0.155276
0.531548 0.853574 0.156695
0.558999 0.851331 0.155901
0.609705 0.850797 0.16228
0.68307 0.850141 0.168704
0.769604 0.848707 0.181369
0.851865 0.846922 0.199237
0.930419 0.844999 0.212985
0.995514 0.850126 0.235126
0.712139 0.927825 0.276844
0.713695 0.9308 0.275547
0.727733 0.928862 0.27602
0.758465 0.925048 0.286854
0.799054 0.924544 0.291081
0.849058 0.920684 0.303319
0.901396 0.921782 0.317647
0.956878 0.921569 0.343511
0.999542 0.918471 0.378943
0.000579843 0.0307927 0.261585
0 0.0309606 0.253605
0.0690623 0.0389105 0.255879
0.180591 0.0415045 0.258656
0.307591 0.0436866 0.273899
0.485542 0.00209049 0.280705
0.691295 0 0.287343
0.888548 0.000137331 0.285603
1 0 0.284382
0.0028687 0.095079 0.27013
0.00299077 0.0961929 0.268864
0.0558328 0.104234 0.26981
0.180362 0.106569 0.268055
0.314916 0.103777 0.278798
0.487541 0.0731365 0.285954
0.68336 0 0.28986
0.879728 0.000564584 0.286259
0.997223 0.000839246 0.284474
0 0.196506 0.270237
0.000793469 0.195575 0.270405
0.0122377 0.196124 0.273365
0.184497 0.198886 0.276417
0.334035 0.194125 0.283497
0.50428 0.184909 0.279881
0.692271 0.13875 0.282368
0.879561 0.00840772 0.285817
1 0 0.28838
0.00497444 0.313069 0.276829
0.00274662 0.315312 0.277546
0.00679026 0.314809 0.282368
0.199207 0.317617 0.280629
0.366781 0.315175 0.281865
0.541512 0.307225 0.286503
0.723766 0.290272 0.28278
0.900221 0.264393 0.287022
0.998428 0.24361 0.288624
0.0010071 0.457923 0.281163
0.00128176 0.460075 0.277317
0.0229191 0.460472 0.276097
0.242771 0.460258 0.274464
0.423865 0.457969 0.275273
0.613809 0.45008 0.273625
0.769924 0.439124 0.278981
0.91899 0.429709 0.280735
0.998993 0.426627 0.290288
0.0635538 0.608072 0.252735
0.0721447 0.608377 0.252964
0.185 0.609155 0.256382
0.343603 0.607248 0.255024
0.498985 0.607767 0.255238
0.663035 0.603876 0.255268
0.823392 0.598901 0.25507
0.943893 0.586877 0.263386
0.996643 0.582101 0.292973
0.331273 0.740154 0.240711
0.340429 0.741848 0.242939
0.386755 0.744823 0.240482
0.477562 0.743847 0.242832
0.590921 0.739101 0.24358
0.719493 0.740169 0.245884
0.834775 0.735485 0.254536
0.944732 0.730297 0.259403
0.99472 0.725017 0.273716
0.554192 0.855894 0.263645
0.560159 0.853758 0.262699
0.584939 0.851392 0.26627
0.637217 0.851316 0.270298
0.700923 0.849607 0.271595
0.779004 0.846296 0.275135
0.860502 0.844938 0.285176
0.934432 0.846357 0.304311
0.998215 0.847517 0.319875
0.737255 0.926101 0.343877
0.733715 0.922423 0.340612
0.752636 0.927626 0.350149
0.776074 0.92549 0.348394
0.810529 0.91902 0.354299
0.857099 0.920501 0.364843
0.904418 0.921538 0.377035
0.958587 0.918547 0.396551
1 0.921782 0.424445
0.00352483 0.0348974 0.354131
0.00111391 0.0392157 0.354559
0.114992 0.0342412 0.357137
0.224796 0.0319677 0.363333
0.352911 0.00447089 0.361334
0.521157 0 0.377539
0.712657 0 0.383993
0.90811 0 0.38497
1 0 0.37966
0.00283818 0.0980545 0.366476
0.00244144 0.0976883 0.365743
0.102419 0.0985885 0.36611
0.226429 0.0943313 0.365713
0.363607 0.0814221 0.372
0.524819 0.010956 0.373342
0.718105 0.00015259 0.384115
0.901778 0.000259403 0.385153
0.999741 0.00190738 0.384253
0.00352483 0.190402 0.36788
0.00331121 0.190875 0.372091
0.0607462 0.191943 0.374533
0.219898 0.190616 0.376913
0.370779 0.184787 0.377752
0.54165 0.157198 0.381094
0.730724 0.0900282 0.386419
0.903868 0.00141909 0.386313
1 0 0.385351
0 0.314015 0.37734
0.00201419 0.312306 0.379065
0.0307469 0.308507 0.378012
0.223804 0.304128 0.385473
0.392142 0.300175 0.383581
0.581506 0.28574 0.387961
0.760952 0.265019 0.386999
0.921569 0.246143 0.385611
0.999237 0.251118 0.383276
0 0.453483 0.383139
0.00332647 0.453529 0.379904
0.124269 0.455238 0.386236
0.288045 0.452811 0.388128
0.452522 0.447242 0.389059
0.634333 0.441276 0.387701
0.791882 0.436683 0.381018
0.932845 0.433951 0.38529
0.999939 0.44387 0.392966
0.177035 0.611154 0.373632
0.193454 0.611521 0.375555
0.277928 0.606775 0.373877
0.402029 0.609308 0.375692
0.53901 0.601343 0.376745
0.690105 0.597421 0.378988
0.840986 0.589242 0.375265
0.943908 0.588922 0.38938
0.996796 0.589776 0.396017
0.406897 0.739651 0.36318
0.418631 0.740459 0.365484
0.452674 0.743252 0.362737
0.536416 0.740398 0.367483
0.636957 0.733883 0.368353
0.743496 0.738354 0.367163
0.852354 0.733974 0.373495
0.950942 0.733074 0.375021
0.996872 0.725216 0.383612
0.624857 0.850385 0.382834
0.627176 0.849729 0.38172
0.655161 0.845197 0.38616
0.69839 0.8486 0.395209
0.73695 0.847623 0.385962
0.802472 0.846067 0.385885
0.874754 0.845685 0.39617
0.941588 0.844633 0.406119
0.999847 0.847898 0.424109
0.768978 0.92549 0.44097
0.772366 0.922652 0.441672
0.776196 0.923842 0.441596
0.789792 0.92314 0.441413
0.822354 0.924254 0.442603
0.862135 0.922377 0.449744
0.915297 0.920317 0.460105
0.963363 0.922087 0.475807
1 0.920134 0.495552
0.0864424 0.0260929 0.476036
0.105058 0.027451 0.472572
0.18793 0.0196078 0.476371
0.295644 0.00189212 0.475593
0.42623 0 0.477409
0.591104 0.00062562 0.48455
0.772641 0 0.492454
0.941421 0.00311284 0.496681
1 0.000213626 0.480171
0.0610666 0.0938277 0.475517
0.0897993 0.0904555 0.481117
0.176989 0.0859846 0.47512
0.293614 0.0732891 0.483925
0.42533 0.0283818 0.485069
0.58648 0 0.489128
0.766888 0.000518807 0.494285
0.94049 0.00276188 0.498116
0.996216 0.000579843 0.486046
0 0.187594 0.488258
0.0137484 0.183886 0.486442
0.14931 0.180606 0.486625
0.28159 0.177569 0.491783
0.424277 0.166094 0.490562
0.594141 0.121508 0.493782
0.769299 0.00581369 0.495201
0.948837 0 0.501106
1 0 0.487877
0.00282292 0.301259 0.493706
0.00112917 0.300465 0.489494
0.0821241 0.293629 0.49691
0.27158 0.292607 0.495628
0.432639 0.28249 0.502037
0.61297 0.265156 0.499184
0.794934 0.230335 0.507393
0.955901 0.197757 0.504982
0.9991 0.229572 0.482353
0.0533303 0.44123 0.502556
0.0677348 0.444862 0.500923
0.182773 0.442084 0.502373
0.317815 0.435157 0.508965
0.470817 0.428992 0.505577
0.649088 0.421988 0.506859
0.82208 0.409842 0.509071
0.959823 0.406256 0.506447
0.998734 0.433463 0.494545
0.26302 0.60589 0.505272
0.27393 0.60209 0.502037
0.336187 0.598215 0.504479
0.437415 0.596963 0.506035
0.567163 0.594141 0.503899
0.709239 0.586206 0.50898
0.846738 0.58024 0.503029
0.960174 0.588296 0.506294
0.999527 0.605936 0.509209
0.466758 0.747173 0.493614
0.47541 0.74406 0.499229
0.511147 0.743389 0.496834
0.58114 0.74052 0.497307
0.670817 0.73817 0.499031
0.775799 0.73518 0.504143
0.870985 0.730694 0.504845
0.956436 0.731914 0.509346
1 0.733837 0.526253
0.651957 0.85066 0.499718
0.658808 0.847532 0.498268
0.6795 0.846723 0.50042
0.72134 0.843915 0.503746
0.77406 0.844785 0.510719
0.835782 0.843946 0.51986
0.897719 0.842634 0.531319
0.945113 0.847257 0.525292
0.999649 0.847959 0.541207
0.784314 0.92549 0.537331
0.789136 0.926604 0.541833
0.799313 0.920058 0.546777
0.819318 0.921248 0.55433
0.850278 0.921477 0.56553
0.882612 0.919387 0.574655
0.908507 0.922866 0.570809
0.952789 0.919295 0.578958
0.997391 0.922377 0.595712
0.150591 0 0.625055
0.168734 0.00166323 0.623087
0.239551 0.000595102 0.627512
0.344656 0 0.629267
0.47686 0.000671397 0.629282
0.631144 0 0.636301
0.798688 0 0.643153
0.953002 0 0.64448
0.999496 4.57771e-05 0.648493
0.12871 0.0748913 0.630732
0.153903 0.07187 0.631754
0.231586 0.0627909 0.630457
0.340154 0.0333104 0.63151
0.469444 0.0009308 0.633326
0.63003 1.5259e-05 0.63714
0.78526 0 0.644984
0.942748 0.000793469 0.645899
1 0 0.650919
0.0723125 0.174853 0.6327
0.105699 0.175235 0.635187
0.197955 0.170535 0.637751
0.322698 0.162676 0.636484
0.461952 0.1411 0.642359
0.621775 0.0910353 0.644617
0.78117 0.00358587 0.646113
0.943923 0.000991836 0.652262
0.999649 0.000350958 0.660105
0.00384527 0.285145 0.64863
3.0518e-05 0.283543 0.641901
0.1552 0.284398 0.645579
0.307576 0.277852 0.649943
0.455283 0.268818 0.64947
0.621683 0.250858 0.655573
0.792142 0.219944 0.658625
0.946456 0.192554 0.659739
0.999634 0.188556 0.660349
0.0737011 0.422034 0.658
0.0827955 0.419577 0.655741
0.193332 0.416831 0.655756
0.322484 0.411322 0.657572
0.483268 0.411215 0.656626
0.649439 0.40148 0.657862
0.806867 0.396445 0.660548
0.947814 0.391928 0.660792
1 0.407004 0.668498
0.313085 0.573983 0.660548
0.321248 0.574426 0.662028
0.371221 0.571511 0.66305
0.460166 0.569238 0.66302
0.574639 0.564538 0.663706
0.704372 0.562127 0.664805
0.838331 0.564614 0.666835
0.950683 0.571328 0.667674
0.999283 0.58233 0.673609
0.512795 0.727687 0.671275
0.512322 0.723278 0.668147
0.54934 0.722454 0.66511
0.608042 0.724346 0.670771
0.687373 0.722423 0.673899
0.779858 0.718791 0.673625
0.86717 0.716854 0.672801
0.946197 0.722438 0.673213
0.99913 0.730953 0.68101
0.673198 0.856229 0.675502
0.678584 0.858061 0.67866
0.694789 0.857664 0.681315
0.731258 0.853986 0.683253
0.777188 0.852216 0.686854
0.837385 0.850446 0.682506
0.891234 0.847562 0.684459
0.944823 0.848539 0.692576
0.99527 0.848814 0.699168
0.786618 0.921569 0.674235
0.789425 0.920913 0.675944
0.804807 0.922454 0.681773
0.823178 0.922774 0.687922
0.846479 0.921767 0.683238
0.876814 0.915694 0.701076
0.916732 0.92076 0.711177
0.960113 0.917647 0.732265
0.991531 0.917723 0.746334
0.12549 0 0.776471
0.14342 0.00392157 0.780392
0.231907 0 0.780392
0.340856 0 0.772763
0.479469 0 0.780911
0.63003 0 0.780392
0.786465 0 0.791211
0.93492 0 0.790784
1 0 0.792157
0.0834363 0.061326 0.773617
0.116732 0.0595254 0.775204
0.212955 0.0484779 0.777722
0.334096 0.0125582 0.779507
0.468162 0.000488289 0.778714
0.622858 0 0.776928
0.777707 0 0.786191
0.928176 0.000854505 0.791119
1 0.00205997 0.794217
0.0201114 0.170031 0.781292
0.0523232 0.165576 0.781918
0.186511 0.164431 0.78056
0.320012 0.152941 0.777844
0.4589 0.131853 0.786023
0.615702 0.0820935 0.780056
0.768277 0.000106813 0.786862
0.922988 0.00440986 0.788708
1 0 0.796078
0.00425727 0.27306 0.782864
0.00192264 0.27602 0.784512
0.145647 0.26923 0.786221
0.304326 0.268544 0.786664
0.455985 0.256733 0.78616
0.620188 0.24036 0.794614
0.775692 0.219944 0.793271
0.92314 0.202976 0.79501
0.997879 0.216754 0.792203
0 0.392065 0.792157
0.00323491 0.388876 0.792157
0.111971 0.392401 0.791577
0.323384 0.39443 0.791074
0.475227 0.392142 0.78996
0.635843 0.38735 0.787549
0.79118 0.385245 0.796475
0.919158 0.387259 0.795666
1 0.408057 0.799008
0.291493 0.541344 0.795682
0.299748 0.544488 0.798321
0.355123 0.542824 0.79765
0.437247 0.541268 0.796124
0.545129 0.53576 0.798566
0.689784 0.538872 0.796414
0.81915 0.54612 0.796078
0.92755 0.556435 0.797131
1 0.57467 0.794415
0.526955 0.696452 0.8
0.531685 0.697459 0.800305
0.559564 0.697063 0.802213
0.609018 0.696162 0.800931
0.682063 0.693507 0.80322
0.766629 0.697475 0.800427
0.850065 0.696361 0.801038
0.927382 0.704417 0.801846
0.999054 0.719661 0.804746
0.698894 0.830427 0.811978
0.700801 0.834699 0.813184
0.717403 0.83563 0.809277
0.74342 0.831952 0.810208
0.780774 0.8327 0.808789
0.829755 0.832013 0.810162
0.8822 0.834699 0.811963
0.932631 0.83621 0.812848
0.984649 0.841505 0.814054
0.780392 0.941176 0.815686
0.780392 0.941176 0.820462
0.789044 0.934142 0.824338
0.803922 0.933333 0.819608
0.832914 0.933333 0.824353
0.866667 0.929412 0.819608
0.90132 0.927123 0.825162
0.945785 0.920882 0.819608
0.990356 0.921569 0.826551
0.12549 0 0.776471
0.142855 0.00392157 0.780392
0.231083 0 0.780392
0.340032 0 0.773312
0.47837 0 0.780362
0.628855 0 0.780392
0.78471 0 0.790921
0.933761 0 0.791074
1 0 0.792157
0.0820478 0.0612192 0.773404
0.115099 0.0593729 0.775326
0.211872 0.0484474 0.777722
0.332753 0.0124208 0.779736
0.466987 0.000259403 0.778927
0.621393 0 0.777783
0.775814 0 0.786343
0.926665 0.000885023 0.790799
1 0.00190738 0.794064
0.0193637 0.169604 0.781613
0.0499275 0.16553 0.781903
0.185016 0.164279 0.780728
0.318868 0.152453 0.777752
0.457664 0.131716 0.785641
0.613825 0.0819562 0.779782
0.766583 0.000289921 0.786389
0.921447 0.00404364 0.788846
1 0 0.796078
0.00404364 0.27274 0.782544
0.00195315 0.275746 0.784451
0.143175 0.268269 0.785519
0.30193 0.268254 0.786557
0.454643 0.256306 0.78613
0.618631 0.240314 0.794385
0.773907 0.219455 0.793408
0.921355 0.202365 0.794797
0.997787 0.215747 0.792523
0 0.391424 0.792157
0.00332647 0.38822 0.792157
0.108858 0.392187 0.791592
0.321324 0.393988 0.790875
0.473426 0.391409 0.790219
0.633921 0.386648 0.787381
0.790051 0.384497 0.796292
0.917983 0.386618 0.795956
1 0.40734 0.799146
0.288685 0.540246 0.795438
0.296864 0.543984 0.798383
0.353017 0.54229 0.798032
0.434958 0.540627 0.796399
0.543221 0.53521 0.798062
0.688228 0.537942 0.796384
0.817319 0.545663 0.796078
0.926284 0.555901 0.796826
1 0.573693 0.794141
0.525246 0.69601 0.8
0.529595 0.697063 0.800519
0.55758 0.696635 0.802029
0.607477 0.695796 0.80061
0.680659 0.692882 0.803525
0.764965 0.69688 0.800534
0.849332 0.695689 0.80148
0.926863 0.703593 0.801953
0.998962 0.71902 0.804746
0.697612 0.829892 0.811658
0.699672 0.833936 0.813031
0.716106 0.835142 0.809171
0.74258 0.831266 0.809827
0.780133 0.832441 0.809171
0.828809 0.831312 0.80975
0.881621 0.834058 0.811841
0.93193 0.835691 0.812665
0.984512 0.840833 0.813809
0.780392 0.941176 0.815686
0.780392 0.941176 0.819913
0.788754 0.933852 0.824048
0.803922 0.933333 0.819608
0.832624 0.933333 0.824933
0.866667 0.929412 0.819608
0.9019 0.927413 0.825452
0.945495 0.921172 0.819608
0.989761 0.921569 0.826261
