LUTS/Secondary LUTS/FIGHT CLUB.cube
TITLE "Generated by Resolve"
LUT_3D_SIZE 33
0 0 0.000854505
0 0 0.000946059
0.00364691 0.000244144 0.00296025
0.0107271 0.00225834 0.00140383
0.0272221 0.002533 0.00129702
0.0407111 0.00747692 0.00205997
0.0559396 0.0112459 0.00616464
0.073106 0.0202182 0.0156405
0.0867475 0.0261234 0.0149844
0.110658 0.0317998 0.0135958
0.127993 0.0390021 0.0116121
0.150027 0.0437476 0.0151522
0.171054 0.0493629 0.0173648
0.197833 0.0564431 0.0227207
0.22356 0.0603494 0.0231327
0.253025 0.0619821 0.0220645
0.285389 0.0636454 0.0214847
0.316197 0.0655833 0.0206149
0.353246 0.0652628 0.024567
0.400732 0.0597086 0.0278172
0.44062 0.053193 0.0311894
0.486305 0.0364233 0.026978
0.539818 0.0170138 0.0312657
0.588754 0.000762951 0.0301518
0.642908 0 0.0256352
0.698833 0.000427253 0.0305028
0.751064 0 0.023682
0.804364 0.00128176 0.0238041
0.857969 0.00234989 0.0331884
0.901137 0 0.0248264
0.953704 0.0009308 0.0289921
0.991165 0.00175479 0.0387274
1 4.57771e-05 0.0433051
0.000549325 0.0199741 0.002533
0.000579843 0.0200351 0.00268559
0.000411994 0.0222477 0.00225834
0.00317388 0.0259251 0.00294499
0.0154726 0.0295415 0.0059205
0.0322271 0.0285344 0.00914015
0.0420081 0.0362554 0.00466926
0.0685435 0.0417792 0.00726329
0.0891432 0.0426795 0.00831617
0.106035 0.0509957 0.0175784
0.12549 0.0560922 0.0184787
0.14522 0.0583047 0.0192264
0.169894 0.0620432 0.0191806
0.192447 0.0677806 0.0255436
0.221836 0.0709239 0.0212711
0.249165 0.0766003 0.0201267
0.285603 0.0768597 0.0245518
0.31902 0.0777295 0.0267491
0.354009 0.0751659 0.0233005
0.397604 0.0761273 0.0238499
0.442435 0.0675669 0.0255436
0.485466 0.055024 0.0306249
0.537316 0.0339971 0.0255589
0.590936 0.00598154 0.0372625
0.64123 0.000228885 0.0269322
0.69604 0.000167849 0.0263218
0.749447 9.15541e-05 0.028748
0.803311 0 0.0256657
0.853559 0.00114443 0.0319371
0.898711 0.000808728 0.0290379
0.952834 0 0.0295415
0.990219 0.00198367 0.0342412
0.996139 1.5259e-05 0.0369268
0.000579843 0.0491798 0.00297551
0.000610361 0.0491798 0.00306706
0.000640879 0.0498512 0.00392157
0.00364691 0.0535439 0.00836194
0.0119173 0.0516213 0.0101625
0.0256809 0.0518959 0.0122225
0.04065 0.057557 0.00857557
0.0559091 0.0615091 0.0100404
0.0758984 0.06421 0.0159762
0.102373 0.0664683 0.0188602
0.12108 0.0715496 0.0187228
0.143099 0.0749218 0.0184482
0.16939 0.0762951 0.0175326
0.195026 0.0844892 0.0214237
0.225269 0.0833295 0.0225834
0.247166 0.0824292 0.0220035
0.285435 0.089189 0.0259403
0.318273 0.090074 0.0234836
0.355367 0.0885481 0.027863
0.40058 0.0854353 0.0262608
0.44509 0.0818799 0.0308537
0.487114 0.069276 0.0320134
0.537163 0.0547799 0.0312963
0.597467 0.0234684 0.038468
0.636484 0.000259403 0.0229038
0.695415 0.00239567 0.0288243
0.746853 0.00163272 0.0299992
0.805646 6.10361e-05 0.0239109
0.855573 0 0.0308843
0.903258 0 0.0330205
0.953246 0 0.0301518
0.989883 0.00221256 0.0339971
1 0 0.0395056
0 0.0738384 0.0107271
0 0.0738842 0.0108034
0.00015259 0.0737163 0.0108644
0.000976577 0.0706188 0.0111543
0.00283818 0.0749218 0.0125582
0.0126345 0.0776989 0.0107118
0.0252995 0.081651 0.0118563
0.0541848 0.0796063 0.0148928
0.0751202 0.0823835 0.0127565
0.0987411 0.0886091 0.0199283
0.116106 0.0881361 0.0179904
0.141604 0.0879835 0.0211948
0.168429 0.0940414 0.020737
0.187701 0.0973678 0.0199741
0.222995 0.100969 0.0260777
0.247089 0.101976 0.0223087
0.285542 0.104753 0.0263371
0.31751 0.104524 0.0256046
0.354101 0.10515 0.0286107
0.39855 0.103059 0.0268406
0.443168 0.0985275 0.0289311
0.487037 0.0889448 0.0325933
0.538552 0.0765698 0.0317082
0.591028 0.0562448 0.0323033
0.641855 0.0219272 0.0262303
0.69778 0.000289921 0.0257877
0.74963 0 0.030808
0.802594 0 0.0288853
0.853452 0.0009308 0.0290379
0.902815 0.0010071 0.0326543
0.952743 0 0.0333562
0.988373 0 0.0300755
1 0 0.0429084
0.000915541 0.101823 0.0155947
0.000946059 0.101869 0.0156558
0.000976577 0.101915 0.0157168
0.0024567 0.0984207 0.0149538
0.000335698 0.098497 0.0137026
0.00674449 0.10312 0.0187533
0.0210727 0.106981 0.0202792
0.0441444 0.108553 0.0151217
0.072221 0.109026 0.0194247
0.0963302 0.109865 0.0232547
0.120073 0.112337 0.0284733
0.140414 0.112215 0.0229953
0.164324 0.114458 0.0231479
0.189975 0.118029 0.0246128
0.221805 0.120089 0.0263981
0.254795 0.123018 0.0285649
0.284123 0.123873 0.027985
0.31957 0.125917 0.0316625
0.354589 0.124559 0.0296788
0.398062 0.122438 0.0317693
0.441535 0.12195 0.0318914
0.487251 0.115877 0.0317082
0.5355 0.108095 0.0314031
0.588998 0.0899367 0.0307774
0.642603 0.0699474 0.0291142
0.695949 0.0336156 0.0295872
0.746273 0.00326543 0.0301823
0.803281 0.000976577 0.0334325
0.850156 0 0.0321965
0.897322 0 0.0292973
0.947219 0.00143435 0.0312352
0.987701 4.57771e-05 0.0379339
0.998077 0 0.037705
0 0.12372 0.0150759
0 0.123812 0.0151675
0 0.123903 0.015259
0.000213626 0.126009 0.0178225
0.000183108 0.124804 0.0167697
0.000549325 0.127275 0.0150301
0.00408942 0.127642 0.0164797
0.0267948 0.131914 0.0217288
0.0569467 0.133791 0.0253147
0.0846876 0.135454 0.0232547
0.110689 0.134203 0.0221714
0.138476 0.138231 0.0234531
0.164736 0.135988 0.0248264
0.191684 0.139757 0.0238804
0.217762 0.142901 0.0243534
0.248646 0.143191 0.0301823
0.28423 0.143175 0.0333104
0.315022 0.145129 0.0320439
0.354177 0.146654 0.0323949
0.402197 0.144701 0.0368353
0.445624 0.143938 0.0360571
0.487724 0.138018 0.0333104
0.542168 0.127169 0.0370947
0.590799 0.122103 0.0282292
0.644038 0.104494 0.0294804
0.700557 0.0790417 0.0354009
0.749508 0.0383154 0.0309758
0.800717 0.00502022 0.0248417
0.852995 0 0.0302281
0.896803 1.5259e-05 0.0309606
0.947219 0.00157168 0.0318456
0.983505 0.00183108 0.0345159
1 0.00180056 0.045716
0.00489815 0.151934 0.0193027
0.00488289 0.151995 0.0193179
0.00485237 0.152056 0.0193332
0.000869764 0.154223 0.0203403
0.000137331 0.156497 0.0205997
0.000518807 0.157305 0.0180514
0.00062562 0.157092 0.0208286
0.0155642 0.154803 0.0234226
0.0472114 0.158404 0.0234684
0.078645 0.162692 0.0202487
0.103502 0.162844 0.0175021
0.136828 0.163394 0.0312047
0.16286 0.163027 0.0270085
0.18996 0.167178 0.0308537
0.219348 0.166766 0.030518
0.252979 0.171176 0.0319982
0.283848 0.171099 0.0288853
0.31841 0.17232 0.0338445
0.357519 0.171908 0.0362402
0.405325 0.171008 0.0345922
0.449485 0.167315 0.0385901
0.496452 0.165515 0.0384985
0.544518 0.159823 0.0366217
0.594614 0.150988 0.0299992
0.651255 0.135348 0.0341344
0.707439 0.115312 0.0392157
0.756069 0.0929732 0.0376745
0.807553 0.0628214 0.0390021
0.847913 0.016434 0.0324865
0.897841 1.5259e-05 0.027863
0.952377 0 0.0339513
0.9823 7.62951e-05 0.0371405
1 0.0024567 0.0449073
0.000534066 0.17908 0.021149
0.000518807 0.17908 0.0211948
0.000503548 0.17908 0.0212253
0.0012665 0.179248 0.0214237
0.00181582 0.181704 0.023621
0.000137331 0.181338 0.0225223
0.00331121 0.180316 0.0234226
0.00144961 0.180728 0.0226902
0.0248264 0.184527 0.0226596
0.0695506 0.186145 0.0251469
0.0995346 0.189487 0.025391
0.132357 0.189929 0.0269932
0.162295 0.190997 0.0284276
0.194034 0.191867 0.0274205
0.225101 0.189548 0.0283665
0.256886 0.191104 0.0331426
0.290227 0.19292 0.0373693
0.324788 0.193835 0.0364691
0.365209 0.194583 0.0360571
0.40914 0.194934 0.0402838
0.457801 0.191165 0.0388342
0.502007 0.1888 0.0387732
0.553353 0.186145 0.0387884
0.605982 0.176471 0.0328222
0.655146 0.164996 0.0371099
0.708659 0.153628 0.0393378
0.758465 0.136049 0.031754
0.807904 0.117571 0.0290532
0.851774 0.0856184 0.0335851
0.903273 0.0470436 0.0289311
0.94905 0.0037995 0.0253758
0.992844 0.000122072 0.0381323
0.998398 0.000534066 0.0464332
0.00251774 0.206424 0.0202182
0.00248722 0.2065 0.0202182
0.0024567 0.206577 0.0202182
0.00273136 0.206348 0.0202182
0.00196841 0.205631 0.0204776
0.000122072 0.206424 0.019852
0.00297551 0.20589 0.0209812
0.00077821 0.206973 0.0226902
0.0202487 0.205371 0.021561
0.0620584 0.212665 0.0244297
0.0998856 0.216205 0.0236515
0.131853 0.21445 0.028687
0.163455 0.212955 0.0243839
0.19707 0.217151 0.0229191
0.23035 0.217945 0.0255589
0.26157 0.218082 0.0382696
0.293919 0.220859 0.035996
0.333074 0.219638 0.0415808
0.367956 0.221225 0.0413519
0.420188 0.220096 0.0406958
0.46186 0.218326 0.0413977
0.501991 0.216114 0.0376898
0.551781 0.212619 0.0366827
0.604578 0.208453 0.0404059
0.655726 0.199573 0.0382086
0.707134 0.188815 0.0349126
0.754314 0.17818 0.03093
0.806439 0.165484 0.0298619
0.852384 0.14641 0.0287785
0.900755 0.124269 0.0299535
0.951278 0.0952926 0.0353857
0.987976 0.0710155 0.0364538
1 0.0333715 0.0448005
0.000686656 0.23241 0.0193942
0.000701915 0.232425 0.019501
0.000701915 0.232441 0.0196078
0.000915541 0.233906 0.0186923
0.00106813 0.232578 0.0198978
0 0.233417 0.0214389
0.00138857 0.235767 0.0224308
0.00157168 0.234852 0.0242313
0.00184634 0.236622 0.0211185
0.0411383 0.238499 0.0246433
0.0906233 0.237919 0.0248112
0.129412 0.240208 0.0260471
0.162524 0.241123 0.0259709
0.196857 0.243961 0.0307012
0.231983 0.242847 0.0298772
0.268238 0.242664 0.0284733
0.303075 0.24332 0.0312505
0.338018 0.245197 0.0394598
0.379355 0.243229 0.0379492
0.420371 0.242405 0.0431678
0.472251 0.243442 0.0449378
0.514321 0.243977 0.0377661
0.561471 0.240574 0.0364843
0.612192 0.23624 0.0402228
0.664912 0.228565 0.0412604
0.714015 0.22031 0.0304417
0.76585 0.208133 0.0291447
0.818219 0.200137 0.0307012
0.856428 0.185321 0.0305943
0.90425 0.168429 0.0298924
0.956619 0.147524 0.0345006
0.995209 0.132753 0.0425574
0.999329 0.117754 0.0462196
0.00299077 0.257893 0.0228428
0.00300603 0.257908 0.0229496
0.00302129 0.257923 0.0230564
0.00303655 0.258335 0.0208591
0.00166323 0.261112 0.0225223
0.00198367 0.261295 0.0224613
0.00292973 0.261555 0.0222324
0 0.260853 0.0199283
0 0.265003 0.0272679
0.0274968 0.266743 0.0291447
0.0868696 0.265415 0.0280919
0.130541 0.263737 0.0230869
0.165515 0.26714 0.0252689
0.201907 0.267872 0.0283665
0.238834 0.271015 0.0319219
0.27599 0.268605 0.0296483
0.310323 0.268635 0.0300298
0.34931 0.270512 0.0340887
0.388861 0.268879 0.0345769
0.43122 0.270954 0.0408331
0.480186 0.268299 0.0439002
0.523796 0.268879 0.0421454
0.571908 0.266819 0.0364843
0.622065 0.26363 0.0368353
0.670008 0.257206 0.0387884
0.722301 0.250263 0.0370031
0.765927 0.243809 0.0269322
0.812955 0.235721 0.0230869
0.864164 0.222019 0.0221256
0.910872 0.210086 0.029984
0.956161 0.193149 0.0331884
0.991913 0.183383 0.0378271
0.999496 0.172213 0.0402991
0.00587472 0.289754 0.0188754
0.0059205 0.289815 0.0189364
0.00595102 0.289876 0.0189822
0.00218204 0.289311 0.0187991
0.00141909 0.291951 0.0216068
0.00149538 0.286702 0.0237125
0 0.288655 0.0220035
0.00350958 0.288273 0.0252232
0.00363165 0.289311 0.027924
0.0225528 0.293584 0.0246128
0.0875105 0.291463 0.0244755
0.133288 0.295766 0.0241703
0.171344 0.294896 0.0260777
0.210056 0.298177 0.029633
0.250202 0.296864 0.0291752
0.286 0.298604 0.027451
0.323003 0.299168 0.0306554
0.360723 0.298878 0.0289769
0.40322 0.297093 0.0286259
0.445457 0.300267 0.0345006
0.491432 0.297002 0.040177
0.53846 0.297475 0.0359503
0.583932 0.29482 0.0336156
0.63505 0.29305 0.0355077
0.681163 0.287755 0.0388495
0.727352 0.281529 0.0348821
0.776471 0.27245 0.0278782
0.830365 0.262684 0.0271611
0.873625 0.258946 0.0310826
0.917205 0.246693 0.031281
0.958144 0.235248 0.0314946
0.992096 0.228687 0.0364843
1 0.22237 0.0421607
0.0024567 0.318074 0.0179446
0.0024567 0.318074 0.0180667
0.0024567 0.31809 0.018143
0.00198367 0.317983 0.0179294
0.000518807 0.318853 0.0201114
0.000946059 0.319188 0.0252079
0.000488289 0.319722 0.0221408
0.000656138 0.319921 0.0222171
0.00151064 0.322881 0.0229038
0.0410315 0.320134 0.0252384
0.102205 0.321233 0.0239567
0.145937 0.323323 0.0285649
0.180697 0.326009 0.0292363
0.219913 0.325963 0.0273136
0.260105 0.324285 0.0275425
0.299351 0.327398 0.0247654
0.333135 0.327153 0.0244755
0.373785 0.32932 0.0239719
0.414694 0.328618 0.0236667
0.458183 0.328084 0.0210117
0.506188 0.32784 0.0247349
0.552621 0.326406 0.0287938
0.596979 0.324514 0.0282902
0.640284 0.322591 0.0297856
0.694286 0.320287 0.0295262
0.737453 0.316411 0.0307622
0.788144 0.309071 0.0326238
0.830564 0.30193 0.0266575
0.870237 0.295399 0.0252079
0.912261 0.291264 0.0260777
0.957671 0.285039 0.0319219
0.994018 0.273274 0.0357671
0.998672 0.274342 0.0413062
0.00138857 0.351949 0.0143282
0.00135805 0.352087 0.014374
0.00134279 0.352148 0.0144045
0.00149538 0.352758 0.0149844
0.00337224 0.353735 0.0159457
0.00444038 0.350866 0.0182956
0.00257877 0.34902 0.0165408
0.000518807 0.351492 0.0175631
0 0.353887 0.0181277
0.0249638 0.354635 0.0187533
0.0953841 0.352819 0.0267185
0.144717 0.354513 0.0210269
0.184909 0.354971 0.0214847
0.227085 0.357031 0.0224308
0.267308 0.356039 0.0214694
0.306767 0.357198 0.0203403
0.342061 0.357687 0.021973
0.383093 0.359854 0.0234073
0.427497 0.358801 0.0173953
0.472602 0.359976 0.0146181
0.522484 0.359243 0.0132753
0.565438 0.358587 0.0116426
0.610147 0.355886 0.0119783
0.659586 0.354208 0.0203403
0.701946 0.349508 0.0224613
0.748806 0.350072 0.0226902
0.79678 0.343282 0.0263981
0.838956 0.334279 0.024979
0.882292 0.330907 0.0210269
0.921538 0.323384 0.0225376
0.963119 0.318685 0.0274205
0.992599 0.314366 0.0337377
0.999283 0.307774 0.0414893
0.000518807 0.384222 0.00543221
0.000488289 0.384314 0.00535592
0.00047303 0.38436 0.0053254
0.00163272 0.38233 0.00485237
0.00166323 0.383566 0.0112764
0.000350958 0.387289 0.0138247
0.000122072 0.387228 0.0136263
0.00254826 0.386725 0.010605
0.00294499 0.385458 0.0111238
0.038529 0.386633 0.0117494
0.110094 0.386648 0.00952163
0.158541 0.38822 0.0125124
0.199161 0.389731 0.0130617
0.24271 0.389929 0.0147555
0.284733 0.389181 0.011429
0.324422 0.391012 0.0128939
0.361135 0.390845 0.0111391
0.40206 0.388876 0.00996414
0.445975 0.387152 0.0113527
0.488441 0.388815 0.00900282
0.543359 0.38999 0.00392157
0.584054 0.389776 0.00109865
0.630014 0.386084 0.000488289
0.675212 0.385107 0.000686656
0.721859 0.380087 0.00451667
0.763714 0.377478 0.00474556
0.806332 0.372793 0.00993362
0.846998 0.370336 0.0173037
0.88748 0.366079 0.0171664
0.930755 0.358816 0.0204318
0.969421 0.35552 0.0229953
0.996277 0.34757 0.0274968
0.999222 0.349401 0.035935
0.000671397 0.419303 0.00225834
0.000671397 0.419425 0.00228885
0.000671397 0.419455 0.00233463
0.000671397 0.42002 0.000823987
0.000808728 0.421744 0.00357061
0 0.418509 0.00283818
0.00170901 0.419318 0.00105287
0.00256352 0.419226 0.00103761
0.00802625 0.421164 0.000885023
0.0635538 0.421088 0.00375372
0.130724 0.418997 0.00234989
0.17731 0.421042 0.000991836
0.217441 0.422995 0.00425727
0.260685 0.420859 0.00415045
0.30016 0.421881 0.00238041
0.344549 0.423056 0.00541695
0.380896 0.422904 0.00317388
0.421424 0.423301 0.00251774
0.462821 0.4215 0.0031281
0.505776 0.423758 0.00189212
0.555184 0.424002 0
0.600595 0.423835 0.000686656
0.64271 0.420478 0.000747692
0.686854 0.419348 0.00376898
0.734783 0.413443 0.00132753
0.777111 0.411902 0.000869764
0.814954 0.406882 0.00146487
0.861067 0.403571 0.000549325
0.901015 0.395102 0.00234989
0.930709 0.391653 0.009308
0.972 0.392676 0.0221103
0.996307 0.38616 0.0257267
0.996765 0.382086 0.0399939
0 0.456291 0.0028687
0 0.456382 0.00283818
0 0.456535 0.00280766
0 0.455802 0.000534066
0.000289921 0.45597 0.000289921
0.000396735 0.45594 0.00015259
0.000366217 0.457527 0
0.0181582 0.457115 0
0.0658274 0.455375 0.00257877
0.121965 0.457328 0.00326543
0.169009 0.458061 0.0010071
0.209537 0.460105 0
0.249241 0.461707 0.000350958
0.291325 0.461738 0.00239567
0.329732 0.461448 0
0.366812 0.460822 0.000793469
0.403388 0.46067 0.00296025
0.444495 0.46128 0.00167849
0.485206 0.459236 0
0.529229 0.459846 0
0.574395 0.459876 6.10361e-05
0.620829 0.460334 0.00131228
0.660945 0.457145 0.00422675
0.70547 0.456474 0.00306706
0.746746 0.451926 0.00180056
0.786816 0.452842 0.00062562
0.824521 0.44683 6.10361e-05
0.863493 0.446128 0.000671397
0.902556 0.443442 0.00117494
0.939437 0.436728 0.00105287
0.973846 0.433036 0.00141909
0.998535 0.432624 0.0157626
1 0.429984 0.0316777
0.00192264 0.500328 0
0.00189212 0.500404 0
0.00187686 0.500557 0
0.000534066 0.499779 0
0.00102235 0.496071 0.00015259
0 0.498573 0.00276188
0.000213626 0.499367 0.0043946
0.00202945 0.498878 0.00117494
0.0442969 0.497917 0.000564584
0.122026 0.498131 0.00209049
0.174655 0.497612 0
0.216205 0.498009 0
0.260349 0.497993 0.00015259
0.302464 0.497414 0.000656138
0.344823 0.49575 0.000106813
0.384192 0.497551 0.000717174
0.419867 0.499702 0.00103761
0.464164 0.499901 0.00231937
0.504524 0.495537 0.000595102
0.545388 0.498268 0.00457771
0.591882 0.494499 0.00257877
0.638682 0.494072 0.00590524
0.681895 0.492073 0.00396735
0.72256 0.489738 0.00476081
0.766888 0.486931 0
0.800565 0.487633 0
0.836683 0.484977 0.000427253
0.874846 0.483619 0.00315862
0.91516 0.479057 0.00601205
0.94757 0.474525 7.62951e-05
0.976822 0.471748 0.00309758
0.998856 0.46537 0.00704967
0.997742 0.466178 0.0221714
0 0.535027 0.00436408
0 0.535088 0.00437934
0 0.535225 0.0043946
0.000534066 0.534508 0.00440986
0.00276188 0.532586 0.00225834
0.00222782 0.530495 0
0.00222782 0.53106 0
0.0239109 0.532662 0.000411994
0.0954604 0.534951 0.00163272
0.153918 0.532509 0.00207523
0.198596 0.531716 0
0.23888 0.534417 0.00238041
0.277394 0.535439 0
0.321691 0.534142 0
0.36321 0.534264 0
0.402396 0.53666 0.00146487
0.438056 0.533455 0.00247196
0.483055 0.534218 0.00195315
0.522087 0.528542 0.00047303
0.563378 0.533516 0.00486763
0.607904 0.530159 0.00248722
0.653483 0.532052 0.00508125
0.694438 0.527764 0.00195315
0.732982 0.527092 0.00062562
0.772915 0.525292 0.00157168
0.814054 0.524193 0.00108339
0.852796 0.518715 0.000549325
0.889586 0.51722 0.000259403
0.917525 0.511589 0.000946059
0.955383 0.509224 0.00289921
0.98114 0.504204 0
0.995377 0.501976 0.000167849
0.997177 0.503395 0.00814832
0 0.569039 0.00289921
0 0.569055 0.00285344
0 0.569146 0.00280766
0 0.568673 0.00227359
0.00148013 0.569787 0.000335698
0.0027924 0.569787 0.000518807
0.0230869 0.571588 0.000823987
0.0859693 0.568383 0
0.138766 0.568338 0.00209049
0.18941 0.56846 0.0056611
0.230457 0.570199 0.000289921
0.266392 0.568856 0.00331121
0.304631 0.570718 0.00277714
0.347463 0.570153 0.0027924
0.382666 0.567712 0
0.423957 0.573236 0.000747692
0.455482 0.571252 0.00656138
0.497566 0.571923 0.00015259
0.539559 0.568444 0
0.576486 0.567727 0.00222782
0.624964 0.570733 0
0.666773 0.568917 0.00177005
0.706706 0.565103 0.000106813
0.746731 0.562783 0.00143435
0.788464 0.564446 0.000350958
0.82385 0.560311 0
0.860395 0.559152 0.00299077
0.887083 0.556435 0.00311284
0.920607 0.556374 0.00172427
0.950973 0.545907 0.00015259
0.98146 0.545724 7.62951e-05
0.998657 0.540703 0.00505074
0.997772 0.53727 0.00262455
0.0944228 0.60148 0
0.0949874 0.601541 0
0.095552 0.601602 0
0.0983444 0.603479 0.000137331
0.105745 0.605539 0.000213626
0.119066 0.603494 0
0.147326 0.603204 0.00303655
0.178744 0.60119 0.000549325
0.209369 0.604593 0
0.24271 0.606607 0.000198367
0.2757 0.603174 0.000350958
0.30808 0.605463 0.000595102
0.338064 0.604761 0.00163272
0.37734 0.606455 0.000854505
0.412009 0.605447 0.00363165
0.447303 0.606104 0.00108339
0.483696 0.607706 0.00161746
0.517968 0.608225 0.00282292
0.559762 0.604456 0
0.597955 0.605142 0.00404364
0.640513 0.604669 0.00205997
0.67808 0.60351 9.15541e-05
0.719417 0.60116 0
0.755169 0.603647 0.000717174
0.795071 0.602975 0.000610361
0.82623 0.599847 0.000289921
0.871473 0.598978 0.00306706
0.896849 0.592798 0.000137331
0.923247 0.592645 0.00311284
0.955489 0.587549 0.0037232
0.981353 0.587335 0.00260929
1 0.581811 0.00343328
0.997971 0.577127 0
0.00820935 0.642176 0.00637827
0.00830091 0.642206 0.00637827
0.00839246 0.642237 0.00637827
0.0122377 0.644251 0.00628672
0.0413062 0.646922 0.00320439
0.0838636 0.64744 0.000976577
0.127077 0.645869 0.000762951
0.166476 0.64831 0.00517281
0.197726 0.64622 0.000228885
0.242267 0.646754 0.00137331
0.27924 0.646845 0.000244144
0.316609 0.646281 0.00123598
0.349538 0.642557 0.00387579
0.387198 0.644724 0.00239567
0.424506 0.642924 0.00047303
0.46334 0.645121 0.00538643
0.500404 0.644984 0.00115969
0.53817 0.644694 0.00262455
0.573373 0.642313 0.000244144
0.6121 0.643122 0.00309758
0.653346 0.640497 0.00120546
0.690196 0.640345 0.000518807
0.731807 0.638086 0
0.768261 0.636942 3.0518e-05
0.799985 0.639979 0.00132753
0.832853 0.63653 0.000167849
0.873075 0.637308 3.0518e-05
0.90312 0.634028 0
0.929641 0.630823 0.000411994
0.956024 0.627375 0
0.982254 0.624506 0.0012665
0.997574 0.619196 0.000411994
0.999451 0.611948 0.00244144
0.097261 0.680461 0
0.0977951 0.680522 0
0.0983291 0.680583 0
0.100893 0.681193 0
0.129366 0.684337 0.00410468
0.15581 0.680095 0.00325017
0.185977 0.679377 0.00109865
0.215824 0.680873 0.00767529
0.241108 0.680934 0.00138857
0.277836 0.682063 0
0.314199 0.677623 0.00138857
0.343297 0.679103 0.00321965
0.376455 0.677195 4.57771e-05
0.414038 0.678065 0.000534066
0.448798 0.674174 0
0.480919 0.676753 0
0.51841 0.67631 0.00108339
0.556619 0.676463 1.5259e-05
0.593317 0.674693 0.000198367
0.631251 0.6748 1.5259e-05
0.670069 0.673411 0.000534066
0.705974 0.674571 0.00112917
0.74255 0.672221 3.0518e-05
0.773281 0.674617 0.000198367
0.809659 0.67126 0.00201419
0.845716 0.670359 0.00282292
0.876081 0.669139 0.00250248
0.908858 0.672709 0.00221256
0.9355 0.663661 0.000656138
0.963226 0.663859 0.000534066
0.981247 0.660838 7.62951e-05
1 0.653483 0.000656138
0.997055 0.646632 0.00149538
0.171725 0.720134 0
0.171969 0.720226 0
0.172213 0.720317 0
0.173236 0.719905 0
0.194324 0.71603 0
0.212131 0.717876 0.00132753
0.236286 0.71458 0.000808728
0.259525 0.712291 0.00155642
0.283955 0.713542 0.0012665
0.317754 0.711635 0
0.348196 0.711284 9.15541e-05
0.375402 0.714244 0.00196841
0.405615 0.709743 0.00015259
0.440604 0.712856 9.15541e-05
0.470344 0.712657 0
0.505486 0.710109 0
0.538659 0.70988 0.000961318
0.571801 0.708782 0.00161746
0.609155 0.707103 0
0.644541 0.706401 0.000595102
0.682185 0.706264 0
0.715938 0.707103 0.000808728
0.750805 0.702434 0.000213626
0.783123 0.705196 0
0.818036 0.702663 0.00015259
0.847776 0.704585 0.000122072
0.882277 0.703517 6.10361e-05
0.910704 0.699657 7.62951e-05
0.936584 0.702007 0.000366217
0.967651 0.700694 0.00157168
0.984741 0.695171 0.00361639
0.999939 0.686503 0.00242618
1 0.678965 0.00285344
0.288548 0.741802 0
0.289113 0.741833 0
0.289631 0.741863 0
0.290181 0.741939 0
0.298695 0.745266 0.00123598
0.306325 0.746822 0.00218204
0.319814 0.745098 0.000839246
0.331853 0.744411 0.00450141
0.350927 0.743648 0.00433356
0.37232 0.745144 0.00117494
0.399924 0.743786 6.10361e-05
0.420615 0.745449 0.00357061
0.445426 0.743587 0.000244144
0.476371 0.743481 0
0.501305 0.743755 0.000381476
0.527901 0.740658 0.00254826
0.563836 0.739895 0
0.593164 0.738628 0
0.627436 0.740001 0.0019379
0.655283 0.738888 0.000503548
0.695933 0.737499 0.00514229
0.726894 0.740139 0.000946059
0.758404 0.7364 0.00105287
0.784176 0.735332 0.00276188
0.817899 0.739193 0.00497444
0.846922 0.736599 0.00274662
0.877943 0.734401 0.00318914
0.901518 0.735759 0.00311284
0.93164 0.736858 0.00248722
0.956008 0.733028 0.00158694
0.978225 0.735821 0.00326543
0.999252 0.729198 0.000991836
0.998367 0.723674 0.00503548
0.275517 0.779889 0
0.275792 0.77998 0
0.27602 0.780056 0
0.276249 0.780133 0
0.292088 0.778485 0.002121
0.307301 0.773571 0.00167849
0.326772 0.776638 0.00387579
0.342458 0.776318 0.000808728
0.359304 0.774945 0
0.383413 0.777539 0.00170901
0.409964 0.772549 0.00306706
0.4336 0.770794 0.00354009
0.458503 0.774701 0
0.488838 0.770993 0
0.517082 0.775967 0.00424201
0.546304 0.773983 0.00411994
0.579858 0.771588 0
0.609201 0.771054 1.5259e-05
0.638972 0.771176 7.62951e-05
0.669169 0.771069 0.00166323
0.703853 0.768399 0
0.733333 0.767376 0
0.764324 0.766445 0.00112917
0.786557 0.767025 0.00270085
0.820294 0.765682 0.0034638
0.851698 0.765759 0.00077821
0.878401 0.763027 0.00102235
0.905348 0.763241 0.00117494
0.928237 0.76527 0.000610361
0.947692 0.764385 0
0.975265 0.765316 0
0.997757 0.763607 0.00282292
1 0.760296 0.000457771
0.336522 0.801434 0.000137331
0.336828 0.80145 0.000122072
0.337072 0.80148 0.000106813
0.337331 0.801511 9.15541e-05
0.351232 0.80827 0.000259403
0.362356 0.804166 0.00103761
0.373236 0.8047 3.0518e-05
