LUTS/Secondary LUTS/GRITTY GLOOM.cube
TITLE "Generated by Resolve"
LUT_3D_SIZE 33
0.00135805 0.0376593 0.0392767
0.00808728 0.0375677 0.0389868
0.0148318 0.0374609 0.0386816
0.0259098 0.0371252 0.0380102
0.0393225 0.0366369 0.0370794
0.0572061 0.0357671 0.0357061
0.0818036 0.0341344 0.0334936
0.110903 0.0317388 0.0304417
0.148363 0.027863 0.0258488
0.193622 0.0220035 0.0192264
0.248341 0.014023 0.0104219
0.3084 0.00497444 0.00180056
0.369757 0.000183108 0.000503548
0.426535 3.0518e-05 0.00047303
0.476585 3.0518e-05 0.000534066
0.522133 6.10361e-05 0.000579843
0.563653 0.000106813 0.000656138
0.602167 0.000137331 0.000717174
0.637583 0.000198367 0.00077821
0.671168 0.000259403 0.000839246
0.703655 0.000457771 0.000900282
0.733455 0.0010071 0.000961318
0.761242 0.00407416 0.00103761
0.788037 0.0114748 0.00114443
0.814588 0.0208438 0.00172427
0.837156 0.0299535 0.00433356
0.859358 0.0397803 0.0107118
0.873335 0.0465553 0.0162356
0.885954 0.0529488 0.0213931
0.890105 0.0539406 0.0222324
0.893004 0.0542763 0.0225528
0.895338 0.054551 0.0228275
0.897536 0.054902 0.0231479
0.00282292 0.0431983 0.0401312
0.00965896 0.043122 0.039826
0.0165255 0.0430304 0.0395209
0.0280766 0.0427405 0.0388647
0.0418708 0.0422827 0.0380102
0.0603342 0.0414588 0.0366827
0.0853285 0.039826 0.0344396
0.115068 0.0374762 0.0313573
0.153155 0.0336004 0.0267338
0.198993 0.0278935 0.0201724
0.254124 0.0201114 0.0114595
0.314397 0.0112459 0.00248722
0.37528 0.00553903 0.000549325
0.431525 0.0033875 0.000457771
0.481605 0.00300603 0.000503548
0.527123 0.00297551 0.000564584
0.568597 0.00302129 0.00062562
0.606653 0.00306706 0.000686656
0.641978 0.00315862 0.000747692
0.675837 0.00337224 0.000808728
0.708247 0.00482185 0.000869764
0.737957 0.00776684 0.0009308
0.765713 0.012604 0.0010071
0.792752 0.020676 0.00135805
0.819654 0.0304875 0.00332647
0.841993 0.039704 0.0081178
0.864393 0.049836 0.0154269
0.877836 0.0564431 0.0207523
0.890394 0.0628824 0.0258793
0.894255 0.0636912 0.0265507
0.897154 0.0640421 0.0268711
0.899504 0.0643931 0.0271916
0.901686 0.0647593 0.0275425
0.00433356 0.0487221 0.0409705
0.0112612 0.0486763 0.0406806
0.0182193 0.0486152 0.0403601
0.0302434 0.0483558 0.0397498
0.044419 0.0479133 0.0389105
0.0636606 0.0471046 0.0376135
0.0890974 0.0455177 0.0353399
0.119219 0.0431678 0.0322881
0.15787 0.0393835 0.0276646
0.204715 0.0337224 0.0210422
0.260197 0.0261997 0.0124819
0.320607 0.0175479 0.00308232
0.38085 0.0105898 0.000579843
0.43682 0.00665293 0.000442512
0.48658 0.00596628 0.000488289
0.532143 0.00587472 0.000534066
0.573236 0.00593576 0.000595102
0.611292 0.0059968 0.000656138
0.646403 0.00613413 0.000717174
0.680293 0.00650034 0.00077821
0.712779 0.00932326 0.000839246
0.742519 0.0146944 0.000900282
0.770138 0.0211948 0.000961318
0.797391 0.0298619 0.00155642
0.82443 0.0400244 0.00502022
0.846967 0.0495155 0.0119936
0.86923 0.0598154 0.0201114
0.88246 0.066453 0.0253758
0.89485 0.0728313 0.0303502
0.898405 0.0734569 0.030869
0.901305 0.0738079 0.0311894
0.9037 0.074342 0.0316014
0.906004 0.0749981 0.0320897
0.00672923 0.057435 0.0423743
0.0136721 0.0574197 0.0420691
0.0206302 0.0574502 0.0417334
0.0332189 0.0571908 0.0410925
0.0478218 0.0567788 0.0402991
0.0676432 0.0560616 0.0390478
0.0937057 0.0547036 0.0369268
0.124636 0.0525521 0.0339818
0.164508 0.0489204 0.0293736
0.212375 0.0433356 0.0227817
0.268025 0.0361334 0.0144198
0.32929 0.0278019 0.00502022
0.3888 0.0203555 0.000869764
0.444587 0.0152895 0.000488289
0.493965 0.0135653 0.00047303
0.539269 0.0127108 0.000534066
0.580255 0.0126955 0.000579843
0.618067 0.0133516 0.000640879
0.653574 0.0149844 0.000701915
0.687831 0.0173953 0.000762951
0.720134 0.0221256 0.000823987
0.749722 0.0289464 0.000991836
0.77789 0.0368963 0.00146487
0.805829 0.0467079 0.00534066
0.832807 0.0573739 0.0121614
0.855131 0.067277 0.0198367
0.877531 0.0780346 0.028275
0.890349 0.0849012 0.0335851
0.902907 0.091722 0.0388495
0.906172 0.0923629 0.0392767
0.909209 0.0930648 0.0397345
0.911604 0.0937057 0.0402228
0.913878 0.0943618 0.0406653
0.0099794 0.0692149 0.0442512
0.0168917 0.0692912 0.0438849
0.0238041 0.0693675 0.043534
0.0369116 0.0691081 0.0428473
0.0519722 0.0686503 0.0420081
0.0723735 0.0681468 0.0408942
0.0992294 0.0670634 0.0390936
0.131304 0.0652781 0.0363775
0.172549 0.0617227 0.0317845
0.221286 0.0562905 0.0252689
0.277531 0.0491493 0.0170291
0.339178 0.0411994 0.00779736
0.398398 0.0343786 0.00158694
0.453803 0.0289311 0.000579843
0.502617 0.0256962 0.000488289
0.547219 0.0239567 0.000518807
0.588342 0.0239719 0.000579843
0.626368 0.0257572 0.00062562
0.662257 0.0290684 0.000686656
0.696574 0.0334783 0.00077821
0.728496 0.0393683 0.000991836
0.758373 0.0467536 0.00205997
0.78703 0.0555886 0.005066
0.815015 0.0657206 0.012192
0.841718 0.0767529 0.020798
0.863874 0.0867018 0.0284733
0.886137 0.0976577 0.0370794
0.898878 0.104646 0.0424811
0.911345 0.11165 0.0478981
0.914565 0.112413 0.0483864
0.917647 0.113237 0.0489357
0.919966 0.113802 0.0493477
0.92224 0.114473 0.0498054
0.0135653 0.0830243 0.0461738
0.0206455 0.0833143 0.0459449
0.0277409 0.0835126 0.0457008
0.0412604 0.0833753 0.0450904
0.0565194 0.0830854 0.0443122
0.0771801 0.0826734 0.0432593
0.104265 0.0816205 0.041474
0.137301 0.0797436 0.0387427
0.179843 0.0762036 0.0342107
0.230549 0.0708629 0.0278935
0.288441 0.0641031 0.0199741
0.350088 0.0565042 0.0111086
0.408606 0.0501869 0.00337224
0.46305 0.045182 0.000885023
0.511437 0.0425269 0.000656138
0.556741 0.0415808 0.000579843
0.598383 0.0424201 0.00062562
0.636347 0.04477 0.000717174
0.672206 0.0485084 0.000808728
0.706538 0.0537575 0.00143435
0.73904 0.0607614 0.00331121
0.769543 0.0694591 0.0075227
0.798581 0.0792248 0.014847
0.826337 0.0899519 0.0230106
0.852827 0.101534 0.0318151
0.875395 0.112276 0.040116
0.897429 0.123995 0.0490272
0.910521 0.131975 0.0549783
0.92282 0.1393 0.0604715
0.926055 0.140475 0.0611429
0.929259 0.141634 0.0618143
0.93167 0.142565 0.0623941
0.933974 0.143404 0.0629282
0.0192874 0.102708 0.0492866
0.0267185 0.102998 0.0490425
0.0341497 0.103182 0.0487984
0.0477913 0.103197 0.0482185
0.0628214 0.103059 0.0474403
0.0834516 0.102449 0.0464485
0.111299 0.101472 0.0449989
0.145525 0.0998245 0.0425879
0.190997 0.0965133 0.0383917
0.243442 0.0913252 0.0322271
0.301915 0.0847791 0.024445
0.363485 0.07776 0.0162051
0.421454 0.0722057 0.0093843
0.475898 0.0684367 0.00418097
0.524529 0.0666209 0.00227359
0.569848 0.0664225 0.00205997
0.611063 0.0678264 0.00218204
0.648905 0.0709697 0.00300603
0.685252 0.0755779 0.00445563
0.720638 0.0820935 0.00788891
0.753491 0.0902571 0.0139315
0.783948 0.0996109 0.0208743
0.812879 0.109926 0.0287175
0.840787 0.121553 0.0373693
0.867002 0.1337 0.04654
0.890303 0.145998 0.0556954
0.911376 0.15787 0.0643473
0.9243 0.166186 0.0702525
0.935927 0.173434 0.0754101
0.939147 0.174701 0.0760815
0.942321 0.175845 0.0767376
0.944732 0.17702 0.0773938
0.947066 0.178058 0.0780041
0.0259556 0.124285 0.0521859
0.0336156 0.124529 0.0520485
0.0413825 0.125048 0.0519722
0.055436 0.12549 0.0517128
0.0705425 0.125658 0.0512703
0.0912337 0.125277 0.0504921
0.118853 0.124422 0.0491493
0.15404 0.122652 0.0468299
0.200656 0.119539 0.0428016
0.255268 0.11458 0.0368963
0.31606 0.108614 0.0298772
0.378347 0.102617 0.022797
0.436255 0.0983902 0.0172427
0.490349 0.0954147 0.0129702
0.538582 0.0944686 0.0105898
0.583963 0.0950027 0.0096437
0.625437 0.0974899 0.0104982
0.664347 0.101884 0.0131685
0.701656 0.108019 0.017258
0.737057 0.115602 0.0226291
0.769741 0.124392 0.0290837
0.8 0.134752 0.0365454
0.829023 0.146441 0.0450446
0.857298 0.159228 0.0543374
0.883513 0.172564 0.0639811
0.906447 0.185641 0.073228
0.926329 0.197314 0.0813306
0.938979 0.205631 0.0870985
0.949706 0.212558 0.091783
0.95288 0.213794 0.0924544
0.955993 0.21503 0.0931106
0.958373 0.216495 0.0938277
0.960647 0.217685 0.0944381
0.0359655 0.151537 0.0565194
0.0436713 0.152163 0.056611
0.0513771 0.15285 0.056672
0.0655222 0.153262 0.0564584
0.0803845 0.153613 0.0561074
0.101122 0.153597 0.0555276
0.128893 0.152743 0.0543069
0.164889 0.151339 0.0524605
0.212375 0.148394 0.0491646
0.268864 0.143908 0.0440223
0.331945 0.138415 0.0376593
0.394827 0.133379 0.0316777
0.452644 0.130007 0.0271611
0.506523 0.128222 0.024094
0.555703 0.128862 0.0231785
0.601663 0.130648 0.0234836
0.643351 0.134646 0.0255283
0.68249 0.139971 0.0287785
0.719692 0.147005 0.0334936
0.755001 0.15581 0.0395819
0.787945 0.166049 0.0469062
0.81883 0.177798 0.0554055
0.84802 0.19086 0.0646525
0.875898 0.204547 0.0741436
0.900877 0.217807 0.0831922
0.922866 0.230808 0.0918593
0.941451 0.242206 0.0993668
0.953338 0.250507 0.104601
0.962798 0.25687 0.108476
0.965866 0.258289 0.109102
0.968872 0.259892 0.109758
0.971084 0.261158 0.110338
0.973281 0.262409 0.110903
0.0463264 0.182422 0.0612192
0.0540475 0.183246 0.0614176
0.061799 0.183963 0.0615549
0.0763104 0.184863 0.0617227
0.0914626 0.185718 0.0616922
0.112581 0.18587 0.0612497
0.140795 0.185565 0.0603799
0.177203 0.184054 0.0588388
0.225223 0.18117 0.0559854
0.282353 0.176852 0.0516518
0.347189 0.172732 0.0466621
0.4112 0.168887 0.0420691
0.469993 0.167117 0.0390021
0.525063 0.167086 0.0375982
0.574533 0.168368 0.0373846
0.620401 0.171405 0.0386358
0.662043 0.176562 0.0415503
0.701793 0.183444 0.0460059
0.739681 0.192004 0.0517281
0.775509 0.202976 0.059205
0.808103 0.214603 0.0670329
0.837674 0.226963 0.075288
0.865339 0.240116 0.0837415
0.8925 0.254444 0.0929427
0.91577 0.267124 0.101061
0.937011 0.2804 0.109285
0.95433 0.291951 0.116289
0.965423 0.299992 0.120958
0.973648 0.305196 0.12401
0.976638 0.306645 0.124575
0.979492 0.308095 0.125154
0.981613 0.309407 0.125704
0.983719 0.310582 0.126207
0.0579995 0.219013 0.0668956
0.0656443 0.219974 0.067155
0.0734722 0.220859 0.0674296
0.0883955 0.221653 0.0675059
0.10367 0.222782 0.0677348
0.125704 0.223621 0.0677958
0.155108 0.223728 0.0673991
0.192325 0.222797 0.066331
0.241703 0.220447 0.06421
0.299306 0.216983 0.0609598
0.363928 0.213581 0.0572061
0.42797 0.210986 0.0539101
0.487846 0.210483 0.0520027
0.543587 0.211933 0.0515908
0.593698 0.214954 0.0525673
0.640208 0.220249 0.055314
0.682078 0.226871 0.0591897
0.722072 0.235431 0.0645914
0.759426 0.24538 0.0708629
0.794018 0.256916 0.0782025
0.824994 0.26865 0.0856336
0.853544 0.281422 0.0936141
0.880262 0.294209 0.10161
0.906432 0.308339 0.110353
0.928481 0.320806 0.117891
0.94873 0.333669 0.125689
0.964889 0.344152 0.132189
0.975616 0.351843 0.136629
0.982971 0.356359 0.139223
0.985931 0.357855 0.139818
0.988632 0.358984 0.140276
0.990677 0.360174 0.140764
0.992737 0.361501 0.141314
0.0710155 0.261326 0.0733043
0.0790723 0.262562 0.0737011
0.0878004 0.263722 0.0741131
0.103212 0.265583 0.0747997
0.118746 0.266987 0.075288
0.142245 0.268223 0.0756542
0.172595 0.268742 0.0754864
0.21117 0.268589 0.0749828
0.26154 0.266484 0.0730297
0.318303 0.263493 0.0703441
0.381277 0.260578 0.0675975
0.443931 0.259007 0.0656596
0.505776 0.260761 0.0655375
0.562402 0.264088 0.0665446
0.613352 0.26894 0.0688334
0.659495 0.275334 0.072282
0.701045 0.283024 0.0767681
0.739803 0.291752 0.0820172
0.776532 0.302449 0.0885786
0.809354 0.313588 0.0954299
0.839368 0.325704 0.102754
0.866667 0.338399 0.110353
0.892271 0.350713 0.11783
0.917601 0.364446 0.126223
0.938827 0.376349 0.133547
0.95845 0.38851 0.140978
0.97322 0.39791 0.146715
0.983642 0.404959 0.150835
0.990158 0.408759 0.152941
0.993011 0.410269 0.15346
0.995514 0.411276 0.153811
0.997345 0.412268 0.154192
0.999176 0.413458 0.154604
0.0870832 0.312032 0.0810864
0.0951553 0.313313 0.0815442
0.104524 0.314748 0.082063
0.120119 0.316396 0.0827497
0.136492 0.318074 0.0832532
0.161639 0.319524 0.0837262
0.193469 0.321248 0.0841993
0.23415 0.320897 0.0836347
0.285313 0.319432 0.0823529
0.34258 0.317998 0.0809796
0.403449 0.315908 0.0794537
0.464027 0.316213 0.0789807
0.523049 0.317861 0.0791485
0.578622 0.32192 0.0808118
0.628977 0.326802 0.0831159
0.674754 0.334295 0.087068
0.716213 0.342855 0.0919203
0.754345 0.352163 0.0973526
0.78999 0.363195 0.104051
0.821805 0.374166 0.11075
0.850401 0.385809 0.11783
0.87657 0.39794 0.125078
0.901808 0.410117 0.132616
0.926329 0.422675 0.140581
0.946426 0.433463 0.147295
0.965682 0.444373 0.154345
0.978912 0.45275 0.159594
0.986542 0.458915 0.163409
0.991348 0.461967 0.165103
0.994018 0.463096 0.165515
0.996414 0.464073 0.165896
0.998184 0.464881 0.166201
0.999969 0.465721 0.166552
0.106447 0.368505 0.0913863
0.114977 0.370092 0.0919509
0.12578 0.371801 0.0926223
0.142412 0.37409 0.093492
0.159442 0.376135 0.0941787
0.185473 0.37763 0.0946365
0.219028 0.379492 0.0950484
0.262287 0.37969 0.0948196
0.313283 0.379187 0.0938582
0.368521 0.377203 0.092256
0.426535 0.376333 0.0916457
0.483238 0.376226 0.0912947
0.539513 0.37763 0.0918441
0.592981 0.381842 0.0939651
0.642924 0.387671 0.0966506
0.68809 0.395865 0.101091
0.728496 0.403754 0.105653
0.766217 0.41384 0.111711
0.80058 0.424247 0.118196
0.831235 0.435035 0.125002
0.859144 0.44622 0.132189
0.884733 0.457084 0.139132
0.909361 0.468177 0.146471
0.933242 0.47953 0.154101
0.952697 0.489021 0.160418
0.971206 0.498802 0.166995
0.982544 0.505943 0.171679
0.987854 0.51162 0.175235
0.991562 0.513802 0.176486
0.994186 0.514916 0.176867
0.996521 0.515435 0.177111
0.998276 0.516243 0.177432
1 0.517052 0.177737
0.132982 0.43122 0.105592
0.141878 0.432685 0.106142
0.153689 0.434119 0.106691
0.170459 0.435904 0.107256
0.187976 0.438025 0.107927
0.216922 0.43949 0.108324
0.252003 0.441093 0.108492
0.295262 0.441291 0.107942
0.345022 0.44036 0.106661
0.398322 0.439429 0.105638
0.452171 0.439078 0.105226
0.506294 0.439338 0.105043
0.559243 0.440528 0.105821
0.608942 0.44416 0.107774
0.656184 0.449668 0.110735
0.699016 0.457282 0.115221
0.738979 0.465202 0.120119
0.776455 0.475212 0.126467
0.809415 0.484947 0.132753
0.838956 0.494545 0.139162
0.865797 0.504692 0.14583
0.8907 0.514626 0.152285
0.914839 0.525063 0.159213
0.938048 0.535225 0.166201
0.956649 0.543954 0.171954
0.974151 0.552941 0.178012
0.983642 0.559121 0.18201
0.988373 0.563928 0.185046
0.99176 0.565942 0.186007
0.994354 0.566583 0.186236
0.996628 0.567208 0.186496
0.998398 0.567864 0.186755
1 0.568338 0.186999
0.163821 0.49453 0.122271
0.172854 0.495933 0.122698
0.186038 0.497414 0.123201
0.203708 0.499229 0.12369
0.222889 0.500954 0.124025
0.253162 0.502342 0.12398
0.2878 0.502968 0.1234
0.330343 0.503182 0.122393
0.378805 0.50312 0.121157
0.428611 0.502495 0.120241
0.479042 0.501854 0.11957
0.530282 0.502098 0.119524
0.579065 0.504051 0.120592
0.62475 0.506188 0.122026
0.668681 0.511009 0.125017
0.709056 0.517357 0.129122
0.748058 0.525322 0.133944
0.78439 0.534752 0.139895
0.816083 0.543801 0.145708
0.844343 0.552636 0.151675
0.870253 0.561624 0.157763
0.894682 0.570779 0.163851
0.918364 0.580392 0.170443
0.940658 0.589334 0.176623
0.958343 0.596796 0.181628
0.975357 0.60412 0.186801
0.983902 0.608972 0.190082
0.988708 0.61323 0.192859
0.991943 0.614328 0.193439
0.994522 0.615015 0.193698
0.996719 0.615427 0.193881
0.99852 0.616007 0.194125
1 0.616312 0.194308
0.200122 0.557778 0.141253
0.209369 0.558801 0.141405
0.224231 0.559915 0.141573
0.242267 0.561349 0.141634
0.262394 0.56199 0.141268
0.292241 0.562936 0.140764
0.326894 0.563882 0.140261
0.368902 0.564111 0.139345
0.41413 0.56379 0.138201
0.460563 0.563149 0.136873
0.507912 0.562951 0.136294
0.555108 0.563317 0.136126
0.599557 0.564416 0.136522
0.641886 0.566751 0.137728
0.68188 0.570489 0.140337
0.719585 0.575494 0.143709
0.756313 0.58233 0.148089
0.790188 0.590814 0.153567
0.820645 0.598688 0.158816
0.847913 0.607385 0.164599
0.873426 0.61561 0.170153
0.897032 0.623255 0.175387
0.919875 0.631357 0.181033
0.941436 0.639139 0.186358
0.958572 0.645167 0.190616
0.975418 0.651774 0.195254
0.983597 0.655894 0.198077
0.988968 0.659541 0.200504
0.992111 0.660105 0.2009
0.994644 0.660639 0.201114
0.996796 0.661051 0.201343
0.998642 0.661341 0.201511
1 0.661631 0.201724
0.241276 0.618387 0.161776
0.250477 0.619211 0.161715
0.266102 0.619974 0.161563
0.283711 0.62118 0.161456
0.304829 0.621881 0.161105
0.33434 0.622705 0.160464
0.368063 0.623056 0.159442
0.407492 0.622919 0.15819
0.449439 0.622629 0.156573
0.492363 0.62179 0.155001
0.536522 0.622034 0.154314
0.579522 0.622309 0.153964
0.620188 0.623148 0.154269
0.659419 0.625025 0.155413
0.696132 0.628458 0.157855
0.731182 0.631891 0.160372
0.764904 0.637644 0.164187
0.796201 0.644312 0.168521
0.824659 0.651225 0.172824
0.850675 0.658946 0.177752
0.875166 0.665553 0.182208
0.898207 0.672297 0.186725
0.920394 0.679316 0.191653
0.941314 0.68574 0.196262
0.958236 0.691417 0.200351
0.974838 0.697337 0.204669
0.982803 0.700343 0.206928
0.989273 0.703426 0.209033
0.992264 0.704021 0.209323
0.994766 0.70428 0.209491
0.996872 0.704662 0.20972
0.998764 0.704814 0.209873
1 0.705196 0.210117
0.285283 0.675898 0.185367
0.294942 0.676677 0.185229
0.310613 0.67686 0.18471
0.327611 0.677882 0.184421
0.349538 0.67834 0.183703
0.377951 0.678508 0.182589
0.409522 0.678157 0.180941
0.446143 0.678019 0.179248
0.484916 0.677607 0.177371
0.525383 0.677394 0.175845
0.565774 0.676997 0.174548
0.60415 0.677104 0.173632
0.641413 0.67805 0.173785
0.677165 0.67953 0.174517
0.710735 0.681865 0.175937
0.742763 0.68426 0.177401
0.773342 0.68835 0.180011
0.801587 0.692546 0.182757
0.827695 0.698268 0.186328
0.852323 0.704433 0.190463
0.876036 0.710048 0.194491
0.898848 0.71603 0.198962
0.92076 0.721904 0.203494
0.941329 0.72723 0.207691
0.958022 0.731868 0.211368
0.97435 0.736477 0.215061
0.982345 0.739055 0.217105
0.989517 0.741482 0.219043
0.99237 0.74197 0.219333
0.994842 0.742382 0.219608
0.996918 0.742458 0.21976
0.998856 0.742596 0.219944
1 0.742794 0.220142
0.331456 0.728435 0.212284
0.34197 0.728893 0.211948
0.356954 0.728801 0.211185
0.372839 0.729397 0.210666
0.394614 0.729122 0.209308
0.421134 0.728603 0.207553
0.450752 0.727916 0.205631
0.48484 0.727489 0.203555
0.520546 0.726619 0.201099
0.557229 0.725826 0.198825
0.59266 0.724804 0.196628
0.627344 0.724758 0.195392
0.661448 0.724941 0.194705
0.69395 0.725765 0.194903
0.724727 0.726741 0.194949
0.754589 0.729091 0.196231
0.782742 0.732021 0.198138
0.808118 0.734783 0.199924
0.832563 0.739223 0.203082
0.855665 0.743603 0.206363
0.878462 0.748425 0.209812
0.900343 0.753445 0.213535
0.921752 0.758022 0.217166
0.942016 0.7626 0.220676
0.958144 0.766171 0.223453
0.97406 0.769894 0.22652
0.982132 0.772045 0.228305
0.989532 0.77409 0.23003
0.992309 0.774533 0.23032
0.994736 0.774914 0.23061
0.996765 0.775174 0.230838
0.998749 0.775296 0.231037
1 0.775296 0.231159
0.374273 0.770626 0.237797
0.385046 0.770428 0.236927
0.398947 0.770016 0.235813
0.413108 0.769924 0.234806
0.435309 0.769268 0.232975
0.460044 0.768704 0.231006
0.488151 0.767773 0.22858
0.519387 0.766674 0.225788
0.551873 0.765621 0.222965
0.584405 0.764721 0.220401
0.616434 0.763989 0.218204
0.648615 0.763851 0.216922
0.679866 0.76405 0.216403
0.709529 0.764889 0.216236
0.738369 0.765621 0.215854
0.765728 0.767391 0.216571
0.791348 0.769543 0.217655
0.814679 0.771527 0.218647
0.836912 0.774197 0.220371
0.858595 0.777279 0.222644
0.880278 0.781308 0.225422
0.901061 0.785031 0.227939
0.921935 0.789151 0.230945
0.941894 0.79324 0.234012
0.957961 0.796582 0.236591
0.973648 0.800168 0.239475
0.981491 0.802075 0.241184
0.988586 0.803922 0.242832
0.991318 0.804334 0.243214
0.993713 0.804715 0.243565
0.995727 0.804898 0.243824
0.997742 0.805051 0.244068
0.999741 0.805219 0.244297
0.413474 0.80531 0.26186
0.425147 0.805188 0.260868
0.438056 0.804761 0.259648
0.452445 0.804379 0.258289
0.473426 0.803891 0.256489
0.496666 0.803128 0.254276
0.523201 0.80209 0.25156
0.551827 0.801038 0.248783
0.581613 0.800244 0.246067
0.610758 0.799283 0.243397
0.640238 0.798688 0.241398
0.669627 0.798505 0.24007
0.697948 0.79881 0.239155
0.725017 0.799146 0.238239
0.751293 0.799649 0.237339
0.77583 0.800671 0.237247
0.799252 0.80209 0.2374
0.820722 0.80354 0.237797
0.84155 0.805493 0.238834
0.862043 0.807919 0.240314
0.882704 0.811017 0.242313
0.902525 0.813855 0.244205
0.922988 0.817655 0.246998
0.942733 0.8215 0.249973
0.958587 0.82446 0.252293
0.973739 0.827451 0.254734
0.981186 0.829175 0.256321
0.987869 0.830716 0.257847
0.990585 0.831083 0.258198
0.99295 0.831617 0.258671
0.994949 0.831983 0.259068
0.99704 0.83212 0.259281
0.999084 0.832288 0.259541
0.450309 0.836469 0.286137
0.461997 0.836118 0.285023
0.474205 0.835737 0.283848
0.489052 0.835248 0.282353
0.508507 0.834485 0.280308
0.530175 0.833524 0.277928
0.554604 0.832456 0.275181
0.58088 0.831495 0.272389
0.606973 0.83061 0.269871
0.633692 0.829664 0.267277
0.660655 0.828794 0.264683
0.687373 0.828489 0.26276
0.71342 0.828534 0.261448
0.738689 0.828672 0.260151
0.762493 0.829084 0.259052
0.785077 0.829999 0.25861
0.806394 0.831205 0.258427
0.826658 0.832334 0.258503
0.846571 0.833967 0.258839
0.866285 0.835935 0.259648
0.88574 0.8383 0.260884
0.904707 0.84062 0.262058
0.924224 0.843656 0.263828
0.943297 0.846922 0.266011
0.958892 0.849668 0.267979
0.973159 0.852125 0.269963
0.980407 0.853758 0.271427
0.987045 0.855268 0.272892
0.989792 0.855833 0.273381
0.992187 0.856382 0.273915
0.994171 0.856733 0.274311
0.996307 0.85687 0.274571
0.998398 0.857221 0.274937
0.483925 0.86334 0.309209
0.494926 0.862776 0.307897
0.506355 0.862364 0.306691
0.521187 0.861738 0.305043
0.539528 0.860929 0.303044
0.55938 0.860044 0.300786
0.58204 0.859022 0.298207
0.605219 0.858137 0.295811
0.629465 0.857481 0.293385
0.654154 0.856474 0.290517
0.679088 0.855817 0.288121
0.703593 0.855634 0.286213
0.727749 0.855879 0.284871
0.750835 0.856031 0.283482
0.772534 0.856428 0.282322
0.793362 0.856992 0.281559
0.813367 0.857939 0.28101
0.832502 0.859022 0.28069
0.851469 0.860227 0.280278
0.870115 0.861692 0.280217
0.888548 0.86363 0.280598
0.906798 0.865599 0.281071
0.925231 0.86772 0.281773
0.943526 0.870359 0.283024
0.958816 0.872999 0.284703
0.972457 0.875303 0.286687
0.979919 0.876982 0.288258
0.986908 0.87834 0.28957
0.989792 0.879042 0.290333
0.992248 0.879728 0.291127
0.994278 0.880079 0.291569
0.996475 0.880369 0.292027
0.998611 0.880705 0.292485
0.514458 0.886992 0.331258
0.524926 0.886702 0.330236
0.535576 0.886366 0.329198
0.550179 0.885618 0.327489
0.56701 0.884993 0.325719
0.585626 0.884276 0.323735
0.606104 0.883528 0.321462
0.627939 0.882719 0.319036
0.650889 0.882048 0.316701
0.673518 0.881239 0.314061
0.696101 0.880827 0.311879
0.718929 0.880781 0.310079
0.740902 0.88072 0.308492
0.761852 0.880903 0.307042
0.781781 0.88127 0.305699
0.800931 0.881651 0.304494
0.819791 0.882322 0.303639
0.837919 0.883131 0.302953
0.856123 0.884123 0.30219
0.873838 0.884993 0.30135
0.891569 0.88658 0.301472
0.909224 0.888258 0.301701
0.927016 0.889937 0.301625
0.944442 0.891951 0.302068
0.959228 0.894255 0.30338
0.972229 0.8963 0.305257
0.980133 0.897841 0.306661
0.987732 0.899306 0.307988
0.990662 0.900038 0.308766
0.993133 0.900618 0.309483
0.995209 0.901015 0.309957
0.997421 0.90135 0.310475
0.999603 0.901778 0.31104
0.539101 0.906813 0.350744
0.54905 0.906477 0.349722
0.558526 0.906096 0.34873
0.572885 0.905608 0.347372
0.588617 0.905028 0.345724
0.606317 0.904341 0.343725
0.625772 0.903517 0.34136
0.646647 0.902678 0.338766
0.667399 0.901946 0.336263
0.688334 0.901381 0.333822
0.709255 0.900755 0.331502
0.730465 0.900511 0.329412
0.750652 0.900374 0.327443
0.769985 0.900587 0.325978
0.788495 0.900664 0.324468
0.806714 0.900847 0.323064
0.824659 0.901488 0.322087
0.842283 0.902159 0.321187
0.859983 0.903044 0.320546
0.876966 0.9037 0.319692
0.894209 0.905028 0.319356
0.911376 0.906279 0.319005
0.928649 0.907942 0.31899
0.945434 0.909468 0.318898
0.959197 0.911269 0.319677
0.971756 0.913008 0.320928
0.980087 0.914504 0.32192
0.988052 0.915892 0.322896
0.991089 0.916686 0.323735
0.993591 0.917327 0.324483
0.995682 0.917876 0.32517
0.99794 0.918227 0.325658
1 0.91873 0.326299
0.559091 0.923934 0.368475
0.568536 0.923659 0.367529
0.577661 0.923445 0.366705
0.591852 0.922957 0.365255
0.60705 0.922194 0.363272
0.623941 0.921477 0.361166
0.642542 0.920699 0.358892
0.661753 0.919951 0.356634
0.681208 0.919417 0.354284
0.700816 0.91873 0.351659
