LUTS/Secondary LUTS/GRITTY GLOOM.cube
TITLE "Generated by Resolve"
LUT_3D_SIZE 9
0.00135805 0.0376593 0.0392767
0.0393225 0.0366369 0.0370794
0.148363 0.027863 0.0258488
0.369757 0.000183108 0.000503548
0.563653 0.000106813 0.000656138
0.703655 0.000457771 0.000900282
0.814588 0.0208438 0.00172427
0.885954 0.0529488 0.0213931
0.897536 0.054902 0.0231479
0.0099794 0.0692149 0.0442512
0.0519722 0.0686503 0.0420081
0.172549 0.0617227 0.0317845
0.398398 0.0343786 0.00158694
0.588342 0.0239719 0.000579843
0.728496 0.0393683 0.000991836
0.841718 0.0767529 0.020798
0.911345 0.11165 0.0478981
0.92224 0.114473 0.0498054
0.0359655 0.151537 0.0565194
0.0803845 0.153613 0.0561074
0.212375 0.148394 0.0491646
0.452644 0.130007 0.0271611
0.643351 0.134646 0.0255283
0.787945 0.166049 0.0469062
0.900877 0.217807 0.0831922
0.962798 0.25687 0.108476
0.973281 0.262409 0.110903
0.0870832 0.312032 0.0810864
0.136492 0.318074 0.0832532
0.285313 0.319432 0.0823529
0.523049 0.317861 0.0791485
0.716213 0.342855 0.0919203
0.850401 0.385809 0.11783
0.946426 0.433463 0.147295
0.991348 0.461967 0.165103
0.999969 0.465721 0.166552
0.200122 0.557778 0.141253
0.262394 0.56199 0.141268
0.41413 0.56379 0.138201
0.599557 0.564416 0.136522
0.756313 0.58233 0.148089
0.873426 0.61561 0.170153
0.958572 0.645167 0.190616
0.992111 0.660105 0.2009
1 0.661631 0.201724
0.374273 0.770626 0.237797
0.435309 0.769268 0.232975
0.551873 0.765621 0.222965
0.679866 0.76405 0.216403
0.791348 0.769543 0.217655
0.880278 0.781308 0.225422
0.957961 0.796582 0.236591
0.991318 0.804334 0.243214
0.999741 0.805219 0.244297
0.514458 0.886992 0.331258
0.56701 0.884993 0.325719
0.650889 0.882048 0.316701
0.740902 0.88072 0.308492
0.819791 0.882322 0.303639
0.891569 0.88658 0.301472
0.959228 0.894255 0.30338
0.990662 0.900038 0.308766
0.999603 0.901778 0.31104
0.583459 0.943664 0.39118
0.62974 0.941802 0.385901
0.697749 0.939223 0.376944
0.768231 0.937804 0.368429
0.835508 0.93817 0.36202
0.900145 0.93991 0.356832
0.958495 0.94284 0.354253
0.99205 0.946059 0.353353
1 0.947662 0.355642
0.591241 0.957153 0.400198
0.636957 0.955245 0.394568
0.703136 0.952621 0.385275
0.77142 0.951064 0.376287
0.837842 0.951202 0.368811
0.901579 0.952529 0.362799
0.958312 0.954711 0.359426
0.991669 0.956771 0.356146
0.999878 0.957122 0.366766
0.0009308 0.0424506 0.0577096
0.0360113 0.0412299 0.0610056
0.13463 0.0347601 0.0519112
0.339864 0.00885023 0.022797
0.545953 0 0.0133822
0.695796 0.000106813 0.013901
0.813031 0.0289464 0.0230716
0.887083 0.0614481 0.0492714
0.898863 0.0641337 0.0521859
0.00816358 0.0761273 0.0653849
0.0466316 0.0756085 0.067216
0.158511 0.06804 0.0572061
0.376165 0.0413672 0.0273594
0.574166 0.0276646 0.0129397
0.720897 0.0399023 0.0165866
0.838193 0.0766766 0.0432746
0.909941 0.112703 0.0710765
0.921401 0.117235 0.0743725
0.0327153 0.158465 0.0813306
0.0699779 0.161242 0.0811322
0.193454 0.158877 0.075349
0.433829 0.140124 0.0548409
0.633997 0.1411 0.0504616
0.783978 0.170016 0.0701457
0.898466 0.220218 0.105638
0.960922 0.259236 0.131411
0.971466 0.265232 0.134859
0.080293 0.318227 0.105547
0.121263 0.325292 0.107713
0.259449 0.333333 0.107332
0.507332 0.330098 0.103197
0.709087 0.351659 0.11516
0.846189 0.393011 0.1411
0.943465 0.43888 0.171023
0.991272 0.466804 0.189807
0.999969 0.470588 0.192065
0.188159 0.56141 0.1691
0.239384 0.566598 0.168551
0.389593 0.572946 0.164691
0.587106 0.573312 0.160388
0.751186 0.589197 0.171267
0.869963 0.620066 0.193256
0.955337 0.648875 0.214923
0.991989 0.663554 0.225956
1 0.665095 0.227817
0.36141 0.772396 0.269703
0.416587 0.772152 0.262989
0.536751 0.769848 0.251926
0.671687 0.768078 0.243229
0.786618 0.772854 0.243824
0.877134 0.783307 0.249439
0.955642 0.79823 0.260975
0.989181 0.805829 0.269505
0.997452 0.806699 0.272236
0.505333 0.888197 0.363104
0.556374 0.886702 0.355993
0.641672 0.883665 0.346654
0.735302 0.8822 0.337575
0.815869 0.883619 0.332219
0.888579 0.887633 0.328939
0.956847 0.894957 0.329305
0.988968 0.900542 0.333944
0.997711 0.902251 0.338231
0.577325 0.94432 0.426352
0.621546 0.942519 0.418738
0.691112 0.939864 0.408957
0.763363 0.93817 0.39942
0.831785 0.938445 0.392142
0.8972 0.940093 0.385443
0.956085 0.942977 0.380606
0.991058 0.946303 0.378607
1 0.947875 0.380209
0.585626 0.9579 0.440208
0.628962 0.955779 0.431357
0.69662 0.953155 0.421027
0.766415 0.951293 0.410483
0.833997 0.951263 0.401801
0.898573 0.952529 0.394171
0.955795 0.954681 0.389181
0.990539 0.956771 0.383444
0.997467 0.95697 0.407584
0.00109865 0.0555276 0.103258
0.0238499 0.0586862 0.122744
0.120256 0.0511482 0.116442
0.291569 0.0344091 0.0928511
0.511055 0.0154726 0.069276
0.681712 0.0215915 0.0698711
0.811048 0.0534218 0.0931868
0.891859 0.0882734 0.122347
0.906035 0.0917067 0.127214
0.00216678 0.0935378 0.110903
0.0330816 0.0955062 0.123415
0.135714 0.0886702 0.127733
0.328084 0.0659342 0.101534
0.543542 0.0493019 0.0796368
0.708614 0.0597391 0.0823377
0.834806 0.0954299 0.109545
0.912154 0.132403 0.139315
0.925399 0.138582 0.145296
0.0278477 0.179355 0.132998
0.0650187 0.181933 0.14226
0.164935 0.181964 0.146838
0.388266 0.16434 0.126177
0.609262 0.154742 0.112398
0.772534 0.176623 0.125582
0.89134 0.222644 0.158694
0.954803 0.258427 0.184421
0.965301 0.2654 0.190082
0.0754406 0.345418 0.174151
0.113939 0.351461 0.177691
0.227359 0.362615 0.176806
0.471717 0.36231 0.172137
0.687648 0.37644 0.181094
0.834775 0.408682 0.201495
0.937087 0.449088 0.228885
0.987671 0.474006 0.247395
0.996139 0.476051 0.250874
0.179095 0.582284 0.248249
0.222965 0.585977 0.244846
0.351141 0.593454 0.236408
0.560937 0.595392 0.229282
0.735576 0.608209 0.239368
0.858946 0.633021 0.258747
0.947692 0.657023 0.276371
0.9888 0.669535 0.286656
0.996826 0.67039 0.290211
0.342504 0.778775 0.347555
0.38407 0.778622 0.340444
0.500938 0.778195 0.323995
0.651209 0.776867 0.314076
0.774746 0.779812 0.31194
0.869032 0.7888 0.314122
0.949767 0.80206 0.324468
0.983948 0.807843 0.332067
0.991897 0.808209 0.338247
0.486061 0.889937 0.435706
0.528054 0.888869 0.427695
0.616602 0.88632 0.412345
0.71986 0.884901 0.402045
0.806119 0.886046 0.395834
0.881743 0.889494 0.38996
0.951812 0.896193 0.386542
0.984909 0.901335 0.392477
0.99324 0.902586 0.400549
0.564385 0.945739 0.497093
0.605829 0.943984 0.488167
0.674983 0.94107 0.474647
0.751644 0.938888 0.463798
0.823224 0.938781 0.455406
0.890379 0.940139 0.447547
0.950774 0.942946 0.44036
0.987381 0.946181 0.434531
0.996735 0.947585 0.437186
0.574258 0.959472 0.514534
0.61651 0.957473 0.504829
0.682979 0.954406 0.490654
0.755627 0.95198 0.479072
0.82533 0.951446 0.468711
0.891676 0.952377 0.460105
0.950134 0.954437 0.453529
0.986313 0.95639 0.446296
0.992462 0.956603 0.483955
0.00138857 0.0835889 0.17702
0.0182803 0.0902419 0.205325
0.0966659 0.090074 0.246098
0.262135 0.0741588 0.214405
0.481437 0.057145 0.184649
0.671229 0.06392 0.186038
0.814786 0.0994736 0.217533
0.905394 0.142077 0.256901
0.923522 0.149905 0.269474
0.00138857 0.12398 0.184833
0.0235447 0.128511 0.206653
0.100832 0.131365 0.250401
0.289708 0.11281 0.236683
0.510658 0.0929732 0.203174
0.696223 0.102358 0.205341
0.836347 0.142397 0.238224
0.921187 0.184588 0.275074
0.938231 0.196246 0.289113
0.0140383 0.221836 0.208835
0.0463569 0.22797 0.22594
0.125902 0.235508 0.260639
0.34197 0.219776 0.276326
0.581048 0.205631 0.255116
0.761395 0.221317 0.262501
0.884382 0.260731 0.289784
0.951766 0.295247 0.315297
0.96347 0.310323 0.32726
0.0650797 0.402258 0.271962
0.105837 0.408896 0.288304
0.209674 0.421561 0.322759
0.424628 0.422019 0.33257
0.651255 0.42385 0.323796
0.812512 0.44596 0.335378
0.920943 0.479316 0.35729
0.975998 0.500954 0.373098
0.98468 0.504829 0.379019
0.173266 0.628183 0.394507
0.218723 0.631098 0.401526
0.334585 0.636149 0.411948
0.52462 0.638239 0.397009
0.707546 0.641047 0.386297
0.836759 0.655528 0.393896
0.929503 0.674922 0.406165
0.974472 0.686122 0.415366
0.982757 0.685542 0.418524
0.330388 0.80116 0.503075
0.371939 0.799817 0.49926
0.478386 0.798199 0.487602
0.623957 0.793912 0.466087
0.754391 0.792645 0.45127
0.852232 0.798321 0.447929
0.935302 0.808408 0.454383
0.971771 0.813489 0.461723
0.979904 0.813077 0.465675
0.467231 0.89958 0.568048
0.505669 0.89781 0.560952
0.59443 0.894575 0.544167
0.6981 0.890822 0.52604
0.78938 0.890532 0.5149
0.868376 0.892851 0.508339
0.940154 0.898512 0.505165
0.97499 0.903181 0.512856
0.983398 0.903975 0.518471
0.546624 0.949599 0.600427
0.584924 0.94757 0.59292
0.654948 0.943786 0.579324
0.733425 0.940887 0.56553
0.808865 0.939864 0.555657
0.878889 0.940642 0.547784
0.940764 0.943191 0.541558
0.980072 0.946609 0.537438
0.988983 0.947662 0.54464
0.558083 0.963378 0.612406
0.599069 0.961242 0.604929
0.666056 0.957107 0.591577
0.739284 0.953948 0.577935
0.811536 0.952346 0.56614
0.88014 0.952575 0.556466
0.940414 0.954452 0.550546
0.979156 0.956374 0.544381
0.985489 0.956954 0.578119
0.00154116 0.127886 0.284321
0.016968 0.134905 0.315969
0.073518 0.147234 0.378714
0.229603 0.138033 0.432731
0.466438 0.118105 0.37882
0.672602 0.127581 0.37438
0.822538 0.167712 0.409537
0.914656 0.21355 0.453925
0.935225 0.227115 0.476432
0.00140383 0.172229 0.292592
0.0165408 0.177523 0.319432
0.0765545 0.19144 0.377874
0.240589 0.189364 0.45774
0.493828 0.162295 0.408942
0.695384 0.171618 0.400397
0.838285 0.210483 0.431312
0.924041 0.254215 0.470558
0.943389 0.272465 0.494804
0.00378424 0.288762 0.322835
0.031693 0.296193 0.345113
0.0943465 0.310918 0.39295
0.267094 0.317891 0.477577
0.557137 0.290532 0.470939
0.749874 0.296941 0.467109
0.874464 0.324361 0.485588
0.943145 0.351202 0.50724
0.957977 0.383993 0.52694
0.0578622 0.480537 0.40499
0.0927291 0.488426 0.423896
0.175677 0.505394 0.464164
0.359777 0.509896 0.509377
0.619745 0.493004 0.523964
0.788907 0.501595 0.526024
0.900832 0.525536 0.541329
0.959381 0.544152 0.554894
0.967971 0.554299 0.563134
0.162783 0.686824 0.526741
0.209628 0.688807 0.536202
0.312337 0.693126 0.555764
0.499077 0.688777 0.573953
0.679454 0.682338 0.570184
0.810483 0.685969 0.564645
0.907012 0.697917 0.571389
0.956146 0.706538 0.578958
0.964538 0.707851 0.585565
0.314992 0.83267 0.634592
0.362814 0.829557 0.634714
0.464607 0.823499 0.63566
0.605158 0.814343 0.631678
0.732769 0.809918 0.615228
0.832349 0.811048 0.605692
0.917021 0.816785 0.607965
0.955673 0.820325 0.613947
0.96379 0.82034 0.619272
0.452049 0.915831 0.689418
0.494881 0.912535 0.686015
0.58172 0.906584 0.678325
0.681361 0.900633 0.666392
0.772076 0.898283 0.653483
0.852659 0.898741 0.644175
0.924971 0.90219 0.640986
0.962463 0.905913 0.646815
0.970855 0.906783 0.653162
0.533639 0.957717 0.708858
0.573571 0.955062 0.704677
0.641627 0.950378 0.696269
0.717784 0.946212 0.685649
0.793515 0.943862 0.674769
0.865446 0.943633 0.666545
0.928069 0.94548 0.662013
0.97023 0.948577 0.6607
0.979141 0.94966 0.667857
0.545083 0.971115 0.714183
0.586358 0.968338 0.709758
0.651789 0.963561 0.701457
0.723812 0.959121 0.690944
0.796475 0.956252 0.679469
0.86688 0.955489 0.670848
0.928283 0.95668 0.666239
0.969696 0.958206 0.663676
0.978576 0.958877 0.669398
0.00163272 0.198367 0.425666
0.0169223 0.208331 0.455222
0.0602274 0.228489 0.509361
0.179034 0.255741 0.594232
0.445731 0.226856 0.616007
0.679774 0.224872 0.59527
0.827405 0.26067 0.616663
0.915892 0.302388 0.648295
0.936675 0.31725 0.667475
0.00154116 0.251209 0.435691
0.0160525 0.25951 0.460883
0.0634318 0.281697 0.513115
0.187015 0.312978 0.600427
0.466453 0.285725 0.638926
0.696406 0.271839 0.614145
0.837644 0.304372 0.631586
0.921187 0.341588 0.659083
0.940307 0.359594 0.67924
0.00309758 0.382925 0.473213
0.0289158 0.391745 0.49427
0.08542 0.410773 0.538781
0.213947 0.437217 0.614389
0.501884 0.41561 0.665217
0.736522 0.397818 0.657694
0.863096 0.413046 0.667597
0.932647 0.42884 0.683101
0.94815 0.466178 0.698528
0.060502 0.572808 0.56109
0.0901503 0.579141 0.575662
0.15613 0.592844 0.606973
0.293141 0.604593 0.650263
0.552789 0.587457 0.68574
0.766644 0.572335 0.689891
0.879713 0.582696 0.697093
0.939223 0.592416 0.706188
0.948898 0.606134 0.711208
0.164614 0.751247 0.667109
0.205081 0.752758 0.674662
0.287938 0.75555 0.689265
0.4495 0.749691 0.700099
0.642557 0.735134 0.706203
0.791302 0.725353 0.711437
0.887388 0.727565 0.713115
0.938491 0.731273 0.718303
0.947356 0.734615 0.722469
0.297826 0.86566 0.740993
0.344717 0.862257 0.74049
0.430838 0.855436 0.739437
0.578424 0.843091 0.735073
0.718456 0.832273 0.73492
0.816892 0.829221 0.73312
0.900008 0.830121 0.729915
0.942031 0.832181 0.734157
0.950896 0.832517 0.738537
0.434913 0.936446 0.776669
0.482109 0.932204 0.773495
0.569467 0.924056 0.767895
0.672694 0.914733 0.763195
0.763348 0.909529 0.761227
0.84155 0.907988 0.753567
0.911437 0.90866 0.748043
0.953048 0.911025 0.751995
0.961852 0.91194 0.757244
0.521553 0.970855 0.787793
0.564996 0.967285 0.784512
0.634699 0.961166 0.779812
0.71136 0.955123 0.775891
0.785565 0.951446 0.771862
0.855833 0.950607 0.764599
0.917418 0.951568 0.758999
0.963851 0.953994 0.758099
0.973159 0.955413 0.76495
0.532586 0.983886 0.791821
0.577264 0.980102 0.78819
0.644282 0.973892 0.783307
0.716426 0.967727 0.778683
0.788174 0.963668 0.773999
0.857542 0.962234 0.76669
0.918257 0.962646 0.761563
0.963729 0.963607 0.758724
0.973129 0.964263 0.761395
0.00175479 0.308492 0.563302
0.017319 0.320851 0.586755
0.0652323 0.347051 0.63328
0.163134 0.387747 0.703563
0.381323 0.393652 0.760418
0.680674 0.357397 0.760845
0.831189 0.370962 0.763424
0.914229 0.400839 0.781476
0.933196 0.412375 0.792111
0.00172427 0.369436 0.579812
0.0172885 0.378103 0.59881
0.0719005 0.403082 0.642664
0.171923 0.441321 0.708598
0.396445 0.446616 0.765621
0.693339 0.406317 0.772793
0.83859 0.412192 0.77229
0.917006 0.437537 0.787152
0.934432 0.452262 0.797589
0.0180819 0.495644 0.62269
0.0446326 0.503853 0.638834
0.098146 0.521248 0.672786
0.198962 0.5505 0.727871
0.429313 0.55108 0.774441
0.71371 0.516686 0.788205
0.853162 0.510567 0.78938
0.920745 0.517021 0.796613
0.934752 0.543877 0.803235
0.0804303 0.660319 0.701564
0.108202 0.665003 0.711757
0.165881 0.674846 0.733806
0.270878 0.687633 0.766949
0.496208 0.678248 0.789746
0.732204 0.650416 0.800137
0.863844 0.644114 0.800977
0.922393 0.647684 0.805234
0.933577 0.658473 0.807752
0.177523 0.806683 0.786847
0.21146 0.807691 0.791989
0.280186 0.808576 0.801251
0.41091 0.802106 0.80676
0.595468 0.784207 0.804654
0.758587 0.767483 0.809689
0.87538 0.759258 0.811627
0.92459 0.759472 0.814023
0.934768 0.762692 0.816312
0.290562 0.897597 0.835004
0.33463 0.894942 0.834577
0.413504 0.888472 0.832975
0.550973 0.87509 0.826001
0.69015 0.860975 0.819089
0.798871 0.853086 0.819974
0.889494 0.847898 0.822843
0.932555 0.8477 0.824994
0.942321 0.848463 0.828229
0.419272 0.957519 0.854749
0.467796 0.953185 0.851575
0.547845 0.944259 0.84535
0.647593 0.933776 0.838437
0.749035 0.924819 0.833829
0.83415 0.919219 0.833661
0.900771 0.917113 0.833494
0.947036 0.917754 0.833616
0.956817 0.9187 0.837873
0.50898 0.98613 0.859342
0.554009 0.983688 0.856016
0.622965 0.977203 0.850843
0.702861 0.970291 0.846281
0.781811 0.964782 0.844053
0.852155 0.961868 0.844404
0.910155 0.962127 0.841245
0.963226 0.963928 0.837674
0.974029 0.965957 0.843626
0.520043 0.997497 0.861921
0.567071 0.995895 0.858213
0.635737 0.989395 0.852888
0.711147 0.982254 0.848066
0.785397 0.976516 0.845792
0.85275 0.973083 0.845197
0.911376 0.972992 0.842329
0.96347 0.973602 0.83798
0.973587 0.974624 0.841306
0.00326543 0.432563 0.693721
0.0292515 0.442054 0.709636
0.085069 0.459388 0.738827
0.170504 0.484123 0.780728
0.357031 0.497673 0.827604
0.656764 0.469261 0.842664
0.83505 0.46656 0.848814
0.909804 0.47837 0.853284
0.926772 0.482033 0.855604
0.0144503 0.491981 0.710994
0.0397345 0.498085 0.723552
0.0934768 0.512489 0.749004
0.181811 0.537621 0.789197
0.371054 0.546212 0.830259
0.663828 0.514977 0.845014
0.839261 0.50399 0.851331
0.91078 0.511376 0.854292
0.926757 0.516732 0.856077
0.0482948 0.599908 0.750286
0.0734417 0.604349 0.759533
0.125292 0.61384 0.779141
0.213687 0.630457 0.810468
0.408667 0.632303 0.840116
0.6757 0.601343 0.8486
0.84567 0.586069 0.854139
0.912062 0.581872 0.856092
0.926146 0.595758 0.857359
0.111772 0.731106 0.809827
0.137942 0.733623 0.815564
0.19292 0.737926 0.827451
0.28275 0.742901 0.844114
0.476463 0.732235 0.854109
0.699458 0.7066 0.855238
0.854429 0.690303 0.859495
0.91371 0.686641 0.859281
0.925322 0.692271 0.859327
0.197299 0.842618 0.864454
0.228443 0.84242 0.866697
0.291264 0.840253 0.869841
0.393118 0.833371 0.871077
0.569482 0.815137 0.865095
0.737118 0.797391 0.862272
0.866194 0.783841 0.867308
0.917906 0.779889 0.866087
0.928786 0.781308 0.866407
0.29865 0.918853 0.894286
0.339117 0.916274 0.893324
0.413062 0.909667 0.890303
0.537133 0.896178 0.881987
0.669718 0.881453 0.872908
0.782818 0.871916 0.870787
0.878309 0.86479 0.875959
0.927489 0.860639 0.876143
0.938201 0.860517 0.87715
0.411856 0.961944 0.906294
0.458198 0.96199 0.903273
0.534585 0.958618 0.897353
0.628 0.948363 0.890532
0.732586 0.938094 0.884276
0.821775 0.931563 0.882963
0.889052 0.928878 0.885084
0.942412 0.925307 0.887007
0.953185 0.925689 0.88983
0.482338 0.987259 0.916777
0.528649 0.987411 0.913878
0.596872 0.987488 0.908919
0.674876 0.986664 0.903731
0.761807 0.984649 0.899702
0.839216 0.981552 0.899001
0.90135 0.982055 0.90042
0.965393 0.980484 0.900633
0.977096 0.982391 0.906126
0.487266 0.997818 0.922194
0.535851 0.997879 0.918959
0.608377 0.998001 0.912795
0.689097 0.998032 0.906661
0.767132 0.996078 0.90219
0.839261 0.992096 0.900481
0.901442 0.991928 0.901625
0.967315 0.99057 0.903532
0.977111 0.991226 0.904845
0.0155642 0.477775 0.740703
0.0420233 0.482689 0.75079
0.0982834 0.494514 0.774273
0.181292 0.509331 0.806806
0.353307 0.51426 0.842435
0.647288 0.489342 0.858824
0.835554 0.486091 0.868009
0.909819 0.49691 0.872877
0.925155 0.497475 0.87335
0.0299382 0.536171 0.75697
0.0544747 0.538857 0.765301
0.107942 0.547311 0.785183
0.193683 0.562142 0.815259
0.368338 0.565103 0.846662
0.65182 0.538369 0.860334
0.837034 0.530175 0.868666
0.910155 0.536873 0.872938
0.925261 0.537636 0.873487
0.0641184 0.635721 0.792157
0.0889754 0.638437 0.799115
0.14107 0.643091 0.813733
0.227649 0.652277 0.837049
0.407691 0.648798 0.857359
0.66421 0.620951 0.863264
0.840681 0.608713 0.870008
0.910536 0.611887 0.873167
0.924285 0.611795 0.873442
0.125353 0.754788 0.844755
0.150851 0.755718 0.848493
0.206714 0.757534 0.857359
0.296086 0.75729 0.867903
0.476081 0.743694 0.871595
0.691279 0.719646 0.869734
0.848524 0.704128 0.874418
0.911574 0.703746 0.875166
0.923812 0.702235 0.875074
0.204227 0.854307 0.889158
0.234974 0.853223 0.890333
0.297642 0.849836 0.891569
0.397772 0.841764 0.890608
0.565744 0.822736 0.882277
0.731868 0.804822 0.877287
0.860365 0.792065 0.882124
0.916182 0.789166 0.881819
0.927901 0.787045 0.88159
0.300862 0.926421 0.914275
0.340398 0.924163 0.912795
0.413931 0.916609 0.908309
0.527962 0.903136 0.899321
0.66038 0.887816 0.889494
0.777173 0.877302 0.886213
0.873106 0.870314 0.890608
0.925978 0.866239 0.892027
0.937438 0.864225 0.891722
0.409644 0.964034 0.922606
0.454765 0.96408 0.919585
0.529335 0.963836 0.913375
0.620356 0.953353 0.905745
0.726528 0.94258 0.899153
0.815274 0.935912 0.897658
0.884199 0.933333 0.900206
0.941299 0.929351 0.904173
0.952529 0.927962 0.904036
0.481819 0.988296 0.930404
0.52842 0.988388 0.927474
0.597055 0.988617 0.92224
0.674647 0.988739 0.916793
0.760861 0.988312 0.912917
0.83682 0.984695 0.912505
0.900191 0.98529 0.914931
0.967239 0.984039 0.920012
0.97641 0.984024 0.91989
0.489723 0.998184 0.931594
0.542504 0.99826 0.928038
0.61471 0.998367 0.922103
0.692958 0.998489 0.916594
0.76994 0.99675 0.91313
0.842344 0.99353 0.912978
0.9037 0.994141 0.91548
0.967803 0.992935 0.920485
0.976562 0.993072 0.920134
