LUTS/Secondary LUTS/GRITTY GLOOM.cube
TITLE "Generated by Resolve"
LUT_3D_SIZE 5
0.00135805 0.0376593 0.0392767
0.148363 0.027863 0.0258488
0.563653 0.000106813 0.000656138
0.814588 0.0208438 0.00172427
0.897536 0.054902 0.0231479
0.0359655 0.151537 0.0565194
0.212375 0.148394 0.0491646
0.643351 0.134646 0.0255283
0.900877 0.217807 0.0831922
0.973281 0.262409 0.110903
0.200122 0.557778 0.141253
0.41413 0.56379 0.138201
0.756313 0.58233 0.148089
0.958572 0.645167 0.190616
1 0.661631 0.201724
0.514458 0.886992 0.331258
0.650889 0.882048 0.316701
0.819791 0.882322 0.303639
0.959228 0.894255 0.30338
0.999603 0.901778 0.31104
0.591241 0.957153 0.400198
0.703136 0.952621 0.385275
0.837842 0.951202 0.368811
0.958312 0.954711 0.359426
0.999878 0.957122 0.366766
0.00109865 0.0555276 0.103258
0.120256 0.0511482 0.116442
0.511055 0.0154726 0.069276
0.811048 0.0534218 0.0931868
0.906035 0.0917067 0.127214
0.0278477 0.179355 0.132998
0.164935 0.181964 0.146838
0.609262 0.154742 0.112398
0.89134 0.222644 0.158694
0.965301 0.2654 0.190082
0.179095 0.582284 0.248249
0.351141 0.593454 0.236408
0.735576 0.608209 0.239368
0.947692 0.657023 0.276371
0.996826 0.67039 0.290211
0.486061 0.889937 0.435706
0.616602 0.88632 0.412345
0.806119 0.886046 0.395834
0.951812 0.896193 0.386542
0.99324 0.902586 0.400549
0.574258 0.959472 0.514534
0.682979 0.954406 0.490654
0.82533 0.951446 0.468711
0.950134 0.954437 0.453529
0.992462 0.956603 0.483955
0.00154116 0.127886 0.284321
0.073518 0.147234 0.378714
0.466438 0.118105 0.37882
0.822538 0.167712 0.409537
0.935225 0.227115 0.476432
0.00378424 0.288762 0.322835
0.0943465 0.310918 0.39295
0.557137 0.290532 0.470939
0.874464 0.324361 0.485588
0.957977 0.383993 0.52694
0.162783 0.686824 0.526741
0.312337 0.693126 0.555764
0.679454 0.682338 0.570184
0.907012 0.697917 0.571389
0.964538 0.707851 0.585565
0.452049 0.915831 0.689418
0.58172 0.906584 0.678325
0.772076 0.898283 0.653483
0.924971 0.90219 0.640986
0.970855 0.906783 0.653162
0.545083 0.971115 0.714183
0.651789 0.963561 0.701457
0.796475 0.956252 0.679469
0.928283 0.95668 0.666239
0.978576 0.958877 0.669398
0.00175479 0.308492 0.563302
0.0652323 0.347051 0.63328
0.381323 0.393652 0.760418
0.831189 0.370962 0.763424
0.933196 0.412375 0.792111
0.0180819 0.495644 0.62269
0.098146 0.521248 0.672786
0.429313 0.55108 0.774441
0.853162 0.510567 0.78938
0.934752 0.543877 0.803235
0.177523 0.806683 0.786847
0.280186 0.808576 0.801251
0.595468 0.784207 0.804654
0.87538 0.759258 0.811627
0.934768 0.762692 0.816312
0.419272 0.957519 0.854749
0.547845 0.944259 0.84535
0.749035 0.924819 0.833829
0.900771 0.917113 0.833494
0.956817 0.9187 0.837873
0.520043 0.997497 0.861921
0.635737 0.989395 0.852888
0.785397 0.976516 0.845792
0.911376 0.972992 0.842329
0.973587 0.974624 0.841306
0.0155642 0.477775 0.740703
0.0982834 0.494514 0.774273
0.353307 0.51426 0.842435
0.835554 0.486091 0.868009
0.925155 0.497475 0.87335
0.0641184 0.635721 0.792157
0.14107 0.643091 0.813733
0.407691 0.648798 0.857359
0.840681 0.608713 0.870008
0.924285 0.611795 0.873442
0.204227 0.854307 0.889158
0.297642 0.849836 0.891569
0.565744 0.822736 0.882277
0.860365 0.792065 0.882124
0.927901 0.787045 0.88159
0.409644 0.964034 0.922606
0.529335 0.963836 0.913375
0.726528 0.94258 0.899153
0.884199 0.933333 0.900206
0.952529 0.927962 0.904036
0.489723 0.998184 0.931594
0.61471 0.998367 0.922103
0.76994 0.99675 0.91313
0.9037 0.994141 0.91548
0.976562 0.993072 0.920134
