LUTS/Secondary LUTS/JOKER.cube
TITLE "Generated by Resolve"
LUT_3D_SIZE 33
0 0 0
0 0 0
0.00399786 0 0
0.0415503 0 0
0.0818952 0 0
0.10811 0 0
0.129183 0 0
0.150805 0 0
0.172778 0 0
0.195621 0 0
0.21944 0 0
0.244282 0 0
0.271168 0 0
0.298558 0 0
0.327947 0 0
0.35761 0 0
0.391073 0 0
0.424521 0 0
0.46392 0 0
0.503731 0 0
0.546731 0 0
0.590539 0 0
0.63444 0 0
0.678416 0 0
0.71751 0 0
0.752346 0 0
0.783642 0 0
0.809628 0 0
0.833616 0 0
0.852125 0 0
0.869474 0 0
0.879347 0 0
0.88922 0 0
0 0 0
0 0 0
0.00271611 0 0
0.0403601 0 0
0.0807965 0 0
0.107057 0 0
0.128145 0 0
0.149752 0 0
0.17171 0 0
0.194537 0 0
0.218341 0 0
0.243168 0 0
0.270039 0 0
0.297398 0 0
0.326772 0 0
0.35642 0 0
0.389853 0 0
0.423285 0 0
0.462669 0 0
0.50248 0 0
0.545464 0 0
0.589242 0 0
0.633158 0 0
0.677119 0 0
0.716213 0 0
0.751049 0 0
0.782345 0 0
0.808331 0 0
0.832319 0 0
0.850843 0 0
0.868193 0 0
0.87808 0 0
0.887953 0 0
0 0 0
0 0 0
0.00143435 0 0
0.0391699 0 0
0.0797131 0 0
0.106004 0 0
0.127092 0 0
0.148699 0 0
0.170657 0 0
0.193454 0 0
0.217243 4.57771e-05 0
0.242054 0.000762951 0
0.268894 0.00112917 0
0.296239 0.00135805 0
0.325597 0.00106813 0
0.355215 0.000839246 0
0.388632 0.00144961 0
0.422049 0.00204471 0
0.461418 0.00302129 0
0.501213 0.00404364 0
0.544182 0.00500496 0
0.587961 0.00593576 0
0.631861 0.00679026 0
0.675807 0.00759899 0
0.7149 0.00825513 0
0.749737 0.00877394 0
0.781033 0.00918593 0
0.807034 0.00943008 0
0.831037 0.00959792 0
0.849546 0.00958267 0
0.866911 0.00955215 0
0.876799 0.0093843 0
0.886687 0.00920119 0
0 0.0422217 0
0 0.0422827 0
0 0.0423285 0
0.0346685 0.0414893 0
0.0761273 0.0404974 0
0.102754 0.0406348 0
0.12401 0.0411841 0
0.146151 0.0420081 0
0.168872 0.0429847 0
0.192966 0.0438392 0
0.218631 0.0445106 0
0.245365 0.0450752 0
0.274296 0.0453956 0
0.303731 0.045655 0
0.335164 0.0456245 0
0.366827 0.0456397 0
0.401541 0.0460975 0
0.436255 0.0465553 0
0.475471 0.0472419 0
0.515007 0.0479438 0
0.55697 0.0486 0
0.599527 0.0492409 0
0.64181 0.0497749 0
0.68394 0.0502632 0
0.721645 0.050721 0
0.755459 0.0511788 0
0.786007 0.0517433 0
0.811627 0.052491 0
0.835508 0.0531319 0
0.854582 0.0535134 0
0.87245 0.0538186 0
0.882612 0.0536049 0
0.89279 0.0534066 0
0 0.0903639 0
0 0.090425 0
0 0.0904707 0
0.0296635 0.0903334 0
0.0721447 0.0901503 0
0.0991836 0.0903639 0
0.120623 0.0907149 0
0.143374 0.09131 0
0.166995 0.0920577 0
0.192584 0.0926375 0
0.220386 0.0929885 0
0.249378 0.0933089 0
0.280705 0.0935225 0
0.312535 0.0937514 0
0.346395 0.0939803 0
0.380423 0.0942245 0
0.416632 0.0944686 0
0.452842 0.094728 0
0.49189 0.0950179 0
0.531136 0.0953078 0
0.571908 0.0955978 0
0.613077 0.0958572 0
0.653483 0.096025 0
0.693523 0.0961166 0
0.72961 0.0963607 0
0.762249 0.0967269 0
0.791928 0.0974594 0
0.817151 0.0988022 0
0.840894 0.0999924 0
0.860578 0.100847 0
0.879026 0.101564 0
0.889525 0.101335 0
0.900023 0.101106 0
0 0.121096 0
0 0.121141 0
0 0.121187 0
0.0267491 0.121019 0
0.0691386 0.120821 0
0.0960555 0.120958 0
0.117357 0.121202 0
0.140032 0.122164 0
0.163607 0.123613 0
0.188861 0.124834 0
0.216037 0.125826 0
0.244526 0.126696 0
0.275608 0.127321 0
0.307729 0.127886 0
0.343954 0.128313 0
0.380362 0.12871 0
0.419394 0.128985 0
0.458412 0.129259 0
0.500069 0.129427 0
0.541924 0.129595 0
0.584833 0.129671 0
0.628016 0.129717 0
0.669047 0.129625 0
0.70901 0.129458 0
0.74461 0.129534 0
0.776394 0.129839 0
0.805325 0.130632 0
0.829969 0.132189 0
0.8533 0.133608 0
0.873014 0.134676 0
0.891524 0.135561 0
0.902174 0.135317 0
0.912825 0.135058 0
0 0.14548 0
0 0.145541 0
0 0.145586 0
0.0245975 0.145129 0
0.0664683 0.144594 0
0.09308 0.144594 0
0.114153 0.144778 0
0.136492 0.146319 0
0.15967 0.148775 0
0.183932 0.151003 0
0.209461 0.152987 0
0.236439 0.154696 0
0.266331 0.155886 0
0.297963 0.156954 0
0.336522 0.157519 0
0.375326 0.158083 0
0.417655 0.158465 0
0.459998 0.158831 0
0.505272 0.158968 0
0.550774 0.159106 0
0.597025 0.159045 0
0.643473 0.158938 0
0.686046 0.158633 0
0.726665 0.158236 0
0.762173 0.158175 0
0.793194 0.158419 0
0.821424 0.159228 0
0.845441 0.160876 0
0.868269 0.162402 0
0.8878 0.163592 0
0.906172 0.164569 0
0.916915 0.164294 0
0.927672 0.164019 0
0 0.170504 0
0 0.17055 0
0 0.170596 0
0.0226902 0.169406 0
0.0638743 0.168032 0
0.0905776 0.16846 0
0.112001 0.169528 0
0.133898 0.171054 0
0.1561 0.172885 0
0.179553 0.175204 0
0.204425 0.178073 0
0.230808 0.180804 0
0.260243 0.183261 0
0.291279 0.185489 0
0.328817 0.186892 0
0.366705 0.188251 0
0.409857 0.189151 0
0.452995 0.190036 0
0.50135 0.190478 0
0.550088 0.190875 0
0.59968 0.190845 0
0.649485 0.190692 0.000244144
0.694224 0.190112 0.00111391
0.7364 0.189303 0.00161746
0.7729 0.188861 0.00213626
0.80441 0.188739 0.00267033
0.833021 0.189242 0.0033875
0.857282 0.190738 0.00437934
0.880186 0.192142 0.00531014
0.899321 0.193362 0.00605783
0.917311 0.194385 0.00668345
0.927901 0.19408 0.0065919
0.938491 0.193774 0.00650034
0 0.195926 0
0 0.195987 0
0 0.196033 0
0.0209354 0.19382 0
0.0613413 0.191257 0
0.0883803 0.192477 0
0.110567 0.195071 0
0.131945 0.196185 0
0.152789 0.196292 0
0.175525 0.198093 0
0.200412 0.201801 0
0.226825 0.205676 0
0.25626 0.209842 0
0.286656 0.213703 0
0.320912 0.216358 0
0.355688 0.218952 0
0.397986 0.220645 0
0.440269 0.222339 0
0.491356 0.22327 0
0.543053 0.224155 0
0.595987 0.224262 0.0012665
0.64921 0.224155 0.0047303
0.696529 0.223255 0.0068513
0.740871 0.221927 0.00827039
0.779065 0.22092 0.00936904
0.811887 0.220188 0.010193
0.841611 0.220203 0.0110781
0.866712 0.221363 0.0120699
0.890074 0.222538 0.0130007
0.90866 0.223728 0.0137179
0.926131 0.22472 0.0143282
0.93637 0.224399 0.0142367
0.946624 0.224079 0.0141451
0 0.221653 0
0 0.221698 0
0 0.221744 0
0.0193332 0.219394 0
0.0590372 0.216678 0
0.0861067 0.218021 0
0.108568 0.220844 0
0.130098 0.222324 0
0.150988 0.222919 0
0.173358 0.224552 0
0.197421 0.22739 0
0.223056 0.230884 0
0.251865 0.235676 0
0.281514 0.240421 0
0.314549 0.244953 0
0.348104 0.249378 0
0.388876 0.252247 0
0.429633 0.255116 0
0.480491 0.256992 0
0.532067 0.258778 0
0.58703 0.259403 0
0.642847 0.259739 0.0052491
0.692958 0.258701 0.00914015
0.740215 0.256977 0.0120699
0.780591 0.255467 0.0141909
0.814939 0.254154 0.0156405
0.845945 0.253681 0.0169833
0.8719 0.254475 0.0181735
0.895857 0.255344 0.0192569
0.914305 0.256443 0.0200198
0.931624 0.257359 0.0206912
0.941649 0.257008 0.0206149
0.95169 0.256657 0.0205386
0 0.247684 0
0 0.24773 0
0 0.247791 0
0.0179141 0.246311 0
0.057023 0.244587 0
0.0837415 0.245289 0
0.105943 0.246876 0
0.128359 0.249638 0
0.150927 0.253208 0
0.173342 0.255116 0
0.195575 0.2551 0
0.219547 0.256489 0
0.246983 0.260685 0
0.275761 0.265461 0
0.309987 0.272572 0
0.344472 0.279515 0
0.382925 0.283986 0
0.421378 0.288457 0
0.46865 0.291737 0
0.516548 0.294926 0
0.572076 0.296529 0
0.629526 0.297734 0.00123598
0.682689 0.296818 0.00749218
0.733715 0.29482 0.0125887
0.776806 0.292882 0.0162661
0.812955 0.290974 0.0187076
0.84538 0.289998 0.0208286
0.872236 0.290394 0.022446
0.896941 0.290929 0.0238804
0.915724 0.291875 0.0247959
0.933333 0.292638 0.0255894
0.943282 0.292241 0.0255283
0.953231 0.291829 0.0254673
0 0.274983 0
0 0.275029 0
0 0.275074 0
0.0162814 0.274327 0
0.054612 0.273442 0
0.0810864 0.273716 0
0.103227 0.274418 0
0.126314 0.278019 0
0.150027 0.283574 0
0.172839 0.286213 0
0.194629 0.285542 0
0.217807 0.28603 0
0.243778 0.288792 0
0.271351 0.292607 0
0.305364 0.300557 0
0.339605 0.308415 0
0.377066 0.314977 0
0.414511 0.321553 0
0.459144 0.326436 0
0.50428 0.331197 0
0.558938 0.334081 0
0.615946 0.336492 0
0.670573 0.336141 0.00283818
0.72401 0.334417 0.00994888
0.769299 0.332341 0.0153201
0.807477 0.329961 0.0191958
0.841566 0.328496 0.0224002
0.869535 0.328389 0.0246128
0.895293 0.328466 0.0265812
0.914992 0.329046 0.0278172
0.93341 0.329473 0.0288853
0.943511 0.328969 0.0289158
0.953613 0.32845 0.0289311
0 0.304768 0
0 0.304814 0
0 0.304875 0
0.0142214 0.30454 0
0.0514382 0.304158 0
0.0778668 0.304448 0
0.100374 0.304982 0
0.123659 0.308522 0
0.147463 0.314076 0
0.171389 0.318441 0
0.195453 0.321477 0
0.219608 0.3234 0
0.243931 0.32314 0
0.269612 0.323995 0
0.300664 0.329274 0
0.332265 0.334844 0
0.371344 0.344503 0
0.410422 0.354177 0
0.454322 0.361059 0
0.498558 0.367742 0
0.549386 0.372503 0
0.601846 0.376776 0
0.654749 0.377935 0
0.707881 0.377539 0.000991836
0.75436 0.375921 0.0083772
0.794995 0.373251 0.0144808
0.831205 0.371328 0.0194095
0.860746 0.370535 0.0225681
0.888212 0.369909 0.025391
0.909957 0.369711 0.0273136
0.930236 0.369451 0.0289921
0.940948 0.368688 0.029221
0.951644 0.36791 0.0294652
0 0.335882 0
0 0.335943 0
0 0.336004 0
0.0120394 0.33611 0
0.0480812 0.336217 0
0.0745098 0.336614 0
0.0974289 0.337118 0
0.120958 0.34049 0
0.144869 0.345785 0
0.169757 0.351476 0
0.195743 0.357641 0
0.220935 0.36112 0
0.24448 0.359182 0
0.269017 0.35816 0
0.297475 0.360754 0
0.32668 0.363928 0
0.366186 0.375128 0
0.405707 0.386328 0
0.449226 0.3953 0
0.49305 0.40412 0
0.540887 0.410788 0
0.589731 0.416907 0
0.640864 0.419638 0
0.693156 0.420661 0
0.740047 0.419745 0.000442512
0.782254 0.417105 0.00817884
0.819852 0.415 0.0144503
0.850584 0.413672 0.0185245
0.879377 0.412467 0.0222324
0.902907 0.411566 0.0248875
0.924804 0.410666 0.0272679
0.936065 0.409659 0.0277256
0.947326 0.408652 0.0281987
0 0.372366 0
0 0.372412 0
0 0.372473 0
0.00933852 0.373022 0
0.044007 0.373663 0
0.070573 0.374533 0
0.0941787 0.375479 0
0.118074 0.378302 0
0.142138 0.382376 0
0.167361 0.387808 0
0.193912 0.394827 0
0.220356 0.400122 0
0.246632 0.401999 0
0.273091 0.403464 0
0.300359 0.403326 0
0.328145 0.403632 0
0.363287 0.410132 0
0.398428 0.416632 0
0.443061 0.428046 0
0.488365 0.439796 0
0.536599 0.448539 0
0.585565 0.456519 0
0.63473 0.461051 0
0.684001 0.463844 0
0.728344 0.464515 0
0.768383 0.463294 0
0.804562 0.462074 0.00149538
0.834928 0.460822 0.00643931
0.863645 0.459541 0.0110628
0.8878 0.458167 0.0148623
0.910292 0.456825 0.0182498
0.92195 0.455634 0.0189975
0.933608 0.454459 0.0197604
0 0.409216 0
0 0.409277 0
0 0.409339 0
0.0065919 0.410376 0
0.0398871 0.411566 0
0.0665904 0.41294 0
0.090898 0.414359 0
0.115175 0.416678 0
0.139437 0.419593 0
0.165011 0.424735 0
0.192081 0.432441 0
0.219745 0.439399 0
0.248615 0.444892 0
0.276982 0.448783 0
0.303319 0.446342 0
0.329961 0.44419 0
0.361028 0.44622 0
0.392096 0.448264 0
0.437491 0.461601 0
0.483909 0.475746 0
0.532433 0.486381 0
0.581491 0.496147 0
0.628824 0.502403 0
0.675288 0.506905 0
0.717205 0.509087 0
0.755154 0.509239 0
0.789899 0.508858 0
0.819852 0.507729 0
0.848402 0.506416 0
0.87306 0.504631 0.00468452
0.896056 0.502907 0.00895705
0.908049 0.501564 0.0099794
0.920058 0.500221 0.0109865
0 0.451499 0
0 0.451545 0
0 0.451606 0
0.00334173 0.453681 0
0.035111 0.456062 0
0.0620127 0.458244 0
0.0871595 0.460349 0
0.112215 0.462867 0
0.13724 0.465675 0
0.163272 0.470024 0
0.190478 0.476112 0
0.21857 0.482399 0
0.248447 0.489036 0
0.278187 0.494545 0
0.307347 0.495491 0
0.336645 0.496452 0
0.367895 0.497444 0
0.39913 0.498436 0
0.440421 0.506706 0
0.482414 0.515496 0
0.529931 0.525567 0
0.57882 0.535973 0
0.626154 0.542931 0
0.672709 0.54818 0
0.714015 0.550958 0
0.750759 0.551598 0
0.784207 0.551766 0
0.812757 0.551247 0
0.839933 0.55053 0
0.863401 0.549294 0
0.885298 0.548058 0
0.897032 0.546792 0
0.908782 0.545525 0
0 0.493767 0
0 0.493828 0
0 0.493889 0
9.15541e-05 0.496986 0
0.0303197 0.500557 0
0.057435 0.503548 0
0.0834058 0.50634 0
0.109255 0.509071 0
0.135027 0.511772 0
0.161532 0.515312 0
0.188876 0.519799 0
0.217395 0.525399 0
0.24828 0.533181 0
0.279377 0.540291 0
0.31136 0.544656 0
0.343313 0.548714 0
0.374746 0.548669 0
0.40618 0.548623 0
0.443351 0.551827 0
0.480919 0.555245 0
0.527428 0.564767 0
0.57615 0.575784 0
0.623484 0.583459 0
0.67013 0.589441 0
0.710842 0.592828 0
0.746365 0.593957 0
0.778531 0.594659 0
0.805646 0.594766 0
0.831479 0.594644 0
0.853727 0.593973 0
0.87454 0.59321 0
0.88603 0.59202 0
0.89752 0.590814 0
0 0.53994 0
0 0.540002 0
0 0.540063 0
0 0.543526 0
0.026276 0.547539 0
0.0536965 0.551522 0
0.0804456 0.555505 0
0.107195 0.559472 0
0.133974 0.563424 0
0.16141 0.567605 0
0.189609 0.572045 0
0.218769 0.577096 0
0.249851 0.583398 0
0.281285 0.589319 0
0.314061 0.593713 0
0.346822 0.597864 0
0.379492 0.598566 0
0.412177 0.599252 0
0.448814 0.601114 0
0.485756 0.603052 0
0.530068 0.609796 0
0.576226 0.617731 0
0.622339 0.624186 0
0.668437 0.629892 0
0.708934 0.633097 0
0.744518 0.634134 0
0.776623 0.63476 0
0.803479 0.634745 0
0.829023 0.634562 0
0.850919 0.63389 0
0.871397 0.633143 0
0.88275 0.631968 0
0.894087 0.630793 0
0 0.586389 0
0 0.58645 0
0 0.586511 0
0 0.590311 0
0.0222782 0.59469 0
0.0500191 0.59968 0
0.0775311 0.604898 0
0.105211 0.610178 0
0.132982 0.615488 0
0.161395 0.620401 0
0.190509 0.624887 0
0.22034 0.629419 0
0.25156 0.634043 0
0.283223 0.638575 0
0.316655 0.642771 0
0.350103 0.646799 0
0.3841 0.648356 0
0.418097 0.649927 0
0.454475 0.650706 0
0.49102 0.651438 0
0.533074 0.655253 0
0.576501 0.659831 0
0.621302 0.664927 0
0.666804 0.670283 0
0.707103 0.673259 0
0.74287 0.674159 0
0.775006 0.674647 0
0.801663 0.674479 0
0.826993 0.674174 0
0.8486 0.673472 0
0.868818 0.672709 0
0.880018 0.67155 0
0.891218 0.67039 0
0 0.632975 0
0 0.633036 0
0 0.633097 0
0 0.63682 0
0.0197147 0.641108 0
0.0478218 0.646143 0
0.0758831 0.651438 0
0.104112 0.656809 0
0.132448 0.662257 0
0.161486 0.667414 0
0.191287 0.672236 0
0.221668 0.676783 0
0.253208 0.680797 0
0.28513 0.684718 0
0.318685 0.688197 0
0.352316 0.691569 0
0.387015 0.693462 0
0.421714 0.695338 0
0.458473 0.696056 0
0.495369 0.696666 0
0.536324 0.699001 0
0.578302 0.701762 0
0.621942 0.705547 0
0.666407 0.709834 0
0.706188 0.712245 0
0.741878 0.713008 0
0.773968 0.713268 0
0.800656 0.712779 0
0.826001 0.712169 0
0.847578 0.711208 0
0.867765 0.710231 0
0.878935 0.709026 0
0.890105 0.70782 0
0 0.679591 0
0 0.679652 0
0 0.679713 0
0 0.683253 0
0.0175174 0.687343 0
0.0460059 0.692164 0
0.0745556 0.697246 0
0.103243 0.702449 0
0.132036 0.707713 0
0.161593 0.712963 0
0.192035 0.718181 0
0.22295 0.722896 0
0.254826 0.726589 0
0.287037 0.730068 0
0.320592 0.732708 0
0.354238 0.735317 0
0.389502 0.737377 0
0.424765 0.739452 0
0.462058 0.740322 0
0.499489 0.741131 0
0.539651 0.742336 0
0.580484 0.743648 0
0.62298 0.746136 0
0.666331 0.749203 0
0.705501 0.750957 0
0.741039 0.751568 0
0.773068 0.751583 0
0.799847 0.750729 0
0.825254 0.749752 0
0.846876 0.748501 0
0.867094 0.74725 0
0.878264 0.745968 0
0.889448 0.744701 0
0 0.723644 0
0 0.723705 0
0 0.723766 0
0 0.727047 0
0.0167086 0.730831 0
0.045594 0.735286 0
0.0743725 0.739986 0
0.103258 0.744778 0
0.132219 0.74963 0
0.161959 0.754528 0
0.192584 0.759487 0
0.223713 0.763989 0
0.255818 0.767605 0
0.288212 0.770916 0
0.32166 0.773037 0
0.35523 0.775143 0
0.390585 0.77702 0
0.425925 0.778897 0
0.463478 0.779904 0
0.501183 0.78085 0
0.54107 0.781659 0
0.581506 0.782422 0
0.623194 0.7841 0
0.665507 0.786221 0
0.704356 0.787778 0
0.740185 0.78883 0
0.772427 0.78909 0
0.799298 0.788128 0
0.824765 0.787015 0
0.846387 0.785489 0
0.866606 0.783978 0
0.877791 0.782635 0
0.88896 0.781308 0
0 0.76643 0
0 0.766491 0
0 0.766552 0
0 0.769512 0
0.0166018 0.772931 0
0.0458686 0.776959 0
0.0747692 0.781186 0
0.103731 0.785473 0
0.132723 0.789776 0
0.162463 0.79411 0
0.193042 0.798459 0
0.224201 0.802579 0
0.256504 0.806226 0
0.289006 0.809491 0
0.322301 0.811261 0
0.355734 0.813001 0
0.390951 0.814511 0
0.426169 0.816022 0
0.463813 0.817121 0
0.501656 0.818189 0
0.541527 0.818952 0
0.581933 0.819638 0
0.622965 0.820752 0
0.664332 0.822065 0
0.702998 0.823651 0
0.739315 0.825452 0
0.771893 0.826169 0
0.798856 0.825269 0
0.824384 0.824125 0
0.845991 0.822324 0
0.866194 0.820569 0
0.877394 0.819165 0
0.888594 0.817777 0
0 0.805905 0
0 0.805966 0
0 0.806027 0
0 0.808637 0
0.0177615 0.811627 0
0.0474708 0.815183 0
0.0763104 0.818936 0
0.105211 0.822736 0
0.134157 0.826581 0
0.163806 0.830396 0
0.194263 0.834226 0
0.22533 0.837934 0
0.257618 0.841398 0
0.290105 0.844495 0
0.323339 0.846128 0
0.35668 0.847745 0
0.391684 0.848966 0
0.426673 0.850187 0
0.464302 0.851301 0
0.502129 0.852399 0
0.541939 0.853162 0
0.582254 0.853834 0
0.622827 0.854643 0
0.663523 0.855497 0
0.701854 0.856931 0
0.738094 0.858885 0
0.770809 0.859937 0
0.79826 0.859693 0
0.824155 0.859022 0
0.845838 0.857206 0
0.866102 0.855451 0
0.877272 0.854047 0
0.888426 0.852628 0
0 0.842496 0
0 0.842557 0
0 0.842618 0
0 0.844816 0
0.0200351 0.847333 0
0.0502174 0.850401 0
0.0788586 0.853651 0
0.107607 0.857008 0
0.1364 0.860426 0
0.165881 0.863813 0
0.196155 0.867185 0
0.227039 0.870451 0
0.259144 0.873549 0
0.291463 0.876356 0
0.324712 0.878096 0
0.358038 0.879774 0
0.392737 0.880766 0
0.42742 0.881758 0
0.464912 0.882795 0
0.502602 0.883833 0
0.542275 0.884642 0
0.582452 0.88539 0
0.622736 0.886107 0
0.663081 0.886809 0
0.700908 0.887968 0
0.736553 0.889525 0
0.769238 0.890822 0
0.797513 0.891752 0
0.824079 0.892012 0
0.845899 0.89041 0
0.866285 0.888823 0
0.877379 0.887465 0
0.888457 0.886091 0
0 0.87747 0
0 0.877531 0
0 0.877592 0
0 0.879423 0
0.0240787 0.881544 0
0.0547646 0.884138 0
0.0830701 0.886915 0
0.111513 0.889784 0
0.140032 0.892729 0
0.169223 0.895644 0
0.199207 0.898543 0
0.229831 0.901396 0
0.261692 0.904143 0
0.293843 0.906706 0
0.327108 0.908553 0
0.360449 0.910323 0
0.394812 0.911131 0
0.429191 0.911955 0
0.466377 0.91284 0
0.503777 0.913725 0
0.543175 0.914473 0
0.583093 0.915206 0
0.622995 0.91577 0
0.662882 0.916259 0
0.700206 0.917113 0
0.735271 0.918288 0
0.767788 0.919631 0
0.79646 0.921202 0
0.823392 0.922042 0
0.845487 0.920913 0
0.866133 0.919768 0
0.877272 0.918547 0
0.888395 0.917327 0
0 0.910002 0
0 0.910063 0
0 0.910124 0
0 0.911696 0
0.0307927 0.913512 0
0.0620279 0.915663 0
0.0897841 0.917967 0
0.117693 0.920302 0
0.145724 0.922683 0
