LUTS/Secondary LUTS/JOKER.cube
TITLE "Generated by Resolve"
LUT_3D_SIZE 5
0 0 0
0.172778 0 0
0.391073 0 0
0.71751 0 0
0.88922 0 0
0 0.195926 0
0.152789 0.196292 0
0.397986 0.220645 0
0.779065 0.22092 0.00936904
0.946624 0.224079 0.0141451
0 0.451499 0
0.13724 0.465675 0
0.367895 0.497444 0
0.714015 0.550958 0
0.908782 0.545525 0
0 0.805905 0
0.134157 0.826581 0
0.391684 0.848966 0
0.701854 0.856931 0
0.888426 0.852628 0
0 1 0.00132753
0.177523 1 0.0245365
0.415045 1 0.0330205
0.696895 1 0.0291142
0.881422 1 0.127764
0 0 0.190906
0.175845 0 0.203418
0.379309 0 0.211856
0.706905 0 0.223926
0.888609 0 0.226871
0 0.185122 0.181415
0.145388 0.193057 0.18703
0.3691 0.19115 0.181628
0.695827 0.196704 0.192233
0.89659 0.200076 0.198184
0 0.476585 0.190372
0.12076 0.470665 0.181399
0.35552 0.479088 0.178897
0.728008 0.539254 0.193393
0.933516 0.523217 0.21442
0 0.816907 0.205554
0.10573 0.822416 0.192126
0.379049 0.846525 0.198917
0.70248 0.858885 0.20325
0.890532 0.851331 0.219791
0 1 0.270359
0.121569 1 0.221637
0.395956 1 0.244022
0.68957 1 0.244251
0.879088 1 0.306645
0 0 0.4542
0.191623 0 0.484947
0.392386 0 0.460975
0.704601 0 0.492119
0.892348 0 0.49929
0 0.210468 0.377905
0.119814 0.19971 0.398154
0.375479 0.19321 0.465492
0.685847 0.184009 0.478553
0.900893 0.172732 0.490013
0 0.451057 0.430503
0.115053 0.461524 0.437629
0.338674 0.495476 0.458045
0.741466 0.493065 0.431159
0.907881 0.533043 0.52163
0 0.825513 0.49868
0.106096 0.839063 0.506874
0.347601 0.842817 0.487511
0.709102 0.850629 0.468696
0.889479 0.850233 0.523735
0 1 0.553307
0.130816 1 0.544411
0.374365 1 0.528771
0.683223 1 0.540154
0.874052 1 0.5823
0 0 0.772915
0.197482 0 0.82295
0.419242 0 0.788144
0.733532 0 0.811337
0.891051 0 0.784253
0 0.249393 0.640925
0.123919 0.230106 0.720409
0.368277 0.182406 0.754421
0.719402 0.186328 0.810681
0.904753 0.137865 0.791058
0 0.510719 0.7682
0.0883497 0.50782 0.751324
0.251881 0.488853 0.698238
0.704036 0.510994 0.812268
0.900313 0.525551 0.814466
0 0.797696 0.763256
0.0978408 0.804929 0.772137
0.335119 0.844144 0.818235
0.696574 0.855253 0.815
0.893355 0.863584 0.852064
0 1 0.831235
0.116045 1 0.830335
0.375204 1 0.834623
0.706767 1 0.854109
0.873793 1 0.871809
0 0.00688182 0.994354
0.186252 0 1
0.419989 0 1
0.66891 0 0.982712
0.893584 0 1
0 0.269062 0.925048
0.1243 0.240085 0.964065
0.376547 0.19556 1
0.648798 0.174716 0.982101
0.903136 0.184619 1
0 0.523659 0.920394
0.0556191 0.522438 0.92108
0.251499 0.523049 0.958526
0.648783 0.483955 1
0.899077 0.529061 1
0 0.812726 1
0.0983139 0.815961 1
0.276936 0.808454 1
0.591211 0.846571 1
0.883864 0.864912 1
0 1 1
0.0922103 1 1
0.308476 1 1
0.698497 1 1
0.874403 1 1
