LUTS/Secondary LUTS/JOKER.cube
TITLE "Generated by Resolve"
LUT_3D_SIZE 9
0 0 0
0.0818952 0 0
0.172778 0 0
0.271168 0 0
0.391073 0 0
0.546731 0 0
0.71751 0 0
0.833616 0 0
0.88922 0 0
0 0.0903639 0
0.0721447 0.0901503 0
0.166995 0.0920577 0
0.280705 0.0935225 0
0.416632 0.0944686 0
0.571908 0.0955978 0
0.72961 0.0963607 0
0.840894 0.0999924 0
0.900023 0.101106 0
0 0.195926 0
0.0613413 0.191257 0
0.152789 0.196292 0
0.25626 0.209842 0
0.397986 0.220645 0
0.595987 0.224262 0.0012665
0.779065 0.22092 0.00936904
0.890074 0.222538 0.0130007
0.946624 0.224079 0.0141451
0 0.304768 0
0.0514382 0.304158 0
0.147463 0.314076 0
0.243931 0.32314 0
0.371344 0.344503 0
0.549386 0.372503 0
0.75436 0.375921 0.0083772
0.888212 0.369909 0.025391
0.951644 0.36791 0.0294652
0 0.451499 0
0.035111 0.456062 0
0.13724 0.465675 0
0.248447 0.489036 0
0.367895 0.497444 0
0.529931 0.525567 0
0.714015 0.550958 0
0.839933 0.55053 0
0.908782 0.545525 0
0 0.632975 0
0.0197147 0.641108 0
0.132448 0.662257 0
0.253208 0.680797 0
0.387015 0.693462 0
0.536324 0.699001 0
0.706188 0.712245 0
0.826001 0.712169 0
0.890105 0.70782 0
0 0.805905 0
0.0177615 0.811627 0
0.134157 0.826581 0
0.257618 0.841398 0
0.391684 0.848966 0
0.541939 0.853162 0
0.701854 0.856931 0
0.824155 0.859022 0
0.888426 0.852628 0
0 0.941436 0
0.0383307 0.944366 0
0.152316 0.951644 0
0.270787 0.959533 0
0.40238 0.965866 0.00621042
0.546731 0.967575 0.0071107
0.699489 0.968277 0
0.820172 0.971588 0
0.887495 0.970901 0.0160525
0 1 0.00132753
0.0644541 1 0.0125124
0.177523 1 0.0245365
0.291539 1 0.0313573
0.415045 1 0.0330205
0.551339 1 0.0315099
0.696895 1 0.0291142
0.814267 1 0.0162051
0.881422 1 0.127764
0 0 0.0858167
0.0820935 0 0.0916152
0.173663 0 0.0945144
0.269566 0 0.0985428
0.385641 0 0.100969
0.54139 0 0.10251
0.713893 0 0.100969
0.832776 0 0.101717
0.88893 0 0.100374
0 0.0885634 0.0870069
0.0705272 0.0906996 0.088716
0.163546 0.0896315 0.0867781
0.256916 0.0897688 0.0914015
0.376104 0.088777 0.0912795
0.531136 0.086244 0.0881971
0.704112 0.0837568 0.085069
0.82707 0.0842145 0.0852369
0.890455 0.0688182 0.068101
0 0.197559 0.0855726
0.0615396 0.194247 0.0853437
0.147402 0.187259 0.0806134
0.255772 0.205585 0.0846113
0.402625 0.213962 0.0887312
0.586786 0.217777 0.0927443
0.756451 0.218418 0.0973526
0.865385 0.222919 0.104982
0.930358 0.220706 0.0994125
0 0.310002 0.081117
0.0484627 0.307118 0.0792859
0.142504 0.305913 0.0791638
0.2392 0.315755 0.0806287
0.370443 0.342397 0.0818494
0.556497 0.368444 0.0863508
0.766461 0.368704 0.0944991
0.89369 0.363531 0.106081
0.951385 0.362142 0.108095
0 0.457313 0.0733196
0.0305333 0.456214 0.070985
0.134646 0.464515 0.0725414
0.243961 0.481193 0.0769665
0.36611 0.495109 0.0783856
0.529763 0.524956 0.079118
0.716701 0.549401 0.0870375
0.848112 0.54519 0.101183
0.919676 0.538674 0.106126
0 0.637201 0.069398
0.0146029 0.638605 0.0670634
0.128603 0.657862 0.0700694
0.250935 0.679072 0.0780041
0.385443 0.692683 0.0817578
0.536492 0.699763 0.0820172
0.706752 0.712596 0.0832532
0.826612 0.711818 0.0927291
0.891386 0.707256 0.101701
0 0.808026 0.0796521
0.0105592 0.809857 0.0756847
0.129046 0.823941 0.0782025
0.253697 0.839307 0.08748
0.389563 0.848814 0.0927443
0.540841 0.853498 0.0934768
0.701961 0.857664 0.093019
0.824613 0.859129 0.0989395
0.889357 0.852461 0.106615
0 0.942626 0.111574
0.025452 0.944076 0.102037
0.144762 0.951293 0.105837
0.26511 0.95874 0.1149
0.398413 0.965621 0.12137
0.544152 0.967636 0.122225
0.697963 0.968383 0.117922
0.819364 0.97142 0.11754
0.887312 0.97055 0.129152
0 1 0.140764
0.0315709 1 0.110292
0.16173 1 0.118013
0.281086 1 0.12575
0.408865 1 0.138552
0.547738 1 0.142504
0.694301 1 0.138811
0.812589 1 0.132753
0.880644 1 0.217929
0 0 0.190906
0.0821851 0 0.200031
0.175845 0 0.203418
0.271687 0 0.209857
0.379309 0 0.211856
0.528054 0 0.218067
0.706905 0 0.223926
0.831739 0 0.227237
0.888609 0 0.226871
0 0.0922408 0.178943
0.0606088 0.0922866 0.182483
0.1617 0.0909743 0.197498
0.256291 0.0888685 0.201404
0.362158 0.085359 0.202548
0.509834 0.0822309 0.207965
0.692256 0.0797742 0.214282
0.82324 0.079408 0.216983
0.889982 0.0581826 0.204746
0 0.185122 0.181415
0.0563821 0.185214 0.179492
0.145388 0.193057 0.18703
0.252613 0.191959 0.180896
0.3691 0.19115 0.181628
0.515389 0.193423 0.188312
0.695827 0.196704 0.192233
0.826398 0.202213 0.198367
0.89659 0.200076 0.198184
0 0.315602 0.190539
0.0478218 0.318898 0.193225
0.135637 0.30753 0.182986
0.230686 0.298268 0.174472
0.373678 0.327611 0.174655
0.565866 0.348745 0.181262
0.75874 0.349859 0.193469
0.875105 0.352148 0.211933
0.937194 0.355947 0.219852
0 0.476585 0.190372
0.0295415 0.476661 0.192691
0.12076 0.470665 0.181399
0.22945 0.468071 0.177539
0.35552 0.479088 0.178897
0.531365 0.519966 0.183612
0.728008 0.539254 0.193393
0.864225 0.529686 0.207294
0.933516 0.523217 0.21442
0 0.653147 0.191791
0.0147707 0.65449 0.195087
0.107713 0.655909 0.181796
0.232853 0.668711 0.180133
0.37644 0.688548 0.187427
0.535103 0.699229 0.189487
0.708461 0.711421 0.191211
0.828244 0.70869 0.20473
0.894209 0.703258 0.218402
0 0.816907 0.205554
0.0110781 0.81883 0.207935
0.10573 0.822416 0.192126
0.234226 0.832532 0.190814
0.379049 0.846525 0.198917
0.536553 0.853635 0.201785
0.70248 0.858885 0.20325
0.825757 0.858625 0.209674
0.890532 0.851331 0.219791
0 0.947112 0.240497
0.0257572 0.94873 0.238376
0.122515 0.952285 0.220233
0.247822 0.957671 0.220081
0.386435 0.963882 0.227283
0.538308 0.96817 0.229953
0.695247 0.968627 0.226612
0.818586 0.971252 0.227756
0.88719 0.970016 0.233814
0 1 0.270359
0.026215 1 0.256214
0.121569 1 0.221637
0.257603 1 0.229938
0.395956 1 0.244022
0.540673 1 0.249958
0.68957 1 0.244251
0.810101 1 0.240696
0.879088 1 0.306645
0 0 0.308904
0.085359 0 0.32575
0.178363 0 0.31722
0.271733 0 0.31635
0.395575 0 0.337163
0.529397 0 0.338704
0.699641 0 0.347036
0.830884 0 0.353689
0.888655 0 0.354299
0 0.102495 0.27248
0.0618601 0.0986496 0.288777
0.156497 0.0855879 0.298756
0.257511 0.0870985 0.309071
0.376867 0.0847334 0.326284
0.510689 0.0801404 0.328588
0.684062 0.0778821 0.338842
0.821729 0.0776684 0.345968
0.890883 0.053315 0.336889
0 0.19942 0.290394
0.0460975 0.192401 0.278508
0.121508 0.183062 0.265751
0.242588 0.197787 0.309026
0.36437 0.190387 0.310079
0.504143 0.185885 0.314199
0.680629 0.18587 0.324178
0.822324 0.191791 0.334234
0.89575 0.181857 0.333791
0 0.300389 0.290623
0.0457771 0.298314 0.287037
0.127947 0.303792 0.289296
0.228016 0.316579 0.299748
0.367529 0.313481 0.287846
0.539879 0.316365 0.28484
0.711666 0.327245 0.305898
0.837644 0.343862 0.332113
0.904814 0.354788 0.348196
0 0.468727 0.307988
0.0292821 0.477394 0.314946
0.120241 0.488807 0.319615
0.219608 0.473747 0.300999
0.353658 0.470054 0.287846
0.543801 0.501747 0.282612
0.745647 0.51725 0.290288
0.873747 0.511696 0.318395
0.93753 0.513497 0.349203
0 0.663645 0.328511
0.0149081 0.66891 0.333654
0.107271 0.675608 0.332692
0.211917 0.672236 0.312901
0.35375 0.673304 0.304143
0.532799 0.690867 0.30425
0.715709 0.704707 0.300908
0.833188 0.700984 0.322744
0.90277 0.694453 0.34966
0 0.827146 0.346288
0.0121614 0.829969 0.349233
0.105364 0.833402 0.344152
0.212299 0.83415 0.325048
0.354803 0.837598 0.319188
0.526223 0.849683 0.326284
0.702693 0.857786 0.326635
0.827146 0.856931 0.333791
0.890761 0.849744 0.351995
0 0.950988 0.377981
0.0272984 0.953368 0.377539
0.12253 0.957855 0.369619
0.233555 0.960632 0.355978
0.37142 0.962341 0.354528
0.528206 0.966186 0.358267
0.691524 0.967971 0.356207
0.81706 0.970275 0.357794
0.885893 0.968856 0.362341
0 1 0.404654
0.026688 1 0.39501
0.122118 1 0.379629
0.234684 1 0.361456
0.378225 1 0.366644
0.531731 1 0.377447
0.684184 1 0.37322
0.806531 1 0.370108
0.876631 1 0.426993
0 0 0.4542
0.0869001 0 0.485252
0.191623 0 0.484947
0.270756 0 0.443046
0.392386 0 0.460975
0.549249 0 0.492287
0.704601 0 0.492119
0.833692 0 0.497932
0.892348 0 0.49929
0 0.114015 0.402167
0.0620584 0.104952 0.423697
0.168002 0.0883192 0.473533
0.252094 0.0828412 0.426184
0.379751 0.0823682 0.455863
0.531853 0.0780804 0.481209
0.689937 0.0745251 0.482994
0.825376 0.074052 0.49012
0.894499 0.0509651 0.486397
0 0.210468 0.377905
0.0348669 0.209476 0.378912
0.119814 0.19971 0.398154
0.228183 0.185779 0.424918
0.375479 0.19321 0.465492
0.523003 0.187457 0.475074
0.685847 0.184009 0.478553
0.826902 0.189532 0.490562
0.900893 0.172732 0.490013
0 0.330007 0.443671
0.0377508 0.32282 0.432212
0.110155 0.301976 0.398611
0.193454 0.310765 0.406577
0.348669 0.332601 0.465919
0.52462 0.315557 0.454429
0.699474 0.318288 0.463554
0.83061 0.33814 0.486519
0.899886 0.350759 0.501427
0 0.451057 0.430503
0.0294041 0.450355 0.429389
0.115053 0.461524 0.437629
0.209216 0.479088 0.452628
0.338674 0.495476 0.458045
0.533852 0.49015 0.438331
0.741466 0.493065 0.431159
0.852552 0.510842 0.475929
0.907881 0.533043 0.52163
0 0.638956 0.459083
0.0143587 0.650248 0.469261
0.106142 0.672221 0.486122
0.211963 0.685893 0.489677
0.346136 0.683162 0.472419
0.528069 0.677028 0.447456
0.726955 0.689387 0.432761
0.848188 0.687968 0.45568
0.916045 0.68925 0.516686
0 0.825513 0.49868
0.0115663 0.830076 0.502937
0.106096 0.839063 0.506874
0.213733 0.84448 0.501762
0.347601 0.842817 0.487511
0.515755 0.840406 0.480156
0.709102 0.850629 0.468696
0.830198 0.852979 0.483375
0.889479 0.850233 0.523735
0 0.951049 0.528771
0.026627 0.95404 0.52932
0.123095 0.960037 0.528511
0.234287 0.964553 0.523278
0.369985 0.96585 0.5187
0.524788 0.964767 0.517617
0.69015 0.965591 0.514229
0.816007 0.967895 0.527855
0.88336 0.967071 0.529717
0 1 0.553307
0.0333104 1 0.549004
0.130816 1 0.544411
0.238819 1 0.533593
0.374365 1 0.528771
0.531014 1 0.539254
0.683223 1 0.540154
0.803449 1 0.537789
0.874052 1 0.5823
0 0 0.619242
0.085832 0 0.664622
0.198337 0 0.667765
0.302846 0 0.652934
0.384833 0 0.59115
0.557946 0 0.645167
0.719753 0 0.65478
0.8365 0 0.649531
0.894713 0 0.650629
0 0.124971 0.559258
0.0604105 0.111635 0.590692
0.172808 0.088014 0.661051
0.281392 0.0855116 0.634409
0.367514 0.0786603 0.577676
0.544381 0.0761578 0.638041
0.705531 0.071809 0.645579
0.829175 0.0709392 0.642542
0.896956 0.0489967 0.642588
0 0.228901 0.486976
0.0389715 0.228779 0.499184
0.123552 0.219303 0.569192
0.233555 0.187793 0.606256
0.357107 0.18117 0.583734
0.542306 0.188449 0.646922
0.701595 0.183536 0.646769
0.830701 0.185229 0.64715
0.905669 0.162951 0.650034
0 0.342489 0.56817
0.0254368 0.33959 0.560281
0.09308 0.337972 0.547646
0.177218 0.319692 0.532769
0.323613 0.324285 0.619898
0.534173 0.329427 0.657313
0.701808 0.320241 0.646677
0.832074 0.328481 0.648859
0.905745 0.338964 0.660807
0 0.495338 0.618219
0.0234836 0.490959 0.612512
0.10576 0.470375 0.587839
0.179141 0.458854 0.563592
0.290669 0.50013 0.602747
0.496483 0.514336 0.64799
0.707134 0.491325 0.618097
0.832044 0.511635 0.649012
0.894987 0.540551 0.676539
0 0.621836 0.59086
0.0143587 0.620874 0.590158
0.100893 0.632181 0.601846
0.201724 0.666392 0.637583
0.330709 0.690257 0.659205
0.501198 0.698436 0.65095
0.714458 0.678523 0.614557
0.846036 0.69427 0.64947
0.902876 0.714946 0.703304
0 0.8056 0.6318
0.00973526 0.812619 0.639033
0.102968 0.828824 0.655039
0.211246 0.842252 0.665904
0.347601 0.849042 0.667903
0.526955 0.846708 0.661006
0.709514 0.843275 0.638956
0.83006 0.853651 0.662989
0.890196 0.855344 0.70605
0 0.948669 0.675456
0.0250095 0.951644 0.67686
0.120912 0.958068 0.680842
0.232731 0.963836 0.683299
0.369558 0.966903 0.682963
0.534783 0.966232 0.68716
0.694957 0.96379 0.679088
0.817075 0.965255 0.703838
0.880629 0.965148 0.709728
0 1 0.699001
0.0266117 1 0.694835
0.128862 1 0.698054
0.243183 1 0.697841
0.380316 1 0.695689
0.541451 1 0.703716
0.694575 1 0.716777
0.805188 1 0.716014
0.873213 1 0.742443
0 0 0.772915
0.0815137 0 0.819043
0.197482 0 0.82295
0.310353 0 0.817487
0.419242 0 0.788144
0.535286 0 0.752483
0.733532 0 0.811337
0.837781 0 0.791943
0.891051 0 0.784253
0 0.133349 0.720226
0.058381 0.117052 0.751949
0.170993 0.0878004 0.818738
0.291447 0.086244 0.807599
0.399115 0.0805524 0.7729
0.521141 0.0732738 0.744778
0.721889 0.0708019 0.804746
0.830579 0.0684825 0.78526
0.892531 0.0481422 0.779629
0 0.249393 0.640925
0.0419318 0.24828 0.654231
0.123919 0.230106 0.720409
0.242557 0.195727 0.80415
0.368277 0.182406 0.754421
0.520134 0.180072 0.759564
0.719402 0.186328 0.810681
0.831632 0.180163 0.790784
0.904753 0.137865 0.791058
0 0.357687 0.651545
0.0204776 0.35552 0.650156
0.0835126 0.35845 0.669413
0.180438 0.349004 0.704082
0.309453 0.312032 0.751049
0.516045 0.320211 0.795209
0.715587 0.329686 0.818173
0.833982 0.321279 0.799741
0.909148 0.313588 0.80444
0 0.510719 0.7682
0.0142672 0.509926 0.764538
0.0883497 0.50782 0.751324
0.158679 0.499458 0.720333
0.251881 0.488853 0.698238
0.454307 0.518868 0.806882
0.704036 0.510994 0.812268
0.83505 0.496696 0.804547
0.900313 0.525551 0.814466
0 0.669902 0.781048
0.0131533 0.668391 0.779324
0.0981918 0.656703 0.767926
0.184512 0.643381 0.753857
0.283635 0.669413 0.773312
0.454871 0.707469 0.804959
0.688869 0.700938 0.804181
0.827543 0.699229 0.809339
0.888289 0.727138 0.838132
0 0.797696 0.763256
0.00933852 0.797818 0.7635
0.0978408 0.804929 0.772137
0.202564 0.825391 0.795819
0.335119 0.844144 0.818235
0.506477 0.853117 0.826032
0.696574 0.855253 0.815
0.832639 0.855833 0.821118
0.893355 0.863584 0.852064
0 0.939971 0.798962
0.0224918 0.943175 0.801236
0.117479 0.952499 0.811582
0.228885 0.961364 0.821622
0.364477 0.965515 0.825849
0.534951 0.965835 0.832166
0.708186 0.96231 0.835966
0.818936 0.963195 0.84744
0.878798 0.964355 0.855665
0 1 0.831235
0.0251621 1 0.828077
0.116045 1 0.830335
0.230884 1 0.833158
0.375204 1 0.834623
0.545052 1 0.840085
0.706767 1 0.854109
0.81033 1 0.859434
0.873793 1 0.871809
0 0 0.89836
0.0749981 0 0.935622
0.191485 0 0.939132
0.304952 0 0.936706
0.425879 0 0.929305
0.540642 0 0.893751
0.704326 0 0.909834
0.844938 0 0.934722
0.8981 0 0.927123
0 0.137652 0.862684
0.056611 0.120302 0.886458
0.164782 0.0884108 0.936873
0.286427 0.087129 0.930526
0.408942 0.0826429 0.922789
0.523873 0.074403 0.884413
0.694575 0.0691691 0.907149
0.839231 0.0694285 0.931899
0.897108 0.0482338 0.92195
0 0.264118 0.795834
0.0425879 0.260807 0.806531
0.124468 0.237049 0.850309
0.239261 0.199237 0.93489
0.379828 0.189731 0.918074
0.507744 0.178119 0.880644
0.694789 0.182559 0.91809
0.840482 0.186481 0.938506
0.905318 0.143847 0.929793
0 0.373449 0.7449
0.0209506 0.372198 0.747738
0.0903487 0.37612 0.789487
0.184634 0.367056 0.852628
0.311147 0.320897 0.898299
0.4822 0.303487 0.890684
0.693599 0.327108 0.932265
0.840742 0.332341 0.946532
0.909743 0.299641 0.938354
0 0.514931 0.862593
0.0102083 0.512703 0.857679
0.0641337 0.515923 0.849561
0.145357 0.524529 0.846448
0.244083 0.506172 0.827375
0.422889 0.495262 0.902739
0.676249 0.516976 0.939116
0.836057 0.509972 0.950439
0.90399 0.495079 0.94052
0 0.672328 0.912566
0.00656138 0.674372 0.914611
0.0926528 0.675532 0.914977
0.17229 0.671229 0.902358
0.246296 0.664179 0.87245
0.386282 0.693736 0.89099
0.642756 0.710628 0.944732
0.824811 0.700999 0.946731
0.89163 0.711238 0.947967
0 0.820157 0.918959
0.0124819 0.819028 0.918273
0.0998093 0.814084 0.914885
0.192065 0.805982 0.908476
0.304921 0.81857 0.921996
0.457481 0.845747 0.941207
0.664103 0.860746 0.947555
0.82298 0.857862 0.946349
0.884581 0.867933 0.960006
0 0.941268 0.925902
0.0240635 0.941253 0.924407
0.114015 0.945113 0.927886
0.219745 0.952605 0.936278
0.353429 0.962402 0.948135
0.521004 0.965286 0.953216
0.704204 0.962325 0.955047
0.819532 0.961501 0.956024
0.878981 0.964034 0.962768
0 1 0.945327
0.0268559 1 0.944137
0.0906996 1 0.944137
0.202625 1 0.950973
0.35758 1 0.953689
0.535439 1 0.953643
0.705852 1 0.958618
0.813931 1 0.965881
0.874281 1 0.971099
0 0.00688182 0.994354
0.0687724 0 1
0.186252 0 1
0.298421 0 1
0.419989 0 1
0.548516 0 1
0.66891 0 0.982712
0.830106 0 1
0.893584 0 1
0 0.138872 0.974456
0.0556649 0.122606 0.988846
0.159319 0.0911879 1
0.28011 0.0898299 1
0.403357 0.0854505 1
0.53225 0.0793011 1
0.656077 0.0685435 0.978866
0.824384 0.0706645 1
0.895582 0.0529641 1
0 0.269062 0.925048
0.0433814 0.264378 0.932555
0.1243 0.240085 0.964065
0.234791 0.201984 1
0.376547 0.19556 1
0.512062 0.185519 0.999756
0.648798 0.174716 0.982101
0.824781 0.191287 1
0.903136 0.184619 1
0 0.386923 0.865675
0.0216526 0.387823 0.875776
0.0993668 0.38764 0.90782
0.187961 0.375311 0.963211
0.314534 0.332891 1
0.472206 0.307622 0.9953
0.648554 0.309468 0.996506
0.822919 0.341421 1
0.905715 0.342382 1
0 0.523659 0.920394
0.0091249 0.520165 0.91574
0.0556191 0.522438 0.92108
0.141176 0.531365 0.944884
0.251499 0.523049 0.958526
0.414282 0.473762 1
0.648783 0.483955 1
0.819989 0.521187 1
0.899077 0.529061 1
0 0.664942 0.994369
0.00241093 0.665629 0.995377
0.0723125 0.670649 0.996155
0.149966 0.679393 0.990997
0.226276 0.688502 0.985306
0.348379 0.676448 1
0.63946 0.678782 1
0.814878 0.713329 1
0.890257 0.718868 1
0 0.812726 1
0.0089723 0.814084 1
0.0983139 0.815961 1
0.191623 0.811536 1
0.276936 0.808454 1
0.355825 0.82678 1
0.591211 0.846571 1
0.815549 0.863066 1
0.883864 0.864912 1
0 0.946166 1
0.0299077 0.9467 1
0.119005 0.94905 1
0.216953 0.946944 1
0.326986 0.950347 1
0.471565 0.95874 1
0.678065 0.962112 1
0.814176 0.962554 1
0.878416 0.963684 1
0 1 1
0.0320592 1 1
0.0922103 1 1
0.169894 1 1
0.308476 1 1
0.49929 1 1
0.698497 1 1
0.812772 1 1
0.874403 1 1
