LUTS/Secondary LUTS/LONESOME DEPARTURE.cube
TITLE "Generated by Resolve"
LUT_3D_SIZE 9
0 0.0305943 0
0.0676432 0.0308995 0
0.233433 0.0121004 0.000640879
0.471855 0.00158694 0.00158694
0.684794 0.00128176 0.00128176
0.823178 0.000961318 0.00318914
0.909957 0 0.00383001
0.953704 0 0
0.997452 0 0.00509651
0 0.103655 0.00541695
0.0437476 0.105913 0.000564584
0.19559 0.115282 0.00437934
0.422354 0.101213 0.000839246
0.657725 0.0450141 0.00270085
0.813748 0.0440681 0.000839246
0.907713 0.0437476 0.00302129
0.951751 0.0437476 0.00195315
0.997452 0.0437476 0.000640879
0.000640879 0.218769 0.0433356
0.0443885 0.22005 0.0269169
0.127321 0.223072 0.00207523
0.346075 0.232151 0.00239567
0.581247 0.240757 0.000961318
0.766629 0.214237 0.000396735
0.880156 0.112825 0.00047303
0.953704 0.0874952 0.00111391
0.995544 0.0874952 0.00190738
0 0.371176 0.0860304
0.0445869 0.371618 0.0622873
0.088365 0.374685 0.0323339
0.283635 0.37528 0.00178531
0.514809 0.380728 0.00318914
0.701549 0.37026 0.00299077
0.845502 0.343374 0.00199893
0.938399 0.290562 0
0.994904 0.164385 0
0 0.538231 0.126177
0.0437476 0.535683 0.10753
0.0874952 0.534096 0.0621347
0.133318 0.533608 0.0203861
0.442008 0.535683 0.000640879
0.64889 0.522774 0.00047303
0.793332 0.492988 0.00222782
0.912764 0.453162 0
1 0.391669 0.00254826
0.000961318 0.680751 0.159945
0.0437476 0.672557 0.146136
0.0889296 0.671275 0.121721
0.131838 0.672511 0.0977035
0.23299 0.672633 0.0552834
0.576288 0.667735 0.00199893
0.748165 0.645075 0.000793469
0.869749 0.597589 0.000198367
0.967498 0.545022 0.00158694
0 0.788876 0.193729
0.0445411 0.784085 0.183291
0.0874952 0.782345 0.178592
0.133639 0.777951 0.178668
0.175631 0.77995 0.158358
0.456367 0.777722 0.133745
0.681819 0.771832 0.0794995
0.831266 0.736614 0.00199893
0.939467 0.684993 0
0 0.87628 0.231327
0.0479286 0.871855 0.223636
0.0891737 0.868467 0.236027
0.131243 0.867994 0.266255
0.178347 0.860822 0.255695
0.385306 0.862257 0.244465
0.600488 0.859464 0.228855
0.771679 0.854017 0.183932
0.899626 0.814786 0.123949
0 0.943923 0.270191
0.0437476 0.941695 0.27306
0.0874952 0.940093 0.297597
0.131243 0.930541 0.340291
0.375097 0.926085 0.358144
0.499458 0.926085 0.352728
0.620005 0.923537 0.343481
0.742138 0.923217 0.334234
0.864897 0.920974 0.316075
0.00254826 0.0305943 0.0889906
0.0490425 0.0277562 0.0880293
0.238849 0 0.0753643
0.471534 0.000839246 0.0470893
0.690532 0.00015259 0.0439002
0.82446 0.000320439 0.0450141
0.909957 0 0.0442206
0.953658 4.57771e-05 0.0442969
0.997772 0.000320439 0.0440681
0 0.101411 0.101381
0.0437781 0.100893 0.0929885
0.207355 0.090837 0.0663615
0.443778 0.0453803 0.0481117
0.673198 0.0447242 0.0461128
0.818158 0.0446479 0.0451514
0.908064 0.0439612 0.0463874
0.953735 0.0437781 0.0439918
0.995254 0.0460212 0.0446174
0.000564584 0.216144 0.131609
0.0485542 0.214206 0.11899
0.130449 0.219623 0.101259
0.367544 0.227726 0.0634775
0.619242 0.21973 0.0446174
0.790539 0.171344 0.0438392
0.892424 0.0884565 0.0448005
0.95349 0.0877089 0.0438849
0.997452 0.0874952 0.0439002
0 0.376791 0.164904
0.0439155 0.374166 0.149325
0.0880446 0.376211 0.12607
0.309697 0.378866 0.0975357
0.540978 0.380575 0.0451209
0.729198 0.36495 0.0461128
0.862211 0.325093 0.0438392
0.949706 0.267536 0.0463417
0.999161 0.142153 0.0485237
0.00128176 0.548592 0.197009
0.0437476 0.545449 0.181445
0.0882887 0.543404 0.148653
0.132204 0.546471 0.124346
0.473945 0.541421 0.0572061
0.667216 0.522301 0.0440986
0.807752 0.488167 0.0439002
0.920668 0.438834 0.0441901
0.998718 0.37908 0.0439002
0.000320439 0.689235 0.222492
0.0442664 0.68159 0.211063
0.0881208 0.681193 0.193408
0.132845 0.679194 0.17641
0.295262 0.678035 0.145403
0.598047 0.672267 0.078294
0.764416 0.639612 0.0449073
0.879469 0.594186 0.0441901
0.976059 0.538369 0.0451362
0 0.793973 0.252613
0.0439612 0.787015 0.240864
0.0878157 0.78851 0.240238
0.13196 0.782406 0.248066
0.175113 0.782223 0.231769
0.48455 0.778424 0.207294
0.696056 0.773083 0.162905
0.837598 0.734493 0.102327
0.941054 0.679667 0.0454108
0 0.878538 0.28336
0.0476539 0.873899 0.280995
0.0889601 0.870878 0.289921
0.131243 0.867628 0.315709
0.175708 0.865599 0.313558
0.41735 0.860319 0.304402
0.608972 0.858549 0.288365
0.780041 0.85034 0.247181
0.901305 0.816098 0.190997
0 0.943923 0.319036
0.0437476 0.941924 0.323583
0.0876478 0.938506 0.349783
0.133074 0.929824 0.388815
0.400259 0.923537 0.407782
0.510765 0.924041 0.402518
0.619837 0.9252 0.393591
0.738628 0.920974 0.378302
0.865538 0.915557 0.362371
0 0.0305943 0.205386
0.0454108 0.0278019 0.204517
0.167315 0.0114748 0.199969
0.438407 0.000244144 0.217105
0.715389 0.000320439 0.152178
0.836332 0.000396735 0.0886854
0.910109 0.00015259 0.0874952
0.953704 0 0.090837
0.997452 0 0.0874952
0 0.101091 0.216464
0.0439612 0.100084 0.213596
0.15433 0.0983139 0.208652
0.444221 0.0442359 0.205295
0.696757 0.0438239 0.110399
0.829313 0.0439612 0.0884565
0.910124 0.0439307 0.0878004
0.953765 0.0438087 0.0881819
0.99913 0.0454108 0.0891737
0.00190738 0.214633 0.23917
0.045182 0.215427 0.236469
0.10518 0.213321 0.223438
0.404944 0.177249 0.181338
0.648005 0.12311 0.151217
0.800519 0.0877394 0.0968185
0.900587 0.0882124 0.0883345
0.953704 0.0874952 0.0883345
0.998413 0.0884565 0.0884565
0 0.370687 0.269749
0.0437781 0.372122 0.262821
0.0878004 0.371405 0.244404
0.297917 0.373159 0.226154
0.539666 0.370581 0.197986
0.740932 0.351354 0.146212
0.869429 0.308324 0.0883955
0.953613 0.233188 0.0875563
0.996979 0.131731 0.0890059
0 0.54461 0.296513
0.0445869 0.539147 0.28687
0.088777 0.539986 0.265446
0.13312 0.539025 0.247166
0.467185 0.538079 0.222919
0.667933 0.517876 0.190967
0.806867 0.48629 0.13904
0.926421 0.436744 0.0912337
1 0.365225 0.0903639
0.00158694 0.685618 0.312367
0.0449836 0.678294 0.302953
0.0878004 0.677989 0.288426
0.131243 0.676707 0.282261
0.29688 0.672831 0.26067
0.592813 0.67155 0.231586
0.760098 0.639384 0.197986
0.878248 0.596506 0.131716
0.97554 0.534264 0.0889296
0 0.793011 0.325353
0.0453803 0.788159 0.319829
0.089128 0.785122 0.314351
0.133516 0.78471 0.325567
0.175402 0.780819 0.318105
0.489418 0.778042 0.296376
0.694041 0.773022 0.267765
0.836347 0.738064 0.23418
0.938506 0.682765 0.135134
0 0.876829 0.340322
0.0439612 0.872938 0.339178
0.0901808 0.870481 0.34313
0.133547 0.86566 0.371923
0.176715 0.862287 0.387961
0.433295 0.860014 0.378225
0.613581 0.858396 0.362188
0.777874 0.849989 0.323262
0.898192 0.814145 0.281376
0 0.94902 0.360235
0.0437476 0.943603 0.361593
0.0879683 0.93962 0.390188
0.131243 0.932845 0.427314
0.41651 0.922576 0.463478
0.522637 0.925673 0.459739
0.630518 0.923369 0.452171
0.742535 0.922332 0.443488
0.862989 0.9178 0.422049
0.00254826 0.0280461 0.33994
0.0462959 0.024094 0.34078
0.111559 0.00541695 0.336126
0.341421 0.0011902 0.335531
0.63621 0.00047303 0.355398
0.836881 0 0.30808
0.912505 0 0.210346
0.95613 0.000839246 0.149294
0.997452 0 0.131243
0.00222782 0.0990616 0.352728
0.0440375 0.0975814 0.350805
0.0941482 0.0922103 0.346563
0.342061 0.0502937 0.33994
0.636728 0.0448615 0.351293
0.835874 0.045655 0.292149
0.912337 0.0437476 0.202487
0.955962 0.0452125 0.159915
0.997452 0.0437476 0.133761
0 0.220676 0.369741
0.0437476 0.21561 0.366888
0.0892348 0.21004 0.36257
0.333562 0.201343 0.352926
0.64979 0.0874952 0.334691
0.825467 0.0884565 0.251514
0.910353 0.0874952 0.232746
0.955993 0.0878309 0.191531
0.997452 0.0874952 0.134905
0.000595102 0.372366 0.392401
0.0446174 0.368124 0.385657
0.0880903 0.3682 0.376638
0.271717 0.366186 0.365362
0.585641 0.331807 0.328634
0.76495 0.309041 0.3037
0.876738 0.28043 0.276097
0.95346 0.198901 0.221241
0.998444 0.13225 0.132952
0 0.54078 0.40972
0.0446021 0.533989 0.401617
0.0884565 0.53521 0.390967
0.134615 0.534905 0.38204
0.452766 0.53521 0.365286
0.656229 0.517449 0.34255
0.815915 0.493858 0.315221
0.923812 0.440894 0.26656
0.998413 0.353582 0.148928
0.000350958 0.682277 0.413474
0.0446174 0.676387 0.406424
0.0874952 0.676112 0.398657
0.132128 0.67274 0.393591
0.299077 0.672175 0.384054
0.588052 0.668925 0.366094
0.753338 0.642466 0.344259
0.873747 0.60264 0.308415
0.974502 0.538689 0.227512
0.0011902 0.79118 0.411399
0.0449378 0.787655 0.404456
0.0916152 0.784527 0.404395
0.131777 0.785183 0.408606
0.177584 0.779034 0.41474
0.492363 0.777478 0.400153
0.689525 0.772381 0.383902
0.828321 0.738628 0.351644
0.935561 0.686915 0.294072
0.00242618 0.878935 0.410361
0.0437476 0.877012 0.40325
0.0878614 0.873655 0.408576
0.132647 0.868528 0.43122
0.187655 0.862593 0.46041
0.456977 0.859602 0.455909
0.621775 0.856077 0.441291
0.778912 0.849805 0.420752
0.895171 0.815854 0.380331
0 0.94902 0.39826
0.0437476 0.948699 0.403357
0.0886854 0.942885 0.424781
0.131243 0.936278 0.464057
0.38912 0.928634 0.511055
0.538643 0.922774 0.518105
0.639673 0.922332 0.513283
0.747234 0.919509 0.50309
0.859159 0.916838 0.489067
0 0.0229343 0.488533
0.0448615 0.0180056 0.491081
0.0903639 0.00128176 0.487892
0.316365 0.00128176 0.475776
0.54461 0.00128176 0.470039
0.771405 0 0.461448
0.908995 0 0.42002
0.955139 0.000320439 0.359808
1 0 0.276951
0.00111391 0.0931258 0.493782
0.0439002 0.0915389 0.492729
0.0912337 0.0804303 0.49247
0.314397 0.0438697 0.485527
0.542611 0.0442969 0.477455
0.771725 0.0452735 0.464668
0.903975 0.0440223 0.421851
0.956115 0.0439002 0.362493
0.997604 0.0448615 0.278706
0.00128176 0.223224 0.507958
0.047364 0.213947 0.506889
0.0874952 0.205234 0.498405
0.294179 0.194827 0.494942
0.533455 0.148348 0.48455
0.765789 0.0876936 0.47335
0.90454 0.0874952 0.419944
0.956054 0.0874952 0.360876
1 0.0874952 0.289387
0.000793469 0.368948 0.517357
0.0437476 0.366415 0.514794
0.0903639 0.361852 0.507408
0.201999 0.358633 0.500038
0.505898 0.352529 0.489647
0.758404 0.267079 0.467552
0.894255 0.131731 0.412619
0.953826 0.155184 0.379278
0.999039 0.131243 0.304845
0 0.533776 0.52549
0.0437476 0.528038 0.517998
0.0876478 0.527565 0.515129
0.133318 0.525963 0.506523
0.436591 0.526757 0.49395
0.690074 0.509071 0.474342
0.826307 0.498726 0.458259
0.924468 0.457938 0.422812
0.999359 0.355337 0.342596
0 0.678843 0.522942
0.0443885 0.674739 0.517388
0.0893721 0.671473 0.511711
0.131731 0.671778 0.501945
0.297429 0.668009 0.500237
0.577066 0.666438 0.488685
0.739879 0.650095 0.475425
0.869718 0.618448 0.453498
0.970687 0.552193 0.395331
0.000961318 0.79205 0.511147
0.0438697 0.787961 0.504417
0.0874952 0.786801 0.498558
0.13225 0.783413 0.496925
0.17612 0.778042 0.508125
0.504082 0.775006 0.509438
0.685237 0.769985 0.492348
0.819196 0.744305 0.47454
0.925765 0.696468 0.427985
0.000320439 0.879454 0.484703
0.0449989 0.87837 0.481514
0.0910353 0.873091 0.488045
0.132784 0.87277 0.496056
0.175235 0.863127 0.52398
0.486137 0.856931 0.536141
0.630396 0.854368 0.530068
0.775128 0.852125 0.508873
0.883864 0.821622 0.484382
0.00254826 0.951568 0.449012
0.0437476 0.950134 0.447425
0.0874952 0.950607 0.456657
0.132036 0.941527 0.490913
0.197299 0.930541 0.543328
0.556008 0.925597 0.578851
0.648356 0.921294 0.577111
0.75201 0.921935 0.574868
0.858534 0.919707 0.561181
0.000961318 0.0203861 0.61767
0.0437476 0.0143435 0.61735
0.0886854 0 0.613291
0.269932 0 0.610697
0.509071 0.00047303 0.604761
0.716686 0 0.586358
0.865583 0.000640879 0.549081
0.956054 0.000198367 0.507424
1 0 0.464088
0.000198367 0.0855726 0.619058
0.0442206 0.0836957 0.618631
0.0876478 0.0747082 0.616434
0.253925 0.0446174 0.613184
0.508476 0.0444495 0.605447
0.711742 0.0440528 0.586648
0.862745 0.0437476 0.554589
0.95491 0.043946 0.516884
0.998611 0.0437476 0.472129
0.000640879 0.211444 0.625635
0.0447852 0.204471 0.62092
0.090425 0.195743 0.618524
0.209155 0.185245 0.616266
0.498131 0.140475 0.611139
0.704036 0.0876478 0.590051
0.853559 0.0879683 0.563378
0.95227 0.0882124 0.529473
0.999359 0.0884565 0.489982
0.000595102 0.353613 0.625956
0.0458686 0.351736 0.625742
0.087892 0.347341 0.621317
0.140246 0.34905 0.616419
0.467811 0.342412 0.612055
0.675227 0.337957 0.596048
0.835248 0.344533 0.577783
0.935607 0.335409 0.547585
0.998215 0.288487 0.510048
0 0.511315 0.62707
0.0442206 0.506691 0.622766
0.0884565 0.504784 0.621698
0.132998 0.508812 0.618769
0.407828 0.518318 0.609705
0.630381 0.516182 0.598367
0.814282 0.514611 0.589548
0.915999 0.498329 0.566049
0.990448 0.435477 0.513313
0 0.662043 0.625315
0.0446174 0.657649 0.619516
0.0874952 0.65626 0.616938
0.132311 0.660502 0.612222
0.253361 0.662043 0.607553
0.5682 0.661891 0.59855
0.754772 0.663172 0.595056
0.860258 0.649165 0.586679
0.957031 0.588083 0.537179
0.000961318 0.79086 0.617273
0.0450752 0.785718 0.613169
0.0898909 0.786007 0.606317
0.132555 0.78172 0.603067
0.176196 0.778164 0.601617
0.507774 0.771847 0.604318
0.682795 0.769451 0.598856
0.810025 0.751537 0.581613
0.912856 0.718212 0.564065
0.000198367 0.88098 0.587839
0.0449836 0.87808 0.584466
0.0886854 0.876814 0.580606
0.132357 0.874128 0.581262
0.175113 0.867613 0.587686
0.471138 0.855909 0.60766
0.64416 0.852766 0.613184
0.772076 0.850492 0.600504
0.878523 0.827329 0.582742
0 0.953155 0.534188
0.0451362 0.950256 0.532677
0.0888533 0.950607 0.522393
0.133165 0.951171 0.5234
0.175479 0.94313 0.568444
0.485878 0.925444 0.621057
0.66659 0.918746 0.639582
0.760296 0.918547 0.638575
0.853117 0.919387 0.632639
0 0.0127413 0.714946
0.0439918 0.00788891 0.713756
0.0879683 0 0.714
0.132448 0.00183108 0.713039
0.459846 0 0.708583
0.68426 0.000244144 0.704997
0.846708 0 0.66923
0.941115 0.00167849 0.617533
1 0 0.581125
0 0.0751354 0.716701
0.0437781 0.0735027 0.716213
0.0893111 0.0605478 0.718212
0.135332 0.0440986 0.713878
0.455314 0.0450599 0.712566
0.683604 0.0438392 0.706493
0.842344 0.043946 0.671992
0.9393 0.0441596 0.625849
1 0.045655 0.587823
0.00143435 0.193439 0.721157
0.0441596 0.189761 0.718471
0.0884565 0.185122 0.716381
0.13135 0.174197 0.714549
0.439612 0.134096 0.706752
0.669169 0.0886244 0.704372
0.828702 0.0879683 0.675883
0.925521 0.0916152 0.632349
0.999847 0.119036 0.600885
0 0.332219 0.716945
0.0440681 0.329122 0.717784
0.0888685 0.328283 0.715434
0.132204 0.335332 0.7131
0.418753 0.327993 0.710765
0.642466 0.320058 0.704158
0.806058 0.323445 0.680034
0.904753 0.363134 0.650309
0.98439 0.37229 0.62829
0 0.476097 0.715267
0.0447089 0.474861 0.713237
0.0874952 0.474983 0.712886
0.131685 0.4822 0.709056
0.370153 0.504463 0.70428
0.600824 0.504341 0.696834
0.767529 0.509957 0.68333
0.876677 0.539071 0.66772
0.94583 0.546197 0.652186
0 0.62356 0.709773
0.0440986 0.619928 0.707149
0.0874952 0.621195 0.705608
0.131701 0.62768 0.70251
0.214908 0.637949 0.700206
0.553811 0.654078 0.695476
0.71812 0.658091 0.686748
0.84126 0.679988 0.681666
0.915251 0.685863 0.682048
0.00143435 0.761471 0.705547
0.0442969 0.758236 0.703456
0.087892 0.759167 0.702281
0.131838 0.762448 0.697566
0.175402 0.76553 0.694484
0.483268 0.767147 0.690898
0.674647 0.768154 0.686824
0.809644 0.771603 0.687465
0.896452 0.754467 0.673533
0.000869764 0.879454 0.690578
0.0442359 0.879011 0.689326
0.0889143 0.87837 0.688762
0.131685 0.876356 0.682582
0.176669 0.868666 0.682414
0.347051 0.860349 0.679316
0.64477 0.853208 0.685939
0.768505 0.85272 0.684489
0.86714 0.832624 0.673854
0 0.953475 0.64358
0.0437476 0.953567 0.643107
0.0874952 0.952682 0.637049
0.133639 0.949584 0.634104
0.175631 0.949981 0.627649
0.221134 0.93962 0.649149
0.647562 0.921294 0.694881
0.765942 0.916991 0.701335
0.851514 0.918425 0.696468
0 0.0152895 0.790875
0.0437476 0.00601205 0.793423
0.0874952 0.00167849 0.792309
0.131243 0.00222782 0.791074
0.374929 0.00111391 0.788647
0.617792 0.000198367 0.788296
0.826551 0.000564584 0.777905
0.93904 0.00227359 0.735286
1 0 0.679362
0.000274662 0.0592813 0.791516
0.0439918 0.0538949 0.794232
0.0891737 0.0442969 0.791165
0.133806 0.043946 0.794369
0.370748 0.0449989 0.786999
0.605203 0.0449836 0.787869
0.816709 0.0469825 0.784314
0.936095 0.0437476 0.734722
0.997726 0.0459754 0.682506
0.000320439 0.16524 0.794232
0.0455024 0.163333 0.793988
0.0893721 0.160006 0.794507
0.131823 0.152819 0.790082
0.354299 0.111391 0.792508
0.600916 0.0885481 0.786984
0.805676 0.0883955 0.785351
0.925246 0.0875715 0.738964
0.995377 0.0958572 0.695613
0 0.289525 0.792874
0.0447547 0.289357 0.79147
0.0877546 0.295933 0.788617
0.132952 0.305898 0.790356
0.333776 0.306081 0.787305
0.580545 0.295537 0.785321
0.779477 0.282063 0.781659
0.90573 0.300771 0.751385
0.974792 0.349432 0.710674
0.00015259 0.418753 0.789929
0.0448768 0.418433 0.789761
0.0877394 0.417075 0.788495
0.133211 0.438148 0.787472
0.308339 0.480323 0.782361
0.556115 0.484962 0.777447
0.740795 0.485985 0.77435
0.87219 0.498527 0.74873
0.944564 0.528191 0.722225
0.000198367 0.561151 0.785779
0.043946 0.559182 0.785412
0.0878462 0.557763 0.783993
0.131884 0.566995 0.783917
0.178882 0.594247 0.779843
0.534463 0.642206 0.769696
0.696513 0.64683 0.765774
0.832395 0.65008 0.754421
0.904967 0.670237 0.736278
0 0.701961 0.776226
0.0438087 0.699428 0.77821
0.0879072 0.69926 0.778332
0.132387 0.70161 0.776059
0.175875 0.719966 0.772076
0.446494 0.74374 0.765667
0.665125 0.763256 0.761166
0.791974 0.765103 0.755901
0.874861 0.782177 0.753841
0 0.839704 0.768536
0.0437476 0.836057 0.770321
0.0880598 0.835325 0.769039
0.132357 0.839429 0.769131
0.175341 0.842008 0.764462
0.258228 0.849042 0.759838
0.625071 0.84889 0.75552
0.769192 0.851255 0.753033
0.853666 0.849821 0.751537
0 0.954116 0.752972
0.0460212 0.953521 0.748775
0.0891737 0.953643 0.748104
0.132479 0.952529 0.743282
0.177554 0.951736 0.747066
0.218753 0.944121 0.742489
0.490959 0.929747 0.749859
0.765148 0.91899 0.760021
0.851835 0.918425 0.759976
0 0.0203861 0.852155
0.0459754 0.0130617 0.854704
0.0874952 0.00128176 0.857252
0.133791 0 0.854704
0.26804 0 0.8598
0.554269 0 0.849607
0.769757 0 0.854063
0.956252 0 0.833356
1 0 0.755291
0.00445563 0.0593576 0.857893
0.0437781 0.0539864 0.853391
0.0894026 0.0466163 0.853513
0.131563 0.0451362 0.853437
0.249561 0.0437476 0.855497
0.548684 0.0447089 0.855344
0.76704 0.0454108 0.852399
0.949752 0.0457008 0.835904
0.995544 0.0459754 0.768673
0.00190738 0.1149 0.859159
0.0437476 0.108598 0.859403
0.0874952 0.105821 0.856779
0.132036 0.0910048 0.854154
0.215457 0.0874952 0.850889
0.538964 0.0874952 0.851759
0.753338 0.0876478 0.845777
0.94406 0.0879683 0.841321
0.998718 0.0874952 0.77377
0 0.230335 0.854704
0.0437476 0.223972 0.8551
0.0898909 0.2336 0.856931
0.133196 0.239933 0.857053
0.192844 0.227314 0.856779
0.523796 0.186999 0.854704
0.734859 0.131487 0.853758
0.928573 0.132647 0.842924
0.999039 0.165347 0.790982
0.00128176 0.33048 0.855985
0.0459754 0.329213 0.855817
0.0874952 0.329854 0.855344
0.131731 0.358373 0.854383
0.185199 0.417792 0.850889
0.512688 0.413809 0.849607
0.70634 0.414923 0.843229
0.891569 0.416358 0.841169
0.971954 0.443915 0.801175
0.00254826 0.469825 0.855344
0.0437476 0.468666 0.852796
0.0886854 0.463859 0.850568
0.132555 0.447166 0.851514
0.17499 0.494041 0.849607
0.505913 0.606165 0.835157
0.678386 0.610742 0.834791
0.835096 0.616388 0.829892
0.931182 0.629145 0.808179
0.00190738 0.612345 0.847059
0.0445411 0.608454 0.84419
0.0886091 0.606928 0.84802
0.13164 0.604074 0.846815
0.176272 0.593545 0.847379
0.251972 0.672419 0.834394
0.66302 0.750164 0.828901
0.793027 0.750164 0.819425
0.894209 0.753185 0.808179
0 0.752331 0.839414
0.0440223 0.750378 0.840803
0.0899672 0.750011 0.838056
0.134997 0.749142 0.838727
0.17499 0.747066 0.839567
0.21915 0.763088 0.83714
0.57229 0.820508 0.821576
0.770489 0.848875 0.814481
0.865538 0.844724 0.809461
0 0.913329 0.829221
0.0437476 0.908232 0.826673
0.0874952 0.903777 0.824125
0.131243 0.908232 0.826673
0.176272 0.917159 0.825391
0.219699 0.925124 0.826032
0.262501 0.922896 0.819013
0.733211 0.913649 0.820294
0.852155 0.918425 0.819013
