LUTS/Secondary LUTS/LONESOME DEPARTURE.cube
TITLE "Generated by Resolve"
LUT_3D_SIZE 5
0 0.0305943 0
0.233433 0.0121004 0.000640879
0.684794 0.00128176 0.00128176
0.909957 0 0.00383001
0.997452 0 0.00509651
0.000640879 0.218769 0.0433356
0.127321 0.223072 0.00207523
0.581247 0.240757 0.000961318
0.880156 0.112825 0.00047303
0.995544 0.0874952 0.00190738
0 0.538231 0.126177
0.0874952 0.534096 0.0621347
0.442008 0.535683 0.000640879
0.793332 0.492988 0.00222782
1 0.391669 0.00254826
0 0.788876 0.193729
0.0874952 0.782345 0.178592
0.175631 0.77995 0.158358
0.681819 0.771832 0.0794995
0.939467 0.684993 0
0 0.943923 0.270191
0.0874952 0.940093 0.297597
0.375097 0.926085 0.358144
0.620005 0.923537 0.343481
0.864897 0.920974 0.316075
0 0.0305943 0.205386
0.167315 0.0114748 0.199969
0.715389 0.000320439 0.152178
0.910109 0.00015259 0.0874952
0.997452 0 0.0874952
0.00190738 0.214633 0.23917
0.10518 0.213321 0.223438
0.648005 0.12311 0.151217
0.900587 0.0882124 0.0883345
0.998413 0.0884565 0.0884565
0 0.54461 0.296513
0.088777 0.539986 0.265446
0.467185 0.538079 0.222919
0.806867 0.48629 0.13904
1 0.365225 0.0903639
0 0.793011 0.325353
0.089128 0.785122 0.314351
0.175402 0.780819 0.318105
0.694041 0.773022 0.267765
0.938506 0.682765 0.135134
0 0.94902 0.360235
0.0879683 0.93962 0.390188
0.41651 0.922576 0.463478
0.630518 0.923369 0.452171
0.862989 0.9178 0.422049
0 0.0229343 0.488533
0.0903639 0.00128176 0.487892
0.54461 0.00128176 0.470039
0.908995 0 0.42002
1 0 0.276951
0.00128176 0.223224 0.507958
0.0874952 0.205234 0.498405
0.533455 0.148348 0.48455
0.90454 0.0874952 0.419944
1 0.0874952 0.289387
0 0.533776 0.52549
0.0876478 0.527565 0.515129
0.436591 0.526757 0.49395
0.826307 0.498726 0.458259
0.999359 0.355337 0.342596
0.000961318 0.79205 0.511147
0.0874952 0.786801 0.498558
0.17612 0.778042 0.508125
0.685237 0.769985 0.492348
0.925765 0.696468 0.427985
0.00254826 0.951568 0.449012
0.0874952 0.950607 0.456657
0.197299 0.930541 0.543328
0.648356 0.921294 0.577111
0.858534 0.919707 0.561181
0 0.0127413 0.714946
0.0879683 0 0.714
0.459846 0 0.708583
0.846708 0 0.66923
1 0 0.581125
0.00143435 0.193439 0.721157
0.0884565 0.185122 0.716381
0.439612 0.134096 0.706752
0.828702 0.0879683 0.675883
0.999847 0.119036 0.600885
0 0.476097 0.715267
0.0874952 0.474983 0.712886
0.370153 0.504463 0.70428
0.767529 0.509957 0.68333
0.94583 0.546197 0.652186
0.00143435 0.761471 0.705547
0.087892 0.759167 0.702281
0.175402 0.76553 0.694484
0.674647 0.768154 0.686824
0.896452 0.754467 0.673533
0 0.953475 0.64358
0.0874952 0.952682 0.637049
0.175631 0.949981 0.627649
0.647562 0.921294 0.694881
0.851514 0.918425 0.696468
0 0.0203861 0.852155
0.0874952 0.00128176 0.857252
0.26804 0 0.8598
0.769757 0 0.854063
1 0 0.755291
0.00190738 0.1149 0.859159
0.0874952 0.105821 0.856779
0.215457 0.0874952 0.850889
0.753338 0.0876478 0.845777
0.998718 0.0874952 0.77377
0.00128176 0.33048 0.855985
0.0874952 0.329854 0.855344
0.185199 0.417792 0.850889
0.70634 0.414923 0.843229
0.971954 0.443915 0.801175
0.00190738 0.612345 0.847059
0.0886091 0.606928 0.84802
0.176272 0.593545 0.847379
0.66302 0.750164 0.828901
0.894209 0.753185 0.808179
0 0.913329 0.829221
0.0874952 0.903777 0.824125
0.176272 0.917159 0.825391
0.262501 0.922896 0.819013
0.852155 0.918425 0.819013
