LUTS/Secondary LUTS/LONESOME DEPARTURE.cube
TITLE "Generated by Resolve"
LUT_3D_SIZE 33
0 0.0305943 0
0.0109255 0.0305943 0
0.0218662 0.0305943 0
0.0376593 0.0326543 0
0.0676432 0.0308995 0
0.10367 0.0309911 0
0.145922 0.0280461 0
0.19501 0.0260471 0.00254826
0.233433 0.0121004 0.000640879
0.291203 0.00326543 0
0.347707 0 0.00430304
0.410574 0 0.00175479
0.471855 0.00158694 0.00158694
0.537118 0 0.00103761
0.588846 0.00111391 0.00254826
0.640009 0.00254826 0
0.684794 0.00128176 0.00128176
0.729915 0 0.00135805
0.764355 0 0.00111391
0.795117 0.00207523 0
0.823178 0.000961318 0.00318914
0.848295 0 0
0.870069 0.000793469 0.00254826
0.88954 0.00326543 0
0.909957 0 0.00383001
0.920882 0 0
0.931823 0 0.0041352
0.942763 0 0
0.953704 0 0
0.964645 0 0
0.97557 0 0
0.986511 0 0.00015259
0.997452 0 0.00509651
0 0.0415198 0
0.0109255 0.0415198 0
0.0218662 0.0415198 0
0.0328832 0.0465248 0.00254826
0.0576638 0.049012 0.000610361
0.0886244 0.0537118 0
0.131395 0.0499275 0.0010071
0.179355 0.0469825 6.10361e-05
0.223438 0.0413825 0
0.284627 0.0316472 0.00424201
0.339544 0.0132753 0
0.403891 0.0109255 7.62951e-05
0.460395 0.0125124 0.0019379
0.526848 0.0109255 0
0.580468 0.0148318 0.00282292
0.637583 0.0122377 0.0011902
0.687266 0.0109712 0.00138857
0.727108 0.011017 4.57771e-05
0.759686 0.0109255 0.00111391
0.794217 0.0109712 0.00146487
0.826337 0.0118563 0
0.848295 0.0109255 0
0.870054 0.0126345 6.10361e-05
0.89015 0.0109255 0.00248722
0.909957 0.0109255 0.00383001
0.920882 0.0109255 0
0.931823 0.0109255 0.0009308
0.944854 0.0130312 0.00703441
0.953765 0.0110018 0.0043946
0.964645 0.0109255 0
0.97557 0.0109255 0
0.986587 0.011017 7.62951e-05
0.997452 0.0109255 0
0.00239567 0.0548409 0.00271611
0.0109255 0.0572366 9.15541e-05
0.0218662 0.0573739 0
0.0353399 0.06009 0
0.0513771 0.0668193 1.5259e-05
0.0877852 0.0701152 0.00015259
0.12903 0.0699779 0
0.17438 0.0698558 0.00015259
0.217899 0.0672313 4.57771e-05
0.274678 0.0585641 0
0.331716 0.0419928 0.00239567
0.397177 0.0235752 0
0.460807 0.0219272 0.00178531
0.517525 0.0219272 0.00141909
0.582452 0.0219577 0.00373846
0.631266 0.0231327 0.00111391
0.68249 0.0219425 0.000244144
0.724743 0.0219425 9.15541e-05
0.762173 0.0218662 7.62951e-05
0.792996 0.0218662 0.00151064
0.819028 0.021973 0.00169375
0.846738 0.0218662 0.000106813
0.870115 0.023621 4.57771e-05
0.889067 0.0219883 0.00271611
0.909957 0.0218662 0.000320439
0.920882 0.0218662 0
0.931823 0.0218662 0
0.94313 0.0222477 0
0.954025 0.0221866 1.5259e-05
0.964645 0.0218662 0.000442512
0.978119 0.0244144 0.00701915
0.986511 0.0218662 0
0.997604 0.022034 0.00494392
0 0.0782177 0.00462348
0.0109255 0.0805219 0
0.0218662 0.080766 0.000244144
0.0328069 0.0807355 0.000213626
0.0466011 0.0829938 0.00222782
0.0786603 0.0876936 0.000442512
0.114687 0.0890364 0.000198367
0.162051 0.0915084 0
0.205585 0.0933242 0.000183108
0.263996 0.0888838 0.00244144
0.319493 0.0822003 7.62951e-05
0.385077 0.0634012 7.62951e-05
0.449165 0.0364233 0.00115969
0.514565 0.0328069 0.00230411
0.575433 0.0328069 0
0.631296 0.0328069 0.00135805
0.676234 0.0328069 0.00115969
0.722576 0.0339971 0.000244144
0.759731 0.033814 0
0.790677 0.0340276 0.000946059
0.823102 0.0336767 0.0040589
0.84448 0.0336004 0.00151064
0.870069 0.035111 0.000885023
0.892561 0.0367742 0.000244144
0.91046 0.0333867 0.000350958
0.920882 0.0328069 0.00047303
0.931823 0.0328069 0
0.942763 0.0328069 0
0.953933 0.033051 0.00428778
0.962768 0.0330205 4.57771e-05
0.97557 0.0328069 0.00047303
0.986511 0.0328069 0
0.997452 0.0328069 0
0 0.103655 0.00541695
0.0109255 0.103655 0.00479133
0.0218662 0.10605 0.000274662
0.0328069 0.10425 0.000289921
0.0437476 0.105913 0.000564584
0.0686656 0.108721 4.57771e-05
0.10927 0.113008 0.00207523
0.148501 0.114168 0.000488289
0.19559 0.115282 0.00437934
0.244114 0.118181 0
0.29778 0.116869 0
0.3626 0.108675 0.00146487
0.422354 0.101213 0.000839246
0.486275 0.0819867 0.000183108
0.545113 0.0528115 0.000137331
0.604318 0.0439155 0.00328069
0.657725 0.0450141 0.00270085
0.701518 0.0447852 0.000167849
0.742306 0.0440681 0
0.775372 0.0450752 0
0.813748 0.0440681 0.000839246
0.838529 0.0437476 0.0037995
0.861723 0.045594 0
0.880766 0.0462959 0.00062562
0.907713 0.0437476 0.00302129
0.919142 0.0437476 0
0.93225 0.0441596 0.000411994
0.943084 0.0440681 4.57771e-05
0.951751 0.0437476 0.00195315
0.964645 0.0437476 0
0.97557 0.0437476 0
0.986511 0.0437476 0
0.997452 0.0437476 0.000640879
0.00215152 0.132509 0.0174411
0.0109255 0.130358 0.0149081
0.0240177 0.129824 0.00537118
0.0330053 0.128405 0
0.0459449 0.130312 0.000701915
0.0596628 0.132174 0
0.0899214 0.132433 0.000396735
0.135912 0.135363 0
0.17319 0.141329 0.00201419
0.222065 0.139635 0.000335698
0.272984 0.144183 0.000671397
0.337667 0.143374 0
0.398657 0.142962 0
0.464485 0.141268 0
0.530312 0.125368 0.000396735
0.585153 0.10428 0.00329595
0.640711 0.0708171 0.00215152
0.694499 0.0561074 0.00228885
0.733989 0.055024 0
0.770748 0.0549172 0.00215152
0.7991 0.0546883 0.00344854
0.830839 0.0546883 0.00288396
0.856245 0.0546883 0.00148013
0.880629 0.0562295 0
0.903578 0.0546883 0.00128176
0.921355 0.0551461 0.00383001
0.933898 0.0567483 0
0.944915 0.0568399 0
0.954055 0.055024 0.000885023
0.964843 0.0548867 0.00450141
0.977615 0.0567178 0.00634775
0.986908 0.0550851 0.000396735
0.997452 0.0546883 0
0.00254826 0.156909 0.029633
0.0130007 0.158495 0.0221408
0.0220035 0.158923 0.0152285
0.0328069 0.158938 0.00962844
0.0458839 0.160632 0.00907912
0.0550088 0.160983 0.00303655
0.0710155 0.161044 0.000381476
0.116793 0.162768 0.00161746
0.169696 0.165713 0.00239567
0.209339 0.166278 0.00047303
0.260243 0.169787 0
0.316899 0.173312 0.000961318
0.380255 0.175174 0.00332647
0.44332 0.178683 0.00167849
0.50631 0.172793 0
0.572213 0.170016 0.00132753
0.627604 0.155871 0
0.678737 0.140505 0.00109865
0.7234 0.108629 0
0.758404 0.0775311 0.000854505
0.794202 0.0656138 0
0.824811 0.066331 0.000320439
0.851286 0.0656138 0.000335698
0.87631 0.067689 0.00149538
0.898085 0.0661326 0.000350958
0.919722 0.0660716 0.00459297
0.931823 0.0656138 0.00337224
0.943084 0.0659495 0.000976577
0.953704 0.0656138 0.00497444
0.964675 0.0656596 4.57771e-05
0.976028 0.0660716 0.000442512
0.986511 0.0656138 0
0.997452 0.0656138 0
0.00254826 0.189029 0.0436561
0.01149 0.189532 0.0386206
0.0218662 0.189029 0.0328985
0.0348058 0.189029 0.0241855
0.0437476 0.187106 0.0200198
0.0547646 0.193042 0.0127565
0.0656138 0.192569 0.00520333
0.0959029 0.188907 0.0028687
0.149432 0.194553 0.00155642
0.206928 0.194293 0.00111391
0.256199 0.195697 0
0.303593 0.200351 0
0.357259 0.204211 0.000213626
0.424857 0.205737 0.00265507
0.487938 0.208301 0.000488289
0.549844 0.206455 0.000289921
0.61239 0.20322 0
0.665324 0.196902 0.00238041
0.710246 0.184009 0.000808728
0.75111 0.165164 0.00196841
0.786114 0.138766 0.000411994
0.817472 0.106249 0.00291447
0.845701 0.0765545 0
0.873274 0.0771191 0.00341802
0.894484 0.0780499 0.000503548
0.914794 0.0765545 0.000442512
0.931823 0.0765545 0
0.943069 0.0768749 0.000167849
0.953872 0.0768139 0.00135805
0.964874 0.0767987 0.000564584
0.975662 0.0766766 0.000366217
0.986526 0.0765698 1.5259e-05
0.999435 0.0785534 0.00199893
0.000640879 0.218769 0.0433356
0.0128023 0.220005 0.0395056
0.0231785 0.218296 0.0346532
0.0340276 0.218067 0.0330816
0.0443885 0.22005 0.0269169
0.0572366 0.220279 0.0173648
0.0657359 0.221714 0.0129397
0.0780499 0.222232 0.00607309
0.127321 0.223072 0.00207523
0.188769 0.227695 0.0024567
0.238453 0.226383 0
0.295918 0.229801 0
0.346075 0.232151 0.00239567
0.397208 0.234958 0.00242618
0.459922 0.235615 0.000839246
0.518868 0.240101 0.00123598
0.581247 0.240757 0.000961318
0.639323 0.240101 0.000335698
0.687877 0.235935 0.00111391
0.728023 0.227512 0.00102235
0.766629 0.214237 0.000396735
0.798871 0.200824 0.000640879
0.829999 0.179095 0.000595102
0.861601 0.151659 0.00402838
0.880156 0.112825 0.00047303
0.905715 0.0879988 0.000564584
0.923858 0.0890516 0.000518807
0.942763 0.0874952 0.000198367
0.953704 0.0874952 0.00111391
0.965209 0.0880751 0.00221256
0.97557 0.0874952 0.00358587
0.986526 0.0875105 0
0.995544 0.0874952 0.00190738
0 0.260533 0.0717632
0.0109255 0.258701 0.0667124
0.0226291 0.258152 0.0543984
0.0353552 0.25864 0.0465248
0.0456703 0.255222 0.0402228
0.0571145 0.255924 0.034226
0.0656138 0.258564 0.0272221
0.0765545 0.256962 0.0160983
0.0874952 0.257984 0.00875868
0.147951 0.256748 0.00195315
0.218494 0.259693 0.000717174
0.276371 0.261982 0
0.331243 0.269093 0.00204471
0.382986 0.264973 0
0.438941 0.269123 0.00183108
0.496315 0.270726 0.000381476
0.55787 0.273442 0.00163272
0.620142 0.270146 0.0011902
0.66717 0.271443 0.000396735
0.716106 0.268681 0.00149538
0.755322 0.2589 0.00273136
0.790692 0.250645 0.00207523
0.82266 0.236637 0.0012665
0.852934 0.218906 0.00306706
0.875959 0.198795 0
0.901854 0.165026 0.00239567
0.924346 0.122133 0.00451667
0.941222 0.0999771 0
0.953933 0.0986648 0.000183108
0.964706 0.098497 6.10361e-05
0.97557 0.098436 0.00343328
0.988342 0.100267 0.00183108
0.997452 0.098436 0.00143435
0 0.301656 0.0833143
0.0109255 0.299168 0.0758373
0.0218662 0.296681 0.0697795
0.0328069 0.295766 0.0632334
0.0437476 0.298695 0.0486152
0.0561685 0.294286 0.0440223
0.0675212 0.295613 0.0393378
0.0765545 0.294636 0.0283513
0.0914321 0.294453 0.0246586
0.112505 0.297597 0.00881971
0.197177 0.295659 0.00459297
0.261509 0.298787 0
0.321065 0.30312 0
0.375967 0.305257 0.000717174
0.433509 0.30695 0.00187686
0.487205 0.306279 0.000823987
0.537194 0.308919 0
0.599939 0.30724 0.0021973
0.65388 0.305806 0.000991836
0.701823 0.303181 0
0.745068 0.297002 0.0030518
0.778271 0.289799 0.00167849
0.810575 0.281437 0
0.845457 0.270939 0.00350958
0.872633 0.255299 0.00151064
0.891768 0.233722 0.00062562
0.914305 0.209445 0.00207523
0.942367 0.166979 0.00323491
0.952865 0.12694 0.000198367
0.965438 0.11017 0.00224308
0.97557 0.109377 0
0.988266 0.111131 0.0018616
0.997452 0.109377 0.00350958
0 0.344457 0.0925612
0.0109255 0.343587 0.088365
0.0218662 0.338643 0.0802319
0.0328069 0.33785 0.0731975
0.0437476 0.337575 0.0640726
0.0585031 0.336812 0.0551156
0.066804 0.336507 0.0475624
0.0765545 0.335317 0.0386511
0.0887922 0.334691 0.0339971
0.098436 0.335958 0.0192111
0.153017 0.337972 0.00816358
0.243626 0.336522 0.00262455
0.312291 0.338323 0.000549325
0.369329 0.341711 0.00120546
0.425818 0.343343 0.000946059
0.478355 0.345678 0.00386053
0.533578 0.344457 0.000442512
0.582971 0.344106 0
0.636591 0.342031 0.00433356
0.684398 0.337728 0.00140383
0.729046 0.335866 0.00209049
0.767163 0.326345 0
0.803723 0.318837 0.000595102
0.834318 0.312215 0.00183108
0.862394 0.298207 0
0.887755 0.283803 0.000198367
0.91429 0.264164 0.00183108
0.934844 0.236866 0.000259403
0.95137 0.212192 0.00157168
0.963119 0.168505 0.00151064
0.975525 0.123507 0.00161746
0.986511 0.120302 0.00323491
0.997452 0.120302 0
0 0.371176 0.0860304
0.0134585 0.371176 0.084184
0.0234684 0.371176 0.0780652
0.0328069 0.370855 0.0711376
0.0445869 0.371618 0.0622873
0.0564279 0.371496 0.0558938
0.067216 0.371496 0.0487068
0.0769055 0.370535 0.0400244
0.088365 0.374685 0.0323339
0.0986954 0.375311 0.026688
0.119234 0.373281 0.0124208
0.203922 0.375723 0.00543221
0.283635 0.37528 0.00178531
0.347082 0.376196 0.00173953
0.404715 0.381842 0
0.462119 0.379431 0.00158694
0.514809 0.380728 0.00318914
0.567483 0.378927 0
0.615595 0.375219 0
0.656077 0.372122 0.00122072
0.701549 0.37026 0.00299077
0.741955 0.36582 0.00350958
0.778393 0.359686 0.00109865
0.811414 0.354788 0.000717174
0.845502 0.343374 0.00199893
0.870253 0.335988 0.00283818
0.900008 0.325948 0.00148013
0.921431 0.308217 0
0.938399 0.290562 0
0.964294 0.267872 0.00144961
0.977234 0.241337 0.00170901
0.989029 0.210178 0.00404364
0.994904 0.164385 0
0.00151064 0.430625 0.116701
0.0119326 0.428565 0.112718
0.0219272 0.423133 0.103822
0.0329442 0.420523 0.100221
0.0437476 0.420111 0.0868391
0.0548409 0.416831 0.0779889
0.0671397 0.415518 0.066865
0.0776989 0.415656 0.0566415
0.0888838 0.414954 0.0449226
0.098436 0.415625 0.0355535
0.113466 0.414282 0.029633
0.131136 0.419226 0.00610361
0.239048 0.413809 0.00077821
0.317983 0.415335 0.00151064
0.378866 0.417212 0.000656138
0.439551 0.420035 0
0.497734 0.41915 0
0.554742 0.417716 0.000549325
0.603616 0.414389 0.0030518
0.643381 0.410224 0.000900282
0.684596 0.403311 0.00273136
0.723186 0.399344 0.00234989
0.765164 0.395087 0
0.801938 0.388357 0.000427253
0.834775 0.375601 0
0.863462 0.36762 0
0.890959 0.356695 0.000289921
0.91696 0.343633 0.00151064
0.938628 0.326772 0.00128176
0.956893 0.310567 0
0.976699 0.284977 6.10361e-05
0.989059 0.257221 0.00105287
0.998962 0.225101 0.00151064
0.00254826 0.475257 0.127443
0.0123598 0.470542 0.118883
0.0229191 0.466651 0.11487
0.0352178 0.461738 0.110246
0.0449989 0.459815 0.100511
0.054902 0.457633 0.0879988
0.0656138 0.45832 0.0774701
0.0776837 0.456855 0.0622263
0.0889296 0.457572 0.0530861
0.098436 0.458442 0.0468299
0.109712 0.457755 0.0350042
0.12192 0.456123 0.0153811
0.177752 0.454856 0.00268559
0.288594 0.459113 0.00161746
0.360235 0.457588 0
0.426047 0.457023 0.0011902
0.486778 0.459403 0.000717174
0.544381 0.455329 0.000595102
0.592126 0.455177 0.00125124
0.633631 0.448646 0.000579843
0.676539 0.444282 0.00325017
0.715572 0.435828 0.00216678
0.751568 0.430671 0.00419623
0.786542 0.424262 0.00238041
0.822095 0.413199 0.0011902
0.852918 0.405066 0.00111391
0.881376 0.392416 0
0.909392 0.382071 0.000946059
0.93167 0.369375 0.00230411
0.951049 0.352956 0.00273136
0.97145 0.331807 0.00134279
0.989059 0.308019 0.00216678
1 0.282963 0
0.00239567 0.517662 0.135256
0.013489 0.515114 0.13135
0.0218662 0.50898 0.125216
0.0338903 0.505135 0.120165
0.0437476 0.504906 0.110567
0.0558785 0.500191 0.0995651
0.0656138 0.498466 0.0877852
0.0776226 0.499947 0.0738842
0.0887312 0.499474 0.063386
0.0991531 0.498833 0.0555734
0.111238 0.499962 0.0442054
0.121233 0.499763 0.0245212
0.132448 0.498116 0.0089723
0.235752 0.498787 0.000808728
0.336873 0.498466 0.000595102
0.407248 0.499901 0.00198367
0.474189 0.497185 0
0.532525 0.495903 0.00581369
0.579995 0.49456 0
0.62884 0.487785 0.00135805
0.669078 0.482658 0.00199893
0.710109 0.47689 0.00129702
0.743938 0.468833 0
0.778058 0.459602 0.0011902
0.811795 0.450294 0.0009308
0.844877 0.441001 0.00321965
0.873762 0.429877 0.00135805
0.90341 0.415885 0.00250248
0.92871 0.402884 0.0011902
0.948699 0.391516 0.000259403
0.969299 0.369345 0.00111391
0.987747 0.355428 0.00115969
1 0.32784 0.00239567
0 0.538231 0.126177
0.0109255 0.538277 0.121202
0.0219425 0.538155 0.118685
0.0328069 0.536721 0.114824
0.0437476 0.535683 0.10753
0.0557565 0.536965 0.101289
0.0658579 0.534401 0.0868238
0.0765545 0.535683 0.0763104
0.0874952 0.534096 0.0621347
0.0991531 0.535332 0.0584268
0.109773 0.536965 0.0525673
0.120745 0.536522 0.0358129
0.133318 0.533608 0.0203861
0.164889 0.538231 0.00334173
0.276829 0.536797 0.000717174
0.366308 0.538308 0.00187686
0.442008 0.535683 0.000640879
0.503761 0.535088 0.0011902
0.559548 0.533288 0.000717174
0.605814 0.527764 0
0.64889 0.522774 0.00047303
0.687831 0.515251 0
0.728038 0.510277 0.00128176
0.7626 0.501472 0.00163272
0.793332 0.492988 0.00222782
0.822995 0.485863 0.00128176
0.854002 0.474586 0.00103761
0.885725 0.46331 0
0.912764 0.453162 0
0.93489 0.439384 0
0.955428 0.426947 0
0.976562 0.414359 0.00135805
1 0.391669 0.00254826
0 0.592111 0.151751
0.011017 0.589639 0.146563
0.0218662 0.583352 0.142672
0.0339971 0.580682 0.136507
0.0449378 0.576089 0.131807
0.0560616 0.571893 0.121614
0.0658427 0.571969 0.109056
0.0765545 0.572778 0.0990158
0.0914931 0.568566 0.0896468
0.098436 0.572 0.073579
0.112169 0.569421 0.0638285
0.121126 0.570993 0.0565194
0.132265 0.574197 0.043183
0.143709 0.572198 0.0262608
0.178943 0.570581 0.00328069
0.316838 0.568765 0.00358587
0.401663 0.569085 0.00247196
0.47567 0.568536 0.00303655
0.533883 0.570062 0.00163272
0.587137 0.565118 0.00209049
0.634134 0.559655 0.00170901
0.672709 0.554513 0.0011902
0.710674 0.54757 0
0.747265 0.537865 0.000717174
0.783169 0.528115 0.00190738
0.815015 0.519615 0.000289921
0.841291 0.509224 0.00157168
0.871412 0.497002 0.0010071
0.899062 0.483925 0.000167849
0.926192 0.469032 0.00122072
0.951614 0.456535 0.00111391
0.971344 0.440284 0.00140383
0.991165 0.427771 0.00135805
0.00143435 0.629572 0.1617
0.0109255 0.62562 0.154086
0.0218662 0.620554 0.151507
0.0328069 0.616922 0.146365
0.0437476 0.614374 0.138949
0.0546883 0.610513 0.131594
0.0658274 0.609659 0.122042
0.0768749 0.609171 0.107286
0.0885786 0.607263 0.095552
0.098436 0.606226 0.0882734
0.110811 0.607828 0.0811475
0.121035 0.607462 0.0730144
0.132143 0.607324 0.0608988
0.142763 0.60795 0.0482948
0.157641 0.606943 0.0313878
0.24448 0.607004 0.00830091
0.366247 0.605188 0.00111391
0.448081 0.605951 0.000762951
0.510567 0.605646 0.000488289
0.57084 0.603372 0
0.616648 0.600946 0
0.662165 0.591424 0
0.703212 0.581552 0
0.74255 0.576028 0.000808728
0.777752 0.565805 0.000274662
0.805066 0.556756 0
0.837674 0.545342 0
0.86566 0.532357 0.00115969
0.892821 0.519982 0.000640879
0.91812 0.506493 0.00129702
0.942031 0.491447 7.62951e-05
0.967437 0.477348 0.00361639
0.985824 0.458778 0.00143435
0 0.661616 0.16672
0.0124056 0.659113 0.164218
0.0232853 0.654063 0.158602
0.0328069 0.651423 0.154177
0.0447852 0.645899 0.149203
0.0548409 0.647669 0.143313
0.0656138 0.646418 0.129732
0.0773632 0.645289 0.122652
0.0882734 0.642359 0.112123
0.098436 0.643168 0.106905
0.109377 0.643305 0.0980697
0.121828 0.642893 0.0885023
0.131899 0.6421 0.0797284
0.142184 0.64509 0.0724804
0.155215 0.642527 0.0597086
0.180728 0.642359 0.0423133
0.314992 0.642222 0.0197604
0.416693 0.642741 0.00349432
0.483711 0.640558 0.000457771
0.549035 0.638682 0.00180056
0.604135 0.637369 0.00077821
0.648524 0.632334 0.00167849
0.690913 0.622827 0.00047303
0.73077 0.612467 0.00137331
0.766781 0.606958 0.00268559
0.797177 0.593896 0
0.828473 0.582681 0
0.859281 0.568658 0
0.88716 0.554818 0
0.90927 0.540856 0.000946059
0.934661 0.526223 0.00291447
0.956664 0.508431 0.0010071
0.982071 0.493385 0.00103761
0.000961318 0.680751 0.159945
0.0118868 0.680751 0.154955
0.0228275 0.676081 0.151766
0.0328069 0.673808 0.150134
0.0437476 0.672557 0.146136
0.0556344 0.672007 0.141634
0.0666972 0.67068 0.132036
0.0767681 0.671412 0.127123
0.0889296 0.671275 0.121721
0.098436 0.672663 0.115816
0.110765 0.672282 0.110048
0.120943 0.671839 0.10515
0.131838 0.672511 0.0977035
0.143526 0.67248 0.089601
0.154192 0.672892 0.08336
0.166751 0.672129 0.0715648
0.23299 0.672633 0.0552834
0.368215 0.669169 0.035523
0.447471 0.6701 0.00704967
0.513207 0.669215 0.000564584
0.576288 0.667735 0.00199893
0.628244 0.66746 0.00326543
0.668055 0.661601 0.00030518
0.710079 0.653086 0
0.748165 0.645075 0.000793469
0.782605 0.633448 0
0.813321 0.623407 0.00158694
0.842069 0.612116 0.00215152
0.869749 0.597589 0.000198367
0.900206 0.585473 0.00288396
0.922103 0.572091 0
0.94403 0.560082 0.00154116
0.967498 0.545022 0.00158694
0 0.714961 0.183612
0.0109255 0.710842 0.179416
0.0218662 0.708324 0.172702
0.0343175 0.705882 0.169345
0.0437476 0.703883 0.167437
0.0561685 0.700801 0.159258
0.0664988 0.698299 0.151598
0.0765545 0.699107 0.145312
0.088365 0.70135 0.139864
0.098436 0.699748 0.134386
0.11104 0.696513 0.127535
0.120302 0.699306 0.123888
0.131579 0.699199 0.114031
0.143389 0.696117 0.108248
0.153124 0.698756 0.100084
0.164065 0.697993 0.092668
0.176669 0.698787 0.0816815
0.293065 0.697047 0.0675212
0.403845 0.697215 0.0495613
0.477028 0.697795 0.0250248
0.538827 0.696696 0.00500496
0.597177 0.69456 0.00144961
0.649577 0.692714 0.00140383
0.696544 0.687175 0.00144961
0.735698 0.676738 0.000411994
0.767483 0.667475 0.00334173
0.802152 0.656077 0
0.834531 0.644938 0.000137331
0.866133 0.630503 0.00352483
0.888884 0.615702 0.00151064
0.917205 0.602319 0.000976577
0.938262 0.586358 0
0.961761 0.570611 0
0 0.744381 0.195315
0.0109255 0.740124 0.187808
0.0218662 0.73753 0.184329
0.0336004 0.734188 0.17937
0.0460822 0.732006 0.172091
0.0564431 0.730678 0.167834
0.0657664 0.727474 0.163287
0.0765545 0.728328 0.157641
0.0892958 0.72987 0.15462
0.098436 0.728618 0.150607
0.110964 0.726116 0.145525
0.120912 0.728176 0.141711
0.13225 0.727779 0.135531
0.142977 0.727794 0.128801
0.153124 0.728099 0.12105
0.16582 0.729107 0.115587
0.176745 0.726925 0.110323
0.223804 0.728252 0.094377
0.36318 0.726116 0.0905776
0.448875 0.725002 0.075761
0.515724 0.725216 0.0586709
0.574823 0.723018 0.0326085
0.628305 0.72398 0.00567636
0.680919 0.722499 0
0.720607 0.711482 0.000793469
0.756573 0.702556 0
0.793866 0.691478 0
0.825513 0.676341 0.000793469
0.853452 0.66424 0.000701915
0.881544 0.649256 0.00158694
0.908827 0.634928 4.57771e-05
0.931655 0.618296 4.57771e-05
0.956664 0.605615 0.00158694
0 0.77116 0.200259
0.0109255 0.768612 0.196994
0.0225376 0.764508 0.192096
0.0328069 0.765347 0.187518
0.0439765 0.763516 0.180545
0.0568399 0.757595 0.17792
0.0694133 0.756725 0.172351
0.0783856 0.758984 0.16936
0.0874952 0.760967 0.167178
0.0997482 0.754757 0.164569
0.111345 0.754177 0.165286
0.120302 0.755398 0.165515
0.133196 0.75378 0.163088
0.143267 0.755261 0.152804
0.153933 0.754345 0.148333
0.165896 0.754376 0.144793
0.17847 0.753674 0.138521
0.187137 0.753017 0.122515
0.318791 0.752697 0.121477
0.416541 0.751812 0.11107
0.488075 0.750088 0.10515
0.549355 0.752117 0.087953
0.607233 0.751308 0.0629435
0.660731 0.74873 0.0315099
0.711543 0.744579 0.00907912
0.746914 0.737224 0.00128176
0.782177 0.725765 0.000854505
0.817014 0.710399 0.000610361
0.847059 0.699321 0
0.876783 0.684977 0.000244144
0.902083 0.666636 0.00263981
0.925566 0.65536 1.5259e-05
0.950454 0.638621 0
0 0.788876 0.193729
0.0127871 0.788876 0.190021
0.022034 0.787121 0.189349
0.03299 0.783322 0.18407
0.0445411 0.784085 0.183291
0.0546883 0.783429 0.182254
0.0661326 0.782452 0.178668
0.0765545 0.783276 0.178576
0.0874952 0.782345 0.178592
0.0988937 0.783948 0.178897
0.111681 0.778241 0.181186
0.120302 0.78143 0.177996
0.133639 0.777951 0.178668
0.145357 0.779339 0.175662
0.153475 0.780194 0.170581
0.164691 0.78085 0.167056
0.175631 0.77995 0.158358
0.185931 0.777707 0.151064
0.241398 0.780148 0.146761
0.377188 0.776379 0.142306
0.456367 0.777722 0.133745
0.520317 0.774594 0.127352
0.576135 0.775494 0.111208
0.630655 0.775311 0.0975357
0.681819 0.771832 0.0794995
0.726543 0.768978 0.053727
0.767971 0.766918 0.0201877
0.799756 0.749401 0.00383001
0.831266 0.736614 0.00199893
0.859113 0.725185 0
0.884047 0.711452 0.000762951
0.91725 0.700069 0.00190738
0.939467 0.684993 0
0.00199893 0.81239 0.214115
0.0109255 0.81294 0.209049
0.0238651 0.810407 0.204486
0.0328527 0.805539 0.199069
0.0457313 0.805798 0.198825
0.056672 0.804746 0.194903
0.0676127 0.804746 0.191043
0.0765545 0.802762 0.188312
0.0889906 0.804257 0.190646
0.100511 0.80061 0.191577
0.109758 0.802609 0.189166
0.120989 0.802243 0.194507
0.132738 0.802197 0.196277
0.143648 0.798444 0.193774
0.153613 0.800214 0.188235
0.164065 0.801678 0.180407
0.17583 0.800641 0.17966
0.187259 0.798978 0.176318
0.19823 0.79884 0.172076
0.314427 0.799176 0.170504
0.414923 0.798962 0.156985
0.483467 0.798215 0.151858
0.543587 0.797864 0.143557
0.597345 0.794949 0.134615
0.646922 0.79292 0.121294
0.694575 0.79144 0.0982223
0.743404 0.791623 0.0735027
0.784146 0.782284 0.0478065
0.818372 0.766995 0.0184634
0.846159 0.756909 0.00354009
0.875654 0.744091 0
0.904067 0.726543 7.62951e-05
0.930617 0.70956 0.000564584
0.00254826 0.83592 0.219699
0.011017 0.835462 0.212253
0.0218662 0.835309 0.211917
0.0332799 0.831296 0.205264
0.0438087 0.832853 0.20058
0.0546883 0.830335 0.197711
0.067689 0.826673 0.202335
0.0786297 0.826307 0.202914
0.0895705 0.826322 0.20293
0.0987716 0.828412 0.203281
0.109514 0.827298 0.205814
0.120302 0.82565 0.213489
0.131426 0.827024 0.222065
0.142382 0.823072 0.219608
0.154025 0.82324 0.21445
0.164065 0.822721 0.209689
0.17499 0.821347 0.207828
0.18616 0.819303 0.201816
0.196872 0.822217 0.196918
0.288136 0.823087 0.19649
0.395865 0.820508 0.190463
0.4654 0.822141 0.183948
0.526925 0.818586 0.173861
0.580438 0.817487 0.16321
0.633097 0.815518 0.155886
0.677378 0.812787 0.145693
0.725399 0.81091 0.125948
