LUTS/Secondary LUTS/MACBETH.cube
TITLE "Generated by Resolve"
LUT_3D_SIZE 9
0 0 0
0.0119326 0.000595102 0
0.0643168 0.0178073 0
0.133516 0.0349584 0
0.24416 0.0285649 0
0.382467 0.00244144 0
0.522011 0 0
0.6533 0 0
0.78793 0 0
0 0.0527352 0.000946059
0 0.0556802 0
0.0603799 0.0718395 0
0.15375 0.0825818 0
0.265385 0.0877699 0
0.40647 0.0855268 0
0.537209 0.0733806 0
0.66949 0.0594492 0
0.796551 0.084596 0
0 0.140383 0.0102541
0 0.140078 0.00949111
0.0413062 0.152132 0
0.154665 0.166812 0
0.286122 0.187472 0
0.442954 0.203632 0
0.579995 0.209781 0
0.697444 0.22031 0
0.81622 0.249317 0
0 0.248096 0.0089723
0 0.248478 0
0 0.251331 0
0.130861 0.269444 0
0.27538 0.283421 0
0.419745 0.293919 0
0.574182 0.325887 0
0.72639 0.367132 0
0.844526 0.403677 0
0 0.367254 0
0 0.367895 0
0 0.361074 0
0.115084 0.364858 0
0.253742 0.383307 0
0.393973 0.402625 0
0.524178 0.407889 0
0.675654 0.456336 0
0.821668 0.512474 0
0 0.48423 0
0 0.483574 0
0 0.480201 0
0.0775921 0.464912 0
0.244266 0.48246 0
0.380575 0.502266 0
0.513848 0.52549 0
0.633478 0.543648 0
0.763836 0.582727 0
0 0.612299 0
0 0.617563 0
0 0.614145 0
0 0.611002 0
0.257694 0.606592 0
0.39765 0.624338 0
0.525109 0.650706 0
0.644724 0.677684 0
0.762829 0.70515 0
0 0.775021 0
0 0.78201 0
0 0.786679 0
0.0360418 0.78558 0
0.325307 0.786252 0
0.470466 0.802533 0
0.592187 0.82359 0
0.700954 0.844694 0
0.81471 0.871839 0
0 0.947509 0
0 0.955474 0
0.107988 0.962982 0
0.342672 0.968627 0
0.499367 0.972168 0
0.622675 0.964981 0
0.705211 0.968902 0
0.798321 0.974304 0
0.885969 0.980789 0
0 0.00321965 0.0310674
0.00714122 0.00776684 0.0206607
0.0727703 0.0215915 0.0288548
0.160571 0.0345617 0.0278172
0.274769 0.0262303 0.023209
0.413291 0 0.0160525
0.545632 0 0.0115816
0.674937 0 0
0.808988 0 0
0 0.0567178 0.0497444
0.0116732 0.0655985 0.051133
0.0822766 0.0762493 0.045182
0.178851 0.0830701 0.0415503
0.298024 0.0885176 0.0366522
0.433982 0.0797742 0.0281376
0.564034 0.0615396 0.0201419
0.692042 0.0580148 0.00291447
0.821775 0.0874647 0
0 0.153994 0.0926223
0 0.158785 0.0671397
0.0694743 0.164157 0.0542916
0.193866 0.175509 0.0415198
0.330007 0.193622 0.0444495
0.472023 0.204685 0.0368353
0.598001 0.210971 0.0229953
0.722316 0.22446 0
0.838529 0.250385 0
0 0.276036 0.113375
0 0.279591 0.0784924
0.0188602 0.267033 0.0664683
0.173129 0.286152 0.0353704
0.31603 0.292424 0
0.463142 0.30605 0
0.617609 0.336645 0
0.749325 0.378927 0
0.862989 0.403967 0
0 0.39527 0.0972457
0 0.394812 0.0773327
0 0.387457 0.0614939
0.154162 0.383993 0.0458534
0.292927 0.399344 0
0.43711 0.417319 0
0.564141 0.423026 0
0.718776 0.470497 0
0.854276 0.52694 0
0 0.514595 0.0831769
0 0.51252 0.067216
0 0.505135 0.0464485
0.107683 0.491432 0.027451
0.27837 0.498421 0
0.413809 0.516396 0
0.548409 0.535409 0
0.658793 0.549706 0
0.80354 0.598978 0
0 0.639307 0.0406043
0 0.639948 0.00730907
0 0.637385 0
0.00611887 0.626932 0
0.286793 0.614328 0
0.424643 0.633097 0
0.54786 0.659388 0
0.668681 0.686259 0
0.788266 0.704356 0
0 0.789899 0
0 0.794308 0
0 0.795972 0
0 0.794217 0
0.324269 0.793317 0
0.479942 0.802197 0
0.603021 0.821271 0
0.717937 0.846754 0
0.83566 0.872587 0
0 0.949065 0.0802167
0 0.960296 0.0895094
0 0.962768 0.0996719
0.308248 0.970596 0.114549
0.488472 0.974777 0.137774
0.623072 0.969207 0.132891
0.716838 0.969558 0.0875563
0.81236 0.976684 0
0.898466 0.980575 0
0 0.0131533 0.0997177
0.0124514 0.0252232 0.0924544
0.0786908 0.0402838 0.085771
0.174578 0.0478218 0.0924239
0.314672 0.00373846 0.0859083
0.448218 0 0.0840467
0.574487 0 0.0758526
0.704387 0 0.0615396
0.829862 0 0.0570535
0 0.0815747 0.130495
0 0.0795911 0.128954
0.0878462 0.0926375 0.122164
0.201083 0.10042 0.118898
0.334432 0.0787213 0.106966
0.464515 0.0726787 0.105364
0.591882 0.0564126 0.098497
0.720027 0.0474403 0.0936141
0.847639 0.0870069 0.0733654
0 0.159625 0.169848
0 0.169024 0.165499
0.11133 0.18468 0.165225
0.240726 0.192035 0.151141
0.368307 0.198077 0.143114
0.502281 0.201816 0.12903
0.621195 0.209888 0.119387
0.745907 0.220829 0.116808
0.860655 0.252155 0.0988022
0 0.298039 0.255711
0 0.306203 0.229694
0.0271305 0.309895 0.17847
0.230442 0.306432 0.152621
0.37351 0.311131 0.133394
0.530053 0.33608 0.145541
0.663233 0.363775 0.152224
0.7738 0.382254 0.138582
0.880247 0.403433 0.124208
0 0.434592 0.278492
0 0.440589 0.258289
0 0.430961 0.183185
0.208804 0.409934 0.16585
0.346456 0.426261 0.136568
0.49044 0.435981 0.0977493
0.618799 0.452995 0.0785992
0.758251 0.499016 0.0984054
0.887968 0.549142 0.13933
0 0.559686 0.281804
0 0.560723 0.229603
0 0.548974 0.189197
0.148699 0.525658 0.166064
0.327718 0.518044 0.137057
0.458213 0.537026 0.0893721
0.590784 0.557702 0
0.704631 0.564706 0
0.845945 0.623758 0
0 0.680278 0.239307
0 0.678614 0.188174
0 0.669078 0.168048
0 0.658976 0.133455
0.310628 0.633875 0.102815
0.452949 0.645655 0.0274205
0.576028 0.666499 0
0.696864 0.690288 0
0.809506 0.709972 0
0 0.812375 0.184802
0 0.817319 0.158968
0 0.813443 0.127596
0 0.806806 0.0894789
0.306493 0.801297 0.00859083
0.486122 0.804074 0
0.611856 0.822156 0
0.734417 0.849515 0
0.850019 0.869932 0
0 0.956481 0.237873
0 0.965286 0.228748
0 0.96936 0.228504
0.221271 0.96939 0.229175
0.458961 0.9729 0.236286
0.618982 0.974197 0.22826
0.727901 0.971206 0.200412
0.817105 0.97673 0.158602
0.907042 0.983581 0.0617838
0 0.0286717 0.20528
0 0.0390936 0.195163
0.108278 0.0669261 0.186404
0.215991 0.0678264 0.180179
0.361303 0.0659648 0.192355
0.499336 0 0.178912
0.619043 0 0.15523
0.729534 0 0.148638
0.858244 0 0.150805
0 0.0961776 0.240543
0 0.0952163 0.231205
0.125887 0.11191 0.229206
0.232593 0.121859 0.221103
0.38175 0.132921 0.228397
0.52697 0.0808118 0.21265
0.632364 0.00628672 0.184085
0.742031 0.0380102 0.181888
0.866667 0.0737926 0.174655
0 0.20734 0.274693
0 0.20911 0.274983
0.111192 0.205371 0.27277
0.270985 0.227756 0.264042
0.407721 0.226352 0.259495
0.537957 0.207111 0.243503
0.650889 0.214252 0.225101
0.76553 0.223331 0.210254
0.880766 0.247547 0.200183
0 0.296742 0.321401
0 0.304952 0.317266
0.13962 0.321904 0.310521
0.303655 0.346349 0.307424
0.446311 0.356802 0.29305
0.576608 0.358495 0.280232
0.687739 0.369055 0.263691
0.791577 0.387671 0.252064
0.897948 0.406897 0.240177
0 0.443061 0.414389
0 0.474083 0.411749
0.0774701 0.481285 0.375341
0.265568 0.472923 0.313466
0.414313 0.465324 0.281132
0.552254 0.465019 0.251865
0.683558 0.497887 0.252476
0.805493 0.534737 0.277531
0.908095 0.565026 0.286503
0 0.603784 0.444282
0 0.607584 0.417762
0.0262455 0.606058 0.384878
0.181247 0.589059 0.313268
0.385687 0.555642 0.274128
0.516335 0.5729 0.24329
0.640452 0.584619 0.20209
0.759976 0.597253 0.172488
0.886442 0.646876 0.208988
0 0.720027 0.444434
0 0.721462 0.422889
0 0.717357 0.35758
0 0.696315 0.294926
0.325383 0.675608 0.248051
0.482383 0.667109 0.206165
0.609247 0.685618 0.163638
0.728969 0.707439 0.0851453
0.847913 0.714214 0
0 0.83653 0.431327
0 0.843046 0.386633
0 0.839963 0.305425
0 0.833936 0.262486
0.257237 0.821546 0.215808
0.487098 0.803677 0.161563
0.618723 0.828061 0.106752
0.743297 0.85478 0
0.866209 0.873213 0
0 0.96289 0.437797
0 0.970733 0.389425
0 0.973999 0.348592
0.0174258 0.977279 0.342611
0.398093 0.978378 0.332219
0.598032 0.974594 0.323613
0.723064 0.971191 0.306691
0.827192 0.978317 0.275303
0.913603 0.982361 0.22063
0 0.0536202 0.324514
0 0.0635386 0.319356
0.125368 0.0807965 0.315267
0.284794 0.10576 0.307836
0.400259 0.0972152 0.306386
0.564263 0.104936 0.311955
0.678264 0.00315862 0.294423
0.791806 0 0.26685
0.890639 0 0.237339
0 0.111986 0.365148
0 0.11342 0.362539
0.129 0.135683 0.354833
0.315862 0.170535 0.353765
0.425727 0.160586 0.342184
0.581216 0.185855 0.352346
0.695201 0.139971 0.330953
0.800259 0.0630503 0.301595
0.897139 0.00386053 0.268986
0 0.237308 0.394888
0 0.232166 0.39527
0.0994888 0.225132 0.39469
0.347372 0.262348 0.384283
0.457725 0.272343 0.372885
0.596704 0.294423 0.387472
0.709789 0.257145 0.361822
0.807355 0.219226 0.325536
0.896284 0.235935 0.301274
0 0.348028 0.427222
0 0.354101 0.42388
0.047425 0.372732 0.416968
0.333349 0.373068 0.4262
0.494179 0.400092 0.425116
0.613626 0.39585 0.409354
0.712383 0.370962 0.37496
0.812619 0.380926 0.353765
0.911788 0.398383 0.342489
0 0.450813 0.470008
0 0.460151 0.468879
0.213107 0.474952 0.461616
0.376577 0.505425 0.466941
0.501854 0.521004 0.445686
0.631922 0.532326 0.429175
0.737942 0.545281 0.423346
0.833539 0.554223 0.406302
0.920241 0.566567 0.383169
0 0.595331 0.547127
0.0440681 0.619135 0.555444
0.178882 0.651926 0.550164
0.349279 0.654017 0.512459
0.449928 0.631708 0.43769
0.578088 0.614359 0.396078
0.690532 0.616526 0.357595
0.811231 0.640085 0.361776
0.918822 0.683726 0.397925
0 0.763653 0.605081
0 0.760464 0.581689
0.0977646 0.761227 0.551888
0.29688 0.751095 0.5019
0.347265 0.732525 0.410163
0.515846 0.698421 0.356497
0.640833 0.708858 0.318502
0.763699 0.726284 0.277653
0.883696 0.738369 0.235691
0 0.86276 0.601419
0 0.866407 0.581598
0 0.869734 0.539849
0.0473945 0.862898 0.475639
0.187213 0.852079 0.381598
0.471092 0.835203 0.329946
0.625971 0.833799 0.278828
0.754406 0.856718 0.241733
0.884489 0.87747 0.171588
0 0.965591 0.629938
0 0.971115 0.606806
0.0456092 0.97464 0.570153
0 0.982345 0.493446
0.318059 0.983124 0.450965
0.562554 0.984543 0.436912
0.721386 0.979644 0.415244
0.828794 0.980728 0.394522
0.921126 0.98584 0.350439
0 0.0800946 0.463691
0 0.0913558 0.451499
0.118013 0.106355 0.446998
0.350958 0.13994 0.444572
0.49221 0.142733 0.435706
0.609522 0.149157 0.427268
0.73901 0.19411 0.438407
0.845975 0.157748 0.423438
0.933745 0.0980392 0.388998
0 0.13637 0.485084
0 0.139696 0.484092
0.115557 0.158419 0.484672
0.364477 0.196902 0.484474
0.518395 0.221515 0.474022
0.619257 0.22121 0.461982
0.74966 0.265278 0.467445
0.849714 0.250324 0.457481
0.940215 0.214176 0.427039
0 0.264469 0.518242
0 0.247852 0.513436
0.0772717 0.2486 0.515007
0.374609 0.284596 0.514229
0.553765 0.338033 0.515297
0.643397 0.333837 0.495201
0.758389 0.380133 0.508614
0.853513 0.362432 0.488106
0.941863 0.320027 0.454368
0 0.394491 0.534844
0 0.401312 0.533257
0.150805 0.397101 0.530022
0.363699 0.394339 0.54728
0.570077 0.454231 0.545876
0.661067 0.4645 0.533593
0.767132 0.496132 0.541024
0.851896 0.456214 0.506905
0.938582 0.407507 0.462119
0 0.502754 0.562661
0 0.508507 0.563943
0.0746624 0.52015 0.557763
0.338384 0.541283 0.551873
0.549371 0.555505 0.563302
0.669978 0.592355 0.566629
0.763546 0.571115 0.540627
0.844144 0.542763 0.504677
0.934569 0.549828 0.478599
0 0.60795 0.600214
0.106508 0.613138 0.598093
0.304219 0.623819 0.594934
0.452384 0.641062 0.59176
0.569162 0.67216 0.60264
0.658732 0.684199 0.56817
0.758724 0.686824 0.552819
0.855131 0.707454 0.551949
0.934447 0.715236 0.534066
0.209674 0.727672 0.668238
0.276951 0.743954 0.675563
0.349355 0.772396 0.684443
0.40708 0.799268 0.671809
0.520989 0.789807 0.623072
0.584527 0.767025 0.537179
0.694133 0.7449 0.485863
0.805386 0.752209 0.454612
0.922423 0.778653 0.464195
0.0116274 0.887449 0.754574
0.117403 0.891752 0.732464
0.25275 0.890898 0.708034
0.356756 0.890181 0.672602
0.459846 0.88011 0.610254
0.486702 0.86479 0.501549
0.635523 0.844053 0.435416
0.772686 0.860395 0.400366
0.903624 0.882109 0.359854
0.15967 0.971206 0.770626
0.223056 0.977661 0.755871
0.309499 0.978698 0.731487
0.395346 0.983368 0.696681
0.445075 0.985275 0.629602
0.5234 0.9906 0.554635
0.706477 0.982605 0.527718
0.829648 0.981399 0.505943
0.923552 0.989349 0.473884
0 0.113588 0.574395
0 0.118624 0.570016
0.116686 0.135882 0.566445
0.395621 0.163989 0.566064
0.583185 0.232609 0.567117
0.680369 0.214343 0.554559
0.773785 0.248127 0.54165
0.881697 0.329549 0.557641
0.96846 0.334554 0.542855
0 0.165118 0.601709
0 0.169879 0.598001
0.107912 0.190799 0.601663
0.401679 0.222278 0.598001
0.594034 0.287541 0.598886
0.69601 0.29427 0.587716
0.78233 0.317372 0.573632
0.882048 0.385779 0.581552
0.967681 0.409461 0.576303
0 0.289982 0.627817
0 0.277241 0.624292
0.088716 0.27808 0.627634
0.412009 0.314977 0.626856
0.601114 0.379202 0.621927
0.714565 0.42089 0.618158
0.79173 0.419944 0.603876
0.877623 0.488212 0.611078
0.955337 0.499565 0.601328
0 0.445487 0.644648
0 0.439597 0.649012
0.150027 0.420737 0.640208
0.394171 0.424765 0.647929
0.597589 0.48893 0.65359
0.728725 0.549035 0.647349
0.788113 0.540276 0.632746
0.875074 0.590341 0.644251
0.953353 0.57734 0.626093
0 0.561105 0.654414
0 0.561166 0.648875
0.052781 0.566461 0.649256
0.399924 0.572427 0.658274
0.570123 0.581628 0.665629
0.73051 0.650919 0.672679
0.793561 0.656397 0.662791
0.873045 0.677958 0.664408
0.947143 0.630762 0.62356
0 0.651072 0.688396
0 0.654902 0.682918
0.173846 0.664149 0.678553
0.379751 0.677775 0.67306
0.533059 0.696056 0.674113
0.693294 0.719951 0.680949
0.796674 0.753491 0.695216
0.866178 0.72105 0.653788
0.942382 0.70161 0.618235
0.0213626 0.744549 0.729702
0.246052 0.746014 0.722362
0.377874 0.756786 0.713024
0.502312 0.768277 0.71577
0.613306 0.786404 0.717083
0.703456 0.819196 0.730419
0.769177 0.808423 0.673152
0.85124 0.810697 0.648371
0.939971 0.832639 0.658473
0.357229 0.842405 0.781781
0.40174 0.858412 0.792981
0.468879 0.879484 0.804028
0.524712 0.895918 0.80415
0.571771 0.910048 0.782834
0.64358 0.902266 0.729976
0.683894 0.882536 0.62269
0.797589 0.876173 0.572473
0.923278 0.885222 0.533623
0.404395 0.964645 0.880308
0.4 0.978668 0.879728
0.443519 0.983337 0.867857
0.501808 0.985656 0.838605
0.574075 0.982849 0.804074
0.643091 0.989029 0.758206
0.68751 0.989715 0.661006
0.828336 0.985428 0.627604
0.930999 0.988586 0.59704
0 0.15761 0.68249
0 0.165469 0.677668
0.140291 0.181567 0.67602
0.42916 0.212863 0.677943
0.621332 0.276692 0.678965
0.741894 0.339925 0.67068
0.822385 0.329671 0.659998
0.904723 0.389319 0.653025
0.974563 0.482734 0.65774
0 0.20708 0.710445
0 0.21091 0.705074
0.146914 0.231662 0.703365
0.437598 0.262364 0.700969
0.626719 0.33257 0.703044
0.75407 0.418784 0.703258
0.830152 0.408362 0.685695
0.89926 0.444907 0.673045
0.973083 0.529656 0.684352
0 0.329976 0.733349
0 0.309133 0.730755
0.138689 0.320302 0.728862
0.442267 0.359716 0.723766
0.629831 0.420996 0.723827
0.759167 0.510674 0.722927
0.835737 0.515343 0.706859
0.898497 0.537728 0.703685
0.962951 0.606683 0.714153
0 0.47364 0.747539
0 0.465324 0.748882
0.181048 0.451698 0.745434
0.435447 0.468193 0.748028
0.623713 0.525979 0.745556
0.759533 0.601572 0.746975
0.833021 0.630716 0.735256
0.889525 0.632578 0.726818
0.953262 0.684337 0.736934
0 0.600397 0.764569
0 0.601663 0.759716
0.269551 0.603586 0.762631
0.437858 0.595163 0.757305
0.602502 0.617182 0.761761
0.746944 0.681971 0.766812
0.839307 0.733776 0.766918
0.890852 0.727367 0.75523
0.947295 0.765469 0.76405
0 0.704005 0.783047
0 0.704448 0.772229
0 0.706584 0.765682
0.308324 0.712886 0.765576
0.563943 0.729015 0.768414
0.714519 0.7402 0.779339
0.835248 0.80737 0.79292
0.884871 0.810315 0.783749
0.939315 0.820066 0.781643
0 0.785412 0.813413
0 0.787213 0.812818
0.253208 0.795468 0.809445
0.416052 0.798276 0.796033
0.560967 0.808499 0.791104
0.677531 0.822339 0.785199
0.79292 0.849699 0.790158
0.885634 0.874556 0.804639
0.941558 0.837232 0.752804
0.263355 0.863233 0.855497
0.362768 0.864958 0.847013
0.458534 0.871351 0.840055
0.550149 0.878264 0.831479
0.65658 0.885695 0.835569
0.741085 0.90219 0.839475
0.804456 0.918853 0.839155
0.84799 0.905211 0.765606
0.92987 0.908537 0.738689
0.49752 0.931823 0.887465
0.534524 0.940673 0.899748
0.581567 0.949828 0.909255
0.640452 0.962737 0.914519
0.686458 0.979721 0.920806
0.722225 0.989517 0.904982
0.772396 0.99263 0.869184
0.820722 0.992584 0.778958
0.919814 0.992554 0.741253
0 0.218479 0.788739
0 0.227909 0.781933
0.191684 0.249607 0.777356
0.467216 0.277516 0.778897
0.651957 0.345907 0.775372
0.777615 0.443259 0.771435
0.856703 0.473487 0.764935
0.926314 0.46836 0.747356
0.980819 0.544121 0.743389
0 0.269841 0.815518
0 0.274922 0.8094
0.215824 0.29456 0.80116
0.471809 0.330755 0.798184
0.653834 0.396979 0.795956
0.778042 0.491218 0.796338
0.861769 0.543969 0.783963
0.923751 0.534997 0.775082
0.977966 0.586252 0.765591
0 0.385199 0.835431
0 0.369543 0.830701
0.232517 0.385016 0.821347
0.482902 0.422995 0.82182
0.654749 0.488014 0.817746
0.778103 0.566064 0.813642
0.862974 0.635462 0.803235
0.92047 0.626276 0.799863
0.969543 0.652064 0.788922
0 0.521752 0.85478
0 0.513344 0.852506
0.263645 0.495521 0.845457
0.480903 0.524971 0.847089
0.655863 0.579751 0.835843
0.774151 0.646189 0.836255
0.860975 0.718029 0.831434
0.913176 0.712642 0.827924
0.957412 0.723156 0.810498
0 0.656504 0.867247
0.200107 0.650385 0.865705
0.357122 0.644572 0.86157
0.486488 0.638285 0.862104
0.632868 0.660426 0.85568
0.76672 0.715328 0.856199
0.858976 0.778119 0.849836
0.90544 0.801434 0.844633
0.949248 0.795224 0.841825
0 0.753796 0.885451
0 0.750744 0.881544
0.197314 0.749767 0.87039
0.456657 0.753857 0.868894
0.612787 0.760678 0.868498
0.732952 0.771969 0.871489
0.84567 0.826062 0.872572
0.909148 0.867658 0.870542
0.937057 0.862058 0.861585
0 0.835401 0.910338
0 0.834943 0.90045
0.0299077 0.837781 0.897063
0.325154 0.839704 0.889189
0.490455 0.84564 0.876799
0.677867 0.855161 0.880049
0.817487 0.866026 0.877073
0.90312 0.914153 0.895323
0.933501 0.913527 0.886397
0.135439 0.897978 0.936538
0.28983 0.90277 0.933364
0.392889 0.904601 0.92813
0.499107 0.906401 0.918288
0.603555 0.911971 0.908309
0.701289 0.918212 0.905974
0.790082 0.925078 0.901579
0.874388 0.938567 0.89807
0.928298 0.955291 0.904295
0.48098 0.953399 0.960784
0.524224 0.957778 0.963561
0.580957 0.958038 0.956115
0.640314 0.958648 0.953506
0.71606 0.961944 0.942672
0.780362 0.965591 0.938094
0.834348 0.98088 0.954421
0.870634 0.99263 0.949432
0.916701 0.989334 0.887205
