LUTS/Secondary LUTS/MACBETH.cube
TITLE "Generated by Resolve"
LUT_3D_SIZE 33
0 0 0
0 0 0
0 0 0
0.00572213 0 0
0.0119326 0.000595102 0
0.0259098 0.00317388 0
0.0399023 0.00741588 0
0.0512856 0.00801099 0
0.0643168 0.0178073 0
0.0717632 0.0207065 0
0.0974289 0.0299382 0
0.117418 0.0289921 0
0.133516 0.0349584 0
0.162554 0.0343786 0
0.188006 0.0294957 0
0.214405 0.0335088 0
0.24416 0.0285649 0
0.277882 0.024506 0
0.310384 0.018555 0
0.346242 0.0140993 0
0.382467 0.00244144 0
0.414038 0 0
0.449531 0 0
0.485832 0 0
0.522011 0 0
0.553628 0 0
0.585641 0 0
0.618311 0 0
0.6533 0 0
0.687587 0 0
0.717128 0 0
0.751904 0 0
0.78793 0 0
0 0.00390631 0
0 0.00709544 0
0 0.00660716 0
0.000869764 0.00753796 0
0.0125887 0.0103609 0
0.0231022 0.0171054 0
0.0382849 0.0212863 0
0.0510567 0.0222019 0
0.0633707 0.0264897 0
0.0716869 0.0287175 0
0.0984665 0.0384527 0
0.112871 0.0400244 0
0.143908 0.0404517 0
0.161349 0.045182 0
0.194064 0.0388037 0
0.216175 0.0456245 0
0.249195 0.0396887 0
0.280674 0.0389105 0
0.314 0.0314488 0
0.34107 0.0263828 0
0.385885 0.00909438 0
0.418952 0.0055848 0
0.453788 0 0
0.488457 0 0
0.522103 0 0
0.553567 0 0
0.587411 0 0
0.621241 0 0
0.653346 0 0
0.687892 0 0
0.722332 0 0
0.755795 0 0
0.787259 0 0
0 0.0191348 0
0 0.0177768 0
0 0.0224002 0
0.00419623 0.0218967 0
0.0104372 0.0259556 0
0.0187533 0.0288701 0
0.0366064 0.0320745 0
0.0504005 0.0343023 0
0.0635233 0.0375372 0
0.0810559 0.040238 0
0.0979477 0.0458839 0
0.114809 0.0514687 0
0.14519 0.0500954 0
0.167987 0.0501564 0
0.19765 0.053727 0
0.221851 0.0559243 0
0.251987 0.0543832 0
0.285313 0.0512856 0
0.318563 0.0486763 0
0.353491 0.0412146 0
0.386435 0.0364996 0
0.425101 0.0250706 0
0.455238 0.0119783 0
0.493919 0.00204471 0
0.525414 0 0
0.554894 0 0
0.590967 0 0
0.622675 0 0
0.654627 0 0
0.690227 0 0
0.724376 0 0
0.756054 0 0
0.789334 0 0
0 0.0307164 0
0 0.0342107 0
0 0.0377508 0
0.000762951 0.037583 0
0.00369268 0.0428168 0
0.0229496 0.0424811 0
0.0326238 0.0438239 0
0.0451514 0.0508583 0
0.062623 0.0533303 0
0.0827344 0.0582437 0
0.0974594 0.0605936 0
0.119905 0.0623331 0
0.148089 0.0626535 0
0.174166 0.0678721 0
0.198947 0.0686656 0
0.226459 0.0708019 0
0.256626 0.0686046 0
0.289799 0.0674907 0
0.325154 0.0685588 0
0.358053 0.0641184 0
0.397177 0.0596628 0
0.43154 0.0499428 0
0.462821 0.0461585 0
0.496666 0.0373846 0
0.52723 0.0317693 0
0.5617 0.0211337 0
0.595941 0.0171511 0
0.628641 0.00636301 0
0.663752 0 0
0.694697 0 0
0.727138 0.00202945 0
0.757839 0.00717174 0
0.789746 0.0162203 0
0 0.0527352 0.000946059
0 0.0521401 0
0 0.0533455 0
0 0.0539406 0
0 0.0556802 0
0.0188907 0.0572824 0
0.0331121 0.0619364 0
0.0428626 0.0649577 0
0.0603799 0.0718395 0
0.0775158 0.07187 0
0.102434 0.0762341 4.57771e-05
0.125414 0.0822309 0
0.15375 0.0825818 0
0.176028 0.0886397 0
0.20618 0.0867781 0
0.234134 0.0876173 0
0.265385 0.0877699 0
0.300801 0.0885023 0
0.332158 0.0882582 0
0.370596 0.0872663 0
0.40647 0.0855268 0
0.437827 0.0776837 0
0.477043 0.074342 0
0.506737 0.076051 0
0.537209 0.0733806 0
0.569635 0.0677806 0
0.603662 0.0604715 0
0.633799 0.0602121 0
0.66949 0.0594492 0
0.700389 0.0644694 0
0.73286 0.069688 0
0.765072 0.0739452 0
0.796551 0.084596 0
0 0.0700694 0.0113069
0 0.070985 0.00663767
0 0.071046 0.00260929
0 0.0719921 0.00468452
0 0.0750134 0.00636301
0.00695811 0.0786755 0.00238041
0.0240177 0.078645 0.00151064
0.0447395 0.0833753 0
0.0635386 0.0853132 0
0.0810101 0.0906996 0
0.105089 0.0950637 0
0.123995 0.100252 0
0.155703 0.103182 0
0.185046 0.107347 0
0.211093 0.111666 0
0.243198 0.11342 0.000198367
0.275776 0.114305 0
0.312688 0.115129 0
0.342428 0.112062 0
0.378332 0.114946 0
0.413886 0.113924 0
0.449027 0.112352 0
0.482063 0.10782 0
0.515694 0.108293 0
0.550713 0.1075 0
0.581598 0.103334 0
0.610315 0.103822 0
0.642237 0.104143 0
0.672465 0.104021 0
0.701228 0.110658 0
0.733257 0.115282 0
0.767971 0.121355 0
0.797147 0.131151 0
0 0.0942702 0.0108644
0 0.0952621 0.00720226
0 0.096849 0.00802625
0 0.0930495 0.00276188
0 0.0951553 0.00459297
0 0.100633 0.0115053
0.0081178 0.102251 0.00537118
0.0328679 0.109041 0
0.0533761 0.111727 0
0.0861372 0.109941 0
0.101137 0.114382 0
0.132006 0.1196 0
0.155856 0.12369 0
0.182284 0.130205 0
0.215671 0.136217 0
0.253925 0.136995 0
0.285649 0.140291 0
0.319356 0.141497 0
0.353704 0.140093 0
0.387488 0.141985 0
0.421561 0.143938 0
0.454246 0.141009 0
0.487449 0.139864 0
0.524742 0.141115 0
0.553796 0.141222 0
0.584436 0.141207 0
0.617914 0.141527 0
0.651209 0.142016 0
0.68368 0.145296 0
0.712016 0.150286 0
0.737484 0.156725 0
0.773266 0.16527 0
0.805325 0.170428 0
0 0.115526 0.0150607
0 0.115862 0.0138552
0 0.117098 0.0104829
0 0.116442 0.00892653
0 0.116075 0.00888075
0 0.121004 0.0104219
0 0.122988 0.0103609
0.0216526 0.126116 0.00367742
0.0518044 0.130755 0
0.0810712 0.137087 0
0.102876 0.136019 0
0.124559 0.140978 0
0.155673 0.145953 0
0.185122 0.149126 0
0.217838 0.153079 0
0.255848 0.157366 0
0.290318 0.165576 0
0.32636 0.166293 0
0.358083 0.168856 0
0.395407 0.171939 0
0.430228 0.171847 0
0.469947 0.172976 0
0.50074 0.174731 0
0.535042 0.172305 0
0.567849 0.173129 0
0.599115 0.175326 0
0.631388 0.174609 0
0.660456 0.177646 0
0.694728 0.18468 0
0.723445 0.187167 0
0.745464 0.194186 0
0.783459 0.201572 0
0.814267 0.208896 0
0 0.140383 0.0102541
0 0.141711 0.0081178
0 0.140337 0.0108797
0 0.138735 0.00991836
0 0.140078 0.00949111
0 0.144884 0.00636301
0 0.145846 0.00534066
0.0120241 0.152438 0
0.0413062 0.152132 0
0.0740063 0.158068 0.00134279
0.0946365 0.163851 0
0.124315 0.162753 0
0.154665 0.166812 0
0.188205 0.170886 0
0.225574 0.170947 0
0.24976 0.177508 0
0.286122 0.187472 0
0.321431 0.19115 0
0.357092 0.194629 0
0.398733 0.197925 0
0.442954 0.203632 0
0.475441 0.204776 0
0.513436 0.206485 0
0.548104 0.209796 0
0.579995 0.209781 0
0.608591 0.212131 0
0.635309 0.214664 0
0.666346 0.217685 0
0.697444 0.22031 0
0.728862 0.22623 0
0.758282 0.232013 0
0.78909 0.239612 0
0.81622 0.249317 0
0 0.163134 0.0135042
0 0.165194 0.011902
0 0.166979 0.0101778
0 0.168887 0.00868238
0 0.168765 0.0068513
0 0.164294 0.00665293
0 0.172045 0.00111391
0 0.174868 0
0.0279698 0.177157 0
0.061738 0.181064 0
0.090837 0.184695 0
0.125353 0.190631 0
0.156924 0.193484 0
0.182742 0.19469 0
0.219669 0.196643 0
0.249729 0.203174 0
0.283757 0.209064 0
0.323613 0.213764 0
0.355932 0.216815 0
0.395377 0.220966 0
0.440497 0.229419 0
0.480903 0.235187 0
0.518181 0.239963 0
0.553643 0.244755 0
0.586053 0.248264 0
0.615167 0.248981 0
0.646403 0.25272 0
0.676707 0.254932 0
0.708446 0.26009 0
0.740398 0.265034 0
0.770306 0.273106 0
0.796674 0.278447 0
0.826459 0.286366 0
0 0.187503 0.0102235
0 0.192874 0.00889601
0 0.195773 0.00833143
0 0.194934 0.00621042
0 0.195148 0.00535592
0 0.191073 0.00500496
0 0.196948 0.000579843
0 0.198978 0.00224308
0.0127871 0.203052 0
0.0499886 0.206439 0
0.0872053 0.207401 0
0.118715 0.216907 0
0.150347 0.217319 0
0.185565 0.223789 0
0.214649 0.220859 0
0.246891 0.222339 0
0.282506 0.226764 0
0.321569 0.23653 0
0.355474 0.241978 0
0.393072 0.245365 0
0.436683 0.252018 0
0.475959 0.255726 0
0.512963 0.265217 0
0.555337 0.273976 0
0.593912 0.279927 0
0.624247 0.287861 0
0.657267 0.288838 0
0.68632 0.293172 0
0.717601 0.29485 0
0.748272 0.302358 0
0.771649 0.311635 0
0.800565 0.315694 0
0.831006 0.324025 0
0 0.217151 0.00909438
0 0.217594 0.00807202
0 0.219379 0.00624094
0 0.22266 0.00598154
0 0.223301 0.00492866
0 0.220783 0.00395209
0 0.218219 0.00128176
0 0.22414 3.0518e-05
0.000503548 0.227604 0
0.0392767 0.22504 0
0.0786908 0.23241 0
0.113741 0.238727 0
0.148486 0.24271 0
0.177981 0.248432 0
0.218143 0.252216 0
0.244266 0.254536 0
0.272709 0.255772 0
0.306752 0.255558 0
0.344762 0.264683 0
0.383673 0.267964 0
0.429435 0.274556 0
0.466026 0.280034 0
0.5037 0.286397 0
0.542794 0.293568 0
0.581888 0.305165 0
0.624475 0.313466 0
0.657404 0.323354 0
0.694453 0.330938 0
0.721279 0.33904 0
0.754467 0.342214 0
0.778775 0.351553 0
0.808133 0.35584 0
0.83621 0.362341 0
0 0.248096 0.0089723
0 0.247013 0.00665293
0 0.248219 0.00213626
0 0.25069 0.000747692
0 0.248478 0
0 0.249866 0
0 0.249226 0
0 0.250782 0
0 0.251331 0
0.0142061 0.256687 0
0.0731365 0.259937 0
0.106065 0.268894 0
0.130861 0.269444 0
0.179629 0.27361 0
0.20209 0.278813 0
0.246616 0.281926 0
0.27538 0.283421 0
0.310414 0.28513 0
0.33933 0.28574 0
0.37554 0.289403 0
0.419745 0.293919 0
0.455833 0.303548 0
0.496834 0.310384 0
0.534646 0.319356 0
0.574182 0.325887 0
0.6103 0.336248 0
0.651911 0.345968 0
0.685679 0.356115 0
0.72639 0.367132 0
0.7561 0.380453 0
0.786954 0.388174 0
0.817945 0.393637 0
0.844526 0.403677 0
0 0.276646 0
0 0.277531 0
0 0.27953 0
0 0.280583 0
0 0.281132 0
0 0.278965 0
0 0.276432 0
0 0.274022 0
0 0.277882 0
0.00274662 0.28043 0
0.0554055 0.2813 0
0.0997177 0.285405 0
0.133822 0.289006 0
0.167895 0.296818 0
0.206836 0.302098 0
0.23769 0.304784 0
0.275776 0.310323 0
0.31162 0.316152 0
0.337758 0.316289 0
0.366537 0.314687 0
0.408392 0.31603 0
0.449561 0.324483 0
0.48368 0.33167 0
0.522225 0.339742 0
0.558938 0.34728 0
0.602731 0.356909 0
0.639765 0.365499 0
0.67599 0.375769 0
0.713314 0.391409 0
0.749722 0.403281 0
0.779599 0.417533 0
0.816129 0.429297 0
0.845441 0.441062 0
0 0.305547 0
0 0.305303 0
0 0.309453 0
0 0.307622 0
0 0.308782 0
0 0.306752 0
0 0.308431 0
0 0.306889 0
0 0.302007 0
0 0.305119 0
0.0372778 0.306127 0
0.0879072 0.315923 0
0.122423 0.323064 0
0.156847 0.323186 0
0.19527 0.327535 0
0.230915 0.330892 0
0.26363 0.334615 0
0.302831 0.34287 0
0.337438 0.347845 0
0.373358 0.347341 0
0.403403 0.339895 0
0.436011 0.34548 0
0.477516 0.352575 0
0.512322 0.358541 0
0.549172 0.366171 0
0.589227 0.37496 0
0.625086 0.38761 0
0.663218 0.401129 0
0.701442 0.41677 0
0.740383 0.427482 0
0.773648 0.440452 0
0.808896 0.452476 0
0.844434 0.468788 0
0 0.336782 0
0 0.337606 0
0 0.337789 0
0 0.337789 0
0 0.336812 0
0 0.33724 0
0 0.333944 0
0 0.33196 0
0 0.331685 0
0 0.326986 0
0.023209 0.331228 0
0.0815442 0.333165 0
0.117632 0.341268 0
0.16405 0.344411 0
0.191028 0.345892 0
0.221347 0.355749 0
0.258991 0.355993 0
0.295109 0.36257 0
0.330449 0.366659 0
0.367514 0.373144 0
0.399619 0.378576 0
0.43032 0.374273 0
0.458534 0.374044 0
0.496773 0.377218 0
0.532876 0.385397 0
0.572015 0.398444 0
0.612406 0.410361 0
0.651698 0.423362 0
0.692485 0.440055 0
0.730495 0.45124 0
0.764218 0.461891 0
0.796658 0.474052 0
0.830716 0.487907 0
0 0.367254 0
0 0.367453 0
0 0.36527 0
0 0.365698 0
0 0.367895 0
0 0.368658 0
0 0.366506 0
0 0.363684 0
0 0.361074 0
0 0.361471 0
0.00622568 0.36112 0
0.0664225 0.361532 0
0.115084 0.364858 0
0.144884 0.372168 0
0.189197 0.374395 0
0.219379 0.381857 0
0.253742 0.383307 0
0.287068 0.387793 0
0.319646 0.392554 0
0.354681 0.396887 0
0.393973 0.402625 0
0.428382 0.406958 0
0.457221 0.405203 0
0.488533 0.407279 0
0.524178 0.407889 0
0.555962 0.417762 0
0.598611 0.42652 0
0.636042 0.439612 0
0.675654 0.456336 0
0.712566 0.469276 0
0.746838 0.478325 0
0.786954 0.495155 0
0.821668 0.512474 0
0 0.39585 0
0 0.395987 0
0 0.396841 0
0 0.397467 0
0 0.395743 0
0 0.397238 0
0 0.394064 0
0 0.393118 0
0 0.391043 0
0 0.38764 0
0 0.385428 0
0.0514534 0.383368 0
0.101549 0.39028 0
0.139559 0.398001 0
0.184482 0.39588 0
0.216068 0.405783 0
0.247486 0.407065 0
0.280644 0.413306 0
0.312016 0.417639 0
0.348989 0.422461 0
0.384848 0.430152 0
0.421149 0.4318 0
0.454765 0.437293 0
0.487144 0.440436 0
0.515312 0.440085 0
0.542626 0.43978 0
0.580453 0.444175 0
0.621729 0.458717 0
0.663096 0.472038 0
0.698329 0.488045 0
0.734249 0.499199 0
0.772595 0.514519 0
0.809598 0.530541 0
0 0.425162 0
0 0.427314 0
0 0.427482 0
0 0.426215 0
0 0.424155 0
0 0.42652 0
0 0.425772 0
0 0.421012 0
0 0.41648 0
0 0.417227 0
0 0.413901 0
0.034699 0.411643 0
0.0967422 0.412207 0
0.135637 0.418006 0
0.182254 0.42179 0
0.210468 0.429709 0
0.240452 0.430671 0
0.278614 0.43682 0
0.309133 0.440681 0
0.34464 0.446601 0
0.380407 0.451728 0
0.41471 0.456199 0
0.451469 0.460121 0
0.485557 0.467903 0
0.51928 0.473243 0
0.54583 0.471199 0
0.572778 0.46981 0
0.603967 0.473259 0
0.642603 0.486625 0
0.682506 0.502037 0
0.719478 0.518242 0
0.756481 0.534096 0
0.795193 0.549828 0
0 0.452705 0
0 0.454688 0
0 0.45481 0
0 0.453742 0
0 0.454353 0
0 0.452888 0
0 0.455299 0
0 0.450019 0
0 0.448142 0
0 0.449928 0
0 0.443626 0
0.00666819 0.442954 0
0.0915236 0.4365 0
0.131167 0.444541 0
0.172168 0.447517 0
0.207416 0.452079 0
0.242634 0.455482 0
0.274968 0.461967 0
0.306996 0.465675 0
0.341146 0.470985 0
0.38291 0.476112 0
0.414496 0.48011 0
0.445777 0.486091 0
0.479652 0.494469 0
0.512825 0.500679 0
0.547509 0.505745 0
0.57705 0.506493 0
0.601267 0.50399 0
0.634714 0.508888 0
0.66746 0.517784 0
0.709087 0.531304 0
0.745388 0.549905 0
0.783307 0.566735 0
0 0.48423 0
0 0.485008 0
0 0.48307 0
0 0.483635 0
0 0.483574 0
0 0.48484 0
0 0.484688 0
0 0.480766 0
0 0.480201 0
0 0.481468 0
0 0.475914 0
0 0.472175 0
0.0775921 0.464912 0
0.12697 0.474449 0
0.1729 0.473274 0
0.205982 0.476951 0
0.244266 0.48246 0
0.277806 0.488869 0
0.305241 0.494728 0
0.339391 0.497185 0
0.380575 0.502266 0
0.413977 0.510307 0
0.447578 0.515969 0
0.480583 0.518578 0
0.513848 0.52549 0
0.547982 0.530556 0
0.579004 0.536278 0
0.608438 0.544121 0
0.633478 0.543648 0
0.659464 0.543374 0
0.692653 0.548104 0
0.730587 0.563775 0
0.763836 0.582727 0
0 0.512413 0
0 0.513909 0
0 0.514092 0
0 0.515038 0
0 0.514473 0
0 0.516457 0
0 0.51342 0
0 0.512642 0
0 0.51426 0
0 0.51252 0
0 0.505714 0
0 0.504189 0
0.0415198 0.498192 0
0.127703 0.497795 0
0.164858 0.504265 0
0.207584 0.505013 0
0.243854 0.508263 0
0.278248 0.513222 0
0.309117 0.520378 0
0.341238 0.524926 0
0.3841 0.532845 0
0.412009 0.534646 0
0.450416 0.542947 0
0.481331 0.548684 0
0.519142 0.554528 0
0.543847 0.560021 0
0.573541 0.566094 0
0.609125 0.576211 0
0.63798 0.578851 0
0.667109 0.582086 0
0.688151 0.580072 0
0.716854 0.585595 0
0.751842 0.596536 0
0 0.548241 0
0 0.546746 0
0 0.547646 0
0 0.545464 0
0 0.545541 0
0 0.548852 0
0 0.54728 0
0 0.5449 0
0 0.544289 0
0 0.541604 0
0 0.539117 0
0 0.540337 0
0.0278935 0.533257 0
0.117418 0.530388 0
0.170703 0.532769 0
0.204913 0.535912 0
0.245197 0.537804 0
0.282673 0.541619 0
0.314946 0.548196 0
0.34522 0.552483 0
0.38233 0.55848 0
0.416876 0.566201 0
0.450675 0.569116 0
0.482216 0.578225 0
0.51931 0.584268 0
0.538506 0.591974 0
0.575051 0.596323 0
0.609934 0.602823 0
0.640284 0.611826 0
0.670741 0.617472 0
0.697932 0.623285 0
0.720729 0.620081 0
0.749554 0.624994 0
0 0.579705 0
0 0.58117 0
0 0.579904 0
0 0.580941 0
0 0.581521 0
0 0.582559 0
0 0.581491 0
0 0.579126 0
0 0.582177 0
0 0.581857 0
0 0.578042 0
0 0.572625 0
0.00653086 0.571374 0
0.102434 0.56791 0
0.167514 0.562921 0
0.211383 0.567025 0
0.247761 0.568383 0
0.290425 0.573083 0
0.321889 0.581094 0
0.350774 0.584115 0
0.38999 0.593225 0
0.423117 0.599619 0
0.453223 0.606012 0
0.485466 0.612375 0
0.517235 0.616876 0
0.545556 0.624125 0
0.576913 0.629465 0
0.609262 0.635615 0
0.640574 0.64239 0
0.672572 0.650004 0
0.701656 0.658381 0
0.727764 0.660395 0
0.752194 0.660655 0
0 0.612299 0
0 0.612848 0
0 0.614328 0
0 0.616281 0
0 0.617563 0
0 0.618036 0
0 0.621485 0
0 0.61886 0
0 0.614145 0
0 0.612222 0
0 0.61146 0
0 0.610834 0
0 0.611002 0
0.0955367 0.604578 0
0.180117 0.599771 0
0.219608 0.60235 0
0.257694 0.606592 0
0.298283 0.607126 0
0.327871 0.614786 0
0.361273 0.621576 0
0.39765 0.624338 0
0.43151 0.632532 0
0.463569 0.638041 0
0.493095 0.644327 0
0.525109 0.650706 0
0.552483 0.658427 0
0.583627 0.664897 0
0.616159 0.667262 0
0.644724 0.677684 0
0.677378 0.684062 0
0.70518 0.692882 0
0.735698 0.699321 0
0.762829 0.70515 0
0 0.65005 0
0 0.65008 0
0 0.652155 0
0 0.655344 0
0 0.657267 0
0 0.652918 0
0 0.656397 0
0 0.653742 0
0 0.655833 0
0 0.654917 0
0 0.650233 0
0 0.647135 0
0 0.651362 0
0.0906233 0.647196 0
0.170474 0.648264 0
0.227436 0.642008 0
0.268528 0.642466 0
0.307927 0.645106 0
0.340703 0.649714 0
0.373281 0.654124 0
0.418479 0.663584 0
0.44271 0.669093 0
0.475914 0.676539 0
0.502388 0.683955 0
0.537041 0.689448 0
0.566552 0.700175 0
0.597009 0.702998 0
0.626719 0.704768 0
0.657328 0.710292 0
0.684016 0.71986 0
0.711131 0.729152 0
0.740429 0.737163 0
0.770596 0.74313 0
0 0.688991 0
0 0.690715 0
0 0.691905 0
0 0.6925 0
0 0.69131 0
0 0.695705 0
0 0.694026 0
0 0.690089 0
0 0.692027 0
0 0.697337 0
0 0.69279 0
0 0.693156 0
0 0.69308 0
0.095201 0.689906 0
0.178286 0.684016 0
0.239689 0.685039 0
0.281224 0.685756 0
0.319951 0.688853 0
0.355016 0.691234 0
0.389899 0.698787 0
0.426307 0.705257 0
0.458137 0.709194 0
0.489891 0.717006 0
0.515755 0.724254 0
0.546075 0.730495 0
0.580026 0.740505 0
0.607767 0.746761 0
0.638544 0.755596 0
0.666331 0.760082 0
0.699397 0.769711 0
0.723217 0.774823 0
0.755428 0.779706 0
0.785458 0.786816 0
0 0.72546 0
0 0.729152 0
0 0.731289 0
0 0.733318 0
0 0.735454 0
0 0.738689 0
0 0.736477 0
0 0.739254 0
0 0.740993 0
