LUTS/Secondary LUTS/MACBETH.cube
TITLE "Generated by Resolve"
LUT_3D_SIZE 5
0 0 0
0.0643168 0.0178073 0
0.24416 0.0285649 0
0.522011 0 0
0.78793 0 0
0 0.140383 0.0102541
0.0413062 0.152132 0
0.286122 0.187472 0
0.579995 0.209781 0
0.81622 0.249317 0
0 0.367254 0
0 0.361074 0
0.253742 0.383307 0
0.524178 0.407889 0
0.821668 0.512474 0
0 0.612299 0
0 0.614145 0
0.257694 0.606592 0
0.525109 0.650706 0
0.762829 0.70515 0
0 0.947509 0
0.107988 0.962982 0
0.499367 0.972168 0
0.705211 0.968902 0
0.885969 0.980789 0
0 0.0131533 0.0997177
0.0786908 0.0402838 0.085771
0.314672 0.00373846 0.0859083
0.574487 0 0.0758526
0.829862 0 0.0570535
0 0.159625 0.169848
0.11133 0.18468 0.165225
0.368307 0.198077 0.143114
0.621195 0.209888 0.119387
0.860655 0.252155 0.0988022
0 0.434592 0.278492
0 0.430961 0.183185
0.346456 0.426261 0.136568
0.618799 0.452995 0.0785992
0.887968 0.549142 0.13933
0 0.680278 0.239307
0 0.669078 0.168048
0.310628 0.633875 0.102815
0.576028 0.666499 0
0.809506 0.709972 0
0 0.956481 0.237873
0 0.96936 0.228504
0.458961 0.9729 0.236286
0.727901 0.971206 0.200412
0.907042 0.983581 0.0617838
0 0.0536202 0.324514
0.125368 0.0807965 0.315267
0.400259 0.0972152 0.306386
0.678264 0.00315862 0.294423
0.890639 0 0.237339
0 0.237308 0.394888
0.0994888 0.225132 0.39469
0.457725 0.272343 0.372885
0.709789 0.257145 0.361822
0.896284 0.235935 0.301274
0 0.450813 0.470008
0.213107 0.474952 0.461616
0.501854 0.521004 0.445686
0.737942 0.545281 0.423346
0.920241 0.566567 0.383169
0 0.763653 0.605081
0.0977646 0.761227 0.551888
0.347265 0.732525 0.410163
0.640833 0.708858 0.318502
0.883696 0.738369 0.235691
0 0.965591 0.629938
0.0456092 0.97464 0.570153
0.318059 0.983124 0.450965
0.721386 0.979644 0.415244
0.921126 0.98584 0.350439
0 0.113588 0.574395
0.116686 0.135882 0.566445
0.583185 0.232609 0.567117
0.773785 0.248127 0.54165
0.96846 0.334554 0.542855
0 0.289982 0.627817
0.088716 0.27808 0.627634
0.601114 0.379202 0.621927
0.79173 0.419944 0.603876
0.955337 0.499565 0.601328
0 0.561105 0.654414
0.052781 0.566461 0.649256
0.570123 0.581628 0.665629
0.793561 0.656397 0.662791
0.947143 0.630762 0.62356
0.0213626 0.744549 0.729702
0.377874 0.756786 0.713024
0.613306 0.786404 0.717083
0.769177 0.808423 0.673152
0.939971 0.832639 0.658473
0.404395 0.964645 0.880308
0.443519 0.983337 0.867857
0.574075 0.982849 0.804074
0.68751 0.989715 0.661006
0.930999 0.988586 0.59704
0 0.218479 0.788739
0.191684 0.249607 0.777356
0.651957 0.345907 0.775372
0.856703 0.473487 0.764935
0.980819 0.544121 0.743389
0 0.385199 0.835431
0.232517 0.385016 0.821347
0.654749 0.488014 0.817746
0.862974 0.635462 0.803235
0.969543 0.652064 0.788922
0 0.656504 0.867247
0.357122 0.644572 0.86157
0.632868 0.660426 0.85568
0.858976 0.778119 0.849836
0.949248 0.795224 0.841825
0 0.835401 0.910338
0.0299077 0.837781 0.897063
0.490455 0.84564 0.876799
0.817487 0.866026 0.877073
0.933501 0.913527 0.886397
0.48098 0.953399 0.960784
0.580957 0.958038 0.956115
0.71606 0.961944 0.942672
0.834348 0.98088 0.954421
0.916701 0.989334 0.887205
