LUTS/Secondary LUTS/PORTA.cube
TITLE "Generated by Resolve"
LUT_3D_SIZE 33
0.0214542 0.0213626 0.024155
0.0214542 0.0213626 0.024155
0.0214542 0.0213626 0.024155
0.0214542 0.0213626 0.024155
0.0538186 0.025742 0.0287175
0.0780652 0.0296178 0.0327306
0.102586 0.0336461 0.0365148
0.129335 0.0383764 0.0403906
0.157198 0.0438697 0.0445563
0.195285 0.0506142 0.0490272
0.235981 0.0598001 0.0528267
0.290135 0.0692149 0.0553597
0.356374 0.0773632 0.0511635
0.431937 0.0835431 0.0420081
0.51635 0.0808728 0.0511025
0.593729 0.0668956 0.0631571
0.657542 0.0717937 0.0699321
0.70663 0.0775616 0.0755779
0.745037 0.0825971 0.0804913
0.775662 0.0869764 0.0847791
0.800763 0.0908522 0.0885634
0.822751 0.0944991 0.0921035
0.842954 0.0980087 0.0955367
0.852201 0.0995804 0.0970626
0.852201 0.0995804 0.0970626
0.852201 0.0995804 0.0970626
0.852201 0.0995804 0.0970626
0.852186 0.0994888 0.0982223
0.852293 0.0991379 0.105714
0.852369 0.0988785 0.111421
0.852476 0.0987106 0.116457
0.852491 0.098558 0.121035
0.852506 0.0984817 0.125307
0.0214542 0.0213626 0.024155
0.0214542 0.0213626 0.024155
0.0214542 0.0213626 0.024155
0.0214542 0.0213626 0.024155
0.05626 0.0261845 0.0291752
0.0810864 0.0300755 0.0331884
0.10518 0.0340124 0.03682
0.129976 0.0385138 0.0404974
0.157916 0.0439918 0.0446326
0.196094 0.0507973 0.0491035
0.236652 0.0599527 0.0528878
0.291096 0.069337 0.055375
0.357168 0.0774701 0.0509194
0.432731 0.0835279 0.0420386
0.516991 0.0808118 0.0512093
0.594141 0.066865 0.0631723
0.657771 0.0717937 0.0699474
0.706905 0.0776379 0.0756542
0.74519 0.0825971 0.0805066
0.775799 0.0869764 0.0847791
0.800824 0.0909133 0.0886244
0.822751 0.0944991 0.0921035
0.842954 0.0980087 0.0955367
0.852201 0.0995804 0.0970626
0.852201 0.0995804 0.0970626
0.852201 0.0995804 0.0970626
0.852201 0.0995804 0.0970626
0.852186 0.0994888 0.0982223
0.852293 0.0991379 0.105714
0.852369 0.0988785 0.111421
0.852476 0.0987106 0.116457
0.852491 0.098558 0.121035
0.852506 0.0984817 0.125307
0.0214542 0.0213626 0.024155
0.0214542 0.0213626 0.024155
0.0214542 0.0213626 0.024155
0.0214542 0.0213626 0.024155
0.0552377 0.0259709 0.0289616
0.0815442 0.0301976 0.0332952
0.106783 0.0343481 0.0371099
0.132937 0.0391394 0.0409857
0.160555 0.04448 0.0449989
0.196201 0.0508125 0.0491035
0.236851 0.0600595 0.0529641
0.291371 0.0694285 0.055436
0.357427 0.0774853 0.0508125
0.433051 0.0835889 0.0421302
0.517143 0.0807813 0.0512245
0.594278 0.066865 0.0631876
0.658 0.071809 0.0699474
0.706996 0.0776379 0.0756542
0.745342 0.0825971 0.0805066
0.775876 0.0869764 0.0847791
0.800885 0.0909133 0.0886244
0.822812 0.0944991 0.0921035
0.843015 0.0980087 0.0955367
0.852201 0.0995804 0.0970626
0.852201 0.0995804 0.0970626
0.852201 0.0995804 0.0970626
0.852201 0.0995804 0.0970626
0.852186 0.0994888 0.0982223
0.852293 0.0991379 0.105714
0.852369 0.0988785 0.111421
0.852476 0.0987106 0.116457
0.852491 0.098558 0.121035
0.852506 0.0984817 0.125307
0.0256199 0.0536202 0.0297551
0.025391 0.0520027 0.0294804
0.024979 0.0499428 0.0290074
0.0244144 0.0458534 0.028275
0.0496071 0.0403906 0.0279545
0.0777142 0.0383917 0.0312352
0.106249 0.0354772 0.0362707
0.134539 0.0395056 0.0412909
0.163928 0.0451057 0.0454414
0.202487 0.0522621 0.0497902
0.238209 0.0602884 0.0529946
0.290822 0.0693217 0.0553902
0.357031 0.0774701 0.0509804
0.432563 0.0835279 0.0420386
0.516991 0.0808118 0.0512093
0.594278 0.066865 0.0631876
0.658 0.071809 0.0699474
0.707088 0.0776379 0.0756695
0.745434 0.0825971 0.0805066
0.775952 0.0869764 0.0847791
0.800961 0.0909133 0.0886244
0.822812 0.0944991 0.0921035
0.843015 0.0980087 0.0955367
0.852201 0.0995804 0.0970626
0.852201 0.0995804 0.0970626
0.852201 0.0995804 0.0970626
0.852201 0.0995804 0.0970626
0.852186 0.0994888 0.0982223
0.852293 0.0991379 0.105714
0.852369 0.0988785 0.111421
0.852476 0.0987106 0.116457
0.852491 0.098558 0.121035
0.852506 0.0984817 0.125307
0.029984 0.0814527 0.0355535
0.0297093 0.0799573 0.0351568
0.0298772 0.0803998 0.0353552
0.0294957 0.0777295 0.0347601
0.0448157 0.072221 0.0327001
0.0732738 0.0695201 0.0329595
0.0993973 0.0674144 0.0344854
0.126955 0.0648966 0.036759
0.156359 0.0607156 0.0404212
0.199969 0.0533455 0.0483253
0.242832 0.0613718 0.0534066
0.297536 0.0701915 0.0554513
0.355962 0.077348 0.0513161
0.431617 0.0834669 0.0419318
0.516197 0.0809186 0.0510872
0.593729 0.0668956 0.0631571
0.657771 0.0717937 0.0699474
0.706996 0.0776379 0.0756542
0.745434 0.0825971 0.0805066
0.775952 0.0869764 0.0847791
0.801022 0.0909285 0.0886244
0.822873 0.0944991 0.0921035
0.843076 0.0980087 0.0955367
0.852201 0.0995804 0.0970626
0.852201 0.0995804 0.0970626
0.852201 0.0995804 0.0970626
0.852201 0.0995804 0.0970626
0.852186 0.0994888 0.0982223
0.852293 0.0991379 0.105714
0.852369 0.0988785 0.111421
0.852476 0.0987106 0.116457
0.852491 0.098558 0.121035
0.852506 0.0984817 0.125307
0.0325628 0.104326 0.0406348
0.0324254 0.10309 0.0403296
0.0323491 0.102129 0.040116
0.0322118 0.100099 0.0396887
0.0335699 0.0959487 0.0384527
0.0691997 0.09131 0.036408
0.0965591 0.0890211 0.0368353
0.124376 0.0869001 0.038117
0.152926 0.0841077 0.0402075
0.191913 0.0798505 0.0432288
0.234134 0.0736095 0.0479896
0.297673 0.0701915 0.0554513
0.362905 0.0781262 0.0491798
0.430182 0.0834211 0.0418097
0.515099 0.0810712 0.0509194
0.593057 0.066865 0.0630503
0.657313 0.0717174 0.0698711
0.706722 0.0775616 0.0755932
0.745266 0.0825971 0.0805066
0.775952 0.0869764 0.0847791
0.801022 0.0909285 0.0886244
0.822934 0.0945602 0.0921798
0.843076 0.0980087 0.0955367
0.852201 0.0995804 0.0970626
0.852201 0.0995804 0.0970626
0.852201 0.0995804 0.0970626
0.852201 0.0995804 0.0970626
0.852186 0.0994888 0.0982223
0.852293 0.0991379 0.105714
0.852369 0.0988785 0.111421
0.852476 0.0987106 0.116457
0.852491 0.098558 0.121035
0.852506 0.0984817 0.125307
0.0357824 0.125109 0.0457618
0.0355993 0.124239 0.0455482
0.0353094 0.123217 0.0452277
0.03505 0.121782 0.044892
0.0344244 0.118853 0.0441291
0.0619059 0.113588 0.0410163
0.0923171 0.110719 0.0404212
0.121599 0.108659 0.0408484
0.150607 0.106615 0.0421912
0.189975 0.10399 0.0439002
0.230015 0.100404 0.0458228
0.28278 0.0925154 0.0482643
0.358907 0.0776837 0.0504005
0.436866 0.0837568 0.0424659
0.513207 0.0813916 0.0507057
0.591684 0.0668803 0.0629129
0.656397 0.0716259 0.0697795
0.706264 0.0775464 0.0755779
0.745037 0.0825971 0.0804913
0.775876 0.0869764 0.0847791
0.801022 0.0909285 0.0886244
0.822934 0.0945602 0.0921798
0.843137 0.0980087 0.0955367
0.852201 0.0995804 0.0970626
0.852201 0.0995804 0.0970626
0.852201 0.0995804 0.0970626
0.852201 0.0995804 0.0970626
0.852186 0.0994888 0.0982223
0.852293 0.0991379 0.105714
0.852369 0.0988785 0.111421
0.852476 0.0987106 0.116457
0.852491 0.098558 0.121035
0.852506 0.0984817 0.125307
0.0377203 0.14815 0.0517281
0.0377203 0.147478 0.0515145
0.0377813 0.146548 0.0513008
0.0378729 0.145525 0.0510719
0.0379644 0.14316 0.0504463
0.0442359 0.138979 0.0486152
0.0851759 0.133959 0.045594
0.118181 0.131792 0.0452277
0.148653 0.130571 0.0460212
0.188632 0.129015 0.0464637
0.229007 0.127474 0.0471504
0.280064 0.123339 0.0467536
0.345464 0.114199 0.0436255
0.420279 0.0960708 0.0342718
0.515251 0.0810407 0.0509346
0.58938 0.0668803 0.0626688
0.654917 0.071519 0.0696574
0.705364 0.0773785 0.0754101
0.744411 0.0825055 0.080415
0.775525 0.0869764 0.0847639
0.800885 0.0909133 0.0886244
0.822934 0.0945602 0.0921798
0.843198 0.0980087 0.0955367
0.852201 0.0995804 0.0970626
0.852201 0.0995804 0.0970626
0.852201 0.0995804 0.0970626
0.852201 0.0995804 0.0970626
0.852186 0.0994888 0.0982223
0.852293 0.0991379 0.105714
0.852369 0.0988785 0.111421
0.852476 0.0987106 0.116457
0.852491 0.098558 0.121035
0.852506 0.0984817 0.125307
0.0300908 0.176349 0.0588388
0.030396 0.175662 0.0586862
0.0307012 0.174777 0.0584421
0.0310674 0.1738 0.0581826
0.0314336 0.172824 0.0579232
0.0326543 0.169665 0.0571298
0.0637217 0.162051 0.0527047
0.111116 0.158068 0.0505074
0.143862 0.156527 0.0505074
0.185687 0.155093 0.050248
0.228275 0.154421 0.050248
0.280613 0.152087 0.0485847
0.346426 0.147021 0.0432136
0.416159 0.138445 0.0263523
0.495125 0.118181 0.0357671
0.585702 0.0668193 0.062211
0.652644 0.0712444 0.069398
0.703807 0.0771954 0.0752422
0.743465 0.0823529 0.0802625
0.774792 0.0868238 0.0846265
0.800504 0.090837 0.0885481
0.822812 0.0944991 0.0921035
0.843198 0.0980087 0.0955367
0.852201 0.0995804 0.0970626
0.852201 0.0995804 0.0970626
0.852201 0.0995804 0.0970626
0.852201 0.0995804 0.0970626
0.852186 0.0994888 0.0982223
0.852293 0.0991379 0.105714
0.852369 0.0988785 0.111421
0.852476 0.0987106 0.116457
0.852491 0.098558 0.121035
0.852506 0.0984817 0.125307
0.0297093 0.207019 0.0670024
0.0296483 0.206409 0.0668803
0.0295415 0.205676 0.0666361
0.0295415 0.204929 0.0664988
0.0294347 0.204196 0.0662547
0.0293431 0.203372 0.0660258
0.0290837 0.200061 0.0651408
0.0809491 0.191028 0.0583047
0.128038 0.18854 0.0564126
0.177768 0.187442 0.0552987
0.225071 0.187335 0.0540627
0.280003 0.186236 0.0514534
0.349096 0.182757 0.0429541
0.420966 0.176425 0.0245212
0.498817 0.163699 0.0299077
0.568887 0.139712 0.0386206
0.639261 0.0861372 0.0582284
0.702632 0.0770275 0.0750744
0.741833 0.0821088 0.0800336
0.773709 0.086656 0.0844587
0.799741 0.0906844 0.0883955
0.822248 0.0944228 0.0920272
0.842954 0.0980087 0.0955367
0.852201 0.0995804 0.0970626
0.852201 0.0995804 0.0970626
0.852201 0.0995804 0.0970626
0.852201 0.0995804 0.0970626
0.852186 0.0994888 0.0982986
0.852293 0.0991379 0.105714
0.852369 0.0988785 0.111421
0.852476 0.0987106 0.116457
0.852491 0.098558 0.121035
0.852506 0.0984817 0.125307
0.0349279 0.239872 0.0750134
0.0348669 0.23917 0.0748913
0.034699 0.238575 0.0746929
0.034638 0.237888 0.0745708
0.0344854 0.237201 0.0743877
0.0344244 0.236408 0.0742504
0.0342718 0.235416 0.0740368
0.0344701 0.230884 0.0729076
0.0966812 0.223148 0.065156
0.158572 0.221637 0.0624094
0.219135 0.222217 0.0599374
0.277714 0.223346 0.05626
0.351492 0.22269 0.0445106
0.427344 0.221408 0.0240635
0.508217 0.214435 0.0272831
0.577646 0.19971 0.0322576
0.638331 0.165667 0.0413062
0.691249 0.115816 0.055848
0.738705 0.0816968 0.0796216
0.772061 0.0864118 0.0842298
0.79852 0.0905318 0.0882429
0.821271 0.094255 0.0918746
0.842252 0.0978561 0.0953841
0.852201 0.0995804 0.0970626
0.852201 0.0995804 0.0970626
0.852201 0.0995804 0.0970626
0.852201 0.0995804 0.0970626
0.852186 0.0994888 0.0982986
0.852293 0.0991379 0.105714
0.852369 0.0988785 0.111421
0.852476 0.0987106 0.116457
0.852491 0.098558 0.121035
0.852506 0.0984817 0.125307
0.0400854 0.281865 0.0827344
0.0400244 0.281209 0.0826276
0.0399634 0.280537 0.082536
0.0399176 0.279866 0.0824292
0.0398566 0.27921 0.0823224
0.0397192 0.278431 0.0821393
0.0396582 0.277531 0.0820325
0.0394598 0.276204 0.0817426
0.0676738 0.267704 0.0762188
0.120378 0.265217 0.0712291
0.202716 0.265324 0.065507
0.269398 0.267781 0.06009
0.351385 0.268818 0.0401923
0.433204 0.270008 0.0244297
0.519203 0.267002 0.0262303
0.591363 0.258259 0.0295109
0.650843 0.241779 0.0343328
0.696422 0.218662 0.0404212
0.732647 0.169345 0.0514839
0.764538 0.118959 0.0665446
0.797589 0.0903792 0.0880903
0.819791 0.0940261 0.0916457
0.841031 0.0976272 0.0951705
0.852201 0.0995804 0.0970626
0.852201 0.0995804 0.0970626
0.852201 0.0995804 0.0970626
0.852201 0.0995804 0.0970626
0.852186 0.0994888 0.0982986
0.852293 0.0991379 0.105714
0.852369 0.0988785 0.111421
0.852476 0.0987106 0.116457
0.852491 0.098558 0.121035
0.852506 0.0984817 0.125307
0.0453346 0.329259 0.0909133
0.0452735 0.328725 0.0908064
0.0452125 0.328176 0.0907149
0.0451514 0.32752 0.0906081
0.0450904 0.32697 0.0905013
0.0450294 0.326314 0.0904097
0.044892 0.325551 0.0902113
0.04477 0.324346 0.090013
0.0447089 0.323796 0.0899214
0.0953078 0.316472 0.0809796
0.152514 0.318624 0.0722667
0.249638 0.322683 0.0585184
0.345739 0.328237 0.0286259
0.436774 0.333562 0.0247501
0.528771 0.334142 0.0253605
0.605066 0.330007 0.0272831
0.666514 0.318578 0.0305638
0.713252 0.30106 0.0349126
0.746441 0.277119 0.0400397
0.771389 0.246998 0.0461128
0.79089 0.198672 0.0556497
0.813993 0.114916 0.0777142
0.839338 0.0973373 0.0948653
0.852201 0.0995804 0.0970626
0.852201 0.0995804 0.0970626
0.852201 0.0995804 0.0970626
0.852201 0.0995804 0.0970626
0.852186 0.0994888 0.0982986
0.852293 0.0991379 0.105714
0.852369 0.0988785 0.111421
0.852476 0.0987106 0.116533
0.852491 0.098558 0.121035
0.852506 0.0984817 0.125307
0.0509346 0.382086 0.0961166
0.0508736 0.381491 0.0960861
0.0508125 0.380911 0.0960403
0.0507362 0.380438 0.0959945
0.0506752 0.379843 0.095964
0.0506142 0.379248 0.0959335
0.0505684 0.378424 0.0959182
0.0504311 0.377356 0.0958419
0.0503243 0.375952 0.0957809
0.0503243 0.375952 0.0957809
0.123537 0.374319 0.0796826
0.195209 0.382177 0.0497749
0.331594 0.391196 0.028275
0.436118 0.400946 0.0260471
0.535836 0.405585 0.0254368
0.617975 0.405493 0.0263066
0.68249 0.39881 0.0283818
0.730877 0.387579 0.0311742
0.765133 0.372442 0.0345159
0.790936 0.353704 0.0381628
0.810025 0.327443 0.0425879
0.82388 0.285466 0.0487678
0.833097 0.220829 0.059205
0.852201 0.0995804 0.0970626
0.852201 0.0995804 0.0970626
0.852201 0.0995804 0.0970626
0.852201 0.0995804 0.0970626
0.852201 0.0994888 0.0983749
0.852293 0.0991379 0.105714
0.852384 0.0988785 0.111498
0.852476 0.0987106 0.116533
0.852491 0.098558 0.121035
0.852506 0.0984817 0.125307
0.0566873 0.439689 0.0958724
0.0566262 0.439231 0.0958724
0.0565652 0.438758 0.0958724
0.0565042 0.438193 0.0958877
0.0564431 0.437736 0.0958877
0.0563668 0.437278 0.0958877
0.0563211 0.436591 0.0959182
0.05626 0.435798 0.0959945
0.0561379 0.434669 0.096025
0.0559548 0.433066 0.0960708
0.092958 0.433234 0.0848096
0.154314 0.446647 0.0403906
0.297032 0.459525 0.0327764
0.426535 0.473915 0.0281834
0.537011 0.483268 0.0260319
0.626841 0.487251 0.0255436
0.695186 0.484016 0.0265507
0.746105 0.476463 0.0285039
0.782238 0.464897 0.0309758
0.809995 0.451545 0.0337682
0.831327 0.434546 0.0366522
0.847868 0.411322 0.0400244
0.859983 0.376837 0.0443275
0.850233 0.311009 0.0496834
0.840665 0.176547 0.068101
0.852201 0.0995804 0.0970626
0.852201 0.0995804 0.0970626
0.852201 0.0995804 0.0970626
0.852293 0.0991379 0.105791
0.852384 0.0988785 0.111498
0.852476 0.0987106 0.116533
0.852491 0.098558 0.121035
0.852506 0.0984817 0.125307
0.0626841 0.494026 0.0876631
0.0626841 0.493629 0.087892
0.062623 0.493217 0.0879988
0.0625467 0.492897 0.0880446
0.062562 0.4925 0.0882734
0.0624857 0.492088 0.0883803
0.0624247 0.491569 0.0885634
0.0623636 0.490959 0.088777
0.0622263 0.490043 0.0890822
0.062089 0.488914 0.0894789
0.0622263 0.490043 0.0890822
0.134188 0.49987 0.047776
0.219333 0.520668 0.0408026
0.406821 0.537072 0.0316167
0.530663 0.551415 0.0278019
0.630579 0.559976 0.0261387
0.703441 0.561135 0.0261997
0.757748 0.55761 0.0272984
0.796017 0.550668 0.029099
0.825528 0.543297 0.0309758
0.848203 0.533562 0.0330816
0.866789 0.520195 0.0352789
0.882017 0.499367 0.0378576
0.878355 0.459693 0.0400397
0.866575 0.399374 0.0431525
0.848341 0.297475 0.0509346
0.852201 0.0995804 0.0970626
0.852201 0.0995804 0.0970626
0.852201 0.0995804 0.0970626
0.852384 0.0988785 0.111498
0.852476 0.0987106 0.116533
0.852491 0.098558 0.121035
0.852506 0.0984817 0.125307
0.0692607 0.544198 0.07187
0.0691997 0.543908 0.0719615
0.0691234 0.543633 0.0720378
0.0691234 0.543282 0.0722362
0.0690623 0.543008 0.0723278
0.0690623 0.542748 0.0724651
0.068986 0.542382 0.0726024
0.068925 0.541924 0.0727855
0.0687877 0.541192 0.0730297
0.0687266 0.540383 0.0733959
0.068513 0.539208 0.0738079
0.0981918 0.54342 0.0577096
0.169589 0.570306 0.049012
0.371664 0.58909 0.0369726
0.512718 0.608164 0.0311894
0.625376 0.620951 0.0282139
0.704372 0.62591 0.0274052
0.763302 0.625528 0.0277867
0.804318 0.621683 0.0290227
0.832166 0.616068 0.0305486
0.853178 0.609735 0.0322271
0.871962 0.602121 0.0338598
0.889754 0.592004 0.035462
0.896345 0.573663 0.0361334
0.89453 0.542473 0.0366827
0.883665 0.487373 0.0387732
0.864881 0.391043 0.0436866
0.840055 0.193469 0.065095
0.852201 0.0995804 0.0970626
0.852201 0.0995804 0.0970626
0.852476 0.0987106 0.116533
0.852491 0.098558 0.121035
0.852506 0.0984817 0.125307
0.0752117 0.585916 0.0707256
0.075227 0.585718 0.0707408
0.0751507 0.58555 0.0706798
0.0751659 0.585351 0.0706951
0.0750896 0.585184 0.0706188
0.0751049 0.584985 0.070634
0.0750286 0.584756 0.0705577
0.0749676 0.58439 0.0705119
0.0749065 0.584024 0.0704509
0.0748608 0.583444 0.0704051
0.0747387 0.582727 0.0702831
0.0745556 0.581765 0.0700999
0.149615 0.603998 0.0566567
0.309911 0.62884 0.0450141
0.487953 0.651148 0.0360723
0.615137 0.668238 0.0315404
0.700465 0.676646 0.0298619
0.764035 0.679469 0.0295567
0.80322 0.677195 0.0304112
0.827192 0.672389 0.0319219
0.84828 0.668437 0.0333104
0.867247 0.664485 0.0346075
0.884901 0.659083 0.0358587
0.894316 0.649302 0.036408
0.894697 0.632547 0.0361181
0.895476 0.607492 0.0360266
0.896284 0.563653 0.0362707
0.882307 0.480339 0.0390784
0.852399 0.325902 0.0482643
0.852201 0.0995804 0.0970626
0.852201 0.0995804 0.0970626
0.852491 0.098558 0.121111
0.852506 0.0984817 0.125307
0.0809186 0.619684 0.0772564
0.0809186 0.619562 0.0772412
0.0808576 0.619425 0.0771496
0.0808576 0.619287 0.0771344
0.0808576 0.619165 0.0771191
0.0807965 0.619028 0.0770428
0.0807965 0.61883 0.0770123
0.0807355 0.618631 0.0769207
0.0806744 0.618296 0.0767987
0.0806134 0.617899 0.0766766
0.0804913 0.617365 0.076463
0.0803693 0.616632 0.0762188
0.122469 0.626108 0.0661326
0.23061 0.658976 0.054963
0.461509 0.682063 0.0416571
0.599756 0.701625 0.0360418
0.693111 0.712764 0.0335088
0.760708 0.717388 0.0326848
0.798764 0.715984 0.0332494
0.823011 0.712367 0.0345312
0.844556 0.709468 0.0357061
0.863722 0.707042 0.0369116
0.881285 0.70454 0.0379492
0.894026 0.70013 0.0386358
0.893965 0.691661 0.0380865
0.893965 0.679683 0.0374456
0.894133 0.658869 0.0366217
0.895003 0.622934 0.0360876
0.896269 0.562814 0.0362707
0.872602 0.429389 0.041474
0.852201 0.0995804 0.0970626
0.852201 0.0995804 0.0970626
0.852506 0.0984817 0.125307
0.0863966 0.650385 0.0852674
0.0864118 0.650263 0.0850996
0.0863508 0.650187 0.0847639
0.0863661 0.65008 0.084596
0.0863661 0.649958 0.0844282
0.086305 0.649882 0.0840925
0.0863203 0.649699 0.0838331
0.0862745 0.649561 0.0834058
0.0862745 0.649317 0.0833295
0.0862287 0.648997 0.0830549
0.0861067 0.648524 0.0825208
0.0860609 0.648005 0.0822461
0.0862287 0.649058 0.0830549
0.19617 0.683894 0.0630503
0.438834 0.707424 0.0476539
0.585443 0.728389 0.0408789
0.685252 0.741146 0.0376135
0.755703 0.746853 0.036286
0.794797 0.746197 0.0366522
0.819486 0.743099 0.0376745
0.841443 0.74081 0.0386969
0.860883 0.738949 0.0396735
0.878492 0.737102 0.0406653
0.894789 0.734569 0.0415198
0.894636 0.72961 0.0410315
0.894453 0.72311 0.0404364
0.894209 0.712886 0.0396277
0.893996 0.697002 0.0384375
0.893996 0.671794 0.0370947
0.894911 0.625116 0.0361334
0.8916 0.527733 0.0371557
0.841031 0.238468 0.0577859
0.852201 0.0995804 0.0970626
0.0904402 0.679149 0.132403
0.0903639 0.679072 0.132387
0.0903792 0.67895 0.132235
0.0903792 0.678889 0.132158
0.0903182 0.678798 0.131945
0.0903334 0.678676 0.131792
0.0903334 0.67863 0.131731
0.0902724 0.678416 0.131365
0.0902876 0.678233 0.131136
0.0902419 0.677974 0.130709
0.0901961 0.677653 0.13019
0.0901503 0.677272 0.12961
0.0900435 0.676692 0.128664
0.175128 0.706355 0.0704356
0.425483 0.729625 0.053193
0.575021 0.750683 0.045716
0.67805 0.763928 0.0419165
0.750408 0.770169 0.0401312
0.791608 0.770169 0.0400549
0.816556 0.767193 0.0408331
0.838849 0.765011 0.0417182
0.858595 0.763348 0.0426032
0.876219 0.761837 0.0434577
0.892653 0.760143 0.0443732
0.895781 0.757229 0.0441444
0.895552 0.753216 0.0436561
0.895262 0.747402 0.0429389
0.894942 0.738582 0.0419318
0.89453 0.726177 0.0407111
0.894118 0.707622 0.0391699
0.893965 0.674983 0.0372168
0.895644 0.60235 0.0360113
0.862699 0.380331 0.0443275
0.094255 0.708934 0.175814
0.094255 0.708858 0.175753
0.0942702 0.708797 0.175692
0.0941939 0.708705 0.175479
0.0942092 0.708644 0.175418
0.0942092 0.708568 0.175341
0.0942092 0.708507 0.17528
0.0941482 0.708354 0.175006
0.0941634 0.708217 0.174868
0.0941024 0.707927 0.174472
0.0941176 0.707713 0.174258
0.0940719 0.707286 0.173724
0.0939651 0.706844 0.173037
0.172396 0.728969 0.0893568
0.426856 0.750393 0.0577859
0.57084 0.769848 0.0501717
0.672206 0.782376 0.0460212
0.744381 0.788495 0.0440375
0.789014 0.789395 0.043534
0.814069 0.786236 0.0440681
0.836637 0.78407 0.0447852
0.856596 0.782391 0.0455634
0.874327 0.781018 0.0463722
0.890684 0.779614 0.0471809
0.895781 0.777752 0.0472725
0.895994 0.77499 0.0468147
0.896284 0.771389 0.0462043
0.896315 0.766293 0.0454261
0.895888 0.75938 0.044419
0.895399 0.749783 0.043183
0.894804 0.735119 0.0416266
0.894163 0.710979 0.0394141
0.894102 0.660822 0.0366979
0.0980545 0.738491 0.210788
0.0980545 0.73843 0.210742
0.0980545 0.738369 0.210697
0.0980697 0.738293 0.210651
0.0980697 0.738231 0.210605
0.0980697 0.738231 0.210605
0.0980087 0.73814 0.210437
0.0980087 0.738003 0.210346
0.098024 0.737865 0.210254
0.0979629 0.737713 0.21004
0.0979629 0.737514 0.209903
0.0979171 0.737209 0.209598
0.0978714 0.736858 0.209247
0.204974 0.75465 0.141649
0.446998 0.770703 0.0694285
0.575265 0.78677 0.0543679
0.668956 0.797513 0.0501106
0.738308 0.803082 0.0478523
0.786068 0.804852 0.047013
0.811856 0.801953 0.0473335
0.834531 0.799603 0.0478218
0.854673 0.797757 0.0484932
0.872602 0.796262 0.0491646
0.88896 0.794858 0.049958
0.894499 0.793469 0.0503548
0.894667 0.791501 0.0499123
0.89485 0.78912 0.049424
0.895109 0.785916 0.0487831
0.89546 0.781643 0.0480049
0.895903 0.776211 0.047013
0.896468 0.76846 0.0457618
0.895796 0.757168 0.0441596
0.894911 0.738476 0.0419471
0.10222 0.755611 0.230686
0.10222 0.755611 0.230686
0.10222 0.755611 0.230686
0.10222 0.755611 0.230686
0.10222 0.755611 0.230686
0.10222 0.755611 0.230686
0.102159 0.755581 0.230564
0.102159 0.755581 0.230564
0.102159 0.755581 0.230564
0.102159 0.755581 0.230564
0.102098 0.755566 0.230426
0.102098 0.755566 0.230426
0.102022 0.755535 0.230304
0.34583 0.777325 0.165438
0.484504 0.791394 0.114977
0.590433 0.803693 0.0700236
0.671366 0.811826 0.0536507
0.734539 0.816281 0.0515602
0.780972 0.817929 0.0505531
0.809995 0.815839 0.0504921
0.832395 0.813214 0.050782
0.852598 0.811093 0.0513008
0.87068 0.809308 0.0518654
0.887083 0.807782 0.0525978
0.893446 0.806607 0.0532387
0.893568 0.804974 0.0528725
0.893721 0.803067 0.05243
0.893904 0.800778 0.0519417
0.894133 0.797986 0.0512703
0.894423 0.794476 0.0505074
0.894789 0.78999 0.0495918
0.895293 0.78378 0.0483558
0.89601 0.774792 0.0467536
0.102495 0.755703 0.231205
0.102495 0.755703 0.231205
0.102495 0.755703 0.231205
0.102495 0.755703 0.231205
0.102495 0.755703 0.231205
0.102495 0.755703 0.231205
0.102495 0.755703 0.231205
0.102495 0.755703 0.231205
0.102495 0.755703 0.231205
0.102495 0.755703 0.231205
0.102495 0.755703 0.231205
0.102495 0.755703 0.231205
0.283803 0.776532 0.177111
0.435584 0.786007 0.142077
0.530205 0.796887 0.0909743
0.612268 0.807187 0.0687419
0.680278 0.814893 0.0550393
0.736004 0.819928 0.0539406
0.778836 0.822629 0.0549172
0.808743 0.822446 0.0559396
0.830686 0.821118 0.0541543
0.850614 0.820005 0.0541695
0.868635 0.818952 0.0546273
0.884932 0.817945 0.0585184
0.892378 0.817411 0.0617685
0.892393 0.817456 0.0610971
0.892561 0.815915 0.0594797
0.89276 0.813962 0.0577401
0.892973 0.811688 0.0559854
0.893233 0.808988 0.0542153
0.893507 0.805692 0.0530251
0.893843 0.801663 0.0520943
0.89427 0.796429 0.0509499
0.101839 0.756588 0.24712
0.101839 0.756588 0.24712
0.101839 0.756588 0.24712
0.101839 0.756588 0.24712
0.101839 0.756588 0.24712
0.101839 0.756588 0.24712
0.101839 0.756588 0.24712
0.101854 0.756588 0.246967
0.131472 0.762982 0.228458
0.184405 0.774289 0.197864
0.310262 0.77673 0.173266
0.397589 0.782071 0.154894
0.460273 0.788632 0.132097
0.522469 0.79588 0.0958419
0.584939 0.8038 0.0740673
0.642054 0.810773 0.0614328
0.695476 0.816373 0.0546426
0.740963 0.82031 0.0541695
0.778836 0.822629 0.0549172
0.80679 0.822553 0.0559701
0.827817 0.821241 0.0547951
0.847517 0.820066 0.0548104
0.865644 0.818967 0.0556802
0.882094 0.817899 0.0599374
