LUTS/Secondary LUTS/PORTA.cube
TITLE "Generated by Resolve"
LUT_3D_SIZE 9
0.0214542 0.0213626 0.024155
0.0538186 0.025742 0.0287175
0.157198 0.0438697 0.0445563
0.356374 0.0773632 0.0511635
0.657542 0.0717937 0.0699321
0.800763 0.0908522 0.0885634
0.852201 0.0995804 0.0970626
0.852293 0.0991379 0.105714
0.852506 0.0984817 0.125307
0.029984 0.0814527 0.0355535
0.0448157 0.072221 0.0327001
0.156359 0.0607156 0.0404212
0.355962 0.077348 0.0513161
0.657771 0.0717937 0.0699474
0.801022 0.0909285 0.0886244
0.852201 0.0995804 0.0970626
0.852293 0.0991379 0.105714
0.852506 0.0984817 0.125307
0.0300908 0.176349 0.0588388
0.0314336 0.172824 0.0579232
0.143862 0.156527 0.0505074
0.346426 0.147021 0.0432136
0.652644 0.0712444 0.069398
0.800504 0.090837 0.0885481
0.852201 0.0995804 0.0970626
0.852293 0.0991379 0.105714
0.852506 0.0984817 0.125307
0.0453346 0.329259 0.0909133
0.0450904 0.32697 0.0905013
0.0447089 0.323796 0.0899214
0.345739 0.328237 0.0286259
0.666514 0.318578 0.0305638
0.79089 0.198672 0.0556497
0.852201 0.0995804 0.0970626
0.852293 0.0991379 0.105714
0.852506 0.0984817 0.125307
0.0692607 0.544198 0.07187
0.0690623 0.543008 0.0723278
0.0687877 0.541192 0.0730297
0.169589 0.570306 0.049012
0.704372 0.62591 0.0274052
0.853178 0.609735 0.0322271
0.89453 0.542473 0.0366827
0.852201 0.0995804 0.0970626
0.852506 0.0984817 0.125307
0.0904402 0.679149 0.132403
0.0903182 0.678798 0.131945
0.0902876 0.678233 0.131136
0.0900435 0.676692 0.128664
0.67805 0.763928 0.0419165
0.838849 0.765011 0.0417182
0.895781 0.757229 0.0441444
0.89453 0.726177 0.0407111
0.862699 0.380331 0.0443275
0.102495 0.755703 0.231205
0.102495 0.755703 0.231205
0.102495 0.755703 0.231205
0.283803 0.776532 0.177111
0.680278 0.814893 0.0550393
0.830686 0.821118 0.0541543
0.892378 0.817411 0.0617685
0.892973 0.811688 0.0559854
0.89427 0.796429 0.0509499
0.678767 0.81474 0.0551003
0.685054 0.815366 0.0549172
0.694728 0.816297 0.0546731
0.719707 0.81857 0.0539712
0.770382 0.822232 0.0547341
0.829816 0.821118 0.054551
0.888289 0.817487 0.0623789
0.892256 0.817075 0.0656291
0.892256 0.817075 0.0656291
0.838926 0.820584 0.0544442
0.839353 0.820569 0.0544289
0.839963 0.820523 0.05449
0.841901 0.820401 0.0545815
0.847517 0.820066 0.0548104
0.861891 0.819196 0.0554818
0.890272 0.817349 0.0631876
0.892256 0.817075 0.0656291
0.892256 0.817075 0.0656291
0.0257267 0.0271 0.0800793
0.0475166 0.0272679 0.0747387
0.154742 0.0437476 0.0832685
0.355962 0.0767681 0.0784924
0.657313 0.0717174 0.0698711
0.800763 0.0908522 0.0885634
0.852201 0.0995804 0.0970626
0.852293 0.0991379 0.105714
0.852506 0.0984817 0.125307
0.0283665 0.0706493 0.0799115
0.0366827 0.0610819 0.076463
0.158434 0.0464942 0.0848707
0.353552 0.0765087 0.0724956
0.657771 0.0717937 0.0699474
0.800961 0.0909133 0.0886244
0.852201 0.0995804 0.0970626
0.852293 0.0991379 0.105714
0.852506 0.0984817 0.125307
0.0291447 0.171878 0.0956436
0.030457 0.168353 0.0934615
0.140093 0.152621 0.0774243
0.33167 0.146395 0.0537423
0.652979 0.0712596 0.0694133
0.800504 0.090837 0.0885481
0.852201 0.0995804 0.0970626
0.852293 0.0991379 0.105714
0.852506 0.0984817 0.125307
0.0451514 0.327733 0.0906081
0.0449073 0.325322 0.0902113
0.0445258 0.322042 0.0896162
0.34406 0.325582 0.0295262
0.665644 0.31606 0.0306554
0.790768 0.194659 0.0562448
0.852201 0.0995804 0.0970626
0.852293 0.0991379 0.105714
0.852506 0.0984817 0.125307
0.0691997 0.543648 0.0721141
0.068986 0.542458 0.0725567
0.0687114 0.540734 0.0732128
0.169146 0.569589 0.0489967
0.704189 0.625422 0.0273594
0.853162 0.609277 0.0321965
0.894331 0.541604 0.036759
0.852201 0.0995804 0.0970626
0.852506 0.0984817 0.125307
0.0903639 0.679072 0.132387
0.0903182 0.678737 0.131868
0.0902876 0.678172 0.131075
0.0900587 0.676631 0.128588
0.677913 0.763867 0.0419318
0.838865 0.76495 0.0417334
0.895796 0.757168 0.0441596
0.894545 0.726055 0.0407263
0.862486 0.379339 0.044358
0.102495 0.755703 0.231205
0.102495 0.755703 0.231205
0.102495 0.755703 0.231205
0.281956 0.776516 0.177356
0.680156 0.814878 0.0550393
0.830686 0.821118 0.0541543
0.892378 0.817411 0.0617685
0.892973 0.811688 0.0559854
0.89427 0.796429 0.0509499
0.678645 0.814725 0.0551003
0.684932 0.815351 0.0549172
0.694591 0.816281 0.0546731
0.719707 0.81857 0.0539712
0.770382 0.822232 0.0547341
0.82977 0.821134 0.0545663
0.888289 0.817487 0.0623789
0.892256 0.817075 0.0656291
0.892256 0.817075 0.0656291
0.838926 0.820584 0.0544442
0.839307 0.820569 0.0544289
0.839963 0.820523 0.05449
0.841901 0.820401 0.0545815
0.847517 0.820066 0.0548104
0.861845 0.819196 0.0554818
0.890227 0.817349 0.0631723
0.892256 0.817075 0.0656291
0.892256 0.817075 0.0656291
0.0320287 0.0355383 0.150683
0.0316472 0.0350652 0.146639
0.150744 0.0467689 0.151843
0.356634 0.077409 0.157336
0.657893 0.0700999 0.142657
0.801205 0.0896925 0.119188
0.852201 0.0995804 0.0970626
0.852293 0.0991379 0.105714
0.852506 0.0984817 0.125307
0.0319371 0.0354314 0.149905
0.0318456 0.0353094 0.148791
0.154147 0.0474708 0.153582
0.35729 0.0774243 0.155596
0.658488 0.0701457 0.140398
0.801434 0.0897841 0.118074
0.852201 0.0995804 0.0970626
0.852293 0.0991379 0.105714
0.852506 0.0984817 0.125307
0.0239261 0.163439 0.166567
0.0238956 0.15967 0.164904
0.133867 0.14342 0.151247
0.339803 0.131548 0.141863
0.652415 0.0696269 0.130846
0.800137 0.0898299 0.11046
0.852201 0.0995804 0.0970626
0.852293 0.0991379 0.105714
0.852506 0.0984817 0.125307
0.0422522 0.326833 0.179294
0.0420233 0.324468 0.178225
0.0416266 0.320058 0.176425
0.338811 0.323232 0.143404
0.656794 0.316793 0.0866865
0.788113 0.218875 0.0521248
0.852201 0.0995804 0.0970626
0.852293 0.0991379 0.105714
0.852506 0.0984817 0.125307
0.0673228 0.543557 0.114611
0.0672923 0.542412 0.111284
0.067277 0.540597 0.105776
0.167346 0.568551 0.0626688
0.703822 0.624216 0.0272984
0.853178 0.608026 0.0322271
0.894087 0.540322 0.0368048
0.852201 0.0995804 0.0970626
0.852506 0.0984817 0.125307
0.0903182 0.678798 0.131945
0.0902724 0.678416 0.131365
0.0902419 0.677913 0.130632
0.0899977 0.676417 0.128222
0.677378 0.763699 0.041886
0.838865 0.764904 0.0416571
0.89575 0.757122 0.0441596
0.894499 0.725933 0.0407263
0.862104 0.377508 0.0444953
0.102495 0.755703 0.231205
0.102495 0.755703 0.231205
0.102495 0.755703 0.231205
0.278248 0.776486 0.177829
0.679911 0.814862 0.0550546
0.83064 0.821118 0.0541543
0.892378 0.817411 0.0617685
0.892973 0.811688 0.0559854
0.89427 0.796384 0.0509499
0.678523 0.814725 0.0551156
0.68481 0.815335 0.0549325
0.694484 0.816281 0.054612
0.719585 0.818555 0.0539864
0.770291 0.822217 0.0547494
0.82977 0.821134 0.0545663
0.888289 0.817487 0.0623789
0.892256 0.817075 0.0656291
0.892256 0.817075 0.0656291
0.838926 0.820584 0.0544442
0.839307 0.820569 0.0544289
0.839963 0.820523 0.05449
0.841901 0.820401 0.0545815
0.847517 0.820066 0.0548104
0.861845 0.819196 0.0554818
0.890227 0.817349 0.0631723
0.892256 0.817075 0.0656291
0.892256 0.817075 0.0656291
0.0252995 0.0423285 0.285008
0.0253452 0.0425422 0.284153
0.133715 0.0473487 0.281865
0.354772 0.0734264 0.306447
0.661555 0.070573 0.337545
0.805127 0.0884413 0.340764
0.853223 0.0967575 0.263554
0.852293 0.0991379 0.105714
0.852506 0.0984817 0.125307
0.0253605 0.0426032 0.283909
0.0252995 0.0426184 0.283452
0.135866 0.0476844 0.281193
0.357321 0.0737316 0.305745
0.662516 0.0706645 0.336751
0.805295 0.0884565 0.340063
0.853193 0.0967727 0.262409
0.852293 0.0991379 0.105714
0.852506 0.0984817 0.125307
0.0212406 0.118044 0.290105
0.0207065 0.11313 0.288365
0.110719 0.0943008 0.276081
0.352239 0.0731212 0.307134
0.658488 0.0702983 0.333394
0.80502 0.0884565 0.338064
0.853132 0.096788 0.260578
0.852293 0.0991379 0.105714
0.852506 0.0984817 0.125307
0.0402533 0.319036 0.336385
0.0400549 0.316258 0.335271
0.0396124 0.31133 0.333501
0.317723 0.307271 0.321019
0.65182 0.271122 0.311299
0.793957 0.123156 0.301259
0.852293 0.0968795 0.231479
0.852293 0.0991379 0.105714
0.852506 0.0984817 0.125307
0.0612345 0.560174 0.379126
0.0610666 0.558953 0.378225
0.0609293 0.556939 0.376761
0.152804 0.573632 0.368261
0.676234 0.61117 0.318532
0.836027 0.598077 0.262287
0.889265 0.545998 0.103716
0.852201 0.0995804 0.0970626
0.852506 0.0984817 0.125307
0.0829786 0.696696 0.404791
0.082948 0.6963 0.403723
0.0828412 0.695628 0.401907
0.0826276 0.693645 0.396506
0.639536 0.753338 0.310994
0.834806 0.753704 0.142123
0.895888 0.759426 0.0444953
0.894499 0.725505 0.0406958
0.86099 0.372015 0.0448615
0.102495 0.755703 0.231205
0.102495 0.755703 0.231205
0.102495 0.755703 0.231205
0.247105 0.776257 0.182239
0.678141 0.814679 0.0551308
0.830549 0.821134 0.0540932
0.892378 0.817411 0.0617685
0.892989 0.811658 0.0559701
0.89427 0.796307 0.0509499
0.678019 0.814664 0.0551308
0.684306 0.81529 0.0549477
0.69398 0.816236 0.0546273
0.719142 0.818509 0.0540017
0.770123 0.822217 0.0547494
0.829725 0.821134 0.0545815
0.888289 0.817487 0.0623789
0.892256 0.817075 0.0656291
0.892256 0.817075 0.0656291
0.83888 0.8206 0.0544442
0.839261 0.820569 0.0544442
0.839918 0.820523 0.05449
0.841856 0.820417 0.0545205
0.847471 0.820081 0.0548104
0.861845 0.819196 0.0554818
0.890227 0.817349 0.0631723
0.892256 0.817075 0.0656291
0.892256 0.817075 0.0656291
0.0433356 0.0419318 0.483177
0.0433356 0.0419165 0.482979
0.0431067 0.0417029 0.480522
0.340719 0.0519417 0.507012
0.667063 0.0746777 0.545098
0.816327 0.0917983 0.565835
0.870619 0.100069 0.568566
0.862211 0.0978408 0.453361
0.852506 0.0984817 0.125307
0.0433356 0.0419165 0.482979
0.0433204 0.0419165 0.482765
0.0562905 0.0401312 0.478233
0.348028 0.0523842 0.50782
0.668727 0.0748455 0.545098
0.816571 0.0917983 0.565744
0.870604 0.100069 0.568231
0.862181 0.0978408 0.45272
0.852506 0.0984817 0.125307
0.0433051 0.0419013 0.482048
0.0431983 0.0419013 0.481941
0.0430762 0.0416724 0.479484
0.342626 0.052018 0.506218
0.667445 0.0746777 0.544274
0.816785 0.0918746 0.565423
0.870588 0.100008 0.56791
0.862135 0.0978408 0.451957
0.852506 0.0984817 0.125307
0.0425879 0.217044 0.513954
0.0426947 0.21059 0.513024
0.042771 0.198276 0.511193
0.261524 0.228641 0.507698
0.637171 0.130907 0.531106
0.811139 0.090959 0.560052
0.87039 0.0999924 0.565744
0.861936 0.0977798 0.449165
0.852506 0.0984817 0.125307
0.0588998 0.557794 0.597162
0.0588083 0.556359 0.596643
0.0585946 0.554116 0.595834
0.119249 0.557778 0.594263
0.645853 0.597711 0.584207
0.823087 0.574166 0.583871
0.863661 0.484627 0.571084
0.859312 0.0972305 0.40412
0.852506 0.0984817 0.125307
0.0802777 0.709209 0.64509
0.0802319 0.708843 0.644785
0.0801099 0.708339 0.644297
0.0798352 0.706798 0.64271
0.586618 0.763394 0.615396
0.816052 0.766583 0.598047
0.882567 0.760357 0.562554
0.886168 0.721263 0.332174
0.857481 0.354101 0.046128
0.0947433 0.785382 0.660151
0.0947433 0.785367 0.659983
0.0947585 0.785367 0.659663
0.0947585 0.785351 0.658869
0.60528 0.829877 0.61529
0.803143 0.836286 0.585107
0.880674 0.828672 0.540246
0.892866 0.812909 0.0569162
0.894286 0.796155 0.0508888
0.670222 0.813901 0.055375
0.676875 0.814557 0.0551766
0.686824 0.815534 0.0548409
0.713634 0.818021 0.054139
0.767025 0.822034 0.0547036
0.828916 0.82118 0.0546578
0.888197 0.817487 0.0623636
0.892256 0.817075 0.0656291
0.892256 0.817075 0.0656291
0.838788 0.8206 0.0544442
0.83917 0.820584 0.0544442
0.839826 0.820539 0.05449
0.841764 0.820432 0.0545205
0.847379 0.820081 0.0548104
0.861738 0.819196 0.0554818
0.890181 0.817349 0.0631571
0.892256 0.817075 0.0656291
0.892256 0.817075 0.0656291
0.0579232 0.0561074 0.62771
0.0579232 0.0561074 0.627634
0.0579232 0.0561074 0.627634
0.216785 0.0565347 0.636606
0.654414 0.0787518 0.686061
0.824094 0.0962081 0.708904
0.885145 0.105333 0.724849
0.883803 0.104799 0.71342
0.876448 0.101854 0.635706
0.0579232 0.0561074 0.627634
0.0579232 0.0561074 0.627634
0.0579232 0.0561074 0.627558
0.230518 0.0568399 0.637568
0.65655 0.0789197 0.686336
0.824353 0.0962234 0.708919
0.885145 0.105333 0.724849
0.883803 0.104799 0.71342
0.876448 0.101854 0.635615
0.0579232 0.0561074 0.627558
0.0579232 0.0561074 0.627558
0.0579232 0.0561074 0.627558
0.25272 0.0574197 0.639673
0.659937 0.079118 0.686702
0.824735 0.0962844 0.708949
0.885145 0.105272 0.724788
0.883803 0.104799 0.713344
0.876432 0.101839 0.635431
0.0578164 0.0560006 0.626581
0.0578164 0.0560006 0.626581
0.0578164 0.0560006 0.626505
0.189151 0.055848 0.633524
0.644129 0.0778973 0.683909
0.822034 0.0958572 0.707683
0.88513 0.105272 0.724651
0.883787 0.104738 0.71313
0.876387 0.101839 0.634821
0.0572366 0.499901 0.713939
0.0571145 0.497704 0.713375
0.0569772 0.494316 0.712551
0.0564431 0.483604 0.709819
0.604623 0.519173 0.714885
0.809949 0.466835 0.720348
0.85565 0.269474 0.716487
0.883604 0.104662 0.711223
0.876188 0.101762 0.632868
0.0795758 0.700511 0.757824
0.0795148 0.700175 0.757717
0.079469 0.699611 0.757534
0.079118 0.698024 0.75697
0.502953 0.750286 0.742565
0.804105 0.757412 0.738277
0.880552 0.749416 0.739101
0.878401 0.710491 0.727184
0.8748 0.101305 0.616663
0.0964981 0.788418 0.784222
0.0964981 0.788418 0.784222
0.0964981 0.788418 0.784161
0.0964981 0.788418 0.784009
0.524651 0.827955 0.756924
0.784802 0.833997 0.744396
0.875563 0.828717 0.737331
0.878996 0.822721 0.715419
0.881453 0.803281 0.63122
0.539544 0.82887 0.735912
0.550179 0.829602 0.735531
0.5664 0.830716 0.735027
0.608545 0.833417 0.73341
0.690242 0.837751 0.729244
0.788113 0.840452 0.721736
0.865415 0.839811 0.713664
0.877958 0.839002 0.692729
0.882368 0.826703 0.442435
0.822461 0.830182 0.458824
0.822934 0.830121 0.458274
0.823682 0.830045 0.457313
0.82591 0.829801 0.454536
0.832319 0.828977 0.445762
0.848096 0.826474 0.417136
0.882368 0.816953 0.25861
0.892256 0.817075 0.0656291
0.892256 0.817075 0.0656291
0.0675669 0.0654612 0.71017
0.0675669 0.0654612 0.71017
0.0675669 0.0654612 0.71017
0.0675669 0.0654612 0.71017
0.592737 0.0789349 0.757839
0.824018 0.0991684 0.784909
0.891218 0.112154 0.801038
0.891279 0.11162 0.800504
0.891478 0.108827 0.792966
0.0675669 0.0654612 0.71017
0.0675669 0.0654612 0.71017
0.0675669 0.0654612 0.71017
0.0675669 0.0654612 0.71017
0.595926 0.0791791 0.758175
0.824277 0.0991684 0.785
0.891218 0.112154 0.801038
0.891279 0.11162 0.800504
0.891478 0.108827 0.792966
0.0675669 0.0654612 0.71017
0.0675669 0.0654612 0.71017
0.0675669 0.0654612 0.71017
0.0675669 0.0654612 0.710094
0.600778 0.0794385 0.758679
0.82472 0.0992447 0.785016
0.891218 0.112154 0.801038
0.891279 0.11162 0.800504
0.891478 0.108827 0.792905
0.0675669 0.0654612 0.710094
0.0675669 0.0654612 0.710094
0.0675669 0.0654612 0.710094
0.0675669 0.0654612 0.710094
0.615473 0.0803693 0.760281
0.825986 0.0993973 0.78529
0.891218 0.112154 0.801038
0.891279 0.11162 0.800504
0.891478 0.108827 0.792905
0.0567636 0.203784 0.727275
0.0567788 0.201694 0.727047
0.0567941 0.195926 0.726375
0.0563516 0.178317 0.723384
0.512947 0.149752 0.742123
0.810864 0.0974136 0.781415
0.89134 0.111116 0.799924
0.89131 0.111543 0.800412
0.891417 0.108827 0.792721
0.0770581 0.676814 0.813291
0.0770123 0.676295 0.813153
0.0769055 0.675486 0.81294
0.076524 0.673045 0.812299
0.219196 0.71812 0.810086
0.79266 0.727871 0.799878
0.879255 0.714641 0.805707
0.875349 0.633356 0.801923
0.891356 0.10869 0.790921
0.0967269 0.790051 0.82623
0.0967269 0.790051 0.82623
0.0966506 0.790051 0.82623
0.0965896 0.790036 0.826246
0.254337 0.817853 0.817914
0.764935 0.8262 0.808362
0.870497 0.82034 0.803738
0.87892 0.811719 0.800366
0.880613 0.790478 0.794049
0.323583 0.82063 0.813581
0.357336 0.821073 0.812558
0.406882 0.821729 0.811048
0.497322 0.826123 0.809735
0.63331 0.834653 0.808927
0.768017 0.840009 0.805997
0.858503 0.839857 0.801923
0.87686 0.839567 0.800244
0.876921 0.839612 0.792752
0.7888 0.840391 0.79086
0.789578 0.840406 0.790845
0.790707 0.840421 0.790784
0.793957 0.840436 0.79057
0.803067 0.840436 0.78999
0.824964 0.84036 0.788846
0.861845 0.839933 0.787167
0.876997 0.839658 0.784527
0.877104 0.839719 0.772961
0.068513 0.066392 0.717922
0.068513 0.066392 0.717922
0.068513 0.066392 0.717922
0.068513 0.066392 0.717922
0.141543 0.0630198 0.719921
0.80032 0.0970779 0.800122
0.888228 0.129534 0.810666
0.888228 0.129534 0.810666
0.888228 0.129534 0.810666
0.068513 0.066392 0.717922
0.068513 0.066392 0.717922
0.068513 0.066392 0.717922
0.068513 0.066392 0.717922
0.15024 0.0631571 0.720714
0.800732 0.0971542 0.800198
0.888228 0.129534 0.810666
0.888228 0.129534 0.810666
0.888228 0.129534 0.810666
0.068513 0.066392 0.717922
0.068513 0.066392 0.717922
0.068513 0.066392 0.717922
0.068513 0.066392 0.717922
0.162203 0.0635233 0.721645
0.801358 0.0972305 0.800305
0.888228 0.129534 0.810666
0.888228 0.129534 0.810666
0.888228 0.129534 0.810666
0.068513 0.066392 0.717922
0.068513 0.066392 0.717922
0.068513 0.066392 0.717922
0.068513 0.066392 0.717922
0.205035 0.0646067 0.725322
0.803281 0.0974594 0.800595
0.888228 0.129534 0.810666
0.888228 0.129534 0.810666
0.888228 0.129534 0.810666
0.068513 0.066392 0.717922
0.068513 0.066392 0.717922
0.068513 0.066392 0.717922
0.068513 0.066392 0.717922
0.370321 0.0688487 0.742153
0.80885 0.0981155 0.80148
0.888228 0.129534 0.810666
0.888228 0.129534 0.810666
0.888228 0.129534 0.810666
0.0647898 0.570565 0.798642
0.0648051 0.570275 0.798566
0.0646525 0.568811 0.798321
0.0641642 0.562371 0.797147
0.0628367 0.543206 0.794278
0.767605 0.568933 0.793515
0.867491 0.493233 0.793835
0.888228 0.129534 0.810666
0.888228 0.129534 0.810666
0.0930495 0.77528 0.825376
0.0930495 0.775158 0.82536
0.0930037 0.774899 0.825345
0.0928969 0.77406 0.825269
0.0925154 0.771878 0.825162
0.723507 0.811017 0.809812
0.86392 0.804562 0.807355
0.880125 0.793042 0.807446
0.881453 0.762737 0.808347
0.0981003 0.790249 0.826139
0.0981003 0.790249 0.826139
0.0981003 0.790249 0.826139
0.0981003 0.790249 0.826139
0.459236 0.824018 0.810162
0.732189 0.8392 0.807996
0.850813 0.839948 0.805539
0.876814 0.839551 0.804868
0.876814 0.839551 0.804868
0.762127 0.839887 0.807523
0.763058 0.839902 0.807492
0.764614 0.839933 0.807477
0.769268 0.840024 0.807401
0.781842 0.840192 0.807157
0.809873 0.840269 0.806546
0.854063 0.839887 0.805447
0.876814 0.839551 0.804868
0.876814 0.839551 0.804868
0.068513 0.066392 0.717922
0.068513 0.066392 0.717922
0.068513 0.066392 0.717922
0.068513 0.066392 0.717922
0.068513 0.066392 0.717922
0.596597 0.0802014 0.772808
0.884367 0.120729 0.811597
0.888228 0.129534 0.810666
0.888228 0.129534 0.810666
0.068513 0.066392 0.717922
0.068513 0.066392 0.717922
0.068513 0.066392 0.717922
0.068513 0.066392 0.717922
0.068513 0.066392 0.717922
0.599237 0.0803693 0.773175
0.884382 0.120928 0.811612
0.888228 0.129534 0.810666
0.888228 0.129534 0.810666
0.068513 0.066392 0.717922
0.068513 0.066392 0.717922
0.068513 0.066392 0.717922
0.068513 0.066392 0.717922
0.068513 0.066392 0.717922
0.603418 0.0806134 0.773724
0.884504 0.121035 0.811582
0.888228 0.129534 0.810666
0.888228 0.129534 0.810666
0.068513 0.066392 0.717922
0.068513 0.066392 0.717922
0.068513 0.066392 0.717922
0.068513 0.066392 0.717922
0.068513 0.066392 0.717922
0.616205 0.0814374 0.775418
0.884764 0.121553 0.811551
0.888228 0.129534 0.810666
0.888228 0.129534 0.810666
0.068513 0.066392 0.717922
0.068513 0.066392 0.717922
0.068513 0.066392 0.717922
0.068513 0.066392 0.717922
0.068513 0.066392 0.717922
0.650217 0.0836652 0.77998
0.885573 0.123018 0.811383
0.888228 0.129534 0.810666
0.888228 0.129534 0.810666
0.068513 0.066392 0.717922
0.068513 0.066392 0.717922
0.068513 0.066392 0.717922
0.068513 0.066392 0.717922
0.068513 0.066392 0.717922
0.721218 0.0890364 0.789242
0.887922 0.128695 0.810758
0.888228 0.129534 0.810666
0.888228 0.129534 0.810666
0.0835584 0.715297 0.822782
0.0835584 0.715236 0.822782
0.0835584 0.71519 0.822736
0.0832837 0.713512 0.822461
0.0824598 0.708354 0.82153
0.498604 0.751263 0.805325
0.856428 0.752956 0.807233
0.879683 0.725933 0.806394
0.870466 0.54548 0.796948
0.0981003 0.790249 0.826139
0.0981003 0.790249 0.826139
0.0981003 0.790249 0.826139
0.0981003 0.790249 0.826139
0.0981003 0.790249 0.826139
0.588846 0.832074 0.809232
0.835584 0.840116 0.80592
0.876814 0.839551 0.804868
0.876814 0.839551 0.804868
0.692653 0.837674 0.808438
0.694545 0.837766 0.808423
0.697597 0.837903 0.808408
0.706645 0.838331 0.808331
0.729702 0.839124 0.808026
0.777539 0.840146 0.807248
0.840681 0.840055 0.805798
0.876814 0.839551 0.804868
0.876814 0.839551 0.804868
