LUTS/Secondary LUTS/PORTA.cube
TITLE "Generated by Resolve"
LUT_3D_SIZE 5
0.0214542 0.0213626 0.024155
0.157198 0.0438697 0.0445563
0.657542 0.0717937 0.0699321
0.852201 0.0995804 0.0970626
0.852506 0.0984817 0.125307
0.0300908 0.176349 0.0588388
0.143862 0.156527 0.0505074
0.652644 0.0712444 0.069398
0.852201 0.0995804 0.0970626
0.852506 0.0984817 0.125307
0.0692607 0.544198 0.07187
0.0687877 0.541192 0.0730297
0.704372 0.62591 0.0274052
0.89453 0.542473 0.0366827
0.852506 0.0984817 0.125307
0.102495 0.755703 0.231205
0.102495 0.755703 0.231205
0.680278 0.814893 0.0550393
0.892378 0.817411 0.0617685
0.89427 0.796429 0.0509499
0.838926 0.820584 0.0544442
0.839963 0.820523 0.05449
0.847517 0.820066 0.0548104
0.890272 0.817349 0.0631876
0.892256 0.817075 0.0656291
0.0320287 0.0355383 0.150683
0.150744 0.0467689 0.151843
0.657893 0.0700999 0.142657
0.852201 0.0995804 0.0970626
0.852506 0.0984817 0.125307
0.0239261 0.163439 0.166567
0.133867 0.14342 0.151247
0.652415 0.0696269 0.130846
0.852201 0.0995804 0.0970626
0.852506 0.0984817 0.125307
0.0673228 0.543557 0.114611
0.067277 0.540597 0.105776
0.703822 0.624216 0.0272984
0.894087 0.540322 0.0368048
0.852506 0.0984817 0.125307
0.102495 0.755703 0.231205
0.102495 0.755703 0.231205
0.679911 0.814862 0.0550546
0.892378 0.817411 0.0617685
0.89427 0.796384 0.0509499
0.838926 0.820584 0.0544442
0.839963 0.820523 0.05449
0.847517 0.820066 0.0548104
0.890227 0.817349 0.0631723
0.892256 0.817075 0.0656291
0.0433356 0.0419318 0.483177
0.0431067 0.0417029 0.480522
0.667063 0.0746777 0.545098
0.870619 0.100069 0.568566
0.852506 0.0984817 0.125307
0.0433051 0.0419013 0.482048
0.0430762 0.0416724 0.479484
0.667445 0.0746777 0.544274
0.870588 0.100008 0.56791
0.852506 0.0984817 0.125307
0.0588998 0.557794 0.597162
0.0585946 0.554116 0.595834
0.645853 0.597711 0.584207
0.863661 0.484627 0.571084
0.852506 0.0984817 0.125307
0.0947433 0.785382 0.660151
0.0947585 0.785367 0.659663
0.60528 0.829877 0.61529
0.880674 0.828672 0.540246
0.894286 0.796155 0.0508888
0.838788 0.8206 0.0544442
0.839826 0.820539 0.05449
0.847379 0.820081 0.0548104
0.890181 0.817349 0.0631571
0.892256 0.817075 0.0656291
0.0675669 0.0654612 0.71017
0.0675669 0.0654612 0.71017
0.592737 0.0789349 0.757839
0.891218 0.112154 0.801038
0.891478 0.108827 0.792966
0.0675669 0.0654612 0.71017
0.0675669 0.0654612 0.71017
0.600778 0.0794385 0.758679
0.891218 0.112154 0.801038
0.891478 0.108827 0.792905
0.0567636 0.203784 0.727275
0.0567941 0.195926 0.726375
0.512947 0.149752 0.742123
0.89134 0.111116 0.799924
0.891417 0.108827 0.792721
0.0967269 0.790051 0.82623
0.0966506 0.790051 0.82623
0.254337 0.817853 0.817914
0.870497 0.82034 0.803738
0.880613 0.790478 0.794049
0.7888 0.840391 0.79086
0.790707 0.840421 0.790784
0.803067 0.840436 0.78999
0.861845 0.839933 0.787167
0.877104 0.839719 0.772961
0.068513 0.066392 0.717922
0.068513 0.066392 0.717922
0.068513 0.066392 0.717922
0.884367 0.120729 0.811597
0.888228 0.129534 0.810666
0.068513 0.066392 0.717922
0.068513 0.066392 0.717922
0.068513 0.066392 0.717922
0.884504 0.121035 0.811582
0.888228 0.129534 0.810666
0.068513 0.066392 0.717922
0.068513 0.066392 0.717922
0.068513 0.066392 0.717922
0.885573 0.123018 0.811383
0.888228 0.129534 0.810666
0.0835584 0.715297 0.822782
0.0835584 0.71519 0.822736
0.0824598 0.708354 0.82153
0.856428 0.752956 0.807233
0.870466 0.54548 0.796948
0.692653 0.837674 0.808438
0.697597 0.837903 0.808408
0.729702 0.839124 0.808026
0.840681 0.840055 0.805798
0.876814 0.839551 0.804868
