LUTS/Secondary LUTS/PRO_400H.cube
TITLE "Generated by Resolve"
LUT_3D_SIZE 9
0.0630198 0.0842451 0.0949111
0.0630198 0.0842451 0.0949111
0.116152 0.0937819 0.094667
0.339254 0.10515 0.0604562
0.623911 0.0324559 0.0296788
0.732418 0.0305791 0.0308995
0.757443 0.033753 0.0318761
0.757305 0.0327764 0.0322576
0.756634 0.0298924 0.0444953
0.0630198 0.0842451 0.0949111
0.0630198 0.0842451 0.0949111
0.121218 0.0950942 0.0943465
0.338811 0.105211 0.0606851
0.624109 0.0324102 0.0296788
0.732555 0.0305791 0.0308995
0.757443 0.033753 0.0318761
0.757305 0.0327764 0.0322576
0.756634 0.0298924 0.0444953
0.0225376 0.134066 0.108904
0.0229953 0.132204 0.108431
0.117693 0.134356 0.103227
0.32137 0.144228 0.0724346
0.61944 0.0332189 0.029572
0.732235 0.0305333 0.0308995
0.757443 0.033753 0.0318761
0.757305 0.0327764 0.0322576
0.756634 0.0298924 0.0444953
0.0138705 0.249805 0.119921
0.0139467 0.248035 0.119936
0.0140841 0.245472 0.119951
0.322042 0.283833 0.0421149
0.655909 0.292958 0.0153506
0.752865 0.175341 0.0238499
0.757443 0.033753 0.0318761
0.757305 0.0327611 0.0322576
0.756634 0.0298924 0.0444953
0.00810254 0.424216 0.0944991
0.0081178 0.423316 0.0948653
0.00814832 0.421836 0.0954757
0.0630045 0.484215 0.014313
0.706798 0.581979 0
0.883253 0.56907 0
0.885649 0.482841 0.00149538
0.757443 0.033753 0.0318761
0.756634 0.0298924 0.0444953
0.00733959 0.530312 0.0564584
0.00733959 0.530144 0.0563668
0.00735485 0.5299 0.0563516
0.00737011 0.529168 0.0562448
0.671641 0.740001 0
0.93257 0.780896 0
0.955352 0.766598 0
0.95639 0.721279 0
0.832959 0.334554 0.0128023
0.00654612 0.563485 0.104982
0.00654612 0.563485 0.104982
0.00654612 0.563485 0.104982
0.0472267 0.656596 0.0122988
0.677943 0.781888 0
0.930083 0.836591 0
0.952407 0.831189 0
0.95259 0.825833 0
0.953246 0.812451 0
0.675578 0.781308 0
0.685664 0.783825 0
0.701091 0.787701 0
0.738933 0.797131 0
0.818265 0.815625 0
0.92842 0.836789 0
0.952102 0.836683 0
0.952255 0.835828 0
0.952255 0.835828 0
0.939879 0.838697 0
0.940276 0.838758 0
0.940917 0.838865 0
0.942916 0.839155 0
0.947417 0.839673 0
0.951904 0.839246 0
0.952117 0.836545 0
0.952255 0.835828 0
0.952255 0.835828 0
0.0630198 0.0842451 0.0949111
0.0630198 0.0842451 0.0949111
0.115633 0.0936446 0.0946975
0.339254 0.10515 0.0604562
0.623713 0.0324865 0.0296635
0.732418 0.0305791 0.0308995
0.757443 0.033753 0.0318761
0.757305 0.0327764 0.0322576
0.756634 0.0298924 0.0444953
0.0630198 0.0842451 0.0949111
0.0630198 0.0842451 0.0949111
0.118791 0.0944686 0.0944991
0.336477 0.10547 0.0617227
0.624109 0.0324102 0.0296788
0.732555 0.0305791 0.0308995
0.757443 0.033753 0.0318761
0.757305 0.0327764 0.0322576
0.756634 0.0298924 0.0444953
0.0230716 0.131914 0.108354
0.0235142 0.130037 0.107866
0.115602 0.132158 0.102937
0.306691 0.14406 0.0766155
0.61973 0.0331426 0.0295872
0.732235 0.0305333 0.0308995
0.757443 0.033753 0.0318761
0.757305 0.0327764 0.0322576
0.756634 0.0298924 0.0444953
0.0139315 0.248569 0.119921
0.014023 0.246708 0.119951
0.0141451 0.244129 0.119966
0.3205 0.281575 0.0436255
0.654826 0.29073 0.0154879
0.75198 0.172808 0.0240024
0.757443 0.033753 0.0318761
0.757305 0.0327611 0.0322576
0.756634 0.0298924 0.0444953
0.0081178 0.423819 0.0946517
0.00813306 0.422843 0.0950484
0.00816358 0.421439 0.0956283
0.0601511 0.483345 0.0144045
0.706661 0.581476 0
0.88307 0.568475 0
0.88539 0.482033 0.00154116
0.757443 0.033753 0.0318761
0.756634 0.0298924 0.0444953
0.00733959 0.530282 0.0564736
0.00733959 0.530144 0.0563668
0.00735485 0.52987 0.0563668
0.00737011 0.529137 0.0562448
0.671427 0.739895 0
0.932555 0.780819 0
0.955367 0.766506 0
0.95639 0.721172 0
0.832609 0.333608 0.0128939
0.00654612 0.563485 0.104982
0.00654612 0.563485 0.104982
0.00654612 0.563485 0.104982
0.0458076 0.656275 0.0123445
0.677745 0.781857 0
0.930007 0.836576 0
0.952407 0.831189 0
0.95259 0.825833 0
0.953246 0.812451 0
0.67538 0.781262 0
0.685466 0.78378 0
0.700893 0.787655 0
0.738781 0.797086 0
0.818265 0.815625 0
0.92842 0.836789 0
0.952102 0.836683 0
0.952255 0.835828 0
0.952255 0.835828 0
0.939879 0.838697 0
0.940276 0.838758 0
0.940917 0.838865 0
0.942916 0.839155 0
0.947417 0.839673 0
0.951904 0.839246 0
0.952117 0.836545 0
0.952255 0.835828 0
0.952255 0.835828 0
0.0559243 0.0858625 0.128847
0.0564126 0.0857252 0.126253
0.112169 0.094316 0.127169
0.339422 0.1066 0.14551
0.622293 0.026566 0.135271
0.731594 0.0290684 0.0416724
0.757443 0.033753 0.0318761
0.757305 0.0327764 0.0322576
0.756634 0.0298924 0.0444953
0.0560006 0.085832 0.128435
0.0561532 0.0858015 0.127657
0.114397 0.0950484 0.128786
0.340139 0.106508 0.144076
0.62266 0.0265812 0.133272
0.731731 0.0291447 0.0399481
0.757443 0.033753 0.0318761
0.757305 0.0327764 0.0322576
0.756634 0.0298924 0.0444953
0.0200809 0.132219 0.15938
0.0204166 0.130449 0.1579
0.106996 0.128939 0.143771
0.312993 0.133989 0.131975
0.616754 0.0265965 0.121202
0.731334 0.0295262 0.0347295
0.757443 0.033753 0.0318761
0.757305 0.0327764 0.0322576
0.756634 0.0298924 0.0444953
0.0131228 0.253834 0.179919
0.0132296 0.25185 0.178988
0.0134127 0.248249 0.177493
0.310552 0.280537 0.133562
0.639063 0.28397 0.0220798
0.755581 0.189731 0.0229801
0.757443 0.033753 0.0318761
0.757305 0.0327611 0.0322576
0.756634 0.0298924 0.0444953
0.00802625 0.42565 0.107607
0.0080415 0.424445 0.106371
0.00808728 0.422599 0.104402
0.0543069 0.482124 0.0145876
0.706203 0.58027 0
0.882567 0.567132 0
0.884962 0.480751 0.00161746
0.757443 0.033753 0.0318761
0.756634 0.0298924 0.0444953
0.00733959 0.530144 0.0563668
0.00735485 0.529992 0.0564736
0.00735485 0.529732 0.0564584
0.00737011 0.529 0.0563363
0.670634 0.73959 0
0.932464 0.780743 0
0.955367 0.76643 0
0.95639 0.720958 0
0.832044 0.332097 0.0130159
0.00654612 0.563485 0.104982
0.00654612 0.563485 0.104982
0.00654612 0.563485 0.104982
0.04448 0.655741 0.0123903
0.677546 0.781811 0
0.930007 0.836545 0
0.952407 0.831189 0
0.95259 0.825833 0
0.953246 0.812451 0
0.675181 0.781201 0
0.685267 0.783719 0
0.700694 0.787594 0
0.738781 0.797086 0
0.818112 0.815595 0
0.92842 0.836789 0
0.952102 0.836683 0
0.952255 0.835828 0
0.952255 0.835828 0
0.939818 0.838697 0
0.940276 0.838758 0
0.940917 0.838865 0
0.942916 0.839155 0
0.947417 0.839673 0
0.951904 0.839246 0
0.952117 0.836545 0
0.952255 0.835828 0
0.952255 0.835828 0
0.0267643 0.083238 0.219547
0.0268559 0.0833143 0.218921
0.0991684 0.0912795 0.2262
0.340276 0.0971389 0.279026
0.632059 0.0254978 0.308522
0.742382 0.0268864 0.31487
0.76199 0.0276188 0.236713
0.757305 0.0327764 0.0322576
0.756634 0.0298924 0.0444953
0.0268864 0.0833448 0.218738
0.0269169 0.0833753 0.218463
0.101793 0.0916762 0.226947
0.343084 0.0969253 0.278492
0.63299 0.0255131 0.307881
0.742473 0.0269017 0.31426
0.761929 0.0276188 0.235462
0.757305 0.0327764 0.0322576
0.756634 0.0298924 0.0444953
0.0206302 0.106523 0.250156
0.0210117 0.102846 0.247547
0.090959 0.0973068 0.239689
0.337453 0.0973526 0.279561
0.629191 0.0254978 0.304768
0.742229 0.0269169 0.312383
0.761807 0.0276341 0.233371
0.757305 0.0327764 0.0322576
0.756634 0.0298924 0.0444953
0.0120089 0.260487 0.316564
0.0121309 0.258228 0.31545
0.0123293 0.254383 0.313542
0.286351 0.276081 0.288075
0.631327 0.252644 0.268559
0.737408 0.0305791 0.254871
0.760159 0.0277714 0.202792
0.757305 0.0327611 0.0322576
0.756634 0.0298924 0.0444953
0.00518807 0.464942 0.363149
0.00520333 0.463813 0.362142
0.00523384 0.46215 0.360769
0.00546273 0.500526 0.334813
0.663966 0.563272 0.259052
0.848356 0.543328 0.161318
0.875807 0.475822 0.00198367
0.757443 0.033753 0.0318761
0.756634 0.0298924 0.0444953
0.00361639 0.570672 0.36939
0.00361639 0.570413 0.368475
0.00364691 0.569894 0.366781
0.00373846 0.568322 0.361425
0.607569 0.721294 0.163973
0.904494 0.764233 0
0.955215 0.769772 0
0.956374 0.720317 0
0.830167 0.327031 0.0134127
0.00654612 0.563485 0.104982
0.00654612 0.563485 0.104982
0.00654612 0.563485 0.104982
0.0329747 0.650965 0.0126955
0.674586 0.781048 0
0.929839 0.836484 0
0.952407 0.831144 0
0.95259 0.825788 0
0.953246 0.81236 0
0.674388 0.781003 0
0.684474 0.78352 0
0.699901 0.787396 0
0.738109 0.796918 0
0.8177 0.815503 0
0.928344 0.836774 0
0.952102 0.836683 0
0.952255 0.835828 0
0.952255 0.835828 0
0.939818 0.838697 0
0.940215 0.838758 0
0.940871 0.838849 0
0.942855 0.839155 0
0.947417 0.839673 0
0.951904 0.839246 0
0.952117 0.836545 0
0.952255 0.835828 0
0.952255 0.835828 0
0.0238499 0.0275425 0.383398
0.0238651 0.0275578 0.383215
0.0239109 0.0276646 0.380468
0.324224 0.0320134 0.445869
0.643519 0.0252232 0.49102
0.759487 0.026566 0.514992
0.78439 0.0270085 0.517937
0.774273 0.0268864 0.414527
0.756634 0.0298924 0.0444953
0.0238651 0.0275578 0.383124
0.0238651 0.0275578 0.383032
0.0238346 0.0274968 0.384771
0.33167 0.0315557 0.446845
0.645075 0.0252384 0.491096
0.759564 0.026566 0.5149
0.784375 0.0270085 0.517739
0.774227 0.0268864 0.413947
0.756634 0.0298924 0.0444953
0.0238804 0.0276036 0.382116
0.0238804 0.0276036 0.382025
0.0239261 0.0276951 0.379461
0.326009 0.0320439 0.445304
0.643839 0.0252232 0.490364
0.759686 0.026566 0.514656
0.784344 0.0270085 0.517418
0.774166 0.0269017 0.41326
0.756634 0.0298924 0.0444953
0.0142672 0.205249 0.464729
0.014435 0.201862 0.463233
0.0147707 0.1953 0.460624
0.23386 0.214389 0.452354
0.601389 0.144228 0.462699
0.756115 0.0265507 0.510018
0.784131 0.0270085 0.515435
0.773953 0.0269017 0.410834
0.756634 0.0298924 0.0444953
0.00430304 0.480262 0.563394
0.00433356 0.479026 0.562829
0.00436408 0.477089 0.561776
0.00408942 0.493385 0.553811
0.627909 0.558495 0.532174
0.830823 0.525261 0.520928
0.842435 0.422583 0.503883
0.770504 0.0269169 0.370016
0.756634 0.0298924 0.0444953
0.0011902 0.610529 0.618738
0.0011902 0.6103 0.618341
0.00120546 0.609949 0.617792
0.00123598 0.608881 0.616144
0.512688 0.749569 0.56289
0.854795 0.773709 0.524849
0.917372 0.761898 0.472251
0.924269 0.700633 0.142596
0.824216 0.310887 0.0146792
0.000244144 0.642267 0.635737
0.000244144 0.642237 0.635538
0.000244144 0.642191 0.635233
0.000259403 0.642039 0.634211
0.503929 0.792111 0.553933
0.84387 0.832868 0.48809
0.932784 0.83006 0.404654
0.952544 0.826749 0
0.953262 0.812177 0
0.661921 0.77789 0
0.672404 0.780499 0
0.688426 0.784527 0
0.729747 0.794858 0
0.812833 0.814435 0
0.926955 0.836515 0
0.952087 0.836698 0
0.952255 0.835828 0
0.952255 0.835828 0
0.939727 0.838682 0
0.940124 0.838743 0
0.940764 0.838834 0
0.942763 0.839139 0
0.947372 0.839673 0
0.951904 0.839246 0
0.952117 0.836545 0
0.952255 0.835828 0
0.952255 0.835828 0
0.0233616 0.0268864 0.514336
0.0233616 0.0268864 0.514336
0.0233616 0.0268864 0.51426
0.235294 0.0251774 0.548531
0.638697 0.025391 0.61294
0.773358 0.0272068 0.641398
0.802487 0.0276341 0.656367
0.80087 0.0275425 0.646647
0.79115 0.0271916 0.575311
0.0233616 0.0268864 0.514336
0.0233616 0.0268864 0.51426
0.0233616 0.0268864 0.51426
0.246448 0.0250553 0.550469
0.640528 0.0254063 0.613199
0.77351 0.0272068 0.641413
0.802487 0.0276341 0.656367
0.80087 0.0275425 0.646647
0.791135 0.0271916 0.575219
0.0233616 0.0268864 0.51426
0.0233616 0.0268864 0.51426
0.0233616 0.0268864 0.514199
0.263325 0.0248875 0.553338
0.643534 0.0254368 0.613596
0.773754 0.0272221 0.641474
0.802472 0.0276341 0.656291
0.80087 0.0275425 0.646571
0.791119 0.0271916 0.575036
0.0233616 0.0268711 0.513451
0.0233616 0.0268711 0.513451
0.0233616 0.0268711 0.51339
0.210819 0.025452 0.543572
0.629709 0.0252995 0.610636
0.771969 0.0271763 0.640192
0.802457 0.0276341 0.656168
0.800839 0.0275425 0.646357
0.791043 0.0271763 0.574411
0.00535592 0.433326 0.67042
0.00540169 0.431388 0.669657
0.00547799 0.428153 0.668421
0.00573739 0.418326 0.664591
0.578027 0.484962 0.672358
0.806088 0.42707 0.673838
0.807767 0.212055 0.655604
0.800595 0.0275273 0.644678
0.790799 0.0271611 0.572595
0.000579843 0.620249 0.745174
0.000579843 0.619974 0.744945
0.000595102 0.619547 0.744595
0.00062562 0.618341 0.743694
0.357626 0.743709 0.728283
0.830045 0.772671 0.718791
0.899657 0.757031 0.715801
0.891463 0.693843 0.695109
0.789029 0.0270695 0.558556
0 0.66244 0.779019
0 0.66244 0.779019
0 0.66244 0.778973
0 0.662425 0.77882
0.256092 0.802289 0.758633
0.800214 0.854383 0.735225
0.905913 0.858045 0.718837
0.915038 0.85037 0.681422
0.921538 0.820996 0.552316
0.315038 0.801022 0.728359
0.348424 0.80293 0.727169
0.387884 0.806287 0.72578
0.483223 0.816114 0.722423
0.638682 0.837018 0.715709
0.806058 0.857633 0.700145
0.899779 0.865705 0.681147
0.91957 0.863294 0.64535
0.945586 0.823163 0.196017
0.874891 0.81825 0.277592
0.875669 0.81825 0.276097
0.876875 0.818265 0.27396
0.880339 0.818265 0.267231
0.889921 0.818311 0.241993
0.913527 0.81825 0.1514
0.952346 0.832044 0
0.952255 0.835828 0
0.952255 0.835828 0
0.023331 0.0268559 0.575525
0.023331 0.0268559 0.575525
0.023331 0.0268559 0.575525
0.023331 0.0268559 0.575525
0.585199 0.0250553 0.663142
0.778088 0.0274357 0.697856
0.811765 0.0279545 0.713237
0.811688 0.0279545 0.71281
0.810788 0.0279088 0.707622
0.023331 0.0268559 0.575525
0.023331 0.0268559 0.575525
0.023331 0.0268559 0.575525
0.023331 0.0268559 0.575525
0.588037 0.0250858 0.663615
0.778271 0.027451 0.697948
0.811765 0.0279545 0.713237
0.811688 0.0279545 0.71281
0.810788 0.0279088 0.707576
0.023331 0.0268559 0.575525
0.023331 0.0268559 0.575525
0.023331 0.0268559 0.575525
0.023331 0.0268559 0.575463
0.592447 0.0251316 0.664332
0.778531 0.027451 0.697978
0.811765 0.0279545 0.713237
0.811688 0.0279545 0.71281
0.810788 0.0279088 0.707576
0.023331 0.0268559 0.575463
0.023331 0.0268559 0.575463
0.023331 0.0268559 0.575463
0.023331 0.0268559 0.575463
0.605798 0.0252537 0.666438
0.779339 0.0274662 0.698207
0.811765 0.0279545 0.713237
0.811688 0.0279545 0.712764
0.810788 0.0279088 0.707576
0.0166781 0.163851 0.633051
0.016846 0.160647 0.632197
0.0173342 0.150988 0.629725
0.0197452 0.104829 0.620676
0.486275 0.129305 0.65684
0.769635 0.0272984 0.694682
0.811612 0.0279545 0.712352
0.811673 0.0279545 0.712718
0.810758 0.0279088 0.707454
0.000991836 0.603326 0.785946
0.0010071 0.602884 0.785733
0.00102235 0.602228 0.785458
0.00109865 0.600122 0.784634
0 0.698146 0.796002
0.81059 0.733379 0.794263
0.888685 0.70515 0.796185
0.871214 0.593729 0.778546
0.810544 0.0278935 0.70631
0 0.66479 0.814542
0 0.664759 0.814527
0 0.664698 0.814481
0 0.66453 0.814359
0 0.769009 0.826307
0.761273 0.854337 0.816556
0.895262 0.859266 0.810346
0.905592 0.851423 0.805447
0.903319 0.826795 0.795285
0 0.780118 0.827985
0 0.785428 0.827756
0.000488289 0.792874 0.827115
0.0522011 0.810101 0.824262
0.516747 0.833661 0.817166
0.762081 0.866194 0.815961
0.884276 0.878737 0.811429
0.908293 0.880583 0.808591
0.908843 0.879774 0.800046
0.798199 0.868559 0.800061
0.799329 0.868696 0.800015
0.801144 0.868864 0.799908
0.806592 0.869459 0.799664
0.820447 0.870985 0.798993
0.849287 0.874083 0.797513
0.888472 0.877302 0.794522
0.909499 0.878828 0.790188
0.910521 0.877348 0.775448
0.0233463 0.0268864 0.58027
0.0233463 0.0268864 0.58027
0.0233463 0.0268864 0.58027
0.0233463 0.0268864 0.58027
0.0921187 0.0268101 0.590021
0.763973 0.0272221 0.705119
0.813184 0.0280461 0.72134
0.813184 0.0280461 0.72134
0.813184 0.0280461 0.72134
0.0233463 0.0268864 0.58027
0.0233463 0.0268864 0.58027
0.0233463 0.0268864 0.58027
0.0233463 0.0268864 0.58027
0.116487 0.0266423 0.593286
0.764202 0.0272374 0.70518
0.813184 0.0280461 0.72134
0.813184 0.0280461 0.72134
0.813184 0.0280461 0.72134
0.0233463 0.0268864 0.58027
0.0233463 0.0268864 0.58027
0.0233463 0.0268864 0.58027
0.0233463 0.0268864 0.58027
0.15021 0.0263828 0.598154
0.764614 0.0272374 0.705303
0.813184 0.0280461 0.72134
0.813184 0.0280461 0.72134
0.813184 0.0280461 0.72134
0.0233463 0.0268864 0.58027
0.0233463 0.0268864 0.58027
0.0233463 0.0268864 0.58027
0.0233463 0.0268864 0.58027
0.226368 0.0255436 0.610117
0.765881 0.0272679 0.705608
0.813184 0.0280461 0.72134
0.813184 0.0280461 0.72134
0.813184 0.0280461 0.72134
0.0233463 0.0268864 0.58027
0.0233463 0.0268864 0.58027
0.0233463 0.0268864 0.58027
0.0233463 0.0268864 0.58027
0.36582 0.0242924 0.635508
0.769543 0.0273442 0.706584
0.813184 0.0280461 0.72134
0.813184 0.0280461 0.72134
0.813184 0.0280461 0.72134
0.00383001 0.498802 0.753048
0.00384527 0.498482 0.752941
0.00387579 0.497154 0.752422
0.00407416 0.491066 0.75024
0.00459297 0.472129 0.743633
0.769314 0.532784 0.763806
0.8439 0.427024 0.751995
0.813184 0.0280461 0.72134
0.813184 0.0280461 0.72134
0 0.658137 0.810956
0 0.658076 0.810925
0 0.658015 0.81088
0 0.65774 0.810742
0 0.657023 0.810391
0.694499 0.836942 0.816922
0.888701 0.843931 0.816114
0.902632 0.831342 0.813733
0.897719 0.785306 0.806882
0 0.666712 0.815839
0 0.666712 0.815839
0 0.666712 0.815839
0 0.666712 0.815839
0.0115206 0.80293 0.825757
0.698604 0.859388 0.823575
0.875486 0.879377 0.825269
0.90721 0.88217 0.825284
0.90721 0.88217 0.825284
0.75111 0.865888 0.824384
0.752773 0.866072 0.824414
0.755215 0.866361 0.82446
0.762814 0.867216 0.824491
0.784451 0.869657 0.824735
0.827115 0.874586 0.825162
0.878737 0.879637 0.825299
0.90721 0.88217 0.825284
0.90721 0.88217 0.825284
0.0233463 0.0268864 0.58027
0.0233463 0.0268864 0.58027
0.0233463 0.0268864 0.58027
0.0233463 0.0268864 0.58027
0.0233463 0.0268864 0.58027
0.589197 0.0251774 0.672663
0.811368 0.0280003 0.720378
0.813184 0.0280461 0.72134
0.813184 0.0280461 0.72134
0.0233463 0.0268864 0.58027
0.0233463 0.0268864 0.58027
0.0233463 0.0268864 0.58027
0.0233463 0.0268864 0.58027
0.0233463 0.0268864 0.58027
0.591669 0.0252079 0.673121
0.811383 0.0280003 0.720394
0.813184 0.0280461 0.72134
0.813184 0.0280461 0.72134
0.0233463 0.0268864 0.58027
0.0233463 0.0268864 0.58027
0.0233463 0.0268864 0.58027
0.0233463 0.0268864 0.58027
0.0233463 0.0268864 0.58027
0.595468 0.0252384 0.673777
0.811414 0.0280003 0.720394
0.813184 0.0280461 0.72134
0.813184 0.0280461 0.72134
0.0233463 0.0268864 0.58027
0.0233463 0.0268864 0.58027
0.0233463 0.0268864 0.58027
0.0233463 0.0268864 0.58027
0.0233463 0.0268864 0.58027
0.60705 0.0253605 0.675822
0.811566 0.0280003 0.720485
0.813184 0.0280461 0.72134
0.813184 0.0280461 0.72134
0.0233463 0.0268864 0.58027
0.0233463 0.0268864 0.58027
0.0233463 0.0268864 0.58027
0.0233463 0.0268864 0.58027
0.0233463 0.0268864 0.58027
0.637766 0.0256657 0.68101
0.812009 0.0280156 0.720714
0.813184 0.0280461 0.72134
0.813184 0.0280461 0.72134
0.0233463 0.0268864 0.58027
0.0233463 0.0268864 0.58027
0.0233463 0.0268864 0.58027
0.0233463 0.0268864 0.58027
0.0233463 0.0268864 0.58027
0.700954 0.0264439 0.692058
0.813169 0.0280461 0.721279
0.813184 0.0280461 0.72134
0.813184 0.0280461 0.72134
0.000122072 0.632456 0.799359
0.000122072 0.632456 0.799359
0.000122072 0.63238 0.799329
0.000137331 0.631388 0.798917
0.000183108 0.628275 0.797681
0.317357 0.7514 0.799268
0.87776 0.770016 0.804547
0.891005 0.723629 0.798932
0.853712 0.483818 0.761379
0 0.666712 0.815839
0 0.666712 0.815839
0 0.666712 0.815839
0 0.666712 0.815839
0 0.666712 0.815839
0.417777 0.82237 0.818097
0.859068 0.877928 0.825284
0.90721 0.88217 0.825284
0.906874 0.877211 0.823835
0.628138 0.849454 0.821942
0.631418 0.849943 0.822003
0.636698 0.850706 0.822171
0.652384 0.852964 0.822538
0.693904 0.858763 0.823499
0.777218 0.868833 0.824674
0.864942 0.878477 0.825238
0.90721 0.88217 0.825284
0.90721 0.88217 0.825284
