LUTS/Secondary LUTS/PRO_400H.cube
TITLE "Generated by Resolve"
LUT_3D_SIZE 5
0.0630198 0.0842451 0.0949111
0.116152 0.0937819 0.094667
0.623911 0.0324559 0.0296788
0.757443 0.033753 0.0318761
0.756634 0.0298924 0.0444953
0.0225376 0.134066 0.108904
0.117693 0.134356 0.103227
0.61944 0.0332189 0.029572
0.757443 0.033753 0.0318761
0.756634 0.0298924 0.0444953
0.00810254 0.424216 0.0944991
0.00814832 0.421836 0.0954757
0.706798 0.581979 0
0.885649 0.482841 0.00149538
0.756634 0.0298924 0.0444953
0.00654612 0.563485 0.104982
0.00654612 0.563485 0.104982
0.677943 0.781888 0
0.952407 0.831189 0
0.953246 0.812451 0
0.939879 0.838697 0
0.940917 0.838865 0
0.947417 0.839673 0
0.952117 0.836545 0
0.952255 0.835828 0
0.0559243 0.0858625 0.128847
0.112169 0.094316 0.127169
0.622293 0.026566 0.135271
0.757443 0.033753 0.0318761
0.756634 0.0298924 0.0444953
0.0200809 0.132219 0.15938
0.106996 0.128939 0.143771
0.616754 0.0265965 0.121202
0.757443 0.033753 0.0318761
0.756634 0.0298924 0.0444953
0.00802625 0.42565 0.107607
0.00808728 0.422599 0.104402
0.706203 0.58027 0
0.884962 0.480751 0.00161746
0.756634 0.0298924 0.0444953
0.00654612 0.563485 0.104982
0.00654612 0.563485 0.104982
0.677546 0.781811 0
0.952407 0.831189 0
0.953246 0.812451 0
0.939818 0.838697 0
0.940917 0.838865 0
0.947417 0.839673 0
0.952117 0.836545 0
0.952255 0.835828 0
0.0238499 0.0275425 0.383398
0.0239109 0.0276646 0.380468
0.643519 0.0252232 0.49102
0.78439 0.0270085 0.517937
0.756634 0.0298924 0.0444953
0.0238804 0.0276036 0.382116
0.0239261 0.0276951 0.379461
0.643839 0.0252232 0.490364
0.784344 0.0270085 0.517418
0.756634 0.0298924 0.0444953
0.00430304 0.480262 0.563394
0.00436408 0.477089 0.561776
0.627909 0.558495 0.532174
0.842435 0.422583 0.503883
0.756634 0.0298924 0.0444953
0.000244144 0.642267 0.635737
0.000244144 0.642191 0.635233
0.503929 0.792111 0.553933
0.932784 0.83006 0.404654
0.953262 0.812177 0
0.939727 0.838682 0
0.940764 0.838834 0
0.947372 0.839673 0
0.952117 0.836545 0
0.952255 0.835828 0
0.023331 0.0268559 0.575525
0.023331 0.0268559 0.575525
0.585199 0.0250553 0.663142
0.811765 0.0279545 0.713237
0.810788 0.0279088 0.707622
0.023331 0.0268559 0.575525
0.023331 0.0268559 0.575525
0.592447 0.0251316 0.664332
0.811765 0.0279545 0.713237
0.810788 0.0279088 0.707576
0.0166781 0.163851 0.633051
0.0173342 0.150988 0.629725
0.486275 0.129305 0.65684
0.811612 0.0279545 0.712352
0.810758 0.0279088 0.707454
0 0.66479 0.814542
0 0.664698 0.814481
0 0.769009 0.826307
0.895262 0.859266 0.810346
0.903319 0.826795 0.795285
0.798199 0.868559 0.800061
0.801144 0.868864 0.799908
0.820447 0.870985 0.798993
0.888472 0.877302 0.794522
0.910521 0.877348 0.775448
0.0233463 0.0268864 0.58027
0.0233463 0.0268864 0.58027
0.0233463 0.0268864 0.58027
0.811368 0.0280003 0.720378
0.813184 0.0280461 0.72134
0.0233463 0.0268864 0.58027
0.0233463 0.0268864 0.58027
0.0233463 0.0268864 0.58027
0.811414 0.0280003 0.720394
0.813184 0.0280461 0.72134
0.0233463 0.0268864 0.58027
0.0233463 0.0268864 0.58027
0.0233463 0.0268864 0.58027
0.812009 0.0280156 0.720714
0.813184 0.0280461 0.72134
0.000122072 0.632456 0.799359
0.000122072 0.63238 0.799329
0.000183108 0.628275 0.797681
0.87776 0.770016 0.804547
0.853712 0.483818 0.761379
0.628138 0.849454 0.821942
0.636698 0.850706 0.822171
0.693904 0.858763 0.823499
0.864942 0.878477 0.825238
0.90721 0.88217 0.825284
