LUTS/Secondary LUTS/PRO_400H.cube
TITLE "Generated by Resolve"
LUT_3D_SIZE 33
0.0630198 0.0842451 0.0949111
0.0630198 0.0842451 0.0949111
0.0630198 0.0842451 0.0949111
0.0630198 0.0842451 0.0949111
0.0630198 0.0842451 0.0949111
0.0641337 0.0844587 0.0949416
0.0773022 0.0865644 0.0951705
0.0972915 0.0894942 0.0951095
0.116152 0.0937819 0.094667
0.14229 0.0988174 0.0933852
0.204578 0.104219 0.0889601
0.267674 0.108095 0.0802625
0.339254 0.10515 0.0604562
0.423697 0.0931563 0.0305333
0.5019 0.0758373 0.0265049
0.567071 0.0462043 0.0284428
0.623911 0.0324559 0.0296788
0.66688 0.0280461 0.0302434
0.695872 0.0281376 0.0304417
0.717021 0.0285801 0.0308385
0.732418 0.0305791 0.0308995
0.744472 0.0319982 0.0316777
0.753735 0.0332494 0.0319829
0.757443 0.033753 0.0318761
0.757443 0.033753 0.0318761
0.757443 0.033753 0.0318761
0.757443 0.033753 0.0318761
0.757427 0.0336767 0.0319066
0.757305 0.0327764 0.0322576
0.757137 0.0318456 0.0326085
0.756985 0.0310369 0.0342412
0.756817 0.0304723 0.0392767
0.756634 0.0298924 0.0444953
0.0630198 0.0842451 0.0949111
0.0630198 0.0842451 0.0949111
0.0630198 0.0842451 0.0949111
0.0630198 0.0842451 0.0949111
0.0630198 0.0842451 0.0949111
0.0653239 0.0846723 0.0949569
0.0792401 0.0868391 0.095201
0.0978561 0.0895857 0.0950942
0.116594 0.0938888 0.0946365
0.143175 0.0989395 0.0933394
0.205692 0.104311 0.0888533
0.268452 0.108141 0.0801251
0.340246 0.104997 0.0599069
0.424445 0.0930343 0.0304417
0.502388 0.0756237 0.0265202
0.567452 0.0460975 0.0284581
0.624231 0.0324254 0.0296788
0.667048 0.0280461 0.0302434
0.695994 0.0281376 0.0304417
0.717113 0.0285801 0.0308537
0.732448 0.0305791 0.0308995
0.744503 0.0319982 0.0316777
0.753765 0.0332494 0.0319829
0.757443 0.033753 0.0318761
0.757443 0.033753 0.0318761
0.757443 0.033753 0.0318761
0.757443 0.033753 0.0318761
0.757427 0.0336767 0.0319066
0.757305 0.0327764 0.0322576
0.757137 0.0318456 0.0326085
0.756985 0.0310369 0.0342412
0.756817 0.0304723 0.0392767
0.756634 0.0298924 0.0444953
0.0630198 0.0842451 0.0949111
0.0630198 0.0842451 0.0949111
0.0630198 0.0842451 0.0949111
0.0630198 0.0842451 0.0949111
0.0630198 0.0842451 0.0949111
0.0654917 0.0847028 0.0949721
0.0803693 0.0870069 0.0952163
0.100114 0.0900587 0.095079
0.118135 0.0943008 0.0945449
0.143267 0.0989395 0.0933394
0.205905 0.104326 0.0888228
0.268788 0.108156 0.0800641
0.340536 0.104952 0.0597543
0.424598 0.093019 0.0304265
0.502632 0.0755169 0.0265202
0.567681 0.0459602 0.0284581
0.624338 0.0323949 0.0296788
0.667185 0.0280461 0.0302434
0.696071 0.0281376 0.0304417
0.717159 0.0285801 0.0308537
0.732479 0.0305791 0.0308995
0.744503 0.0319982 0.0316777
0.753765 0.0332494 0.0319829
0.757443 0.033753 0.0318761
0.757443 0.033753 0.0318761
0.757443 0.033753 0.0318761
0.757443 0.033753 0.0318761
0.757427 0.0336767 0.0319066
0.757305 0.0327764 0.0322576
0.757137 0.0318456 0.0326085
0.756985 0.0310369 0.0342412
0.756817 0.0304723 0.0392767
0.756634 0.0298924 0.0444953
0.0630198 0.0842451 0.0949111
0.0630198 0.0842451 0.0949111
0.0630198 0.0842451 0.0949111
0.0630198 0.0842451 0.0949111
0.0630198 0.0842451 0.0949111
0.0649729 0.0846113 0.0949569
0.0805982 0.0870375 0.0952316
0.101335 0.0903182 0.0950637
0.120073 0.0948043 0.0944228
0.149706 0.0998398 0.0930343
0.208103 0.104479 0.0886091
0.268238 0.108125 0.0801709
0.340108 0.105013 0.0599832
0.424292 0.0930648 0.030457
0.502388 0.0756237 0.0265202
0.567559 0.0460212 0.0284581
0.624338 0.0323949 0.0296788
0.667185 0.0280461 0.0302434
0.696117 0.0281376 0.0304417
0.717205 0.0285801 0.0308537
0.732525 0.0305791 0.0308995
0.744533 0.0319982 0.0316777
0.753765 0.0332494 0.0319829
0.757443 0.033753 0.0318761
0.757443 0.033753 0.0318761
0.757443 0.033753 0.0318761
0.757443 0.033753 0.0318761
0.757427 0.0336767 0.0319066
0.757305 0.0327764 0.0322576
0.757137 0.0318456 0.0326085
0.756985 0.0310369 0.0342412
0.756817 0.0304723 0.0392767
0.756634 0.0298924 0.0444953
0.0630198 0.0842451 0.0949111
0.0630198 0.0842451 0.0949111
0.0630198 0.0842451 0.0949111
0.0630198 0.0842451 0.0949111
0.0630198 0.0842451 0.0949111
0.0631418 0.0842756 0.0949111
0.0802014 0.0869764 0.0952163
0.102251 0.0905165 0.0950637
0.121218 0.0950942 0.0943465
0.149142 0.0997635 0.0930495
0.215137 0.105013 0.0879377
0.274876 0.108278 0.0788586
0.338811 0.105211 0.0606851
0.423255 0.0932174 0.0305943
0.501778 0.0758831 0.0265049
0.567193 0.0461433 0.0284428
0.624109 0.0324102 0.0296788
0.667109 0.0280461 0.0302434
0.696117 0.0281376 0.0304417
0.717205 0.0285801 0.0308537
0.732555 0.0305791 0.0308995
0.744533 0.0319982 0.0316777
0.75378 0.0332494 0.0319829
0.757443 0.033753 0.0318761
0.757443 0.033753 0.0318761
0.757443 0.033753 0.0318761
0.757443 0.033753 0.0318761
0.757427 0.0336767 0.0319066
0.757305 0.0327764 0.0322576
0.757137 0.0318456 0.0326085
0.756985 0.0310369 0.0342412
0.756817 0.0304723 0.0392767
0.756634 0.0298924 0.0444953
0.0574502 0.0928664 0.0974136
0.0584726 0.0918441 0.0971847
0.0593729 0.0909285 0.0970016
0.0615396 0.0884871 0.0964218
0.0621347 0.0867781 0.0958114
0.0618906 0.0874647 0.0960555
0.0803235 0.0894789 0.0961624
0.106188 0.0931411 0.0956283
0.129564 0.0971084 0.0941176
0.16463 0.101503 0.092195
0.216464 0.105104 0.0878004
0.274998 0.108278 0.0788281
0.346975 0.103975 0.0562448
0.421744 0.0934462 0.0307774
0.500801 0.0762951 0.0264744
0.566506 0.0465248 0.0284276
0.623713 0.0324865 0.0296635
0.666972 0.0280461 0.0302434
0.69604 0.0281376 0.0304417
0.717205 0.0285801 0.0308537
0.732555 0.0305791 0.0308995
0.744549 0.0319982 0.0316777
0.75378 0.0332494 0.0319829
0.757443 0.033753 0.0318761
0.757443 0.033753 0.0318761
0.757443 0.033753 0.0318761
0.757443 0.033753 0.0318761
0.757427 0.0336767 0.0319066
0.757305 0.0327764 0.0322576
0.757137 0.0318456 0.0326085
0.756985 0.0310369 0.0342412
0.756817 0.0304723 0.0392767
0.756634 0.0298924 0.0444953
0.0422827 0.106783 0.100801
0.0428931 0.106249 0.100649
0.0436713 0.105577 0.100481
0.0447547 0.104631 0.100237
0.046891 0.102785 0.0997482
0.0486763 0.101228 0.0993362
0.0729381 0.100725 0.0988022
0.101839 0.10367 0.0982834
0.122988 0.107042 0.0972457
0.154284 0.109789 0.0951858
0.212619 0.10956 0.0895705
0.272648 0.108873 0.0795605
0.342397 0.104677 0.058732
0.428489 0.0924239 0.0299382
0.499321 0.0769055 0.0264439
0.565301 0.047013 0.0283818
0.622904 0.0326238 0.0296483
0.666529 0.0280461 0.0302281
0.695872 0.0281376 0.0304417
0.717159 0.0285801 0.0308537
0.732555 0.0305791 0.0308995
0.74461 0.0320439 0.0316777
0.753811 0.0332494 0.0319677
0.757443 0.033753 0.0318761
0.757443 0.033753 0.0318761
0.757443 0.033753 0.0318761
0.757443 0.033753 0.0318761
0.757427 0.0336767 0.0319066
0.757305 0.0327764 0.0322576
0.757137 0.0318456 0.0326085
0.756985 0.0310369 0.0342412
0.756817 0.0304723 0.0392767
0.756634 0.0298924 0.0444953
0.0267643 0.119814 0.104402
0.0268864 0.119448 0.104265
0.0270542 0.11899 0.104097
0.0272374 0.118441 0.103883
0.0280613 0.117189 0.103471
0.0304723 0.115465 0.103029
0.0480507 0.113848 0.102174
0.0967117 0.116899 0.101335
0.121157 0.120989 0.0999924
0.151263 0.12488 0.0978866
0.20032 0.126726 0.0932631
0.258152 0.126146 0.08542
0.335271 0.116487 0.0643626
0.420569 0.0946059 0.0309453
0.500923 0.0762341 0.0264897
0.56318 0.0480049 0.0283207
0.621561 0.0328374 0.0296178
0.665827 0.0280613 0.0302281
0.695415 0.0281376 0.0304265
0.71693 0.0285801 0.0308385
0.732479 0.0305791 0.0308995
0.74461 0.0320439 0.0316777
0.753857 0.0332799 0.0319829
0.757443 0.033753 0.0318761
0.757443 0.033753 0.0318761
0.757443 0.033753 0.0318761
0.757443 0.033753 0.0318761
0.757427 0.0336767 0.0319066
0.757305 0.0327764 0.0322576
0.757137 0.0318456 0.0326085
0.756985 0.0310369 0.0342412
0.756817 0.0304723 0.0392767
0.756634 0.0298924 0.0444953
0.0225376 0.134066 0.108904
0.0226291 0.133684 0.108797
0.0227359 0.133257 0.10869
0.0228733 0.132723 0.108553
0.0229953 0.132204 0.108431
0.0234073 0.130526 0.107988
0.024094 0.127703 0.107271
0.0806897 0.129396 0.104997
0.117693 0.134356 0.103227
0.14873 0.139742 0.101015
0.198672 0.143282 0.0962387
0.257847 0.145632 0.0879225
0.32137 0.144228 0.0724346
0.397528 0.132738 0.0369116
0.496742 0.102754 0.0252842
0.559853 0.049485 0.0282139
0.61944 0.0332189 0.029572
0.664607 0.0280613 0.0302129
0.694697 0.0281224 0.0304112
0.716426 0.0285039 0.0308385
0.732235 0.0305333 0.0308995
0.744503 0.0319982 0.0316777
0.753857 0.0332799 0.0319829
0.757443 0.033753 0.0318761
0.757443 0.033753 0.0318761
0.757443 0.033753 0.0318761
0.757443 0.033753 0.0318761
0.757427 0.0336767 0.0319066
0.757305 0.0327764 0.0322576
0.757137 0.0318456 0.0326085
0.756985 0.0310369 0.0342412
0.756817 0.0304723 0.0392767
0.756634 0.0298924 0.0444953
0.0189212 0.153338 0.112856
0.0189822 0.152941 0.112779
0.0190585 0.152468 0.112688
0.0191348 0.15201 0.112612
0.0192264 0.151476 0.112505
0.0193332 0.150896 0.112398
0.0196841 0.148745 0.112001
0.0366979 0.144778 0.109758
0.106691 0.14934 0.107149
0.143267 0.155886 0.104479
0.195789 0.161028 0.0994278
0.259495 0.164675 0.090547
0.325261 0.166018 0.0747692
0.399802 0.162539 0.0412604
0.479316 0.154299 0.0242924
0.547951 0.133776 0.0240482
0.618173 0.0478065 0.0289158
0.663661 0.0280613 0.0302129
0.693523 0.0281071 0.030396
0.715724 0.0284886 0.0308232
0.731777 0.0305028 0.0308843
0.744213 0.0319677 0.0316625
0.753735 0.0332494 0.0319829
0.757443 0.033753 0.0318761
0.757443 0.033753 0.0318761
0.757443 0.033753 0.0318761
0.757443 0.033753 0.0318761
0.757427 0.0336767 0.0319066
0.757305 0.0327764 0.0322576
0.757137 0.0318456 0.0326085
0.756985 0.0310369 0.0342412
0.756817 0.0304723 0.0392767
0.756634 0.0298924 0.0444953
0.0172732 0.182376 0.115846
0.0173037 0.181888 0.115801
0.0173342 0.181323 0.115755
0.0173648 0.180758 0.115709
0.0173953 0.180194 0.115679
0.0174258 0.179553 0.115618
0.0174716 0.178744 0.115557
0.0176547 0.175113 0.115267
0.0620127 0.172686 0.110582
0.127504 0.179614 0.107164
0.185794 0.186053 0.102129
0.257588 0.190967 0.0918288
0.328649 0.1944 0.0734722
0.406882 0.193698 0.0406806
0.48957 0.190082 0.022797
0.559396 0.181094 0.0213016
0.612985 0.162829 0.0230259
0.656352 0.115282 0.0261845
0.691417 0.0280766 0.0303655
0.714611 0.0284733 0.0307927
0.731014 0.0303807 0.0308843
0.74374 0.0319066 0.031632
0.753429 0.0332189 0.0319677
0.757443 0.033753 0.0318761
0.757443 0.033753 0.0318761
0.757443 0.033753 0.0318761
0.757443 0.033753 0.0318761
0.757427 0.0336767 0.0319066
0.757305 0.0327611 0.0322576
0.757137 0.0318456 0.0326085
0.756985 0.0310369 0.0342412
0.756817 0.0304723 0.0392767
0.756634 0.0298924 0.0444953
0.015671 0.214145 0.118379
0.0157015 0.213748 0.118349
0.0157168 0.21326 0.118318
0.0157473 0.212772 0.118273
0.0157778 0.212299 0.118227
0.0157931 0.211734 0.118181
0.0158236 0.211078 0.118135
0.0158846 0.210117 0.118059
0.0160678 0.205844 0.117281
0.0825513 0.211978 0.108476
0.162387 0.222293 0.101503
0.247166 0.230396 0.0878309
0.32813 0.236744 0.0598154
0.41265 0.240162 0.0277867
0.501137 0.239841 0.0185397
0.576867 0.233722 0.0184787
0.633875 0.219959 0.0197452
0.676936 0.197253 0.0216983
0.704326 0.165515 0.0239567
0.716793 0.0939651 0.0279698
0.73048 0.0303349 0.030869
0.743038 0.0318456 0.0315862
0.75288 0.0331273 0.0319677
0.757443 0.033753 0.0318761
0.757443 0.033753 0.0318761
0.757443 0.033753 0.0318761
0.757443 0.033753 0.0318761
0.757427 0.0336614 0.0319219
0.757305 0.0327611 0.0322576
0.757137 0.0318456 0.0326085
0.756985 0.0310369 0.0342412
0.756817 0.0304723 0.0392767
0.756634 0.0298924 0.0444953
0.0138705 0.249805 0.119921
0.0138857 0.249363 0.119921
0.013901 0.24892 0.119921
0.0139315 0.248478 0.119921
0.0139467 0.248035 0.119936
0.0139773 0.247501 0.119936
0.0140078 0.246891 0.119936
0.0140536 0.245991 0.119951
0.0140841 0.245472 0.119951
0.0164492 0.245167 0.113359
0.114717 0.259403 0.101061
0.224979 0.27216 0.0829938
0.322042 0.283833 0.0421149
0.415564 0.294224 0.0177157
0.511086 0.29955 0.0143587
0.594141 0.300099 0.0144656
0.655909 0.292958 0.0153506
0.703182 0.277165 0.0165866
0.735531 0.253819 0.0184482
0.750317 0.220523 0.0208286
0.752865 0.175341 0.0238499
0.748501 0.0567941 0.0303044
0.752148 0.0330358 0.0319524
0.757443 0.033753 0.0318761
0.757443 0.033753 0.0318761
0.757443 0.033753 0.0318761
0.757443 0.033753 0.0318761
0.757427 0.0336614 0.0319219
0.757305 0.0327611 0.0322576
0.757137 0.0318456 0.0326085
0.756985 0.0310369 0.0342412
0.756817 0.0304723 0.0392767
0.756634 0.0298924 0.0444953
0.0120394 0.291524 0.118578
0.0120546 0.291005 0.118593
0.0120699 0.290608 0.118624
0.0121004 0.290105 0.118654
0.0121157 0.289586 0.118669
0.0121309 0.289189 0.1187
0.0121614 0.288579 0.11873
0.012192 0.287663 0.118776
0.0122377 0.286534 0.118837
0.0122377 0.286442 0.118837
0.0194553 0.29807 0.101381
0.179751 0.316594 0.0730449
0.306249 0.334188 0.0278782
0.412955 0.350729 0.0130922
0.516533 0.361196 0.0109865
0.608713 0.366217 0.010544
0.676127 0.363806 0.010605
0.728222 0.354635 0.0112764
0.765438 0.340719 0.0122225
0.784619 0.321233 0.0138094
0.793256 0.293751 0.0158694
0.791989 0.251621 0.0190585
0.780224 0.182712 0.0238346
0.757443 0.033753 0.0318761
0.757443 0.033753 0.0318761
0.757443 0.033753 0.0318761
0.757443 0.033753 0.0318761
0.757427 0.0336614 0.0319219
0.757305 0.0327611 0.0322576
0.757137 0.0318456 0.0326085
0.756985 0.0310369 0.0342412
0.756817 0.0304723 0.0392767
0.756634 0.0298924 0.0444953
0.0102388 0.33872 0.114153
0.0102541 0.338308 0.114199
0.0102541 0.337896 0.11426
0.0102693 0.337484 0.114321
0.0102846 0.337087 0.114382
0.0102998 0.336675 0.114443
0.0103151 0.336156 0.114519
0.0103456 0.335424 0.114611
0.0103914 0.334401 0.114717
0.0104372 0.33315 0.11487
0.0102846 0.338369 0.107958
0.072343 0.364874 0.0582742
0.272923 0.389242 0.0175479
0.400473 0.412192 0.00944533
0.514397 0.427359 0.00750744
0.616037 0.436027 0.00639353
0.691417 0.43743 0.00585946
0.748623 0.431968 0.00572213
0.790707 0.422156 0.00624094
0.814923 0.408545 0.00697337
0.828397 0.390143 0.00827039
0.833097 0.365591 0.0102541
0.830991 0.331716 0.0130465
0.810452 0.271214 0.0176852
0.774105 0.153567 0.0254978
0.757443 0.033753 0.0318761
0.757443 0.033753 0.0318761
0.757443 0.033753 0.0318761
0.757305 0.0327611 0.0322576
0.757137 0.0318456 0.0326085
0.756985 0.0310369 0.0342412
0.756817 0.0304723 0.0392767
0.756634 0.0298924 0.0444953
0.00892653 0.385321 0.106798
0.00894179 0.384924 0.106874
0.00894179 0.384649 0.10692
0.00894179 0.38436 0.106966
0.00895705 0.383963 0.107027
0.0089723 0.383688 0.107088
0.0089723 0.3832 0.107164
0.00898756 0.38262 0.107256
0.00901808 0.381857 0.107393
0.00903334 0.380896 0.107561
0.00901808 0.381857 0.107393
0.00889601 0.408896 0.0490272
0.200443 0.443519 0.0133059
0.375402 0.472908 0.00750744
0.504204 0.494224 0.00477607
0.617746 0.507713 0.00288396
0.701991 0.513558 0.00167849
0.764767 0.512108 0.00106813
0.811337 0.505287 0.000946059
0.840223 0.495506 0.0012665
0.857481 0.482094 0.00192264
0.865995 0.464363 0.00277714
0.869459 0.440665 0.00416571
0.859037 0.404715 0.00683604
0.839429 0.351553 0.0113069
0.806348 0.258732 0.018616
0.757443 0.033753 0.0318761
0.757443 0.033753 0.0318761
0.757443 0.033753 0.0318761
0.757137 0.0318456 0.0326085
0.756985 0.0310369 0.0342412
0.756817 0.0304723 0.0392767
0.756634 0.0298924 0.0444953
0.00810254 0.424216 0.0944991
0.00810254 0.424063 0.0945602
0.0081178 0.423819 0.0946517
0.0081178 0.42356 0.0947738
0.0081178 0.423316 0.0948653
0.00813306 0.423087 0.0949569
0.00813306 0.422736 0.0951095
0.00814832 0.422339 0.0952621
0.00814832 0.421836 0.0954757
0.00817884 0.421088 0.0957809
0.00819409 0.420188 0.0961471
0.00820935 0.430014 0.0793164
0.0630045 0.484215 0.014313
0.332158 0.52015 0.00709544
0.481468 0.549554 0.00292973
0.609659 0.56939 0.000396735
0.706798 0.581979 0
0.776989 0.585275 0
0.828885 0.582666 0
0.862974 0.577188 0
0.883253 0.56907 0
0.894942 0.557687 0
0.901762 0.542763 0
0.897734 0.51928 0.000198367
0.885649 0.482841 0.00149538
0.867735 0.429572 0.00497444
0.836637 0.344213 0.0119631
0.777279 0.164324 0.0248722
0.757443 0.033753 0.0318761
0.757443 0.033753 0.0318761
0.756985 0.0310216 0.0343328
0.756817 0.0304723 0.0392767
0.756634 0.0298924 0.0444953
0.00779736 0.460578 0.0761273
0.00779736 0.460365 0.0762951
0.00779736 0.460212 0.0764172
0.00779736 0.460029 0.0764782
0.00779736 0.459815 0.0766613
0.00779736 0.459678 0.0767834
0.00779736 0.459449 0.0768444
0.00779736 0.459144 0.0771344
0.00779736 0.458762 0.0773175
0.00779736 0.458228 0.0776837
0.00779736 0.457542 0.078172
0.00781262 0.456641 0.0787213
0.00968948 0.508766 0.0156405
0.25391 0.554635 0.00827039
0.448615 0.591348 0.00202945
0.592432 0.617472 0
0.703471 0.63534 0
0.781659 0.643778 0
0.839734 0.645182 0
0.87924 0.643565 0
0.903273 0.639429 0
0.918318 0.633005 0
0.928038 0.624979 0
0.929534 0.612482 0
0.922347 0.591684 0
0.911864 0.561257 0
0.893675 0.507027 0.00062562
0.865553 0.423316 0.00544747
0.815091 0.285039 0.0166476
0.757443 0.033753 0.0318761
0.757443 0.033753 0.0318761
0.756817 0.0304723 0.0392767
0.756634 0.0298924 0.0444953
0.00770581 0.491295 0.0596017
0.00770581 0.491173 0.0596933
0.00770581 0.491066 0.0597696
0.00770581 0.490944 0.0598459
0.00770581 0.490837 0.0597848
0.00770581 0.49073 0.0598611
0.00770581 0.490547 0.0599832
0.00770581 0.490379 0.0601053
0.00772107 0.490089 0.0601511
0.00772107 0.489738 0.0602274
0.00772107 0.489281 0.0604105
0.00772107 0.488716 0.0606699
0.00796521 0.515541 0.0184939
0.125872 0.582605 0.0113832
0.409323 0.625071 0.00175479
0.569055 0.657526 0
0.695491 0.680903 0
0.781048 0.693629 0
0.845106 0.698405 0
0.890166 0.699413 0
0.917601 0.697871 0
0.934936 0.694026 0
0.946288 0.689006 0
0.951186 0.681605 0
0.948074 0.669215 0
0.942657 0.651957 0
0.933547 0.624201 0
0.918334 0.580087 0
0.893355 0.506065 0.000656138
0.849424 0.378286 0.00901808
0.757443 0.033753 0.0318761
0.757443 0.033753 0.0318761
0.756634 0.0298772 0.0445869
0.00753796 0.514229 0.0555886
0.00753796 0.514183 0.0556039
0.00753796 0.514092 0.0556344
0.00753796 0.514046 0.0556497
0.00753796 0.51397 0.0556802
0.00755322 0.513878 0.0556039
0.00755322 0.513787 0.0556344
0.00755322 0.513664 0.0556802
0.00755322 0.513527 0.0555734
0.00755322 0.513313 0.0556802
0.00755322 0.513054 0.0556191
0.00755322 0.512703 0.0556344
0.00755322 0.513359 0.0556649
0.0424964 0.601602 0.0132448
0.369116 0.64976 0.00196841
0.544793 0.687999 0
0.683421 0.716335 0
0.777523 0.733913 0
0.846662 0.741711 0
0.896742 0.745007 0
0.926818 0.745327 0
0.945266 0.743374 0
0.953567 0.739345 0
0.956436 0.733776 0
0.956497 0.72665 0
0.956298 0.716655 0
0.955962 0.701717 0
0.950072 0.677073 0
0.939284 0.64123 0
0.919264 0.582773 0
0.880659 0.467796 0.00242618
0.788098 0.199435 0.0227512
0.757443 0.033753 0.0318761
0.00733959 0.530312 0.0564584
0.00733959 0.530282 0.0564736
0.00733959 0.530251 0.0564736
0.00733959 0.530175 0.0563668
0.00733959 0.530144 0.0563668
0.00733959 0.530114 0.0563668
0.00735485 0.530053 0.0564584
0.00735485 0.529992 0.0564736
0.00735485 0.5299 0.0563516
0.00735485 0.529809 0.0563668
0.00735485 0.52961 0.0563516
0.00735485 0.529412 0.05626
0.00737011 0.529168 0.0562448
0.00961318 0.609888 0.0137026
0.336217 0.664866 0.002533
0.525017 0.707942 0
0.671641 0.740001 0
0.771786 0.760861 0
0.845273 0.772168 0
0.899519 0.778225 0
0.93257 0.780896 0
0.951736 0.780591 0
0.954467 0.776043 0
0.955154 0.771145 0
0.955352 0.766598 0
0.955612 0.760769 0
0.955962 0.752667 0
0.956283 0.73959 0
0.95639 0.721279 0
0.953979 0.693202 0
0.940658 0.645563 0
0.909651 0.554757 0
0.832959 0.334554 0.0128023
0.00720226 0.542535 0.0638132
0.00720226 0.542489 0.0635691
0.00720226 0.542473 0.0635538
0.00720226 0.542412 0.0636301
0.00720226 0.542382 0.0636149
0.00720226 0.542382 0.0636149
0.00720226 0.542336 0.0635843
0.00720226 0.542306 0.0635691
0.00720226 0.542245 0.0633249
0.00720226 0.542168 0.0632792
0.00720226 0.542046 0.0633249
0.00720226 0.541909 0.063035
0.00721752 0.541695 0.0628061
0.00859083 0.61915 0.0135805
0.32166 0.67718 0.00260929
0.514 0.721187 0
0.662669 0.754925 0
0.765911 0.778027 0
0.841642 0.791287 0
0.89836 0.798657 0
0.933837 0.802258 0
0.952926 0.802457 0
0.953796 0.798444 0
0.954131 0.794903 0
0.954192 0.792187 0
0.954345 0.788907 0
0.954543 0.784756 0
0.954803 0.778912 0
0.955215 0.76968 0
0.955825 0.755978 0
0.95642 0.734554 0
0.955261 0.698573 0
0.934386 0.626596 0
0.00686656 0.553079 0.0822919
0.00686656 0.553063 0.0822614
0.00686656 0.553063 0.0822614
0.00686656 0.553033 0.0822156
0.00688182 0.553017 0.0821698
0.00688182 0.553017 0.0821698
0.00688182 0.552987 0.0821393
0.00688182 0.552926 0.0821698
0.00688182 0.55288 0.0820935
0.00688182 0.552819 0.0817884
0.00688182 0.552758 0.0816815
0.00688182 0.552666 0.0813306
0.00689708 0.552514 0.0812085
0.0197604 0.636759 0.0131838
0.336217 0.690562 0.00166323
0.51577 0.732433 0
0.659388 0.765896 0
0.76173 0.789639 0
0.837644 0.804547 0
0.895674 0.813336 0
0.934035 0.818006 0
0.951949 0.81828 0
0.953124 0.814694 0
0.953292 0.811734 0
0.95346 0.809476 0
0.953597 0.807477 0
0.953735 0.804883 0
0.953872 0.801129 0
0.95404 0.79649 0
0.954284 0.790417 0
0.954696 0.781415 0
0.955367 0.766506 0
0.956298 0.739391 0
0.00656138 0.562936 0.103822
0.00656138 0.562921 0.103609
0.00656138 0.56289 0.103563
0.00656138 0.56289 0.103563
0.00656138 0.562875 0.103517
0.00656138 0.562875 0.103517
0.00656138 0.562844 0.103471
0.00656138 0.562829 0.103426
0.00656138 0.562814 0.10338
0.00656138 0.562737 0.103426
0.00657664 0.562661 0.103075
0.00657664 0.562615 0.102983
0.00657664 0.56257 0.102892
0.11075 0.665705 0.0101167
0.381521 0.708568 0.000534066
0.53463 0.744839 0
0.664591 0.775586 0
0.760967 0.79826 0
0.834012 0.813214 0
0.891829 0.822675 0
0.932998 0.828763 0
0.950195 0.829374 0
0.952575 0.826551 0
0.952667 0.82388 0
0.952728 0.821881 0
0.952773 0.820569 0
0.952819 0.819013 0
0.952926 0.816999 0
0.95314 0.814084 0
0.953384 0.810452 0
0.953704 0.805875 0
0.953964 0.79881 0
0.95436 0.788708 0
0.00654612 0.563485 0.104982
0.00654612 0.563485 0.104982
0.00654612 0.563485 0.104982
0.00654612 0.563485 0.104982
0.00654612 0.563485 0.104982
0.00654612 0.563485 0.104982
0.00654612 0.563485 0.104982
0.00654612 0.563485 0.104982
0.00654612 0.563485 0.104982
0.00654612 0.563485 0.104982
0.00654612 0.563485 0.104982
0.00654612 0.563485 0.104982
0.0472267 0.656596 0.0122988
0.300038 0.692531 0.00289921
0.446448 0.725307 0
0.567498 0.754711 0
0.677943 0.781888 0
0.763684 0.803174 0
0.831907 0.818448 0
0.888395 0.829206 0
0.930083 0.836591 0
0.948852 0.837949 0
0.952087 0.835599 0
0.952239 0.833143 0
0.952407 0.831189 0
0.952438 0.830106 0
0.952483 0.828901 0
0.952529 0.827527 0
0.95259 0.825833 0
0.952651 0.823713 0
0.952743 0.821134 0
0.952865 0.817929 0
0.953246 0.812451 0
0.00637827 0.564294 0.117754
0.00637827 0.564294 0.117754
0.00637827 0.564294 0.117754
0.00637827 0.564294 0.117754
0.00637827 0.564294 0.117754
0.00637827 0.564294 0.117754
0.00637827 0.564294 0.117754
0.00637827 0.564279 0.11754
0.00680552 0.580835 0.0645457
0.00788891 0.634577 0.0133974
0.0715801 0.660487 0.0114748
0.218906 0.680415 0.00608835
0.342351 0.700999 0.00120546
0.435538 0.722591 0
0.524895 0.744427 0
0.616037 0.766537 0
0.702266 0.787976 0
0.771405 0.80502 0
0.831907 0.818448 0
0.884245 0.828443 0
0.92517 0.836164 0
0.947417 0.839673 0
0.951934 0.838804 0
0.952026 0.83714 0
0.952209 0.836072 0
0.952255 0.835828 0
0.952255 0.835828 0
0.952255 0.835828 0
0.952285 0.835111 0
0.952331 0.833555 0
0.952392 0.831693 0
0.952468 0.829435 0
0.95256 0.826642 0
0.186053 0.676799 0.00733959
0.211139 0.679667 0.00637827
0.234806 0.682353 0.00546273
0.257496 0.684932 0.00459297
0.274693 0.687617 0.00392157
0.288655 0.690349 0.00335698
0.305211 0.693629 0.00270085
0.327489 0.698054 0.00180056
0.353964 0.703502 0.000885023
0.382956 0.71017 0.000488289
0.418402 0.718364 0
0.457343 0.727993 0
0.503151 0.739193 0
0.555749 0.751873 0
0.614725 0.766232 0
0.676951 0.781659 0
0.735775 0.796353 0
0.789105 0.809247 0
0.838972 0.819837 0
0.884932 0.828534 0
0.922728 0.835721 0
0.946044 0.839597 0
0.951919 0.83917 0
0.95201 0.837476 0
0.952163 0.836255 0
0.952255 0.835828 0
0.952255 0.835828 0
0.952255 0.835828 0
0.952255 0.835828 0
0.952255 0.835828 0
0.952255 0.835828 0
0.952255 0.835828 0
