LUTS/Secondary LUTS/PROVIA.cube
TITLE "Generated by Resolve"
LUT_3D_SIZE 33
0.125154 0.122225 0.122759
0.125154 0.122225 0.122759
0.125154 0.122225 0.122759
0.125154 0.122225 0.122759
0.14287 0.123583 0.124224
0.157092 0.124758 0.12546
0.172061 0.125963 0.126467
0.188174 0.127474 0.127459
0.208103 0.129076 0.128176
0.234867 0.131411 0.128603
0.266163 0.134279 0.128115
0.31339 0.13547 0.124987
0.371588 0.134768 0.112642
0.448631 0.128862 0.108644
0.531594 0.108461 0.106676
0.60473 0.104189 0.102525
0.665782 0.10071 0.0989395
0.715846 0.0979934 0.0961624
0.756756 0.0959335 0.0940261
0.790982 0.0942702 0.0923323
0.820645 0.0929122 0.0908675
0.847715 0.0916915 0.0895857
0.860197 0.0918746 0.0897231
0.860227 0.0925917 0.0904097
0.860227 0.0925917 0.0904097
0.860227 0.0925917 0.0904097
0.860227 0.0925917 0.0904097
0.860273 0.0925307 0.0911574
0.860517 0.0922866 0.0960708
0.860746 0.0920882 0.099855
0.861036 0.0919509 0.103105
0.861295 0.0918441 0.106157
0.86154 0.0917067 0.10901
0.125154 0.122225 0.122759
0.125154 0.122225 0.122759
0.125154 0.122225 0.122759
0.125154 0.122225 0.122759
0.144274 0.123705 0.124361
0.158831 0.124895 0.125582
0.173678 0.126101 0.126558
0.188602 0.12752 0.127489
0.208713 0.129122 0.128206
0.235462 0.131472 0.128618
0.266819 0.13434 0.128115
0.314076 0.1355 0.124941
0.372305 0.134752 0.112566
0.449363 0.128801 0.108629
0.53225 0.1084 0.10663
0.605081 0.104158 0.10248
0.666087 0.10071 0.0989548
0.716014 0.0979782 0.0961471
0.756909 0.0959182 0.0940108
0.791058 0.0943008 0.0923171
0.820706 0.0929122 0.0908522
0.847791 0.0916762 0.0895857
0.860197 0.0918746 0.0897231
0.860227 0.0925917 0.0904097
0.860227 0.0925917 0.0904097
0.860227 0.0925917 0.0904097
0.860227 0.0925917 0.0904097
0.860273 0.0925307 0.0911574
0.860517 0.0922866 0.0960708
0.860746 0.0920882 0.099855
0.861036 0.0919509 0.103105
0.861295 0.0918441 0.106157
0.86154 0.0917067 0.10901
0.125154 0.122225 0.122759
0.125154 0.122225 0.122759
0.125154 0.122225 0.122759
0.125154 0.122225 0.122759
0.143694 0.123674 0.124315
0.159075 0.124941 0.125628
0.174655 0.126177 0.126619
0.19057 0.127718 0.127596
0.210895 0.129259 0.128237
0.235538 0.131472 0.128603
0.266987 0.13434 0.128099
0.31426 0.135485 0.12491
0.372534 0.134737 0.11252
0.449638 0.128756 0.108614
0.532372 0.108431 0.106645
0.60531 0.104143 0.102464
0.666285 0.100694 0.0989395
0.716197 0.0980087 0.0961624
0.756985 0.0959029 0.0939956
0.791135 0.0943008 0.0923171
0.820783 0.0928969 0.0908522
0.847852 0.0916762 0.0895705
0.860197 0.0918746 0.0897231
0.860227 0.0925917 0.0904097
0.860227 0.0925917 0.0904097
0.860227 0.0925917 0.0904097
0.860227 0.0925917 0.0904097
0.860273 0.0925307 0.0911574
0.860517 0.0922866 0.0960708
0.860746 0.0920882 0.099855
0.861036 0.0919509 0.103105
0.861295 0.0918441 0.106157
0.86154 0.0917067 0.10901
0.125185 0.138277 0.123522
0.12517 0.137377 0.123476
0.125109 0.13637 0.123384
0.125109 0.134325 0.123323
0.139559 0.131014 0.122957
0.156313 0.129213 0.124071
0.174228 0.126787 0.126101
0.19176 0.12781 0.127642
0.213687 0.129458 0.128298
0.240009 0.13193 0.128603
0.268299 0.134401 0.128023
0.313878 0.135454 0.124926
0.372183 0.134768 0.112581
0.44921 0.128817 0.108644
0.53225 0.1084 0.10663
0.605203 0.104143 0.10248
0.666285 0.100694 0.0989395
0.716197 0.0980087 0.0961624
0.757061 0.0959029 0.0939803
0.791287 0.0942855 0.0923018
0.820859 0.0929427 0.0908827
0.847852 0.0916762 0.0895705
0.860197 0.0918746 0.0897231
0.860227 0.0925917 0.0904097
0.860227 0.0925917 0.0904097
0.860227 0.0925917 0.0904097
0.860227 0.0925917 0.0904097
0.860273 0.0925307 0.0911574
0.860517 0.0922866 0.0960708
0.860746 0.0920882 0.099855
0.861036 0.0919509 0.103105
0.861295 0.0918441 0.106157
0.86154 0.0917067 0.10901
0.125216 0.15285 0.124376
0.125231 0.152026 0.124331
0.125231 0.1523 0.124361
0.125231 0.150881 0.124239
0.13434 0.147707 0.123278
0.151446 0.145556 0.123018
0.167712 0.143755 0.123217
0.185107 0.141527 0.123812
0.206424 0.138201 0.12488
0.238117 0.132692 0.12784
0.272572 0.134691 0.127901
0.319188 0.135531 0.124514
0.371221 0.134783 0.112703
0.448203 0.128923 0.108659
0.531594 0.108461 0.106676
0.604837 0.104189 0.10251
0.66598 0.100725 0.09897
0.716106 0.0980087 0.0961776
0.757061 0.0959029 0.0939803
0.791287 0.0942855 0.0923018
0.82092 0.0929274 0.0908827
0.847929 0.0916609 0.0895705
0.860197 0.0918746 0.0897231
0.860227 0.0925917 0.0904097
0.860227 0.0925917 0.0904097
0.860227 0.0925917 0.0904097
0.860227 0.0925917 0.0904097
0.860273 0.0925307 0.0911574
0.860517 0.0922866 0.0960708
0.860746 0.0920882 0.099855
0.861036 0.0919509 0.103105
0.861295 0.0918441 0.106157
0.86154 0.0917067 0.10901
0.124392 0.165377 0.125231
0.124422 0.164706 0.125154
0.124498 0.164141 0.125139
0.124575 0.163012 0.125032
0.125826 0.160754 0.124743
0.147341 0.157458 0.123278
0.164294 0.155535 0.123049
0.181979 0.153567 0.123095
0.201984 0.151003 0.123354
0.230167 0.14757 0.123705
0.263478 0.142061 0.124529
0.31928 0.135531 0.124498
0.377935 0.1346 0.111818
0.446769 0.129076 0.108721
0.530556 0.108522 0.106722
0.604013 0.104219 0.102541
0.665583 0.100725 0.09897
0.715846 0.0979934 0.0961624
0.756985 0.0959029 0.0939956
0.791287 0.0942855 0.0923018
0.820996 0.0929274 0.0908675
0.848005 0.0916609 0.0895552
0.860197 0.0918746 0.0897688
0.860227 0.0925917 0.0904097
0.860227 0.0925917 0.0904097
0.860227 0.0925917 0.0904097
0.860227 0.0925917 0.0904097
0.860273 0.0925307 0.0912032
0.860517 0.0922866 0.0960708
0.860746 0.0920882 0.099855
0.861036 0.0919509 0.103105
0.861295 0.0918441 0.106157
0.86154 0.0917067 0.10901
0.124102 0.17702 0.126162
0.124056 0.176532 0.12607
0.124071 0.175906 0.126055
0.124056 0.175082 0.125978
0.124025 0.173449 0.125841
0.141176 0.170016 0.124117
0.159884 0.167803 0.123415
0.178592 0.165881 0.123079
0.198581 0.16379 0.123049
0.226764 0.161135 0.122621
0.257298 0.157397 0.122133
0.305287 0.149233 0.119997
0.37409 0.134691 0.112306
0.453407 0.128359 0.108476
0.52874 0.108644 0.106844
0.602823 0.10428 0.102602
0.664775 0.100755 0.0990005
0.715404 0.0980392 0.0962081
0.756664 0.0959487 0.0940261
0.791135 0.0943008 0.0923171
0.820996 0.0929274 0.0908675
0.848005 0.0916609 0.0895552
0.860197 0.0919203 0.0897688
0.860227 0.0925917 0.0904097
0.860227 0.0925917 0.0904097
0.860227 0.0925917 0.0904097
0.860227 0.0925917 0.0904097
0.860273 0.0925307 0.0912032
0.860533 0.0922866 0.0961166
0.860746 0.0920882 0.099855
0.861036 0.0919509 0.103105
0.861295 0.0918441 0.106157
0.86154 0.0917067 0.10901
0.122164 0.190661 0.12726
0.122255 0.190219 0.12723
0.122377 0.189685 0.127199
0.122515 0.189105 0.127169
0.12282 0.187716 0.127062
0.127611 0.185046 0.126253
0.15317 0.181384 0.124392
0.174456 0.179355 0.123659
0.195056 0.177844 0.123369
0.223499 0.17586 0.122469
0.253574 0.173434 0.121523
0.299718 0.167758 0.118212
0.356497 0.157977 0.106325
0.434852 0.138445 0.105119
0.530678 0.108507 0.106706
0.60058 0.104402 0.102739
0.663279 0.100862 0.0991073
0.714321 0.0981003 0.0962692
0.756039 0.095964 0.0940566
0.790768 0.0942855 0.0923171
0.820783 0.0928969 0.0908522
0.848066 0.0916457 0.0895552
0.860197 0.0919203 0.0897688
0.860227 0.0925917 0.0904097
0.860227 0.0925917 0.0904097
0.860227 0.0925917 0.0904097
0.860227 0.0925917 0.0904097
0.860273 0.0925307 0.0912032
0.860533 0.0922866 0.0961166
0.860746 0.0920882 0.099855
0.861036 0.0919509 0.103105
0.861295 0.0918441 0.106157
0.86154 0.0917067 0.10901
0.116289 0.208179 0.128847
0.116472 0.207706 0.128817
0.116686 0.207187 0.128771
0.116915 0.206607 0.128725
0.117174 0.205966 0.128679
0.117891 0.204059 0.128496
0.136217 0.198795 0.126238
0.166659 0.195544 0.124666
0.189181 0.193683 0.124102
0.218845 0.191669 0.122942
0.250141 0.189883 0.121736
0.296284 0.185718 0.117769
0.353063 0.178943 0.105364
0.424414 0.166644 0.100298
0.503716 0.141924 0.0990616
0.597162 0.104631 0.102953
0.661067 0.100984 0.0992294
0.712718 0.0981765 0.0963455
0.754925 0.096025 0.0941176
0.790021 0.0943313 0.0923476
0.820279 0.092958 0.090898
0.847791 0.0916762 0.0895857
0.860197 0.0919203 0.0897688
0.860227 0.0925917 0.0904097
0.860227 0.0925917 0.0904097
0.860227 0.0925917 0.0904097
0.860227 0.0925917 0.0904097
0.860273 0.0925307 0.0912032
0.860533 0.0922866 0.0961166
0.860746 0.0920882 0.099855
0.861036 0.0919509 0.103105
0.861295 0.0918441 0.106157
0.86154 0.0917067 0.10901
0.114473 0.22681 0.130343
0.114488 0.226444 0.130312
0.114504 0.226017 0.130266
0.114534 0.225574 0.130236
0.114565 0.225101 0.13019
0.11458 0.224613 0.130159
0.114702 0.222583 0.130022
0.143938 0.216205 0.126665
0.175326 0.213825 0.125246
0.21001 0.2121 0.123873
0.244846 0.210758 0.121828
0.291691 0.207599 0.117601
0.351034 0.201846 0.105257
0.423117 0.191485 0.0984207
0.50103 0.175051 0.0948653
0.574609 0.142489 0.0933089
0.646113 0.112078 0.094255
0.711467 0.0982223 0.0963912
0.753201 0.0961166 0.0942092
0.788754 0.0944076 0.0924392
0.819348 0.092958 0.090959
0.84715 0.0917067 0.089601
0.860197 0.0918746 0.0897231
0.860227 0.0925917 0.0904097
0.860227 0.0925917 0.0904097
0.860227 0.0925917 0.0904097
0.860227 0.0925917 0.0904097
0.860273 0.0925307 0.0912032
0.860533 0.0922866 0.0961166
0.860746 0.0920882 0.099855
0.861036 0.0919509 0.103105
0.861295 0.0918441 0.106157
0.86154 0.0917067 0.10901
0.113146 0.248692 0.131289
0.113146 0.24831 0.131258
0.113207 0.247868 0.131289
0.113207 0.247425 0.131258
0.113222 0.246906 0.131243
0.113237 0.246464 0.131228
0.113283 0.245762 0.131212
0.113924 0.242756 0.131044
0.153414 0.236378 0.12726
0.191745 0.234592 0.125628
0.236515 0.233845 0.12314
0.284596 0.232654 0.118517
0.347997 0.229191 0.105165
0.422797 0.222843 0.0962997
0.50457 0.210605 0.0920882
0.575692 0.190173 0.0890516
0.642084 0.149554 0.0873884
0.694682 0.125048 0.0871748
0.749966 0.0962844 0.094377
0.786816 0.0944839 0.0925154
0.817838 0.0930343 0.0909895
0.84593 0.0917525 0.0896468
0.860197 0.0918441 0.0896773
0.860227 0.0925917 0.0904097
0.860227 0.0925917 0.0904097
0.860227 0.0925917 0.0904097
0.860227 0.0925917 0.0904097
0.860273 0.0925307 0.0912032
0.860533 0.0922866 0.0961166
0.860746 0.0920882 0.099855
0.861036 0.0919509 0.103105
0.861295 0.0918441 0.106157
0.86154 0.0917067 0.10901
0.111315 0.277897 0.130755
0.111391 0.277455 0.1308
0.111391 0.277012 0.1308
0.111406 0.27657 0.1308
0.111482 0.276051 0.130846
0.111498 0.275624 0.130846
0.111528 0.274952 0.130861
0.11162 0.274006 0.130922
0.130724 0.267689 0.129046
0.164706 0.265156 0.126665
0.217304 0.264332 0.123293
0.270909 0.264393 0.118349
0.341588 0.262165 0.101442
0.421027 0.258045 0.0961471
0.508659 0.249058 0.0916457
0.583474 0.234379 0.0872206
0.647578 0.21503 0.0834821
0.696696 0.189029 0.0816968
0.739132 0.148669 0.0815747
0.774517 0.118074 0.0836652
0.81677 0.0931106 0.0910658
0.844022 0.0918746 0.0897688
0.860197 0.0917525 0.089601
0.860227 0.0925917 0.0904097
0.860227 0.0925917 0.0904097
0.860227 0.0925917 0.0904097
0.860227 0.0925917 0.0904097
0.860273 0.0925307 0.091249
0.860533 0.0922866 0.0961166
0.860746 0.0920882 0.099855
0.861036 0.0919509 0.103105
0.861295 0.0918441 0.106157
0.86154 0.0917067 0.10901
0.108873 0.311864 0.129519
0.108888 0.311467 0.129549
0.108949 0.310994 0.129625
0.108965 0.310582 0.129641
0.10898 0.310109 0.129686
0.109056 0.309636 0.129763
0.109087 0.30901 0.129778
0.109163 0.308248 0.129809
0.109178 0.307774 0.129809
0.143557 0.301457 0.126482
0.176333 0.302373 0.122454
0.246769 0.304662 0.112718
0.328389 0.306859 0.0986801
0.415091 0.307042 0.0957351
0.51046 0.30132 0.0913558
0.591501 0.290394 0.0868696
0.659693 0.273701 0.0826886
0.710491 0.253529 0.0795605
0.749813 0.231418 0.0773022
0.779995 0.206332 0.0764019
0.805539 0.163241 0.0775006
0.834623 0.107408 0.0827192
0.860182 0.0916304 0.0894789
0.860227 0.0925917 0.0904097
0.860227 0.0925917 0.0904097
0.860227 0.0925917 0.0904097
0.860227 0.0925917 0.0904097
0.860273 0.0925307 0.091249
0.860533 0.0922866 0.0961166
0.860746 0.0920882 0.099855
0.861036 0.0919509 0.103105
0.861295 0.0918441 0.106157
0.86154 0.0917067 0.10901
0.105364 0.352331 0.124498
0.105379 0.351888 0.124529
0.105455 0.351446 0.12462
0.10547 0.351003 0.124666
0.105531 0.350561 0.124697
0.105562 0.350134 0.124788
0.105592 0.349508 0.124865
0.105669 0.348714 0.124971
0.105791 0.34757 0.125139
0.105791 0.34757 0.125139
0.156252 0.344594 0.119005
0.195132 0.35079 0.101015
0.304387 0.357321 0.0965286
0.403296 0.362432 0.0938735
0.507881 0.361044 0.0896925
0.597452 0.353979 0.0851911
0.671977 0.34107 0.0809339
0.726406 0.325353 0.0776684
0.768185 0.308293 0.0751354
0.800443 0.289143 0.0733196
0.825818 0.264195 0.072221
0.845335 0.229496 0.0722362
0.859602 0.175372 0.0744945
0.860227 0.0925917 0.0904097
0.860227 0.0925917 0.0904097
0.860227 0.0925917 0.0904097
0.860227 0.0925917 0.0904097
0.860273 0.0925307 0.091249
0.860533 0.0922866 0.0961166
0.860761 0.0920882 0.0999008
0.861036 0.0919509 0.103105
0.861295 0.0918441 0.106157
0.86154 0.0917067 0.109056
0.100938 0.397253 0.114214
0.100999 0.396887 0.114321
0.100999 0.396536 0.114382
0.101076 0.396094 0.114519
0.101076 0.395727 0.11458
0.101152 0.3953 0.114717
0.101167 0.394842 0.114794
0.101244 0.394141 0.114977
0.10135 0.393164 0.115221
0.101503 0.391928 0.115557
0.127138 0.390906 0.109987
0.169116 0.40058 0.092546
0.245747 0.414298 0.0920729
0.38056 0.425711 0.0900282
0.49662 0.430915 0.0860914
0.597665 0.428656 0.0819104
0.678935 0.418967 0.0779583
0.739361 0.405249 0.0745708
0.78468 0.389776 0.0718395
0.820401 0.374212 0.0697185
0.849256 0.355764 0.0679026
0.872557 0.332738 0.0668956
0.88957 0.300053 0.0670481
0.875334 0.24448 0.0702831
0.86041 0.14316 0.076936
0.860227 0.0925917 0.0904097
0.860227 0.0925917 0.0904097
0.860227 0.0925917 0.0904097
0.860533 0.0922866 0.0961624
0.860761 0.0920882 0.0999008
0.861036 0.0919509 0.103136
0.861295 0.0918441 0.106157
0.86154 0.0917067 0.109056
0.0963912 0.440894 0.091371
0.096376 0.440635 0.0914321
0.096437 0.440314 0.0916762
0.0964981 0.439979 0.0919356
0.0965133 0.439628 0.0921035
0.0965744 0.439292 0.0923476
0.0966049 0.438865 0.0925917
0.0966506 0.438361 0.0928969
0.0967727 0.437598 0.0933852
0.0968643 0.436576 0.0940871
0.0967727 0.437598 0.0933852
0.14667 0.443961 0.0879377
0.186389 0.463905 0.0858167
0.346014 0.481682 0.0852216
0.474891 0.494774 0.0822919
0.590661 0.49926 0.0787213
0.679728 0.494713 0.0752422
0.746746 0.485161 0.072221
0.796323 0.473426 0.069749
0.835187 0.462501 0.0675975
0.866621 0.449653 0.0657359
0.89308 0.4336 0.0640269
0.915999 0.409995 0.0628519
0.908812 0.372122 0.063447
0.895033 0.319005 0.0660716
0.872877 0.23447 0.0708629
0.860227 0.0925917 0.0904097
0.860227 0.0925917 0.0904097
0.860227 0.0925917 0.0904097
0.860761 0.0920882 0.0999008
0.861036 0.0919509 0.103136
0.861295 0.0918441 0.106157
0.86154 0.0917067 0.109056
0.0917525 0.483116 0.0860609
0.0918135 0.482856 0.0861067
0.0917983 0.482643 0.0860914
0.0918288 0.482429 0.0861372
0.0918746 0.482231 0.0861677
0.0918746 0.481941 0.0861677
0.0919203 0.481666 0.0862287
0.0919356 0.48127 0.0862593
0.0919966 0.480644 0.0863203
0.0920882 0.479866 0.0864271
0.0922255 0.478859 0.0865797
0.1131 0.481346 0.0846723
0.163012 0.504204 0.0807355
0.284916 0.528878 0.0797742
0.440116 0.549859 0.0783093
0.571374 0.561654 0.0753643
0.670695 0.562966 0.0721752
0.746105 0.557458 0.069337
0.799496 0.548333 0.0671702
0.837217 0.538888 0.065507
0.86775 0.529412 0.0641337
0.896056 0.518898 0.0629435
0.923262 0.505684 0.0617685
0.928878 0.484993 0.0618296
0.926406 0.451713 0.0623026
0.914687 0.39794 0.0630045
0.892973 0.311818 0.0664836
0.859571 0.156085 0.076112
0.860227 0.0925917 0.0904097
0.860227 0.0925917 0.0904097
0.861036 0.0919509 0.103136
0.861295 0.0918441 0.106157
0.86154 0.0917067 0.109056
0.0883192 0.517922 0.0823682
0.088304 0.517739 0.0823987
0.0883345 0.517555 0.0824292
0.088365 0.517433 0.0824598
0.0883497 0.517235 0.0824445
0.0883803 0.517067 0.082475
0.0884108 0.516884 0.0825055
0.0884108 0.516564 0.0825208
0.0884871 0.516213 0.0825818
0.0885328 0.515694 0.0826276
0.0885939 0.515053 0.0827039
0.0886549 0.514138 0.0827802
0.141894 0.531868 0.077821
0.201846 0.562676 0.0738689
0.399619 0.590661 0.0744182
0.544793 0.609735 0.0722515
0.654276 0.61738 0.0692912
0.738552 0.616785 0.0665141
0.790066 0.609903 0.0648203
0.82443 0.60177 0.0637369
0.855436 0.595087 0.0625925
0.883818 0.588479 0.0614481
0.910796 0.579919 0.0603799
0.919051 0.567712 0.0604105
0.921538 0.548669 0.060914
0.925109 0.521172 0.0614328
0.929549 0.474617 0.0619211
0.913222 0.391348 0.0631266
0.878279 0.25658 0.0696117
0.860227 0.0925917 0.0904097
0.860227 0.0925917 0.0904097
0.861295 0.0918441 0.106203
0.86154 0.0917067 0.109056
0.08542 0.548638 0.0793011
0.0854047 0.548455 0.0792859
0.08542 0.548333 0.0793164
0.0854353 0.548211 0.0793317
0.0854658 0.548104 0.0793622
0.085481 0.547982 0.0793317
0.0854658 0.547799 0.0793622
0.0855116 0.54757 0.079408
0.0855116 0.547311 0.079408
0.0855879 0.546899 0.0794842
0.0856184 0.546395 0.07953
0.0856947 0.545724 0.0796063
0.115846 0.553506 0.0766766
0.164462 0.587655 0.0708782
0.358968 0.62005 0.0717174
0.514031 0.644602 0.0699931
0.634241 0.657267 0.0670787
0.72546 0.660075 0.064332
0.778195 0.655177 0.0627756
0.81323 0.648447 0.0617838
0.844892 0.64303 0.0607004
0.873518 0.638209 0.0596017
0.900236 0.633036 0.0585336
0.911238 0.626444 0.0582895
0.912551 0.616739 0.0586709
0.914427 0.602686 0.0592203
0.917632 0.578515 0.06009
0.922911 0.538125 0.0611429
0.92961 0.473655 0.0619059
0.902144 0.345266 0.0645762
0.860227 0.0925917 0.0904097
0.860227 0.0925917 0.0904097
0.86154 0.0917067 0.109056
0.0827039 0.577493 0.0764019
0.0827192 0.577371 0.0764172
0.0827497 0.577264 0.0764477
0.0827497 0.577203 0.0764477
0.0827192 0.577066 0.0764324
0.0827497 0.576959 0.0764477
0.0827649 0.576837 0.0764782
0.0827955 0.576669 0.0765087
0.0827955 0.576425 0.0765087
0.0828565 0.576135 0.0765545
0.0828717 0.575708 0.076585
0.0829175 0.575235 0.0766308
0.0828412 0.576181 0.0765545
0.150637 0.609674 0.0691234
0.323827 0.644709 0.0694743
0.485115 0.673014 0.0679789
0.614511 0.689387 0.0649882
0.711543 0.694667 0.0622721
0.767727 0.691646 0.0608225
0.803464 0.685634 0.059968
0.83563 0.680903 0.0590219
0.864607 0.676814 0.0580453
0.891249 0.672877 0.0570687
0.905516 0.668696 0.0566262
0.906355 0.662562 0.0568856
0.907439 0.654566 0.0572061
0.909148 0.641962 0.0576944
0.911711 0.62295 0.0584421
0.915633 0.593545 0.0595712
0.922591 0.540551 0.0610819
0.923339 0.437293 0.0625467
0.862242 0.190463 0.0738689
0.860227 0.0925917 0.0904097
0.0799725 0.606302 0.0794995
0.0799573 0.606165 0.0793622
0.0799573 0.606104 0.0793622
0.0799725 0.606043 0.0793469
0.0800031 0.60592 0.0793317
0.0800031 0.605844 0.0793164
0.0800336 0.605722 0.0793011
0.0800031 0.605585 0.0791638
0.0800336 0.605402 0.0791485
0.0800793 0.605142 0.0791028
0.0801099 0.604761 0.0789349
0.0801404 0.604303 0.0787518
0.0801709 0.603784 0.0785687
0.139086 0.631662 0.0673381
0.301869 0.667338 0.0674449
0.462974 0.69723 0.0659495
0.597665 0.715694 0.0629282
0.697169 0.722499 0.0605325
0.758709 0.721172 0.0590677
0.794873 0.715419 0.0583505
0.827573 0.710933 0.0575113
0.856916 0.70724 0.0566262
0.883543 0.703914 0.0557412
0.901106 0.700648 0.0551766
0.901625 0.69691 0.0553597
0.902327 0.691814 0.0556039
0.903319 0.684611 0.0559243
0.904845 0.67364 0.0564126
0.906935 0.658259 0.0570687
0.910018 0.635493 0.0579385
0.915145 0.597269 0.0594339
0.925826 0.515618 0.0615091
0.890303 0.302617 0.0669871
0.0770886 0.637583 0.103777
0.0770886 0.637522 0.103746
0.0771038 0.637446 0.103716
0.0771191 0.637385 0.10367
0.0770886 0.637278 0.103548
0.0771038 0.637217 0.103517
0.0771191 0.637064 0.103441
0.0771496 0.636927 0.103365
0.0771649 0.63679 0.103304
0.0771649 0.636545 0.103105
0.0772106 0.636271 0.102968
0.0772412 0.635828 0.102663
0.0773175 0.635325 0.102403
0.132052 0.656977 0.0648203
0.298238 0.691402 0.0654307
0.451728 0.719753 0.063798
0.584298 0.738247 0.0608682
0.683772 0.745876 0.0589303
0.750668 0.74612 0.0574807
0.787167 0.740368 0.0568856
0.820356 0.735759 0.0561685
0.850111 0.731991 0.055375
0.87689 0.728756 0.0545663
0.897581 0.725872 0.0539254
0.897917 0.723369 0.0540475
0.898421 0.719799 0.0542306
0.899077 0.715099 0.0544747
0.900008 0.708461 0.0547951
0.901244 0.699641 0.0552224
0.902907 0.687648 0.055787
0.905425 0.669352 0.0565957
0.909468 0.639551 0.0577859
0.917327 0.580743 0.0600137
0.0744945 0.665125 0.116442
0.0744945 0.665125 0.116442
0.0744945 0.665125 0.116335
0.0744488 0.66511 0.11635
0.0744488 0.66511 0.11635
0.0744488 0.66511 0.11635
0.0744488 0.66511 0.11635
0.0744488 0.66511 0.11635
0.0744488 0.66511 0.11635
0.0744488 0.66511 0.11635
0.074403 0.66508 0.116258
0.074403 0.66508 0.116258
0.0743572 0.665049 0.116167
0.133333 0.687419 0.0637522
0.313771 0.717662 0.0632639
0.453147 0.74197 0.0614633
0.576394 0.75845 0.0589456
0.67277 0.765896 0.057435
0.742702 0.767102 0.0560616
0.780316 0.761608 0.0555581
0.813657 0.756893 0.0549325
0.843717 0.752987 0.0542458
0.87071 0.749615 0.0535134
0.894652 0.746548 0.0528115
0.894896 0.744656 0.0529183
0.895293 0.741909 0.0530709
0.89575 0.738613 0.0532387
0.896361 0.73434 0.0534676
0.897169 0.728649 0.0537728
0.898192 0.721386 0.0541543
0.899611 0.71133 0.0546578
0.901625 0.696849 0.0553597
0.90486 0.673442 0.0564279
0.0764782 0.666362 0.120378
0.0764782 0.666362 0.120378
0.0764782 0.666362 0.120378
0.0764782 0.666362 0.120378
0.0764782 0.666362 0.120378
0.0764782 0.666362 0.120378
0.0764782 0.666346 0.120272
0.0764324 0.666331 0.120287
0.0764324 0.666331 0.120287
0.0764324 0.666331 0.120287
0.0764324 0.666331 0.120287
0.0763867 0.6663 0.120195
0.0763867 0.6663 0.120195
0.164233 0.705653 0.0628519
0.349172 0.732708 0.0625315
0.469337 0.755001 0.0600748
0.578546 0.77174 0.0576333
0.667338 0.781048 0.0562142
0.735485 0.785397 0.0547646
0.77409 0.781384 0.0542306
0.807034 0.776272 0.0537423
0.837217 0.771939 0.0531624
0.8645 0.7682 0.0525216
0.889616 0.764874 0.0518502
0.892241 0.763043 0.0518807
0.892592 0.760662 0.052018
0.892973 0.757961 0.0521706
0.893446 0.754757 0.0523537
0.894011 0.75082 0.0525673
0.894697 0.745983 0.052842
0.895582 0.739788 0.0531777
0.896757 0.731548 0.0536202
0.898451 0.71957 0.0542458
0.076585 0.666407 0.120562
0.076585 0.666407 0.120562
0.076585 0.666407 0.120562
0.076585 0.666407 0.120562
0.076585 0.666407 0.120562
0.076585 0.666407 0.120562
0.076585 0.666407 0.120562
0.076585 0.666407 0.120562
0.076585 0.666407 0.120562
0.076585 0.666407 0.120562
0.076585 0.666407 0.120562
0.076585 0.666407 0.120562
0.144045 0.699962 0.0652323
0.293538 0.721691 0.0635843
0.397208 0.74226 0.0617533
0.497963 0.75964 0.0594034
0.589899 0.773053 0.0574807
0.66981 0.78114 0.0561685
0.73341 0.785214 0.0548104
0.770947 0.783291 0.0541543
0.802686 0.780865 0.0535286
0.832227 0.778744 0.052842
0.859312 0.776638 0.0521401
0.88423 0.774594 0.0514229
0.890623 0.774044 0.0512398
0.890623 0.77406 0.0512245
0.890639 0.774075 0.0512245
0.890745 0.773404 0.0512703
0.891218 0.770214 0.0514534
0.891768 0.766384 0.0516823
0.892439 0.761715 0.051957
0.893263 0.756054 0.0522774
0.894316 0.748699 0.0526894
0.0763256 0.667552 0.132952
0.0763256 0.667552 0.132952
0.0763256 0.667552 0.132952
0.0763256 0.667552 0.132952
0.0763256 0.667552 0.132952
0.0763256 0.667552 0.132952
0.0763256 0.667552 0.132952
0.0763256 0.667552 0.13286
0.0981003 0.675212 0.118837
0.126711 0.689509 0.0847639
0.14873 0.702129 0.064271
0.246036 0.713771 0.0638437
0.32076 0.727001 0.0631723
0.388769 0.740642 0.0619364
0.461173 0.753597 0.0603494
0.538994 0.766049 0.0582437
0.610544 0.775464 0.0571908
0.67747 0.781765 0.0560159
0.73341 0.785214 0.0548104
0.768292 0.783536 0.0542
0.798383 0.78117 0.0536202
0.827253 0.77908 0.0529641
0.854139 0.776989 0.0522774
0.879072 0.774945 0.0515755
0.890578 0.773968 0.0512398
0.890562 0.773953 0.0512551
0.890562 0.773953 0.0512551
0.890562 0.773953 0.0512551
0.890578 0.773968 0.0512398
0.890593 0.773999 0.0512398
0.890608 0.774029 0.0512398
0.890639 0.774075 0.0512245
0.89099 0.771695 0.0513771
0.221363 0.711269 0.06804
0.239246 0.712795 0.0669566
0.250904 0.714763 0.0664836
0.262181 0.71664 0.0660105
0.273289 0.718441 0.065568
0.283742 0.720119 0.0651408
0.296696 0.722148 0.0646372
