LUTS/Secondary LUTS/PROVIA.cube
TITLE "Generated by Resolve"
LUT_3D_SIZE 5
0.125154 0.122225 0.122759
0.208103 0.129076 0.128176
0.665782 0.10071 0.0989395
0.860227 0.0925917 0.0904097
0.86154 0.0917067 0.10901
0.116289 0.208179 0.128847
0.189181 0.193683 0.124102
0.661067 0.100984 0.0992294
0.860227 0.0925917 0.0904097
0.86154 0.0917067 0.10901
0.0917525 0.483116 0.0860609
0.0919966 0.480644 0.0863203
0.670695 0.562966 0.0721752
0.926406 0.451713 0.0623026
0.86154 0.0917067 0.109056
0.076585 0.666407 0.120562
0.076585 0.666407 0.120562
0.589899 0.773053 0.0574807
0.890623 0.774044 0.0512398
0.894316 0.748699 0.0526894
0.814588 0.779965 0.0532692
0.816083 0.779873 0.0532387
0.827253 0.77908 0.0529641
0.890593 0.773999 0.0512398
0.890562 0.773953 0.0512551
0.128481 0.127398 0.199817
0.201968 0.129702 0.196063
0.666041 0.0994278 0.144869
0.860227 0.0925917 0.0904097
0.86154 0.0917067 0.10901
0.115282 0.199329 0.200244
0.183169 0.185107 0.189288
0.660929 0.0997787 0.138857
0.860227 0.0925917 0.0904097
0.86154 0.0917067 0.10901
0.0914321 0.482719 0.103807
0.091783 0.480034 0.0986954
0.670283 0.561242 0.072282
0.925963 0.449653 0.0623178
0.86154 0.0917067 0.109056
0.076585 0.666407 0.120562
0.076585 0.666407 0.120562
0.589441 0.772992 0.057496
0.890623 0.774044 0.0512398
0.894316 0.748653 0.0526894
0.814588 0.779965 0.0532692
0.816083 0.779873 0.0532387
0.827253 0.77908 0.0529641
0.890593 0.773999 0.0512398
0.890562 0.773953 0.0512551
0.125002 0.12134 0.491325
0.125032 0.121309 0.488548
0.669062 0.0939651 0.505058
0.878965 0.0839704 0.495201
0.86154 0.0917067 0.10901
0.125032 0.121309 0.49012
0.125002 0.121294 0.487633
0.669459 0.0939498 0.504097
0.87892 0.0839399 0.49456
0.86154 0.0917067 0.10901
0.0848249 0.495644 0.536721
0.0851606 0.492271 0.535927
0.611002 0.541024 0.526024
0.896773 0.399283 0.497642
0.86154 0.0917067 0.109056
0.0673533 0.706264 0.546304
0.0673533 0.706249 0.545739
0.490623 0.795789 0.510765
0.890303 0.796536 0.403647
0.894362 0.748348 0.0527047
0.814343 0.779995 0.0532692
0.8159 0.779889 0.0532387
0.827054 0.779095 0.0529641
0.890593 0.773999 0.0512398
0.890562 0.773953 0.0512551
0.126925 0.122591 0.739681
0.126925 0.122591 0.739605
0.5823 0.0978256 0.763973
0.887526 0.0979477 0.755215
0.887755 0.0971084 0.755383
0.126925 0.122591 0.739605
0.126925 0.122591 0.739605
0.591409 0.0961471 0.764355
0.887526 0.0979477 0.755215
0.887755 0.0971084 0.755383
0.107576 0.237232 0.737377
0.108324 0.229389 0.736507
0.489555 0.192065 0.740917
0.887572 0.0977798 0.755245
0.887755 0.0971084 0.755383
0.0640421 0.709484 0.761852
0.0640421 0.709484 0.761852
0.153658 0.758541 0.766613
0.880003 0.790036 0.766674
0.893156 0.750469 0.756909
0.752285 0.817884 0.748272
0.754971 0.817899 0.748089
0.774121 0.81796 0.746426
0.862394 0.816205 0.73904
0.886534 0.815396 0.717327
0.127077 0.122713 0.74612
0.127077 0.122713 0.74612
0.127077 0.122713 0.74612
0.887617 0.097612 0.755276
0.887144 0.0992905 0.75494
0.127077 0.122713 0.74612
0.127077 0.122713 0.74612
0.127077 0.122713 0.74612
0.887572 0.0977798 0.755245
0.887144 0.0992905 0.75494
0.127077 0.122713 0.74612
0.127077 0.122713 0.74612
0.127077 0.122713 0.74612
0.88748 0.0981155 0.755184
0.887144 0.0992905 0.75494
0.0691234 0.639857 0.767941
0.0691386 0.639735 0.767941
0.0697337 0.632441 0.768353
0.869642 0.70341 0.775082
0.898726 0.458045 0.773541
0.605966 0.811994 0.771389
0.613336 0.812482 0.771374
0.662242 0.815335 0.77116
0.829801 0.816831 0.766979
0.88603 0.815137 0.764645
