LUTS/Secondary LUTS/PROVIA.cube
TITLE "Generated by Resolve"
LUT_3D_SIZE 9
0.125154 0.122225 0.122759
0.14287 0.123583 0.124224
0.208103 0.129076 0.128176
0.371588 0.134768 0.112642
0.665782 0.10071 0.0989395
0.820645 0.0929122 0.0908675
0.860227 0.0925917 0.0904097
0.860517 0.0922866 0.0960708
0.86154 0.0917067 0.10901
0.125216 0.15285 0.124376
0.13434 0.147707 0.123278
0.206424 0.138201 0.12488
0.371221 0.134783 0.112703
0.66598 0.100725 0.09897
0.82092 0.0929274 0.0908827
0.860227 0.0925917 0.0904097
0.860517 0.0922866 0.0960708
0.86154 0.0917067 0.10901
0.116289 0.208179 0.128847
0.117174 0.205966 0.128679
0.189181 0.193683 0.124102
0.353063 0.178943 0.105364
0.661067 0.100984 0.0992294
0.820279 0.092958 0.090898
0.860227 0.0925917 0.0904097
0.860533 0.0922866 0.0961166
0.86154 0.0917067 0.10901
0.108873 0.311864 0.129519
0.10898 0.310109 0.129686
0.109178 0.307774 0.129809
0.328389 0.306859 0.0986801
0.659693 0.273701 0.0826886
0.805539 0.163241 0.0775006
0.860227 0.0925917 0.0904097
0.860533 0.0922866 0.0961166
0.86154 0.0917067 0.10901
0.0917525 0.483116 0.0860609
0.0918746 0.482231 0.0861677
0.0919966 0.480644 0.0863203
0.163012 0.504204 0.0807355
0.670695 0.562966 0.0721752
0.86775 0.529412 0.0641337
0.926406 0.451713 0.0623026
0.860227 0.0925917 0.0904097
0.86154 0.0917067 0.109056
0.0799725 0.606302 0.0794995
0.0800031 0.60592 0.0793317
0.0800336 0.605402 0.0791485
0.0801709 0.603784 0.0785687
0.597665 0.715694 0.0629282
0.827573 0.710933 0.0575113
0.901625 0.69691 0.0553597
0.906935 0.658259 0.0570687
0.890303 0.302617 0.0669871
0.076585 0.666407 0.120562
0.076585 0.666407 0.120562
0.076585 0.666407 0.120562
0.144045 0.699962 0.0652323
0.589899 0.773053 0.0574807
0.802686 0.780865 0.0535286
0.890623 0.774044 0.0512398
0.891218 0.770214 0.0514534
0.894316 0.748699 0.0526894
0.5879 0.772808 0.0575113
0.59649 0.773831 0.0574044
0.609613 0.775357 0.0572061
0.645747 0.779019 0.056611
0.722393 0.784939 0.0550393
0.801297 0.780957 0.0535592
0.888533 0.774166 0.0513008
0.890562 0.773953 0.0512551
0.890562 0.773953 0.0512551
0.814588 0.779965 0.0532692
0.815152 0.779934 0.053254
0.816083 0.779873 0.0532387
0.818967 0.779675 0.0531624
0.827253 0.77908 0.0529641
0.848524 0.777447 0.05243
0.890593 0.773999 0.0512398
0.890562 0.773953 0.0512551
0.890562 0.773953 0.0512551
0.126589 0.124392 0.154437
0.138796 0.124041 0.150713
0.205966 0.128756 0.151293
0.370825 0.133974 0.129046
0.665583 0.100725 0.09897
0.820645 0.0929122 0.0908675
0.860227 0.0925917 0.0904097
0.860517 0.0922866 0.0960708
0.86154 0.0917067 0.10901
0.124819 0.146761 0.151232
0.130312 0.141558 0.149752
0.208972 0.130037 0.151995
0.368536 0.134279 0.12549
0.66598 0.100725 0.09897
0.82092 0.0929274 0.0908827
0.860227 0.0925917 0.0904097
0.860517 0.0922866 0.0960708
0.86154 0.0917067 0.10901
0.116258 0.205264 0.151797
0.117006 0.203113 0.15079
0.187015 0.191165 0.140795
0.339864 0.179339 0.114763
0.661372 0.100954 0.0991989
0.820356 0.0929427 0.090898
0.860227 0.0925917 0.0904097
0.860533 0.0922866 0.0961166
0.86154 0.0917067 0.10901
0.108949 0.310674 0.129641
0.109117 0.308858 0.129793
0.10927 0.306477 0.129839
0.327398 0.304845 0.0987716
0.658976 0.271656 0.0827192
0.805356 0.160525 0.0776226
0.860227 0.0925917 0.0904097
0.860533 0.0922866 0.0961166
0.86154 0.0917067 0.10901
0.0917983 0.482643 0.0860914
0.0919051 0.481743 0.0862135
0.0920882 0.480186 0.0864118
0.162799 0.503548 0.080827
0.670512 0.562478 0.0722057
0.867811 0.528923 0.0641337
0.926253 0.451026 0.0623178
0.860227 0.0925917 0.0904097
0.86154 0.0917067 0.109056
0.0799878 0.606241 0.0794995
0.0800031 0.605844 0.0793164
0.0800488 0.605341 0.0791333
0.0801862 0.603723 0.0785687
0.597513 0.715618 0.0629282
0.827573 0.710872 0.0575265
0.901625 0.696849 0.0553597
0.90695 0.658198 0.0570687
0.890043 0.301686 0.0670329
0.076585 0.666407 0.120562
0.076585 0.666407 0.120562
0.076585 0.666407 0.120562
0.143679 0.699794 0.0652628
0.589746 0.773037 0.057496
0.802686 0.780865 0.0535286
0.890623 0.774044 0.0512398
0.891218 0.770214 0.0514534
0.894316 0.748699 0.0526894
0.587747 0.772793 0.0575113
0.596338 0.773816 0.0574044
0.609461 0.775341 0.0572061
0.645594 0.779004 0.056611
0.722301 0.784939 0.0550393
0.801236 0.780957 0.0535592
0.888533 0.774166 0.0513008
0.890562 0.773953 0.0512551
0.890562 0.773953 0.0512551
0.814588 0.779965 0.0532692
0.815152 0.779934 0.053254
0.816083 0.779873 0.0532387
0.818967 0.779675 0.0531624
0.827253 0.77908 0.0529641
0.848524 0.777447 0.05243
0.890593 0.773999 0.0512398
0.890562 0.773953 0.0512551
0.890562 0.773953 0.0512551
0.128481 0.127398 0.199817
0.128405 0.127291 0.196857
0.201968 0.129702 0.196063
0.370123 0.133242 0.18645
0.666041 0.0994278 0.144869
0.820996 0.0920882 0.110765
0.860227 0.0925917 0.0904097
0.860517 0.0922866 0.0960708
0.86154 0.0917067 0.10901
0.128496 0.127413 0.199252
0.128466 0.127382 0.198322
0.204669 0.129885 0.19736
0.370809 0.133196 0.184894
0.666667 0.0994278 0.14342
0.82121 0.0921187 0.109941
0.860227 0.0925917 0.0904097
0.860517 0.0922866 0.0960708
0.86154 0.0917067 0.10901
0.115282 0.199329 0.200244
0.115511 0.197055 0.199573
0.183169 0.185107 0.189288
0.348119 0.168917 0.174105
0.660929 0.0997787 0.138857
0.819638 0.0923323 0.105241
0.860227 0.0925917 0.0904097
0.860533 0.0922866 0.0961166
0.86154 0.0917067 0.10901
0.107515 0.309773 0.187411
0.107668 0.308019 0.187106
0.107927 0.304829 0.186648
0.323873 0.30341 0.161913
0.650675 0.274037 0.115984
0.80209 0.179461 0.0767987
0.860227 0.0925917 0.0904097
0.860533 0.0922866 0.0961166
0.86154 0.0917067 0.10901
0.0914321 0.482719 0.103807
0.0915847 0.481727 0.10193
0.091783 0.480034 0.0986954
0.162051 0.502861 0.0889601
0.670283 0.561242 0.072282
0.867933 0.527459 0.0641642
0.925963 0.449653 0.0623178
0.860227 0.0925917 0.0904097
0.86154 0.0917067 0.109056
0.0800031 0.60592 0.0793317
0.0800031 0.605585 0.0791638
0.0801099 0.60502 0.0790875
0.0802319 0.603479 0.0785229
0.596902 0.715419 0.0629587
0.827588 0.710811 0.0575265
0.90164 0.696727 0.055375
0.906966 0.658045 0.0570687
0.889616 0.300175 0.0671244
0.076585 0.666407 0.120562
0.076585 0.666407 0.120562
0.076585 0.666407 0.120562
0.143023 0.699489 0.0653239
0.589441 0.772992 0.057496
0.802625 0.780865 0.0535286
0.890623 0.774044 0.0512398
0.891218 0.770214 0.0514534
0.894316 0.748653 0.0526894
0.587442 0.772763 0.0575265
0.596033 0.77377 0.0574044
0.609308 0.775326 0.0572061
0.645457 0.778988 0.0566262
0.72221 0.784939 0.0550546
0.801236 0.780957 0.0535592
0.888533 0.774166 0.0513008
0.890562 0.773953 0.0512551
0.890562 0.773953 0.0512551
0.814588 0.779965 0.0532692
0.815152 0.779934 0.053254
0.816083 0.779873 0.0532387
0.818967 0.779675 0.0531624
0.827253 0.77908 0.0529641
0.848524 0.777447 0.05243
0.890593 0.773999 0.0512398
0.890562 0.773953 0.0512551
0.890562 0.773953 0.0512551
0.122805 0.120562 0.310719
0.122744 0.120714 0.309957
0.188785 0.121431 0.303593
0.367437 0.120714 0.310536
0.668132 0.0973526 0.299657
0.824537 0.0893263 0.278691
0.862715 0.0901503 0.204501
0.860517 0.0922866 0.0960708
0.86154 0.0917067 0.10901
0.122744 0.12076 0.309758
0.122728 0.120851 0.309361
0.190433 0.121767 0.302785
0.370123 0.120333 0.309758
0.669169 0.0973068 0.298741
0.824781 0.0893568 0.277989
0.862669 0.0901808 0.203494
0.860517 0.0922866 0.0960708
0.86154 0.0917067 0.10901
0.116106 0.164981 0.304677
0.116274 0.161822 0.303838
0.168811 0.152529 0.292683
0.364889 0.121004 0.311238
0.665248 0.0975662 0.296483
0.824399 0.0893873 0.276112
0.862593 0.0901961 0.201999
0.860533 0.0922866 0.0961166
0.86154 0.0917067 0.10901
0.106371 0.303151 0.315404
0.106493 0.301228 0.314931
0.106813 0.297551 0.314061
0.307012 0.290837 0.300847
0.646448 0.234043 0.269871
0.808118 0.11635 0.243183
0.861646 0.0905776 0.179782
0.860533 0.0922866 0.0961166
0.86154 0.0917067 0.10901
0.088014 0.49807 0.304021
0.0881514 0.497002 0.30341
0.0883192 0.495323 0.30248
0.154894 0.509392 0.29514
0.646418 0.551858 0.238514
0.854978 0.52256 0.147204
0.927443 0.461677 0.101732
0.860227 0.0925917 0.0904097
0.86154 0.0917067 0.109056
0.0769513 0.624842 0.28806
0.076997 0.624323 0.287053
0.0770733 0.623621 0.285573
0.0773327 0.6215 0.281041
0.561502 0.705669 0.188769
0.824689 0.705638 0.105989
0.901228 0.699702 0.0552224
0.907042 0.657465 0.0570993
0.888365 0.295476 0.0674144
0.076585 0.666407 0.120562
0.076585 0.666407 0.120562
0.076585 0.666407 0.120562
0.137713 0.696986 0.0664378
0.586984 0.772702 0.0575265
0.802502 0.78088 0.0535439
0.890623 0.774044 0.0512398
0.891234 0.770108 0.0514687
0.894331 0.748608 0.0526894
0.586831 0.772686 0.0575265
0.595407 0.773709 0.0574197
0.60853 0.775235 0.0572213
0.644862 0.778927 0.0566262
0.722011 0.784924 0.0550546
0.801175 0.780957 0.0535592
0.888533 0.774166 0.0513008
0.890562 0.773953 0.0512551
0.890562 0.773953 0.0512551
0.814527 0.77998 0.0532692
0.815091 0.779934 0.053254
0.816022 0.779873 0.0532387
0.818906 0.779675 0.0531624
0.827176 0.77908 0.0529641
0.848463 0.777447 0.05243
0.890593 0.773999 0.0512398
0.890562 0.773953 0.0512551
0.890562 0.773953 0.0512551
0.125002 0.12134 0.491325
0.125017 0.121294 0.491142
0.125032 0.121309 0.488548
0.344747 0.113008 0.501335
0.669062 0.0939651 0.505058
0.834241 0.0846418 0.502556
0.878965 0.0839704 0.495201
0.871702 0.0867475 0.37496
0.86154 0.0917067 0.10901
0.125017 0.121294 0.491051
0.125017 0.121294 0.490959
0.132753 0.120302 0.485954
0.35111 0.112749 0.501534
0.670893 0.093843 0.504768
0.834516 0.0846113 0.502449
0.87895 0.0839704 0.494987
0.871672 0.0867628 0.374395
0.86154 0.0917067 0.10901
0.125032 0.121309 0.49012
0.125048 0.121324 0.490028
0.125002 0.121294 0.487633
0.346517 0.112963 0.500359
0.669459 0.0939498 0.504097
0.834775 0.0846418 0.502007
0.87892 0.0839399 0.49456
0.871611 0.0867933 0.37351
0.86154 0.0917067 0.10901
0.111864 0.220035 0.500633
0.112093 0.216754 0.500282
0.112581 0.210773 0.499672
0.264851 0.227878 0.490761
0.632975 0.137346 0.488914
0.828077 0.085069 0.497185
0.878737 0.0840314 0.492134
0.871427 0.0868238 0.370855
0.86154 0.0917067 0.10901
0.0848249 0.495644 0.536721
0.0849317 0.494362 0.536385
0.0851606 0.492271 0.535927
0.129747 0.494621 0.535882
0.611002 0.541024 0.526024
0.839323 0.499184 0.512688
0.896773 0.399283 0.497642
0.868833 0.0878157 0.32665
0.86154 0.0917067 0.109056
0.0718853 0.638132 0.551095
0.0719463 0.637812 0.550805
0.0720073 0.637217 0.550301
0.0721294 0.635615 0.548959
0.491188 0.724193 0.53164
0.811749 0.7252 0.500542
0.900649 0.710781 0.450889
0.907225 0.655146 0.185931
0.88423 0.280247 0.0682536
0.0673533 0.706264 0.546304
0.0673533 0.706264 0.54612
0.0673533 0.706249 0.545739
0.0673838 0.706218 0.544594
0.490623 0.795789 0.510765
0.779309 0.808774 0.4663
0.890303 0.796536 0.403647
0.890974 0.771862 0.0513619
0.894362 0.748348 0.0527047
0.576104 0.771344 0.0576791
0.585153 0.772488 0.057557
0.598795 0.774105 0.0573587
0.636759 0.778164 0.0567636
0.71725 0.784634 0.0551614
0.8 0.781048 0.0535897
0.888411 0.774182 0.0513008
0.890562 0.773953 0.0512551
0.890562 0.773953 0.0512551
0.814343 0.779995 0.0532692
0.814969 0.77995 0.053254
0.8159 0.779889 0.0532387
0.818784 0.77969 0.0531624
0.827054 0.779095 0.0529641
0.848386 0.777462 0.05243
0.890593 0.773999 0.0512398
0.890562 0.773953 0.0512551
0.890562 0.773953 0.0512551
0.126238 0.122164 0.637949
0.126238 0.122164 0.637949
0.126238 0.122164 0.637873
0.235172 0.117006 0.641978
0.652491 0.0925612 0.661906
0.839658 0.081178 0.663096
0.890181 0.0798657 0.671839
0.889143 0.0801862 0.65774
0.883345 0.0822309 0.56791
0.126238 0.122164 0.637873
0.126238 0.122164 0.637873
0.126238 0.122164 0.637873
0.248463 0.116411 0.642802
0.654826 0.0923781 0.661891
0.840009 0.081178 0.663081
0.890166 0.0798657 0.671763
0.889128 0.0801862 0.657664
0.88333 0.0822309 0.567819
0.126238 0.122164 0.637873
0.126238 0.122164 0.637797
0.126238 0.122164 0.637797
0.268894 0.115496 0.643931
0.658152 0.0921645 0.661753
0.840436 0.0811322 0.663066
0.890166 0.079881 0.671687
0.889128 0.0801862 0.657588
0.883314 0.0822461 0.567544
0.126223 0.122164 0.636728
0.126223 0.122164 0.636728
0.126223 0.122164 0.636728
0.215869 0.117693 0.639445
0.641611 0.0932784 0.660792
0.837171 0.0813458 0.661936
0.89015 0.079881 0.671534
0.889113 0.0802014 0.657359
0.883268 0.0822766 0.566796
0.0886091 0.439323 0.685618
0.0888075 0.437644 0.685252
0.0890516 0.434882 0.684688
0.0899672 0.426062 0.683024
0.56759 0.456321 0.691447
0.822065 0.383703 0.68304
0.875792 0.200397 0.669566
0.888945 0.0802319 0.655131
0.883116 0.0823072 0.564508
0.071046 0.625284 0.698222
0.0710613 0.624857 0.698131
0.0711528 0.624323 0.697993
0.0712749 0.622644 0.697612
0.371557 0.704005 0.697948
0.794827 0.714748 0.689403
0.899763 0.698711 0.68629
0.902831 0.650126 0.675044
0.882078 0.0827039 0.547265
0.0649271 0.709087 0.713893
0.0649271 0.709087 0.713832
0.0649271 0.709087 0.713756
0.0649271 0.709087 0.713573
0.362799 0.788434 0.700145
0.750088 0.81326 0.684871
0.887205 0.801648 0.671092
0.889784 0.793454 0.640574
0.89369 0.766766 0.527382
0.384344 0.790845 0.67158
0.401755 0.792737 0.671443
0.427115 0.795422 0.671092
0.488197 0.802182 0.669749
0.605936 0.81236 0.664546
0.75346 0.817777 0.651179
0.869078 0.815381 0.634791
0.887694 0.813443 0.603815
0.891218 0.785763 0.287648
0.805463 0.794049 0.313771
0.806165 0.793942 0.313085
0.807279 0.793774 0.312108
0.810575 0.793194 0.308659
0.819394 0.791363 0.297993
0.842145 0.785962 0.264942
0.887892 0.769726 0.0836194
0.890562 0.773953 0.0512551
0.890562 0.773953 0.0512551
0.126925 0.122591 0.739681
0.126925 0.122591 0.739605
0.126925 0.122591 0.739605
0.126925 0.122591 0.739605
0.5823 0.0978256 0.763973
0.836118 0.0796368 0.763104
0.887526 0.0979477 0.755215
0.887526 0.0979477 0.755215
0.887755 0.0971084 0.755383
0.126925 0.122591 0.739605
0.126925 0.122591 0.739605
0.126925 0.122591 0.739605
0.126925 0.122591 0.739605
0.58584 0.0972 0.764111
0.836469 0.0795911 0.763088
0.887526 0.0979477 0.755215
0.887526 0.0979477 0.755215
0.887755 0.0971084 0.755383
0.126925 0.122591 0.739605
0.126925 0.122591 0.739605
0.126925 0.122591 0.739605
0.126925 0.122591 0.739605
0.591409 0.0961471 0.764355
0.836973 0.0795911 0.763058
0.887526 0.0979477 0.755215
0.887526 0.0979477 0.755215
0.887755 0.0971084 0.755383
0.126925 0.122591 0.739528
0.126925 0.122591 0.739528
0.126925 0.122591 0.739528
0.126925 0.122591 0.739528
0.607462 0.0942855 0.764645
0.838605 0.0795148 0.762966
0.887526 0.0979477 0.755215
0.887526 0.0979477 0.755215
0.887755 0.0971084 0.755383
0.107576 0.237232 0.737377
0.107759 0.235157 0.737194
0.108324 0.229389 0.736507
0.11043 0.206958 0.734829
0.489555 0.192065 0.740917
0.820264 0.0805371 0.761959
0.887572 0.0977798 0.755245
0.887526 0.0979477 0.755215
0.887755 0.0971084 0.755383
0.0723888 0.59913 0.770764
0.0724651 0.598657 0.770825
0.0724804 0.597879 0.770901
0.0726635 0.595743 0.771145
0.179873 0.648493 0.782376
0.78172 0.677073 0.77911
0.900877 0.653025 0.776287
0.902281 0.553979 0.777218
0.8878 0.0969406 0.755413
0.0640421 0.709484 0.761852
0.0640421 0.709484 0.761852
0.0640421 0.709484 0.761852
0.0639963 0.709468 0.761852
0.153658 0.758541 0.766613
0.720546 0.802472 0.771908
0.880003 0.790036 0.766674
0.890089 0.778119 0.762646
0.893156 0.750469 0.756909
0.159991 0.762982 0.766033
0.164385 0.766125 0.765576
0.170947 0.770825 0.764874
0.310063 0.783352 0.766323
0.518853 0.805005 0.770916
0.720333 0.817227 0.77026
0.856977 0.816159 0.760327
0.886122 0.815198 0.7561
0.886244 0.815259 0.745449
0.752285 0.817884 0.748272
0.753353 0.817884 0.74818
0.754971 0.817899 0.748089
0.759915 0.817929 0.747646
0.774121 0.81796 0.746426
0.80676 0.817578 0.74374
0.862394 0.816205 0.73904
0.886351 0.815335 0.733761
0.886534 0.815396 0.717327
0.127077 0.122713 0.74612
0.127077 0.122713 0.74612
0.127077 0.122713 0.74612
0.127077 0.122713 0.74612
0.174121 0.118837 0.748592
0.805798 0.0817731 0.764492
0.887144 0.0992905 0.75494
0.887144 0.0992905 0.75494
0.887144 0.0992905 0.75494
0.127077 0.122713 0.74612
0.127077 0.122713 0.74612
0.127077 0.122713 0.74612
0.127077 0.122713 0.74612
0.17995 0.118624 0.748913
0.806317 0.0817578 0.764477
0.887144 0.0992905 0.75494
0.887144 0.0992905 0.75494
0.887144 0.0992905 0.75494
0.127077 0.122713 0.74612
0.127077 0.122713 0.74612
0.127077 0.122713 0.74612
0.127077 0.122713 0.74612
0.188113 0.118608 0.749126
0.80705 0.0816815 0.764431
0.887144 0.0992905 0.75494
0.887144 0.0992905 0.75494
0.887144 0.0992905 0.75494
0.127077 0.122713 0.74612
0.127077 0.122713 0.74612
0.127077 0.122713 0.74612
0.127077 0.122713 0.74612
0.227375 0.125277 0.747433
0.809247 0.08159 0.764324
0.887144 0.0992905 0.75494
0.887144 0.0992905 0.75494
0.887144 0.0992905 0.75494
0.127077 0.122713 0.74612
0.127077 0.122713 0.74612
0.127077 0.122713 0.74612
0.127077 0.122713 0.74612
0.357015 0.125048 0.75613
0.815854 0.0812238 0.764019
0.887144 0.0992905 0.75494
0.887144 0.0992905 0.75494
0.887144 0.0992905 0.75494
0.0813916 0.499855 0.776928
0.0814374 0.499596 0.776928
0.081529 0.498283 0.776898
0.0821698 0.492302 0.776791
0.0838636 0.47538 0.776867
0.762585 0.495811 0.782452
0.895567 0.406485 0.770199
0.887144 0.0992905 0.75494
0.887144 0.0992905 0.75494
0.0628519 0.706386 0.762051
0.0628824 0.706188 0.762066
0.0629282 0.705928 0.762097
0.062974 0.705043 0.762173
0.0632181 0.702693 0.762402
0.663218 0.783215 0.774746
0.872847 0.769604 0.769482
0.89247 0.753552 0.76968
0.896345 0.714244 0.772671
0.0645609 0.709667 0.761868
0.0645609 0.709667 0.761868
0.0645609 0.709667 0.761868
0.0645609 0.709667 0.761868
0.245396 0.777829 0.765179
0.6663 0.815549 0.77113
0.844999 0.816449 0.766369
0.88603 0.815137 0.764645
0.88603 0.815137 0.764645
0.711131 0.817014 0.770428
0.712612 0.81706 0.770413
0.714931 0.817105 0.770367
0.722026 0.817258 0.770214
0.741009 0.817548 0.769802
0.783444 0.817639 0.768612
0.85005 0.816312 0.766171
0.88603 0.815137 0.764645
0.88603 0.815137 0.764645
0.127077 0.122713 0.74612
0.127077 0.122713 0.74612
0.127077 0.122713 0.74612
0.127077 0.122713 0.74612
0.127077 0.122713 0.74612
0.585016 0.0983597 0.769863
0.887617 0.097612 0.755276
0.887144 0.0992905 0.75494
0.887144 0.0992905 0.75494
0.127077 0.122713 0.74612
0.127077 0.122713 0.74612
0.127077 0.122713 0.74612
0.127077 0.122713 0.74612
0.127077 0.122713 0.74612
0.588052 0.097673 0.770047
0.887617 0.097612 0.755276
0.887144 0.0992905 0.75494
0.887144 0.0992905 0.75494
0.127077 0.122713 0.74612
0.127077 0.122713 0.74612
0.127077 0.122713 0.74612
0.127077 0.122713 0.74612
0.127077 0.122713 0.74612
0.592996 0.096437 0.770367
0.887572 0.0977798 0.755245
0.887144 0.0992905 0.75494
0.887144 0.0992905 0.75494
0.127077 0.122713 0.74612
0.127077 0.122713 0.74612
0.127077 0.122713 0.74612
0.127077 0.122713 0.74612
0.127077 0.122713 0.74612
0.606668 0.0945602 0.770642
0.887572 0.0977798 0.755245
0.887144 0.0992905 0.75494
0.887144 0.0992905 0.75494
0.127077 0.122713 0.74612
0.127077 0.122713 0.74612
0.127077 0.122713 0.74612
0.127077 0.122713 0.74612
0.127077 0.122713 0.74612
0.643427 0.0920119 0.770306
0.88748 0.0981155 0.755184
0.887144 0.0992905 0.75494
0.887144 0.0992905 0.75494
0.127077 0.122713 0.74612
0.127077 0.122713 0.74612
0.127077 0.122713 0.74612
0.127077 0.122713 0.74612
0.127077 0.122713 0.74612
0.717189 0.0870832 0.768368
0.88719 0.0991226 0.754971
0.887144 0.0992905 0.75494
0.887144 0.0992905 0.75494
0.0691234 0.639857 0.767941
0.0691234 0.639857 0.767941
0.0691386 0.639735 0.767941
0.0693065 0.637995 0.768048
0.0697337 0.632441 0.768353
0.361471 0.702785 0.777859
0.869642 0.70341 0.775082
0.900053 0.667536 0.775631
0.898726 0.458045 0.773541
0.0645609 0.709667 0.761868
0.0645609 0.709667 0.761868
0.0645609 0.709667 0.761868
0.0645609 0.709667 0.761868
0.0645609 0.709667 0.761868
0.455497 0.79826 0.769726
0.821912 0.816999 0.767269
0.88603 0.815137 0.764645
0.88603 0.815137 0.764645
0.605966 0.811994 0.771389
0.608804 0.812177 0.771389
0.613336 0.812482 0.771374
0.627054 0.813352 0.771344
0.662242 0.815335 0.77116
0.734432 0.817456 0.769955
0.829801 0.816831 0.766979
0.88603 0.815137 0.764645
0.88603 0.815137 0.764645
