LUTS/Secondary LUTS/ROMA.cube
TITLE "Generated by Resolve"
LUT_3D_SIZE 33
0 0 0
0 0 0
0.00367742 0.00367742 0.00367742
0.00392157 0.00392157 0.00392157
0.00343328 0.00343328 0.00343328
0.00392157 0.00392157 0.00392157
0.00392157 0.00392157 0.00392157
0.00784314 0.00784314 0.00784314
0.00784314 0.00784314 0.00784314
0.0117647 0.0117647 0.0117647
0.0117647 0.0117647 0.0117647
0.0156863 0.0156863 0.0156863
0.0196078 0.0196078 0.0196078
0.0235294 0.0235294 0.0235294
0.025742 0.025742 0.025742
0.0313725 0.0313725 0.0313725
0.0372625 0.0372625 0.0372625
0.0449683 0.0449683 0.0449683
0.0526894 0.0526894 0.0526894
0.0604105 0.0604105 0.0604105
0.0720531 0.0720531 0.0720531
0.0772106 0.0772106 0.0772106
0.0914168 0.0914168 0.0914168
0.0991379 0.0991379 0.0991379
0.106859 0.106859 0.106859
0.119356 0.119356 0.119356
0.130877 0.130877 0.130877
0.146319 0.146319 0.146319
0.157839 0.157839 0.157839
0.173648 0.173648 0.173648
0.192401 0.192401 0.192401
0.204288 0.204288 0.204288
0.223529 0.223529 0.223529
0 0 0
0.00367742 0.00367742 0.00367742
0.00747692 0.00747692 0.00747692
0.00772107 0.00772107 0.00772107
0.00772107 0.00772107 0.00772107
0.0110475 0.0110475 0.0110475
0.00856031 0.00856031 0.00856031
0.0117342 0.0117342 0.0117342
0.0117342 0.0117342 0.0117342
0.0144961 0.0144961 0.0144961
0.0155642 0.0155642 0.0155642
0.018265 0.018265 0.018265
0.0219883 0.0219883 0.0219883
0.025742 0.025742 0.025742
0.0316777 0.0316777 0.0316777
0.0373083 0.0373083 0.0373083
0.0429541 0.0429541 0.0429541
0.0526894 0.0526894 0.0526894
0.0625467 0.0625467 0.0625467
0.0681315 0.0681315 0.0681315
0.0758526 0.0758526 0.0758526
0.0812085 0.0812085 0.0812085
0.0964523 0.0964523 0.0964523
0.106828 0.106828 0.106828
0.114611 0.114611 0.114611
0.124117 0.124117 0.124117
0.138705 0.138705 0.138705
0.15024 0.15024 0.15024
0.165667 0.165667 0.165667
0.180652 0.180652 0.180652
0.196445 0.196445 0.196445
0.208209 0.208209 0.208209
0.227329 0.227329 0.227329
0.00367742 0.00367742 0.00367742
0.00747692 0.00747692 0.00747692
0.0112764 0.0112764 0.0112764
0.0115206 0.0115206 0.0115206
0.0149844 0.0149844 0.0149844
0.0148623 0.0148623 0.0148623
0.0156863 0.0156863 0.0156863
0.0190585 0.0190585 0.0190585
0.0183871 0.0183871 0.0183871
0.0196078 0.0196078 0.0196078
0.0195315 0.0195315 0.0195315
0.0259403 0.0259403 0.0259403
0.0272068 0.0272068 0.0272068
0.0333562 0.0333562 0.0333562
0.0388647 0.0388647 0.0388647
0.0449683 0.0449683 0.0449683
0.0507362 0.0507362 0.0507362
0.0604105 0.0604105 0.0604105
0.0681315 0.0681315 0.0681315
0.0736706 0.0736706 0.0736706
0.0849622 0.0849622 0.0849622
0.0927291 0.0927291 0.0927291
0.103746 0.103746 0.103746
0.114519 0.114519 0.114519
0.122362 0.122362 0.122362
0.134005 0.134005 0.134005
0.145586 0.145586 0.145586
0.157839 0.157839 0.157839
0.169604 0.169604 0.169604
0.185367 0.185367 0.185367
0.200244 0.200244 0.200244
0.215808 0.215808 0.215808
0.231373 0.231373 0.231373
0.00747692 0.00747692 0.00747692
0.00737011 0.00737011 0.00737011
0.00784314 0.00784314 0.00784314
0.0153201 0.0153201 0.0153201
0.0196078 0.0196078 0.0196078
0.026215 0.026215 0.026215
0.027451 0.027451 0.027451
0.0267185 0.0267185 0.0267185
0.0269932 0.0269932 0.0269932
0.0299992 0.0299992 0.0299992
0.0311437 0.0311437 0.0311437
0.0372625 0.0372625 0.0372625
0.0387121 0.0387121 0.0387121
0.0429847 0.0429847 0.0429847
0.050248 0.050248 0.050248
0.0564279 0.0564279 0.0564279
0.0621958 0.0621958 0.0621958
0.06981 0.06981 0.06981
0.079408 0.079408 0.079408
0.0850233 0.0850233 0.0850233
0.0935225 0.0935225 0.0935225
0.102937 0.102937 0.102937
0.116777 0.116777 0.116777
0.121309 0.121309 0.121309
0.131273 0.131273 0.131273
0.14522 0.14522 0.14522
0.153979 0.153979 0.153979
0.165316 0.165316 0.165316
0.180957 0.180957 0.180957
0.196414 0.196414 0.196414
0.211521 0.211521 0.211521
0.223514 0.223514 0.223514
0.238849 0.238849 0.238849
0.0112764 0.0112764 0.0112764
0.0117494 0.0117494 0.0117494
0.0115206 0.0115206 0.0115206
0.0192416 0.0192416 0.0192416
0.0264744 0.0264744 0.0264744
0.037583 0.037583 0.037583
0.0453498 0.0453498 0.0453498
0.045594 0.045594 0.045594
0.0433814 0.0433814 0.0433814
0.0460822 0.0460822 0.0460822
0.0518654 0.0518654 0.0518654
0.0537575 0.0537575 0.0537575
0.0582132 0.0582132 0.0582132
0.0629587 0.0629587 0.0629587
0.0656901 0.0656901 0.0656901
0.0698711 0.0698711 0.0698711
0.0772106 0.0772106 0.0772106
0.0855268 0.0855268 0.0855268
0.0912032 0.0912032 0.0912032
0.0989395 0.0989395 0.0989395
0.106371 0.106371 0.106371
0.11577 0.11577 0.11577
0.126802 0.126802 0.126802
0.13724 0.13724 0.13724
0.141787 0.141787 0.141787
0.154055 0.154055 0.154055
0.169024 0.169024 0.169024
0.180636 0.180636 0.180636
0.192523 0.192523 0.192523
0.207919 0.207919 0.207919
0.222827 0.222827 0.222827
0.235157 0.235157 0.235157
0.253925 0.253925 0.253925
0.0156863 0.0156863 0.0156863
0.0182956 0.0182956 0.0182956
0.0187839 0.0187839 0.0187839
0.0231632 0.0231632 0.0231632
0.0298619 0.0298619 0.0298619
0.0418097 0.0418097 0.0418097
0.0535592 0.0535592 0.0535592
0.0644541 0.0644541 0.0644541
0.0695811 0.0695811 0.0695811
0.0693675 0.0693675 0.0693675
0.0720531 0.0720531 0.0720531
0.0726787 0.0726787 0.0726787
0.0790417 0.0790417 0.0790417
0.0808728 0.0808728 0.0808728
0.0844434 0.0844434 0.0844434
0.0886854 0.0886854 0.0886854
0.0945449 0.0945449 0.0945449
0.104326 0.104326 0.104326
0.109407 0.109407 0.109407
0.117403 0.117403 0.117403
0.123049 0.123049 0.123049
0.133455 0.133455 0.133455
0.14345 0.14345 0.14345
0.152651 0.152651 0.152651
0.160235 0.160235 0.160235
0.169589 0.169589 0.169589
0.180529 0.180529 0.180529
0.192676 0.192676 0.192676
0.207187 0.207187 0.207187
0.21973 0.21973 0.21973
0.234562 0.234562 0.234562
0.250614 0.250614 0.250614
0.266056 0.266056 0.266056
0.0196078 0.0196078 0.0196078
0.0234073 0.0234073 0.0234073
0.0234836 0.0234836 0.0234836
0.0273747 0.0273747 0.0273747
0.034165 0.034165 0.034165
0.0452125 0.0452125 0.0452125
0.0605325 0.0605325 0.0605325
0.0752422 0.0752422 0.0752422
0.0869459 0.0869459 0.0869459
0.0986496 0.0986496 0.0986496
0.0990158 0.0990158 0.0990158
0.102937 0.102937 0.102937
0.106126 0.106126 0.106126
0.107591 0.107591 0.107591
0.11194 0.11194 0.11194
0.117128 0.117128 0.117128
0.123278 0.123278 0.123278
0.127947 0.127947 0.127947
0.134234 0.134234 0.134234
0.140566 0.140566 0.140566
0.148287 0.148287 0.148287
0.156008 0.156008 0.156008
0.165911 0.165911 0.165911
0.175372 0.175372 0.175372
0.183276 0.183276 0.183276
0.190967 0.190967 0.190967
0.203052 0.203052 0.203052
0.217395 0.217395 0.217395
0.226963 0.226963 0.226963
0.242329 0.242329 0.242329
0.253925 0.253925 0.253925
0.272679 0.272679 0.272679
0.288731 0.288731 0.288731
0.030518 0.030518 0.030518
0.030518 0.030518 0.030518
0.0315099 0.0315099 0.0315099
0.0375067 0.0375067 0.0375067
0.0421759 0.0421759 0.0421759
0.0522316 0.0522316 0.0522316
0.0644999 0.0644999 0.0644999
0.0797742 0.0797742 0.0797742
0.0968795 0.0968795 0.0968795
0.108461 0.108461 0.108461
0.124392 0.124392 0.124392
0.1299 0.1299 0.1299
0.132891 0.132891 0.132891
0.134676 0.134676 0.134676
0.140703 0.140703 0.140703
0.144152 0.144152 0.144152
0.149935 0.149935 0.149935
0.154696 0.154696 0.154696
0.15993 0.15993 0.15993
0.166796 0.166796 0.166796
0.173678 0.173678 0.173678
0.180224 0.180224 0.180224
0.188998 0.188998 0.188998
0.197665 0.197665 0.197665
0.204837 0.204837 0.204837
0.211582 0.211582 0.211582
0.22562 0.22562 0.22562
0.237263 0.237263 0.237263
0.249119 0.249119 0.249119
0.261967 0.261967 0.261967
0.276402 0.276402 0.276402
0.289677 0.289677 0.289677
0.308095 0.308095 0.308095
0.0421607 0.0421607 0.0421607
0.0420386 0.0420386 0.0420386
0.0423438 0.0423438 0.0423438
0.0484627 0.0484627 0.0484627
0.0563668 0.0563668 0.0563668
0.0611582 0.0611582 0.0611582
0.0720531 0.0720531 0.0720531
0.0874952 0.0874952 0.0874952
0.102937 0.102937 0.102937
0.117678 0.117678 0.117678
0.132845 0.132845 0.132845
0.150546 0.150546 0.150546
0.162997 0.162997 0.162997
0.167041 0.167041 0.167041
0.169543 0.169543 0.169543
0.174105 0.174105 0.174105
0.176959 0.176959 0.176959
0.184588 0.184588 0.184588
0.189944 0.189944 0.189944
0.195102 0.195102 0.195102
0.201465 0.201465 0.201465
0.208179 0.208179 0.208179
0.213977 0.213977 0.213977
0.222248 0.222248 0.222248
0.229419 0.229419 0.229419
0.24007 0.24007 0.24007
0.249332 0.249332 0.249332
0.261036 0.261036 0.261036
0.275975 0.275975 0.275975
0.287984 0.287984 0.287984
0.299504 0.299504 0.299504
0.314977 0.314977 0.314977
0.331365 0.331365 0.331365
0.0526894 0.0526894 0.0526894
0.0554208 0.0554208 0.0554208
0.0539712 0.0539712 0.0539712
0.0602731 0.0602731 0.0602731
0.0644541 0.0644541 0.0644541
0.07187 0.07187 0.07187
0.0819104 0.0819104 0.0819104
0.093019 0.093019 0.093019
0.11516 0.11516 0.11516
0.126894 0.126894 0.126894
0.144366 0.144366 0.144366
0.160906 0.160906 0.160906
0.179858 0.179858 0.179858
0.19382 0.19382 0.19382
0.201709 0.201709 0.201709
0.204929 0.204929 0.204929
0.207355 0.207355 0.207355
0.215198 0.215198 0.215198
0.220356 0.220356 0.220356
0.224628 0.224628 0.224628
0.23299 0.23299 0.23299
0.238972 0.238972 0.238972
0.241596 0.241596 0.241596
0.250797 0.250797 0.250797
0.257206 0.257206 0.257206
0.267033 0.267033 0.267033
0.276387 0.276387 0.276387
0.290761 0.290761 0.290761
0.302098 0.302098 0.302098
0.315068 0.315068 0.315068
0.326528 0.326528 0.326528
0.344854 0.344854 0.344854
0.360296 0.360296 0.360296
0.0669108 0.0669108 0.0669108
0.0691997 0.0691997 0.0691997
0.0682078 0.0682078 0.0682078
0.0729229 0.0729229 0.0729229
0.0797436 0.0797436 0.0797436
0.087129 0.087129 0.087129
0.0958419 0.0958419 0.0958419
0.103792 0.103792 0.103792
0.119295 0.119295 0.119295
0.137743 0.137743 0.137743
0.155886 0.155886 0.155886
0.173098 0.173098 0.173098
0.190692 0.190692 0.190692
0.208453 0.208453 0.208453
0.228183 0.228183 0.228183
0.237659 0.237659 0.237659
0.24155 0.24155 0.24155
0.247349 0.247349 0.247349
0.251713 0.251713 0.251713
0.256245 0.256245 0.256245
0.26424 0.26424 0.26424
0.267964 0.267964 0.267964
0.274372 0.274372 0.274372
0.283238 0.283238 0.283238
0.290196 0.290196 0.290196
0.296956 0.296956 0.296956
0.306859 0.306859 0.306859
0.319982 0.319982 0.319982
0.331777 0.331777 0.331777
0.344854 0.344854 0.344854
0.357519 0.357519 0.357519
0.374548 0.374548 0.374548
0.387259 0.387259 0.387259
0.0796521 0.0796521 0.0796521
0.0834974 0.0834974 0.0834974
0.0837415 0.0837415 0.0837415
0.0874952 0.0874952 0.0874952
0.0936751 0.0936751 0.0936751
0.0986496 0.0986496 0.0986496
0.10956 0.10956 0.10956
0.117723 0.117723 0.117723
0.127733 0.127733 0.127733
0.148287 0.148287 0.148287
0.166598 0.166598 0.166598
0.182849 0.182849 0.182849
0.202548 0.202548 0.202548
0.221576 0.221576 0.221576
0.240925 0.240925 0.240925
0.259083 0.259083 0.259083
0.274998 0.274998 0.274998
0.280888 0.280888 0.280888
0.286519 0.286519 0.286519
0.291295 0.291295 0.291295
0.29572 0.29572 0.29572
0.298726 0.298726 0.298726
0.30959 0.30959 0.30959
0.314702 0.314702 0.314702
0.324666 0.324666 0.324666
0.33138 0.33138 0.33138
0.342535 0.342535 0.342535
0.352483 0.352483 0.352483
0.362539 0.362539 0.362539
0.375738 0.375738 0.375738
0.389822 0.389822 0.389822
0.402823 0.402823 0.402823
0.424628 0.424628 0.424628
0.0965744 0.0965744 0.0965744
0.0990158 0.0990158 0.0990158
0.10071 0.10071 0.10071
0.102937 0.102937 0.102937
0.108705 0.108705 0.108705
0.114092 0.114092 0.114092
0.123003 0.123003 0.123003
0.133455 0.133455 0.133455
0.144121 0.144121 0.144121
0.156741 0.156741 0.156741
0.17525 0.17525 0.17525
0.195834 0.195834 0.195834
0.211276 0.211276 0.211276
0.23209 0.23209 0.23209
0.253529 0.253529 0.253529
0.271809 0.271809 0.271809
0.294362 0.294362 0.294362
0.314748 0.314748 0.314748
0.321324 0.321324 0.321324
0.324529 0.324529 0.324529
0.331365 0.331365 0.331365
0.335286 0.335286 0.335286
0.340749 0.340749 0.340749
0.350607 0.350607 0.350607
0.359442 0.359442 0.359442
0.366049 0.366049 0.366049
0.375708 0.375708 0.375708
0.387274 0.387274 0.387274
0.400671 0.400671 0.400671
0.410407 0.410407 0.410407
0.424506 0.424506 0.424506
0.441428 0.441428 0.441428
0.45539 0.45539 0.45539
0.114458 0.114458 0.114458
0.116716 0.116716 0.116716
0.118288 0.118288 0.118288
0.122148 0.122148 0.122148
0.128069 0.128069 0.128069
0.134554 0.134554 0.134554
0.140871 0.140871 0.140871
0.146731 0.146731 0.146731
0.158358 0.158358 0.158358
0.168261 0.168261 0.168261
0.184787 0.184787 0.184787
0.204349 0.204349 0.204349
0.225238 0.225238 0.225238
0.244602 0.244602 0.244602
0.264256 0.264256 0.264256
0.28452 0.28452 0.28452
0.306615 0.306615 0.306615
0.326726 0.326726 0.326726
0.350286 0.350286 0.350286
0.360662 0.360662 0.360662
0.365179 0.365179 0.365179
0.371374 0.371374 0.371374
0.379538 0.379538 0.379538
0.385779 0.385779 0.385779
0.395163 0.395163 0.395163
0.404654 0.404654 0.404654
0.412818 0.412818 0.412818
0.424262 0.424262 0.424262
0.43566 0.43566 0.43566
0.447669 0.447669 0.447669
0.45919 0.45919 0.45919
0.477012 0.477012 0.477012
0.491661 0.491661 0.491661
0.1299 0.1299 0.1299
0.1337 0.1337 0.1337
0.136034 0.136034 0.136034
0.1393 0.1393 0.1393
0.143389 0.143389 0.143389
0.149248 0.149248 0.149248
0.156619 0.156619 0.156619
0.16434 0.16434 0.16434
0.175555 0.175555 0.175555
0.185901 0.185901 0.185901
0.198032 0.198032 0.198032
0.212406 0.212406 0.212406
0.236728 0.236728 0.236728
0.257847 0.257847 0.257847
0.277211 0.277211 0.277211
0.297841 0.297841 0.297841
0.320104 0.320104 0.320104
0.341283 0.341283 0.341283
0.36347 0.36347 0.36347
0.383658 0.383658 0.383658
0.401801 0.401801 0.401801
0.407691 0.407691 0.407691
0.417487 0.417487 0.417487
0.421698 0.421698 0.421698
0.429847 0.429847 0.429847
0.439338 0.439338 0.439338
0.451392 0.451392 0.451392
0.462974 0.462974 0.462974
0.472541 0.472541 0.472541
0.486107 0.486107 0.486107
0.497795 0.497795 0.497795
0.515419 0.515419 0.515419
0.530388 0.530388 0.530388
0.149264 0.149264 0.149264
0.153124 0.153124 0.153124
0.153079 0.153079 0.153079
0.156939 0.156939 0.156939
0.161013 0.161013 0.161013
0.166415 0.166415 0.166415
0.177325 0.177325 0.177325
0.180636 0.180636 0.180636
0.190967 0.190967 0.190967
0.201221 0.201221 0.201221
0.213474 0.213474 0.213474
0.224994 0.224994 0.224994
0.243885 0.243885 0.243885
0.269871 0.269871 0.269871
0.290929 0.290929 0.290929
0.309194 0.309194 0.309194
0.333577 0.333577 0.333577
0.355886 0.355886 0.355886
0.377935 0.377935 0.377935
0.398413 0.398413 0.398413
0.421118 0.421118 0.421118
0.441032 0.441032 0.441032
0.453346 0.453346 0.453346
0.459159 0.459159 0.459159
0.466758 0.466758 0.466758
0.477943 0.477943 0.477943
0.48809 0.48809 0.48809
0.50277 0.50277 0.50277
0.512871 0.512871 0.512871
0.52488 0.52488 0.52488
0.536278 0.536278 0.536278
0.550118 0.550118 0.550118
0.569116 0.569116 0.569116
0.170596 0.170596 0.170596
0.170657 0.170657 0.170657
0.172549 0.172549 0.172549
0.178241 0.178241 0.178241
0.183581 0.183581 0.183581
0.185962 0.185962 0.185962
0.195346 0.195346 0.195346
0.201099 0.201099 0.201099
0.20882 0.20882 0.20882
0.218509 0.218509 0.218509
0.233463 0.233463 0.233463
0.243076 0.243076 0.243076
0.257847 0.257847 0.257847
0.276783 0.276783 0.276783
0.302937 0.302937 0.302937
0.324941 0.324941 0.324941
0.344121 0.344121 0.344121
0.369299 0.369299 0.369299
0.391424 0.391424 0.391424
0.411826 0.411826 0.411826
0.434562 0.434562 0.434562
0.458274 0.458274 0.458274
0.484062 0.484062 0.484062
0.501106 0.501106 0.501106
0.509316 0.509316 0.509316
0.518502 0.518502 0.518502
0.528557 0.528557 0.528557
0.542092 0.542092 0.542092
0.553674 0.553674 0.553674
0.565438 0.565438 0.565438
0.576959 0.576959 0.576959
0.592401 0.592401 0.592401
0.607843 0.607843 0.607843
0.193744 0.193744 0.193744
0.191913 0.191913 0.191913
0.195697 0.195697 0.195697
0.199557 0.199557 0.199557
0.201358 0.201358 0.201358
0.206989 0.206989 0.206989
0.213397 0.213397 0.213397
0.219165 0.219165 0.219165
0.228061 0.228061 0.228061
0.237278 0.237278 0.237278
0.248859 0.248859 0.248859
0.260517 0.260517 0.260517
0.275242 0.275242 0.275242
0.289799 0.289799 0.289799
0.310903 0.310903 0.310903
0.338476 0.338476 0.338476
0.359503 0.359503 0.359503
0.381735 0.381735 0.381735
0.406073 0.406073 0.406073
0.428061 0.428061 0.428061
0.450446 0.450446 0.450446
0.473182 0.473182 0.473182
0.496864 0.496864 0.496864
0.521813 0.521813 0.521813
0.546746 0.546746 0.546746
0.559075 0.559075 0.559075
0.570718 0.570718 0.570718
0.57937 0.57937 0.57937
0.594263 0.594263 0.594263
0.606012 0.606012 0.606012
0.619471 0.619471 0.619471
0.632959 0.632959 0.632959
0.646326 0.646326 0.646326
0.212985 0.212985 0.212985
0.215122 0.215122 0.215122
0.215061 0.215061 0.215061
0.219272 0.219272 0.219272
0.220829 0.220829 0.220829
0.226352 0.226352 0.226352
0.232273 0.232273 0.232273
0.24007 0.24007 0.24007
0.247852 0.247852 0.247852
0.25626 0.25626 0.25626
0.269368 0.269368 0.269368
0.279164 0.279164 0.279164
0.292165 0.292165 0.292165
0.304814 0.304814 0.304814
0.321569 0.321569 0.321569
0.34847 0.34847 0.34847
0.376837 0.376837 0.376837
0.398901 0.398901 0.398901
0.42034 0.42034 0.42034
0.443503 0.443503 0.443503
0.46421 0.46421 0.46421
0.486503 0.486503 0.486503
0.511315 0.511315 0.511315
0.53492 0.53492 0.53492
0.56379 0.56379 0.56379
0.587732 0.587732 0.587732
0.60621 0.60621 0.60621
0.619501 0.619501 0.619501
0.630884 0.630884 0.630884
0.64268 0.64268 0.64268
0.656016 0.656016 0.656016
0.669306 0.669306 0.669306
0.685298 0.685298 0.685298
0.233829 0.233829 0.233829
0.234607 0.234607 0.234607
0.238331 0.238331 0.238331
0.24007 0.24007 0.24007
0.243793 0.243793 0.243793
0.249638 0.249638 0.249638
0.255024 0.255024 0.255024
0.262745 0.262745 0.262745
0.272206 0.272206 0.272206
0.278187 0.278187 0.278187
0.290196 0.290196 0.290196
0.29987 0.29987 0.29987
0.31252 0.31252 0.31252
0.325185 0.325185 0.325185
0.340932 0.340932 0.340932
0.356512 0.356512 0.356512
0.386709 0.386709 0.386709
0.413367 0.413367 0.413367
0.437995 0.437995 0.437995
0.458 0.458 0.458
0.480232 0.480232 0.480232
0.50576 0.50576 0.50576
0.527428 0.527428 0.527428
0.552254 0.552254 0.552254
0.577478 0.577478 0.577478
0.601831 0.601831 0.601831
0.628916 0.628916 0.628916
0.652705 0.652705 0.652705
0.665888 0.665888 0.665888
0.677485 0.677485 0.677485
0.690715 0.690715 0.690715
0.702281 0.702281 0.702281
0.716182 0.716182 0.716182
0.25539 0.25539 0.25539
0.259312 0.259312 0.259312
0.259312 0.259312 0.259312
0.263233 0.263233 0.263233
0.270283 0.270283 0.270283
0.272312 0.272312 0.272312
0.278462 0.278462 0.278462
0.285695 0.285695 0.285695
0.293263 0.293263 0.293263
0.299184 0.299184 0.299184
0.312535 0.312535 0.312535
0.320714 0.320714 0.320714
0.332357 0.332357 0.332357
0.348775 0.348775 0.348775
0.361578 0.361578 0.361578
0.375738 0.375738 0.375738
0.397787 0.397787 0.397787
0.429114 0.429114 0.429114
0.45597 0.45597 0.45597
0.477317 0.477317 0.477317
0.499077 0.499077 0.499077
0.521675 0.521675 0.521675
0.543099 0.543099 0.543099
0.568429 0.568429 0.568429
0.592401 0.592401 0.592401
0.615366 0.615366 0.615366
0.644358 0.644358 0.644358
0.671443 0.671443 0.671443
0.693629 0.693629 0.693629
0.709911 0.709911 0.709911
0.723873 0.723873 0.723873
0.735546 0.735546 0.735546
0.750973 0.750973 0.750973
0.282475 0.282475 0.282475
0.282521 0.282521 0.282521
0.286152 0.286152 0.286152
0.290074 0.290074 0.290074
0.295094 0.295094 0.295094
0.294972 0.294972 0.294972
0.301122 0.301122 0.301122
0.308507 0.308507 0.308507
0.316121 0.316121 0.316121
0.325978 0.325978 0.325978
0.333577 0.333577 0.333577
0.341299 0.341299 0.341299
0.356161 0.356161 0.356161
0.370535 0.370535 0.370535
0.382727 0.382727 0.382727
0.399161 0.399161 0.399161
0.415808 0.415808 0.415808
0.438712 0.438712 0.438712
0.472297 0.472297 0.472297
0.499016 0.499016 0.499016
0.518257 0.518257 0.518257
0.542184 0.542184 0.542184
0.562814 0.562814 0.562814
0.586984 0.586984 0.586984
0.606622 0.606622 0.606622
0.629099 0.629099 0.629099
0.655879 0.655879 0.655879
0.683574 0.683574 0.683574
0.708873 0.708873 0.708873
0.734447 0.734447 0.734447
0.752239 0.752239 0.752239
0.766384 0.766384 0.766384
0.777935 0.777935 0.777935
0.308095 0.308095 0.308095
0.312123 0.312123 0.312123
0.309636 0.309636 0.309636
0.314702 0.314702 0.314702
0.31722 0.31722 0.31722
0.321935 0.321935 0.321935
0.326238 0.326238 0.326238
0.334051 0.334051 0.334051
0.343572 0.343572 0.343572
0.348424 0.348424 0.348424
0.356619 0.356619 0.356619
0.369604 0.369604 0.369604
0.381582 0.381582 0.381582
0.392645 0.392645 0.392645
0.407111 0.407111 0.407111
0.422263 0.422263 0.422263
0.439582 0.439582 0.439582
0.457679 0.457679 0.457679
0.483131 0.483131 0.483131
0.516442 0.516442 0.516442
0.539956 0.539956 0.539956
0.560235 0.560235 0.560235
0.584909 0.584909 0.584909
0.603937 0.603937 0.603937
0.622675 0.622675 0.622675
0.647211 0.647211 0.647211
0.670817 0.670817 0.670817
0.699672 0.699672 0.699672
0.724086 0.724086 0.724086
0.748653 0.748653 0.748653
0.771817 0.771817 0.771817
0.792157 0.792157 0.792157
0.807599 0.807599 0.807599
0.33492 0.33492 0.33492
0.337743 0.337743 0.337743
0.340383 0.340383 0.340383
0.344228 0.344228 0.344228
0.345586 0.345586 0.345586
0.348898 0.348898 0.348898
0.35433 0.35433 0.35433
0.360418 0.360418 0.360418
0.370962 0.370962 0.370962
0.376654 0.376654 0.376654
0.386618 0.386618 0.386618
0.396689 0.396689 0.396689
0.408621 0.408621 0.408621
0.420172 0.420172 0.420172
0.434073 0.434073 0.434073
0.449287 0.449287 0.449287
0.466056 0.466056 0.466056
0.482017 0.482017 0.482017
0.499275 0.499275 0.499275
0.528923 0.528923 0.528923
0.56173 0.56173 0.56173
0.584955 0.584955 0.584955
0.603403 0.603403 0.603403
0.623545 0.623545 0.623545
0.6421 0.6421 0.6421
0.663844 0.663844 0.663844
0.686229 0.686229 0.686229
0.713848 0.713848 0.713848
0.736797 0.736797 0.736797
0.759915 0.759915 0.759915
0.783505 0.783505 0.783505
0.809354 0.809354 0.809354
0.830762 0.830762 0.830762
0.364706 0.364706 0.364706
0.368505 0.368505 0.368505
0.368566 0.368566 0.368566
0.372183 0.372183 0.372183
0.376349 0.376349 0.376349
0.376471 0.376471 0.376471
0.383581 0.383581 0.383581
0.390661 0.390661 0.390661
0.398291 0.398291 0.398291
0.40647 0.40647 0.40647
0.415381 0.415381 0.415381
0.424445 0.424445 0.424445
0.436637 0.436637 0.436637
0.446632 0.446632 0.446632
0.460288 0.460288 0.460288
0.475853 0.475853 0.475853
0.494118 0.494118 0.494118
0.50956 0.50956 0.50956
0.525002 0.525002 0.525002
0.546166 0.546166 0.546166
0.57586 0.57586 0.57586
0.606989 0.606989 0.606989
0.628916 0.628916 0.628916
0.647578 0.647578 0.647578
0.665202 0.665202 0.665202
0.684504 0.684504 0.684504
0.702449 0.702449 0.702449
0.725673 0.725673 0.725673
0.748531 0.748531 0.748531
0.771695 0.771695 0.771695
0.795041 0.795041 0.795041
0.820859 0.820859 0.820859
0.841184 0.841184 0.841184
0.398657 0.398657 0.398657
0.39942 0.39942 0.39942
0.399374 0.399374 0.399374
0.403143 0.403143 0.403143
0.406973 0.406973 0.406973
0.408072 0.408072 0.408072
0.4159 0.4159 0.4159
0.422187 0.422187 0.422187
0.429908 0.429908 0.429908
0.436759 0.436759 0.436759
0.44448 0.44448 0.44448
0.456687 0.456687 0.456687
0.469169 0.469169 0.469169
0.47953 0.47953 0.47953
0.491905 0.491905 0.491905
0.506096 0.506096 0.506096
0.521935 0.521935 0.521935
0.536919 0.536919 0.536919
0.555886 0.555886 0.555886
0.57438 0.57438 0.57438
0.591073 0.591073 0.591073
0.623087 0.623087 0.623087
0.651499 0.651499 0.651499
0.670832 0.670832 0.670832
0.689311 0.689311 0.689311
0.703853 0.703853 0.703853
0.723125 0.723125 0.723125
0.742397 0.742397 0.742397
0.763867 0.763867 0.763867
0.787137 0.787137 0.787137
0.809247 0.809247 0.809247
0.829633 0.829633 0.829633
0.852689 0.852689 0.852689
0.427207 0.427207 0.427207
0.434211 0.434211 0.434211
0.434363 0.434363 0.434363
0.43505 0.43505 0.43505
0.438331 0.438331 0.438331
0.442771 0.442771 0.442771
0.450004 0.450004 0.450004
0.457725 0.457725 0.457725
0.462318 0.462318 0.462318
0.471534 0.471534 0.471534
0.48014 0.48014 0.48014
0.49044 0.49044 0.49044
0.500771 0.500771 0.500771
0.513481 0.513481 0.513481
0.523537 0.523537 0.523537
0.538949 0.538949 0.538949
0.555886 0.555886 0.555886
0.571328 0.571328 0.571328
0.587091 0.587091 0.587091
0.604105 0.604105 0.604105
