LUTS/Secondary LUTS/ROMA.cube
TITLE "Generated by Resolve"
LUT_3D_SIZE 9
0 0 0
0.00343328 0.00343328 0.00343328
0.00784314 0.00784314 0.00784314
0.0196078 0.0196078 0.0196078
0.0372625 0.0372625 0.0372625
0.0720531 0.0720531 0.0720531
0.106859 0.106859 0.106859
0.157839 0.157839 0.157839
0.223529 0.223529 0.223529
0.0112764 0.0112764 0.0112764
0.0264744 0.0264744 0.0264744
0.0433814 0.0433814 0.0433814
0.0582132 0.0582132 0.0582132
0.0772106 0.0772106 0.0772106
0.106371 0.106371 0.106371
0.141787 0.141787 0.141787
0.192523 0.192523 0.192523
0.253925 0.253925 0.253925
0.0421607 0.0421607 0.0421607
0.0563668 0.0563668 0.0563668
0.102937 0.102937 0.102937
0.162997 0.162997 0.162997
0.176959 0.176959 0.176959
0.201465 0.201465 0.201465
0.229419 0.229419 0.229419
0.275975 0.275975 0.275975
0.331365 0.331365 0.331365
0.0965744 0.0965744 0.0965744
0.108705 0.108705 0.108705
0.144121 0.144121 0.144121
0.211276 0.211276 0.211276
0.294362 0.294362 0.294362
0.331365 0.331365 0.331365
0.359442 0.359442 0.359442
0.400671 0.400671 0.400671
0.45539 0.45539 0.45539
0.170596 0.170596 0.170596
0.183581 0.183581 0.183581
0.20882 0.20882 0.20882
0.257847 0.257847 0.257847
0.344121 0.344121 0.344121
0.434562 0.434562 0.434562
0.509316 0.509316 0.509316
0.553674 0.553674 0.553674
0.607843 0.607843 0.607843
0.25539 0.25539 0.25539
0.270283 0.270283 0.270283
0.293263 0.293263 0.293263
0.332357 0.332357 0.332357
0.397787 0.397787 0.397787
0.499077 0.499077 0.499077
0.592401 0.592401 0.592401
0.693629 0.693629 0.693629
0.750973 0.750973 0.750973
0.364706 0.364706 0.364706
0.376349 0.376349 0.376349
0.398291 0.398291 0.398291
0.436637 0.436637 0.436637
0.494118 0.494118 0.494118
0.57586 0.57586 0.57586
0.665202 0.665202 0.665202
0.748531 0.748531 0.748531
0.841184 0.841184 0.841184
0.512261 0.512261 0.512261
0.520531 0.520531 0.520531
0.543511 0.543511 0.543511
0.579416 0.579416 0.579416
0.625742 0.625742 0.625742
0.685115 0.685115 0.685115
0.764706 0.764706 0.764706
0.829908 0.829908 0.829908
0.887251 0.887251 0.887251
0.694118 0.694118 0.694118
0.698528 0.698528 0.698528
0.717647 0.717647 0.717647
0.750484 0.750484 0.750484
0.786282 0.786282 0.786282
0.832837 0.832837 0.832837
0.875486 0.875486 0.875486
0.9299 0.9299 0.9299
0.956863 0.956863 0.956863
0.00784314 0.00784314 0.00784314
0.018204 0.018204 0.018204
0.0390936 0.0390936 0.0390936
0.0563668 0.0563668 0.0563668
0.0757305 0.0757305 0.0757305
0.112261 0.112261 0.112261
0.15172 0.15172 0.15172
0.2 0.2 0.2
0.253925 0.253925 0.253925
0.0412451 0.0412451 0.0412451
0.0525063 0.0525063 0.0525063
0.0643168 0.0643168 0.0643168
0.0836042 0.0836042 0.0836042
0.110079 0.110079 0.110079
0.141299 0.141299 0.141299
0.180926 0.180926 0.180926
0.230701 0.230701 0.230701
0.284321 0.284321 0.284321
0.0886091 0.0886091 0.0886091
0.0846876 0.0846876 0.0846876
0.128161 0.128161 0.128161
0.172732 0.172732 0.172732
0.193744 0.193744 0.193744
0.220951 0.220951 0.220951
0.25478 0.25478 0.25478
0.303304 0.303304 0.303304
0.357717 0.357717 0.357717
0.124331 0.124331 0.124331
0.136645 0.136645 0.136645
0.167605 0.167605 0.167605
0.233951 0.233951 0.233951
0.308736 0.308736 0.308736
0.336217 0.336217 0.336217
0.368612 0.368612 0.368612
0.418021 0.418021 0.418021
0.475792 0.475792 0.475792
0.193622 0.193622 0.193622
0.202976 0.202976 0.202976
0.230762 0.230762 0.230762
0.2766 0.2766 0.2766
0.361395 0.361395 0.361395
0.448341 0.448341 0.448341
0.515129 0.515129 0.515129
0.559564 0.559564 0.559564
0.623041 0.623041 0.623041
0.278248 0.278248 0.278248
0.287175 0.287175 0.287175
0.310872 0.310872 0.310872
0.350118 0.350118 0.350118
0.409995 0.409995 0.409995
0.508324 0.508324 0.508324
0.598978 0.598978 0.598978
0.699168 0.699168 0.699168
0.75491 0.75491 0.75491
0.379904 0.379904 0.379904
0.391516 0.391516 0.391516
0.413352 0.413352 0.413352
0.449332 0.449332 0.449332
0.503853 0.503853 0.503853
0.5841 0.5841 0.5841
0.671351 0.671351 0.671351
0.753201 0.753201 0.753201
0.842527 0.842527 0.842527
0.520104 0.520104 0.520104
0.530999 0.530999 0.530999
0.554116 0.554116 0.554116
0.588296 0.588296 0.588296
0.633555 0.633555 0.633555
0.690944 0.690944 0.690944
0.7682 0.7682 0.7682
0.830274 0.830274 0.830274
0.886763 0.886763 0.886763
0.698039 0.698039 0.698039
0.7084 0.7084 0.7084
0.723033 0.723033 0.723033
0.752453 0.752453 0.752453
0.790448 0.790448 0.790448
0.830701 0.830701 0.830701
0.875486 0.875486 0.875486
0.929839 0.929839 0.929839
0.956863 0.956863 0.956863
0.0235294 0.0235294 0.0235294
0.042649 0.042649 0.042649
0.0688792 0.0688792 0.0688792
0.123522 0.123522 0.123522
0.152941 0.152941 0.152941
0.175006 0.175006 0.175006
0.198047 0.198047 0.198047
0.234928 0.234928 0.234928
0.297063 0.297063 0.297063
0.0677653 0.0677653 0.0677653
0.079469 0.079469 0.079469
0.10631 0.10631 0.10631
0.156024 0.156024 0.156024
0.167651 0.167651 0.167651
0.186267 0.186267 0.186267
0.210758 0.210758 0.210758
0.261128 0.261128 0.261128
0.327459 0.327459 0.327459
0.141176 0.141176 0.141176
0.152453 0.152453 0.152453
0.172183 0.172183 0.172183
0.190539 0.190539 0.190539
0.213107 0.213107 0.213107
0.24152 0.24152 0.24152
0.276722 0.276722 0.276722
0.327321 0.327321 0.327321
0.390692 0.390692 0.390692
0.229404 0.229404 0.229404
0.229007 0.229007 0.229007
0.219028 0.219028 0.219028
0.271794 0.271794 0.271794
0.330999 0.330999 0.330999
0.35346 0.35346 0.35346
0.383886 0.383886 0.383886
0.42884 0.42884 0.42884
0.497795 0.497795 0.497795
0.278431 0.278431 0.278431
0.270161 0.270161 0.270161
0.277211 0.277211 0.277211
0.318074 0.318074 0.318074
0.39411 0.39411 0.39411
0.475792 0.475792 0.475792
0.523903 0.523903 0.523903
0.570901 0.570901 0.570901
0.632349 0.632349 0.632349
0.33051 0.33051 0.33051
0.327947 0.327947 0.327947
0.351659 0.351659 0.351659
0.388067 0.388067 0.388067
0.443381 0.443381 0.443381
0.534874 0.534874 0.534874
0.619852 0.619852 0.619852
0.703807 0.703807 0.703807
0.758816 0.758816 0.758816
0.416175 0.416175 0.416175
0.42475 0.42475 0.42475
0.446754 0.446754 0.446754
0.482383 0.482383 0.482383
0.53492 0.53492 0.53492
0.602029 0.602029 0.602029
0.688609 0.688609 0.688609
0.764858 0.764858 0.764858
0.850492 0.850492 0.850492
0.543633 0.543633 0.543633
0.554681 0.554681 0.554681
0.573037 0.573037 0.573037
0.605905 0.605905 0.605905
0.649454 0.649454 0.649454
0.70428 0.70428 0.70428
0.77583 0.77583 0.77583
0.837537 0.837537 0.837537
0.896696 0.896696 0.896696
0.705882 0.705882 0.705882
0.710658 0.710658 0.710658
0.731624 0.731624 0.731624
0.759808 0.759808 0.759808
0.79411 0.79411 0.79411
0.837873 0.837873 0.837873
0.881376 0.881376 0.881376
0.9299 0.9299 0.9299
0.956863 0.956863 0.956863
0.0637217 0.0637217 0.0637217
0.0751812 0.0751812 0.0751812
0.131121 0.131121 0.131121
0.156374 0.156374 0.156374
0.211765 0.211765 0.211765
0.288609 0.288609 0.288609
0.304906 0.304906 0.304906
0.334798 0.334798 0.334798
0.370596 0.370596 0.370596
0.107347 0.107347 0.107347
0.118669 0.118669 0.118669
0.163165 0.163165 0.163165
0.184131 0.184131 0.184131
0.238087 0.238087 0.238087
0.297368 0.297368 0.297368
0.316243 0.316243 0.316243
0.346685 0.346685 0.346685
0.378241 0.378241 0.378241
0.178805 0.178805 0.178805
0.188266 0.188266 0.188266
0.209812 0.209812 0.209812
0.244419 0.244419 0.244419
0.302083 0.302083 0.302083
0.320104 0.320104 0.320104
0.34136 0.34136 0.34136
0.362249 0.362249 0.362249
0.404898 0.404898 0.404898
0.275914 0.275914 0.275914
0.282841 0.282841 0.282841
0.302754 0.302754 0.302754
0.332616 0.332616 0.332616
0.350729 0.350729 0.350729
0.374853 0.374853 0.374853
0.406867 0.406867 0.406867
0.448844 0.448844 0.448844
0.508766 0.508766 0.508766
0.393622 0.393622 0.393622
0.392554 0.392554 0.392554
0.395529 0.395529 0.395529
0.383124 0.383124 0.383124
0.445472 0.445472 0.445472
0.510567 0.510567 0.510567
0.538415 0.538415 0.538415
0.579965 0.579965 0.579965
0.637263 0.637263 0.637263
0.465263 0.465263 0.465263
0.459251 0.459251 0.459251
0.442527 0.442527 0.442527
0.445457 0.445457 0.445457
0.495308 0.495308 0.495308
0.571893 0.571893 0.571893
0.650416 0.650416 0.650416
0.712184 0.712184 0.712184
0.762188 0.762188 0.762188
0.524392 0.524392 0.524392
0.519921 0.519921 0.519921
0.502388 0.502388 0.502388
0.527245 0.527245 0.527245
0.573098 0.573098 0.573098
0.631525 0.631525 0.631525
0.709163 0.709163 0.709163
0.783642 0.783642 0.783642
0.860792 0.860792 0.860792
0.601282 0.601282 0.601282
0.598978 0.598978 0.598978
0.603433 0.603433 0.603433
0.634241 0.634241 0.634241
0.675792 0.675792 0.675792
0.723842 0.723842 0.723842
0.783581 0.783581 0.783581
0.846998 0.846998 0.846998
0.900984 0.900984 0.900984
0.713726 0.713726 0.713726
0.721569 0.721569 0.721569
0.739834 0.739834 0.739834
0.766232 0.766232 0.766232
0.803189 0.803189 0.803189
0.841611 0.841611 0.841611
0.884321 0.884321 0.884321
0.930205 0.930205 0.930205
0.958328 0.958328 0.958328
0.121569 0.121569 0.121569
0.133089 0.133089 0.133089
0.181857 0.181857 0.181857
0.236515 0.236515 0.236515
0.260792 0.260792 0.260792
0.312993 0.312993 0.312993
0.425986 0.425986 0.425986
0.477211 0.477211 0.477211
0.517647 0.517647 0.517647
0.163485 0.163485 0.163485
0.171786 0.171786 0.171786
0.203189 0.203189 0.203189
0.26244 0.26244 0.26244
0.282841 0.282841 0.282841
0.335286 0.335286 0.335286
0.445594 0.445594 0.445594
0.486488 0.486488 0.486488
0.523278 0.523278 0.523278
0.231373 0.231373 0.231373
0.242222 0.242222 0.242222
0.259434 0.259434 0.259434
0.316793 0.316793 0.316793
0.337011 0.337011 0.337011
0.388724 0.388724 0.388724
0.473777 0.473777 0.473777
0.500496 0.500496 0.500496
0.534798 0.534798 0.534798
0.320348 0.320348 0.320348
0.327459 0.327459 0.327459
0.346258 0.346258 0.346258
0.374548 0.374548 0.374548
0.412253 0.412253 0.412253
0.470405 0.470405 0.470405
0.499687 0.499687 0.499687
0.519631 0.519631 0.519631
0.541176 0.541176 0.541176
0.433341 0.433341 0.433341
0.438239 0.438239 0.438239
0.453925 0.453925 0.453925
0.47512 0.47512 0.47512
0.505394 0.505394 0.505394
0.526833 0.526833 0.526833
0.55172 0.55172 0.55172
0.587015 0.587015 0.587015
0.633326 0.633326 0.633326
0.568383 0.568383 0.568383
0.569268 0.569268 0.569268
0.573281 0.573281 0.573281
0.57258 0.57258 0.57258
0.558206 0.558206 0.558206
0.618875 0.618875 0.618875
0.684062 0.684062 0.684062
0.716915 0.716915 0.716915
0.762753 0.762753 0.762753
0.65539 0.65539 0.65539
0.65539 0.65539 0.65539
0.646204 0.646204 0.646204
0.621759 0.621759 0.621759
0.621073 0.621073 0.621073
0.671321 0.671321 0.671321
0.737621 0.737621 0.737621
0.808331 0.808331 0.808331
0.86569 0.86569 0.86569
0.718868 0.718868 0.718868
0.715007 0.715007 0.715007
0.703868 0.703868 0.703868
0.683085 0.683085 0.683085
0.70367 0.70367 0.70367
0.750546 0.750546 0.750546
0.799451 0.799451 0.799451
0.862287 0.862287 0.862287
0.912261 0.912261 0.912261
0.8 0.8 0.8
0.796323 0.796323 0.796323
0.788724 0.788724 0.788724
0.777691 0.777691 0.777691
0.811765 0.811765 0.811765
0.853193 0.853193 0.853193
0.893629 0.893629 0.893629
0.933822 0.933822 0.933822
0.960784 0.960784 0.960784
0.196567 0.196567 0.196567
0.206561 0.206561 0.206561
0.236881 0.236881 0.236881
0.318624 0.318624 0.318624
0.355398 0.355398 0.355398
0.383825 0.383825 0.383825
0.432349 0.432349 0.432349
0.559625 0.559625 0.559625
0.666178 0.666178 0.666178
0.233341 0.233341 0.233341
0.23917 0.23917 0.23917
0.263111 0.263111 0.263111
0.331868 0.331868 0.331868
0.376135 0.376135 0.376135
0.401465 0.401465 0.401465
0.451652 0.451652 0.451652
0.575616 0.575616 0.575616
0.672236 0.672236 0.672236
0.298405 0.298405 0.298405
0.303532 0.303532 0.303532
0.320195 0.320195 0.320195
0.366583 0.366583 0.366583
0.424506 0.424506 0.424506
0.446967 0.446967 0.446967
0.4925 0.4925 0.4925
0.609979 0.609979 0.609979
0.679408 0.679408 0.679408
0.379477 0.379477 0.379477
0.387457 0.387457 0.387457
0.403418 0.403418 0.403418
0.427863 0.427863 0.427863
0.491875 0.491875 0.491875
0.511498 0.511498 0.511498
0.560555 0.560555 0.560555
0.658167 0.658167 0.658167
0.689342 0.689342 0.689342
0.484565 0.484565 0.484565
0.489769 0.489769 0.489769
0.501534 0.501534 0.501534
0.523964 0.523964 0.523964
0.550988 0.550988 0.550988
0.587991 0.587991 0.587991
0.642527 0.642527 0.642527
0.676478 0.676478 0.676478
0.697551 0.697551 0.697551
0.599512 0.599512 0.599512
0.600916 0.600916 0.600916
0.61091 0.61091 0.61091
0.624567 0.624567 0.624567
0.646601 0.646601 0.646601
0.674372 0.674372 0.674372
0.694057 0.694057 0.694057
0.718273 0.718273 0.718273
0.750973 0.750973 0.750973
0.736034 0.736034 0.736034
0.735866 0.735866 0.735866
0.736858 0.736858 0.736858
0.736522 0.736522 0.736522
0.73579 0.73579 0.73579
0.721675 0.721675 0.721675
0.775402 0.775402 0.775402
0.832609 0.832609 0.832609
0.863478 0.863478 0.863478
0.816175 0.816175 0.816175
0.816342 0.816342 0.816342
0.81799 0.81799 0.81799
0.8103 0.8103 0.8103
0.786374 0.786374 0.786374
0.782589 0.782589 0.782589
0.827008 0.827008 0.827008
0.880079 0.880079 0.880079
0.926162 0.926162 0.926162
0.893141 0.893141 0.893141
0.889403 0.889403 0.889403
0.8804 0.8804 0.8804
0.86746 0.86746 0.86746
0.84828 0.84828 0.84828
0.861769 0.861769 0.861769
0.901839 0.901839 0.901839
0.935286 0.935286 0.935286
0.964706 0.964706 0.964706
0.298039 0.298039 0.298039
0.306737 0.306737 0.306737
0.327443 0.327443 0.327443
0.394369 0.394369 0.394369
0.483818 0.483818 0.483818
0.504417 0.504417 0.504417
0.527947 0.527947 0.527947
0.580758 0.580758 0.580758
0.694118 0.694118 0.694118
0.325002 0.325002 0.325002
0.335409 0.335409 0.335409
0.352087 0.352087 0.352087
0.406394 0.406394 0.406394
0.497246 0.497246 0.497246
0.521996 0.521996 0.521996
0.544732 0.544732 0.544732
0.592508 0.592508 0.592508
0.70454 0.70454 0.70454
0.384558 0.384558 0.384558
0.390158 0.390158 0.390158
0.407111 0.407111 0.407111
0.437873 0.437873 0.437873
0.526101 0.526101 0.526101
0.55726 0.55726 0.55726
0.577569 0.577569 0.577569
0.622248 0.622248 0.622248
0.728679 0.728679 0.728679
0.461891 0.461891 0.461891
0.468574 0.468574 0.468574
0.480613 0.480613 0.480613
0.504051 0.504051 0.504051
0.559136 0.559136 0.559136
0.610986 0.610986 0.610986
0.625177 0.625177 0.625177
0.666133 0.666133 0.666133
0.766293 0.766293 0.766293
0.556863 0.556863 0.556863
0.56109 0.56109 0.56109
0.571084 0.571084 0.571084
0.585229 0.585229 0.585229
0.609812 0.609812 0.609812
0.671504 0.671504 0.671504
0.683085 0.683085 0.683085
0.726467 0.726467 0.726467
0.812741 0.812741 0.812741
0.657725 0.657725 0.657725
0.659312 0.659312 0.659312
0.6663 0.6663 0.6663
0.677378 0.677378 0.677378
0.692897 0.692897 0.692897
0.715724 0.715724 0.715724
0.750546 0.750546 0.750546
0.797665 0.797665 0.797665
0.830762 0.830762 0.830762
0.752209 0.752209 0.752209
0.753246 0.753246 0.753246
0.757656 0.757656 0.757656
0.766323 0.766323 0.766323
0.778439 0.778439 0.778439
0.798001 0.798001 0.798001
0.819974 0.819974 0.819974
0.836667 0.836667 0.836667
0.857847 0.857847 0.857847
0.873045 0.873045 0.873045
0.874861 0.874861 0.874861
0.873533 0.873533 0.873533
0.875273 0.875273 0.875273
0.874754 0.874754 0.874754
0.872892 0.872892 0.872892
0.860914 0.860914 0.860914
0.903593 0.903593 0.903593
0.941787 0.941787 0.941787
0.9402 0.9402 0.9402
0.937377 0.937377 0.937377
0.938964 0.938964 0.938964
0.938842 0.938842 0.938842
0.931868 0.931868 0.931868
0.91519 0.91519 0.91519
0.912505 0.912505 0.912505
0.946075 0.946075 0.946075
0.968627 0.968627 0.968627
0.446082 0.446082 0.446082
0.453864 0.453864 0.453864
0.46949 0.46949 0.46949
0.516182 0.516182 0.516182
0.602213 0.602213 0.602213
0.663233 0.663233 0.663233
0.683085 0.683085 0.683085
0.700496 0.700496 0.700496
0.735286 0.735286 0.735286
0.468635 0.468635 0.468635
0.473045 0.473045 0.473045
0.4916 0.4916 0.4916
0.527459 0.527459 0.527459
0.608331 0.608331 0.608331
0.674159 0.674159 0.674159
0.687282 0.687282 0.687282
0.705699 0.705699 0.705699
0.742214 0.742214 0.742214
0.51519 0.51519 0.51519
0.521248 0.521248 0.521248
0.53373 0.53373 0.53373
0.556634 0.556634 0.556634
0.627146 0.627146 0.627146
0.699199 0.699199 0.699199
0.71284 0.71284 0.71284
0.727611 0.727611 0.727611
0.760906 0.760906 0.760906
0.575677 0.575677 0.575677
0.57998 0.57998 0.57998
0.59118 0.59118 0.59118
0.611704 0.611704 0.611704
0.649012 0.649012 0.649012
0.726894 0.726894 0.726894
0.744183 0.744183 0.744183
0.754345 0.754345 0.754345
0.784009 0.784009 0.784009
0.65098 0.65098 0.65098
0.653956 0.653956 0.653956
0.657542 0.657542 0.657542
0.66952 0.66952 0.66952
0.694362 0.694362 0.694362
0.745342 0.745342 0.745342
0.781918 0.781918 0.781918
0.791913 0.791913 0.791913
0.82034 0.82034 0.82034
0.737255 0.737255 0.737255
0.735729 0.735729 0.735729
0.742367 0.742367 0.742367
0.745083 0.745083 0.745083
0.754467 0.754467 0.754467
0.775311 0.775311 0.775311
0.827604 0.827604 0.827604
0.836347 0.836347 0.836347
0.863416 0.863416 0.863416
0.814832 0.814832 0.814832
0.816052 0.816052 0.816052
0.821195 0.821195 0.821195
0.82295 0.82295 0.82295
0.830274 0.830274 0.830274
0.840742 0.840742 0.840742
0.85745 0.85745 0.85745
0.882338 0.882338 0.882338
0.914458 0.914458 0.914458
0.88394 0.88394 0.88394
0.884642 0.884642 0.884642
0.887785 0.887785 0.887785
0.8907 0.8907 0.8907
0.897581 0.897581 0.897581
0.904631 0.904631 0.904631
0.917174 0.917174 0.917174
0.930831 0.930831 0.930831
0.939223 0.939223 0.939223
0.960296 0.960296 0.960296
0.960296 0.960296 0.960296
0.960906 0.960906 0.960906
0.964034 0.964034 0.964034
0.966659 0.966659 0.966659
0.963607 0.963607 0.963607
0.964706 0.964706 0.964706
0.957351 0.957351 0.957351
0.976471 0.976471 0.976471
0.658824 0.658824 0.658824
0.666667 0.666667 0.666667
0.677455 0.677455 0.677455
0.699016 0.699016 0.699016
0.760784 0.760784 0.760784
0.822553 0.822553 0.822553
0.844114 0.844114 0.844114
0.851469 0.851469 0.851469
0.862745 0.862745 0.862745
0.670588 0.670588 0.670588
0.671504 0.671504 0.671504
0.686152 0.686152 0.686152
0.704417 0.704417 0.704417
0.762737 0.762737 0.762737
0.825986 0.825986 0.825986
0.846693 0.846693 0.846693
0.858763 0.858763 0.858763
0.866667 0.866667 0.866667
0.697063 0.697063 0.697063
0.703548 0.703548 0.703548
0.711757 0.711757 0.711757
0.729168 0.729168 0.729168
0.769604 0.769604 0.769604
0.829786 0.829786 0.829786
0.858091 0.858091 0.858091
0.866667 0.866667 0.866667
0.87451 0.87451 0.87451
0.730388 0.730388 0.730388
0.735607 0.735607 0.735607
0.742641 0.742641 0.742641
0.75729 0.75729 0.75729
0.777691 0.777691 0.777691
0.834318 0.834318 0.834318
0.874754 0.874754 0.874754
0.878431 0.878431 0.878431
0.886275 0.886275 0.886275
0.770596 0.770596 0.770596
0.772549 0.772549 0.772549
0.777935 0.777935 0.777935
0.791424 0.791424 0.791424
0.807843 0.807843 0.807843
0.838972 0.838972 0.838972
0.891173 0.891173 0.891173
0.899504 0.899504 0.899504
0.903914 0.903914 0.903914
0.834318 0.834318 0.834318
0.834623 0.834623 0.834623
0.835782 0.835782 0.835782
0.834867 0.834867 0.834867
0.83946 0.83946 0.83946
0.859678 0.859678 0.859678
0.899992 0.899992 0.899992
0.919112 0.919112 0.919112
0.926955 0.926955 0.926955
0.896086 0.896086 0.896086
0.896941 0.896941 0.896941
0.895827 0.895827 0.895827
0.896086 0.896086 0.896086
0.897551 0.897551 0.897551
0.897063 0.897063 0.897063
0.908583 0.908583 0.908583
0.942153 0.942153 0.942153
0.946075 0.946075 0.946075
0.942153 0.942153 0.942153
0.945159 0.945159 0.945159
0.942031 0.942031 0.942031
0.944305 0.944305 0.944305
0.947555 0.947555 0.947555
0.947372 0.947372 0.947372
0.949874 0.949874 0.949874
0.953857 0.953857 0.953857
0.968627 0.968627 0.968627
0.972549 0.972549 0.972549
0.969116 0.969116 0.969116
0.972549 0.972549 0.972549
0.970092 0.970092 0.970092
0.972549 0.972549 0.972549
0.976471 0.976471 0.976471
0.977447 0.977447 0.977447
0.976471 0.976471 0.976471
0.980392 0.980392 0.980392
