LUTS/Secondary LUTS/ROMA.cube
TITLE "Generated by Resolve"
LUT_3D_SIZE 5
0 0 0
0.00784314 0.00784314 0.00784314
0.0372625 0.0372625 0.0372625
0.106859 0.106859 0.106859
0.223529 0.223529 0.223529
0.0421607 0.0421607 0.0421607
0.102937 0.102937 0.102937
0.176959 0.176959 0.176959
0.229419 0.229419 0.229419
0.331365 0.331365 0.331365
0.170596 0.170596 0.170596
0.20882 0.20882 0.20882
0.344121 0.344121 0.344121
0.509316 0.509316 0.509316
0.607843 0.607843 0.607843
0.364706 0.364706 0.364706
0.398291 0.398291 0.398291
0.494118 0.494118 0.494118
0.665202 0.665202 0.665202
0.841184 0.841184 0.841184
0.694118 0.694118 0.694118
0.717647 0.717647 0.717647
0.786282 0.786282 0.786282
0.875486 0.875486 0.875486
0.956863 0.956863 0.956863
0.0235294 0.0235294 0.0235294
0.0688792 0.0688792 0.0688792
0.152941 0.152941 0.152941
0.198047 0.198047 0.198047
0.297063 0.297063 0.297063
0.141176 0.141176 0.141176
0.172183 0.172183 0.172183
0.213107 0.213107 0.213107
0.276722 0.276722 0.276722
0.390692 0.390692 0.390692
0.278431 0.278431 0.278431
0.277211 0.277211 0.277211
0.39411 0.39411 0.39411
0.523903 0.523903 0.523903
0.632349 0.632349 0.632349
0.416175 0.416175 0.416175
0.446754 0.446754 0.446754
0.53492 0.53492 0.53492
0.688609 0.688609 0.688609
0.850492 0.850492 0.850492
0.705882 0.705882 0.705882
0.731624 0.731624 0.731624
0.79411 0.79411 0.79411
0.881376 0.881376 0.881376
0.956863 0.956863 0.956863
0.121569 0.121569 0.121569
0.181857 0.181857 0.181857
0.260792 0.260792 0.260792
0.425986 0.425986 0.425986
0.517647 0.517647 0.517647
0.231373 0.231373 0.231373
0.259434 0.259434 0.259434
0.337011 0.337011 0.337011
0.473777 0.473777 0.473777
0.534798 0.534798 0.534798
0.433341 0.433341 0.433341
0.453925 0.453925 0.453925
0.505394 0.505394 0.505394
0.55172 0.55172 0.55172
0.633326 0.633326 0.633326
0.65539 0.65539 0.65539
0.646204 0.646204 0.646204
0.621073 0.621073 0.621073
0.737621 0.737621 0.737621
0.86569 0.86569 0.86569
0.8 0.8 0.8
0.788724 0.788724 0.788724
0.811765 0.811765 0.811765
0.893629 0.893629 0.893629
0.960784 0.960784 0.960784
0.298039 0.298039 0.298039
0.327443 0.327443 0.327443
0.483818 0.483818 0.483818
0.527947 0.527947 0.527947
0.694118 0.694118 0.694118
0.384558 0.384558 0.384558
0.407111 0.407111 0.407111
0.526101 0.526101 0.526101
0.577569 0.577569 0.577569
0.728679 0.728679 0.728679
0.556863 0.556863 0.556863
0.571084 0.571084 0.571084
0.609812 0.609812 0.609812
0.683085 0.683085 0.683085
0.812741 0.812741 0.812741
0.752209 0.752209 0.752209
0.757656 0.757656 0.757656
0.778439 0.778439 0.778439
0.819974 0.819974 0.819974
0.857847 0.857847 0.857847
0.9402 0.9402 0.9402
0.938964 0.938964 0.938964
0.931868 0.931868 0.931868
0.912505 0.912505 0.912505
0.968627 0.968627 0.968627
0.658824 0.658824 0.658824
0.677455 0.677455 0.677455
0.760784 0.760784 0.760784
0.844114 0.844114 0.844114
0.862745 0.862745 0.862745
0.697063 0.697063 0.697063
0.711757 0.711757 0.711757
0.769604 0.769604 0.769604
0.858091 0.858091 0.858091
0.87451 0.87451 0.87451
0.770596 0.770596 0.770596
0.777935 0.777935 0.777935
0.807843 0.807843 0.807843
0.891173 0.891173 0.891173
0.903914 0.903914 0.903914
0.896086 0.896086 0.896086
0.895827 0.895827 0.895827
0.897551 0.897551 0.897551
0.908583 0.908583 0.908583
0.946075 0.946075 0.946075
0.972549 0.972549 0.972549
0.972549 0.972549 0.972549
0.972549 0.972549 0.972549
0.977447 0.977447 0.977447
0.980392 0.980392 0.980392
