LUTS/Secondary LUTS/SHROUDED OASIS.cube
TITLE "Generated by Resolve"
LUT_3D_SIZE 9
0.00590524 0.00775158 0.00834669
0.0353857 0.0111238 0.0100404
0.0810101 0.0149996 0.0127413
0.166796 0.0183413 0.0193637
0.302647 0.0311589 0.0314641
0.440131 0.0445563 0.0428779
0.575708 0.0608377 0.0558633
0.686824 0.0726787 0.0653697
0.785733 0.0842451 0.0746471
0.00932326 0.0434424 0.0211337
0.0376745 0.0451667 0.0207523
0.0807202 0.0480507 0.0204166
0.157 0.0514076 0.0214694
0.286259 0.0566262 0.0303197
0.426474 0.0670481 0.0417792
0.57174 0.0844739 0.0554818
0.693828 0.0983444 0.0660563
0.799908 0.115572 0.0764477
0.0131838 0.0970779 0.041474
0.041886 0.099382 0.0390173
0.0859846 0.102739 0.0377203
0.160403 0.107958 0.0364691
0.285206 0.113054 0.0381781
0.426612 0.122499 0.0447242
0.577142 0.136004 0.0579385
0.712505 0.156847 0.0701152
0.828275 0.185245 0.0822614
0.0209812 0.181033 0.0918898
0.0491951 0.185382 0.0855573
0.0953689 0.191669 0.0795758
0.175158 0.199268 0.073579
0.300465 0.210269 0.0681621
0.444114 0.22446 0.0711681
0.598505 0.240238 0.0778821
0.736736 0.260533 0.0886854
0.847745 0.287678 0.104433
0.0445716 0.309941 0.170153
0.0712749 0.316793 0.168521
0.120302 0.326314 0.166033
0.200183 0.335729 0.160937
0.326619 0.341192 0.148684
0.464103 0.354467 0.130007
0.613565 0.366537 0.119738
0.748714 0.381582 0.120958
0.857267 0.406073 0.131151
0.0870527 0.464286 0.269917
0.118486 0.469245 0.268254
0.162982 0.475151 0.264195
0.232853 0.4804 0.255268
0.351186 0.480247 0.241428
0.488243 0.483452 0.225605
0.632761 0.493919 0.203677
0.76733 0.509987 0.185412
0.869642 0.534661 0.174609
0.139025 0.619669 0.347356
0.171298 0.623194 0.348043
0.214725 0.627955 0.348028
0.279835 0.631418 0.344778
0.384253 0.63006 0.334447
0.514336 0.628504 0.323873
0.658381 0.628931 0.305364
0.783398 0.638621 0.276585
0.872694 0.655329 0.244999
0.205142 0.770733 0.419013
0.238376 0.772351 0.419242
0.281453 0.774182 0.418906
0.343038 0.773724 0.415869
0.434028 0.768002 0.408225
0.545541 0.760037 0.398215
0.67892 0.749325 0.385107
0.797955 0.746365 0.37055
0.873304 0.75317 0.331502
0.256611 0.87689 0.450462
0.289128 0.876783 0.450065
0.329961 0.876753 0.449653
0.384619 0.876692 0.4495
0.465354 0.876371 0.450446
0.565362 0.868147 0.450706
0.686748 0.852857 0.436408
0.806973 0.840696 0.424445
0.8766 0.839033 0.412375
0.0080415 0.0113222 0.0407416
0.0369421 0.0134585 0.039826
0.0829938 0.0166934 0.0402991
0.171099 0.0201114 0.0451362
0.306477 0.0314183 0.0565042
0.444999 0.044831 0.0674907
0.581399 0.0612497 0.0812848
0.692531 0.073106 0.0913863
0.792004 0.085008 0.101411
0.0104372 0.0461433 0.0521401
0.0387732 0.047364 0.050782
0.0827344 0.0500801 0.048661
0.162432 0.0535744 0.0483864
0.294286 0.0591745 0.0556039
0.434867 0.0677043 0.0663767
0.579629 0.0849775 0.0808728
0.700481 0.0988937 0.0918288
0.808255 0.122225 0.102815
0.0137942 0.101305 0.0789197
0.0429541 0.103807 0.0747082
0.088426 0.107271 0.0717784
0.165972 0.112551 0.0668345
0.294011 0.117876 0.0653544
0.435691 0.128084 0.0697948
0.58735 0.143313 0.0835737
0.721386 0.16524 0.0962844
0.835309 0.193759 0.111452
0.0223392 0.189242 0.139803
0.0500801 0.19353 0.132357
0.0973983 0.200214 0.124514
0.18143 0.208408 0.115785
0.3093 0.219715 0.104829
0.45275 0.234028 0.104143
0.606394 0.249531 0.108293
0.741588 0.269474 0.118196
0.849989 0.295949 0.132906
0.0472877 0.321279 0.222065
0.0753338 0.328084 0.220172
0.124697 0.337331 0.217197
0.205051 0.345708 0.210086
0.333593 0.350011 0.194675
0.470344 0.36199 0.170367
0.618967 0.373205 0.153872
0.752804 0.38883 0.152438
0.859846 0.413458 0.1617
0.0909743 0.473167 0.31928
0.122316 0.477516 0.317388
0.166934 0.483238 0.313405
0.237522 0.48809 0.304677
0.355367 0.487602 0.289006
0.494026 0.490593 0.271092
0.637781 0.500313 0.245472
0.770459 0.516106 0.223178
0.870939 0.540795 0.207065
0.143282 0.627146 0.394018
0.175616 0.630442 0.394751
0.219287 0.634852 0.394766
0.285176 0.637888 0.391577
0.389563 0.636194 0.381598
0.518837 0.634165 0.370153
0.662654 0.634073 0.350622
0.785718 0.643244 0.318593
0.873045 0.658961 0.282063
0.208835 0.775357 0.4636
0.242145 0.776837 0.463783
0.285328 0.778332 0.46334
0.347387 0.77734 0.46006
0.438483 0.771145 0.452079
0.550011 0.762921 0.442176
0.682414 0.752026 0.428336
0.799924 0.748898 0.413458
0.873716 0.755291 0.372732
0.25803 0.877302 0.491066
0.290593 0.877211 0.490715
0.331609 0.877165 0.490349
0.386709 0.877119 0.490272
0.467872 0.876951 0.490974
0.569131 0.86981 0.492119
0.690196 0.854429 0.478523
0.808484 0.842252 0.466102
0.877058 0.840406 0.45362
0.0103151 0.0162509 0.0838178
0.0389868 0.0175174 0.0808576
0.0850996 0.0201877 0.0785687
0.173373 0.0233463 0.0790417
0.308721 0.0316472 0.0898299
0.448951 0.0455482 0.101305
0.587152 0.061738 0.113481
0.699992 0.0740368 0.122621
0.801266 0.0873732 0.132067
0.0120699 0.0504005 0.0976272
0.0403906 0.0513313 0.0947738
0.0856794 0.0538643 0.0903487
0.168399 0.0575418 0.0869001
0.301823 0.0636606 0.0895094
0.443244 0.073106 0.100542
0.588037 0.0888075 0.112978
0.709758 0.107195 0.122789
0.819883 0.132647 0.13315
0.0148928 0.108583 0.129427
0.0446326 0.111116 0.123583
0.091722 0.114366 0.119249
0.173098 0.119509 0.109224
0.303563 0.125093 0.103838
0.44686 0.137484 0.106447
0.59971 0.15404 0.115206
0.731731 0.177035 0.127214
0.843046 0.206043 0.145968
0.0246433 0.201617 0.195605
0.0521248 0.2065 0.188983
0.101335 0.213977 0.181765
0.190051 0.222416 0.171176
0.319966 0.233341 0.151385
0.463004 0.247166 0.144961
0.615274 0.261982 0.1449
0.747021 0.281804 0.152895
0.852247 0.307408 0.16614
0.0518959 0.337194 0.280156
0.0818799 0.343938 0.278019
0.131044 0.352407 0.274601
0.213062 0.359594 0.266987
0.342855 0.362173 0.249195
0.478538 0.371984 0.219318
0.626413 0.382834 0.196353
0.75845 0.399222 0.190478
0.863081 0.42443 0.197147
0.0964675 0.485359 0.37229
0.128206 0.489647 0.370672
0.17319 0.495094 0.366995
0.244846 0.499336 0.358572
0.36231 0.49839 0.342428
0.501991 0.501015 0.323262
0.644816 0.510033 0.293965
0.774685 0.525505 0.268177
0.872602 0.549813 0.245502
0.149599 0.637858 0.444099
0.182071 0.641062 0.444816
0.226078 0.644923 0.4448
0.29305 0.647196 0.441367
0.397482 0.644938 0.432105
0.526024 0.642374 0.420432
0.668757 0.641703 0.400687
0.788876 0.649805 0.366247
0.873426 0.66421 0.324163
0.214328 0.782162 0.510643
0.247883 0.783383 0.510719
0.291234 0.784375 0.510033
0.353689 0.782376 0.506127
0.444694 0.775586 0.497673
0.556435 0.766964 0.487907
0.687449 0.755749 0.47396
0.802716 0.75259 0.459144
0.874266 0.758633 0.418097
0.260105 0.877806 0.532769
0.292851 0.877821 0.532418
0.333944 0.877775 0.532067
0.389563 0.877668 0.532006
0.471138 0.877516 0.532509
0.573037 0.872251 0.533913
0.694759 0.856703 0.522148
0.810651 0.84448 0.509392
0.877745 0.842451 0.497093
0.013138 0.0226444 0.137209
0.0417945 0.0233158 0.133837
0.0885023 0.0254368 0.128832
0.177661 0.0284733 0.123629
0.312901 0.035935 0.130327
0.454414 0.0468452 0.140932
0.594797 0.0627909 0.151202
0.710079 0.0778515 0.15967
0.816785 0.0998856 0.168399
0.014023 0.0569162 0.15375
0.0428321 0.0581521 0.14963
0.0902571 0.0611276 0.143175
0.176547 0.0651713 0.136461
0.310445 0.0716106 0.131884
0.452674 0.0834058 0.140764
0.598962 0.100206 0.151049
0.723796 0.121401 0.160388
0.834485 0.148058 0.169924
0.0170901 0.120989 0.192767
0.0475624 0.123903 0.184649
0.0962539 0.12697 0.178363
0.182986 0.132219 0.164248
0.316243 0.13901 0.154604
0.461082 0.152605 0.153887
0.613275 0.170184 0.158328
0.742306 0.193912 0.169528
0.849943 0.223697 0.186313
0.0285801 0.222293 0.259205
0.0567788 0.227939 0.254231
0.107469 0.234958 0.247684
0.201144 0.241596 0.237812
0.332662 0.251911 0.208988
0.474937 0.264683 0.194995
0.624979 0.278614 0.189334
0.752316 0.297688 0.193347
0.855558 0.323201 0.205097
0.0602579 0.358846 0.344915
0.0918746 0.364813 0.342367
0.140658 0.372076 0.337972
0.223575 0.377066 0.328969
0.353735 0.377188 0.311101
0.488823 0.38526 0.278126
0.63592 0.396231 0.249226
0.76553 0.413916 0.236194
0.867079 0.439567 0.238727
0.104234 0.502281 0.429267
0.136461 0.506111 0.427985
0.181933 0.511208 0.424842
0.255238 0.514397 0.416617
0.37258 0.513283 0.401389
0.512596 0.515206 0.382116
0.653788 0.523445 0.349325
0.779919 0.53846 0.320851
0.874464 0.562097 0.290272
0.158251 0.652247 0.497612
0.190951 0.655131 0.498238
0.235782 0.658442 0.498024
0.304417 0.659571 0.494209
0.408591 0.656519 0.485222
0.536156 0.653269 0.474159
0.676829 0.651377 0.455146
0.792828 0.658595 0.419409
0.874067 0.671534 0.371389
0.221515 0.791135 0.560006
0.255482 0.791791 0.559701
0.299168 0.792172 0.558618
0.362387 0.788937 0.553887
0.452766 0.781262 0.545037
0.564294 0.772305 0.535073
0.694194 0.76083 0.521355
0.806546 0.757519 0.507347
0.875074 0.763134 0.467704
0.262898 0.878477 0.57528
0.295842 0.878431 0.575021
0.33698 0.878309 0.574655
0.393103 0.878248 0.574517
0.474998 0.878065 0.574868
0.577523 0.875578 0.57612
0.700221 0.859602 0.566979
0.813443 0.847379 0.554177
0.878706 0.845151 0.542229
0.0160525 0.0304875 0.198627
0.0455482 0.0310979 0.1953
0.0945296 0.0332799 0.187991
0.185733 0.0367895 0.179843
0.320439 0.0449531 0.176318
0.462684 0.0569467 0.185107
0.605768 0.0732433 0.193347
0.726772 0.0927901 0.200732
0.836057 0.119234 0.20856
0.016907 0.0696727 0.21886
0.0468299 0.0711833 0.213901
0.0970169 0.0738231 0.205966
0.187579 0.0783856 0.194125
0.321416 0.0855268 0.187121
0.46566 0.0993057 0.186709
0.615 0.117906 0.193561
0.740108 0.140917 0.20267
0.848127 0.170794 0.219745
0.0212558 0.140948 0.263783
0.0516976 0.144045 0.255329
0.102449 0.147173 0.24654
0.196643 0.152941 0.229267
0.33138 0.162158 0.215305
0.476341 0.176349 0.210193
0.626215 0.193149 0.209903
0.751522 0.21648 0.217945
0.854383 0.245212 0.231098
0.0341955 0.251164 0.329595
0.0654307 0.256886 0.326711
0.117998 0.26331 0.321431
0.213519 0.267247 0.310842
0.346624 0.275013 0.279088
0.4878 0.286275 0.254002
0.634241 0.298558 0.241108
0.75816 0.316762 0.240146
0.860365 0.343816 0.250431
0.0718547 0.385367 0.414282
0.104402 0.390143 0.411399
0.153307 0.39527 0.405951
0.236332 0.397299 0.394858
0.366369 0.395224 0.377813
0.501549 0.403021 0.344961
0.646571 0.413947 0.311757
0.773419 0.432517 0.289891
0.871321 0.458518 0.285847
0.114351 0.523293 0.489433
0.147326 0.526741 0.488685
0.193332 0.531075 0.486
0.268589 0.53312 0.478141
0.38529 0.531838 0.464302
0.52549 0.532357 0.446464
0.664103 0.540291 0.411139
0.785977 0.554681 0.379828
0.876265 0.57673 0.341619
0.169436 0.669459 0.553719
0.202457 0.671885 0.554116
0.248234 0.674479 0.553597
0.319066 0.674128 0.549111
0.4224 0.670481 0.540337
0.548486 0.666026 0.529427
0.686198 0.66247 0.512337
0.797162 0.668437 0.476844
0.875074 0.680278 0.423377
0.229679 0.801129 0.610468
0.264042 0.801328 0.609873
0.308278 0.800687 0.608118
0.372686 0.79649 0.602899
0.462776 0.788312 0.59382
0.573693 0.778759 0.583322
0.701961 0.766934 0.570062
0.811139 0.763424 0.557275
0.876112 0.768505 0.520287
0.266102 0.879194 0.618524
0.299306 0.879072 0.61828
0.340597 0.879042 0.618006
0.397208 0.87895 0.617838
0.479118 0.878691 0.618021
0.581613 0.878416 0.618906
0.705623 0.863554 0.61268
0.81622 0.851102 0.599954
0.879988 0.848554 0.588678
0.0193027 0.0419013 0.268452
0.0502785 0.04271 0.263996
0.102968 0.0449531 0.254536
0.199588 0.049485 0.24184
0.332143 0.0581064 0.23447
0.477546 0.0724651 0.23418
0.624216 0.0919966 0.238468
0.746044 0.115846 0.248081
0.851347 0.143389 0.263447
0.0211795 0.0891127 0.294713
0.0523842 0.0910048 0.287449
0.105852 0.0928359 0.27921
0.204044 0.0985122 0.261097
0.337987 0.10811 0.250645
0.483879 0.124178 0.248463
0.631388 0.143359 0.249531
0.753353 0.168139 0.257572
0.85536 0.196643 0.270085
0.0270848 0.170153 0.341238
0.0581521 0.174548 0.335149
0.112093 0.178653 0.327169
0.213794 0.182956 0.306935
0.34789 0.19237 0.283604
0.491905 0.205905 0.272526
0.638254 0.221805 0.266789
0.758984 0.243671 0.269795
0.85832 0.270604 0.279194
0.0476997 0.286137 0.407004
0.0801862 0.291432 0.404166
0.133364 0.296818 0.399542
0.229557 0.297673 0.3888
0.361166 0.301808 0.358572
0.50106 0.310719 0.324544
0.644602 0.321431 0.301045
0.767483 0.34107 0.295598
0.866957 0.369238 0.302174
0.0853895 0.414923 0.485771
0.118563 0.41828 0.482536
0.167254 0.421653 0.476387
0.251453 0.421607 0.464378
0.378943 0.419226 0.447929
0.516304 0.425589 0.416464
0.658213 0.436271 0.382635
0.781445 0.4551 0.353048
0.875334 0.481468 0.338384
0.127581 0.549035 0.552392
0.161257 0.551934 0.55201
0.208392 0.555169 0.549828
0.285344 0.555535 0.542199
0.400473 0.553719 0.529656
0.540734 0.552651 0.514275
0.675395 0.559853 0.478187
0.792447 0.57348 0.442924
0.877653 0.593378 0.399069
0.182925 0.688807 0.611963
0.217105 0.690455 0.612009
0.264134 0.691966 0.610956
0.336873 0.69015 0.605951
0.438468 0.685756 0.597253
0.562768 0.679759 0.585611
0.696437 0.674037 0.570443
0.802289 0.678996 0.53756
0.876371 0.690196 0.480217
0.239002 0.811627 0.658106
0.273518 0.811307 0.657938
0.318914 0.809979 0.657618
0.384451 0.804822 0.652781
0.474205 0.796277 0.643641
0.584314 0.786053 0.632609
0.710674 0.773968 0.619455
0.815366 0.769879 0.608133
0.877348 0.774594 0.574838
0.269505 0.879988 0.662425
0.302922 0.87985 0.66215
0.344289 0.87982 0.661952
0.401236 0.879728 0.661692
0.482704 0.879438 0.661616
0.584512 0.879088 0.661967
0.709285 0.868544 0.658717
0.818524 0.855695 0.646494
0.88159 0.852934 0.635996
0.0241245 0.060914 0.351202
0.0567788 0.0618906 0.344213
0.11516 0.0643626 0.334234
0.220356 0.0708782 0.314748
0.351263 0.082475 0.302785
0.49752 0.100328 0.29987
0.641459 0.120348 0.299855
0.759365 0.143191 0.30576
0.857923 0.170733 0.315465
0.0272831 0.119493 0.379843
0.0593576 0.122118 0.373632
0.117403 0.124224 0.365484
0.225376 0.130846 0.341146
0.35668 0.142199 0.322499
0.501717 0.157717 0.313832
0.645212 0.175967 0.309514
0.762249 0.198352 0.312383
0.859785 0.225727 0.320668
0.0381781 0.211246 0.426398
0.0706798 0.21561 0.422934
0.128405 0.219028 0.416434
0.23476 0.219303 0.399405
0.365423 0.228367 0.365255
0.507851 0.239673 0.341787
0.64889 0.252796 0.327916
0.766629 0.273136 0.325154
0.865034 0.302327 0.333532
0.0652018 0.324971 0.490379
0.0995346 0.328939 0.486931
0.153429 0.332372 0.480598
0.249622 0.329778 0.467781
0.377432 0.329686 0.442756
0.516686 0.337407 0.40621
0.658625 0.349981 0.37409
0.778561 0.370733 0.358801
0.873518 0.399496 0.35845
0.0998093 0.445869 0.556848
0.134127 0.448478 0.554147
0.184375 0.451225 0.548836
0.270161 0.449805 0.537072
0.394293 0.447898 0.522057
0.533364 0.452476 0.49218
0.671275 0.462898 0.45861
0.78967 0.481971 0.425223
0.878843 0.507332 0.395621
0.143893 0.577005 0.615549
0.178058 0.579156 0.615335
0.227512 0.581048 0.613581
0.306767 0.579675 0.606729
0.418524 0.577722 0.596094
0.556405 0.575631 0.581262
0.687633 0.581079 0.548913
0.7991 0.59379 0.510262
0.878126 0.610651 0.460838
0.198749 0.709041 0.670924
0.234134 0.70988 0.670665
0.283085 0.709682 0.668742
0.357351 0.70631 0.662943
0.456184 0.700816 0.654124
0.578119 0.693065 0.641413
0.707347 0.685985 0.627497
0.80795 0.690349 0.600336
0.877745 0.70103 0.541039
0.249592 0.822797 0.703914
0.284352 0.822049 0.7037
0.331182 0.819745 0.70341
0.398215 0.813764 0.702785
0.486839 0.805035 0.694224
0.596094 0.793866 0.682536
0.719509 0.781537 0.668971
0.819348 0.77702 0.659358
0.878813 0.781125 0.629572
0.272847 0.880812 0.706905
0.306371 0.880674 0.706691
0.347585 0.88072 0.706477
0.404044 0.880552 0.706127
0.484459 0.880293 0.705806
0.58529 0.879911 0.705699
0.711177 0.874998 0.70573
0.820554 0.861494 0.693843
0.883558 0.858091 0.684047
0.0332036 0.0965133 0.445945
0.0676585 0.0984512 0.440742
0.133883 0.100908 0.432502
0.245716 0.107393 0.405295
0.373205 0.119112 0.381613
0.515984 0.134463 0.369207
0.654536 0.153262 0.362173
0.767391 0.174823 0.361791
0.863737 0.202258 0.369284
0.0397498 0.166674 0.474296
0.0742351 0.169833 0.470558
0.137697 0.170687 0.463203
0.250462 0.173495 0.441077
0.377981 0.183246 0.408621
0.519249 0.195331 0.386252
0.656596 0.210468 0.372976
0.771023 0.232105 0.370031
0.867674 0.26125 0.377371
0.0563821 0.259159 0.516854
0.0921798 0.262379 0.513329
0.152483 0.263905 0.506813
0.259327 0.259113 0.493751
0.385183 0.264729 0.460319
0.524697 0.273167 0.424598
0.663432 0.28716 0.399222
0.779767 0.308873 0.39028
0.873884 0.33846 0.392782
0.0841993 0.365148 0.573419
0.11989 0.367239 0.569329
0.175662 0.368032 0.561883
0.272374 0.363928 0.547921
0.398566 0.36321 0.527718
0.535958 0.37052 0.494133
0.673381 0.383612 0.459113
0.78996 0.405158 0.430426
0.87924 0.433921 0.418296
0.118013 0.480705 0.629099
0.15375 0.482765 0.627192
0.207401 0.48394 0.622278
0.295216 0.481834 0.611704
0.415915 0.480446 0.598306
0.553597 0.483177 0.572305
0.685756 0.4934 0.536568
0.79794 0.511223 0.502708
0.881315 0.535073 0.459434
0.163729 0.60676 0.680125
0.199405 0.608057 0.679652
0.251789 0.608026 0.676982
0.333257 0.60531 0.670344
0.44155 0.602716 0.66157
0.575418 0.599649 0.648096
0.70042 0.602884 0.621576
0.804944 0.613306 0.581399
0.878782 0.628412 0.526757
0.216648 0.728344 0.729259
0.253773 0.728054 0.728222
0.305211 0.725811 0.724971
0.379553 0.720485 0.718196
0.475425 0.713954 0.70898
0.594965 0.705303 0.696086
0.717556 0.698848 0.683177
0.813336 0.702022 0.662531
0.879225 0.712322 0.605661
0.258473 0.825177 0.748699
0.295064 0.825086 0.748562
0.344564 0.825162 0.74844
0.413596 0.822156 0.74786
0.500832 0.813153 0.744396
0.609751 0.80145 0.732158
0.729244 0.789364 0.718883
0.823484 0.784451 0.710307
0.88069 0.788174 0.684031
0.275898 0.881682 0.751705
0.309285 0.881636 0.751522
0.349844 0.881559 0.751354
0.404364 0.881407 0.750957
0.482307 0.881163 0.750484
0.581979 0.880796 0.749889
0.708171 0.88014 0.749264
0.821607 0.869307 0.742473
0.886076 0.864408 0.733333
0.0495003 0.150286 0.547997
0.087953 0.151629 0.544457
0.160662 0.150286 0.536614
0.276417 0.153567 0.516152
0.399969 0.162341 0.481559
0.536385 0.173785 0.450233
0.669169 0.190768 0.433219
0.782132 0.213504 0.427375
0.874998 0.243046 0.431159
0.0612192 0.223209 0.573968
0.100069 0.224567 0.569772
0.168582 0.222263 0.56141
0.281697 0.219028 0.546334
0.403891 0.225757 0.512978
0.541817 0.235859 0.477562
0.674495 0.251759 0.451453
0.78761 0.27451 0.440299
0.878187 0.304875 0.440162
0.0801862 0.30959 0.610834
0.118563 0.310689 0.606332
0.182742 0.308629 0.597345
0.287892 0.302647 0.583154
0.412253 0.306294 0.557946
0.549493 0.314794 0.524392
0.681315 0.329549 0.490394
0.794385 0.352483 0.465232
0.881605 0.381857 0.455863
0.106111 0.408835 0.655528
0.144442 0.410239 0.652415
0.204944 0.409461 0.645182
0.302983 0.406043 0.633036
0.428824 0.404944 0.618387
0.561868 0.411719 0.583993
0.690486 0.424598 0.551797
0.800732 0.445014 0.516152
0.88368 0.472068 0.48278
0.143236 0.522087 0.702296
0.180987 0.522866 0.700938
0.238788 0.521874 0.696529
0.328206 0.519112 0.687922
0.445853 0.518212 0.676661
0.580438 0.519097 0.656275
0.701518 0.527642 0.621973
0.806256 0.542794 0.583017
0.881697 0.56289 0.531197
0.189578 0.639277 0.747555
0.228733 0.638743 0.746059
0.285481 0.636622 0.742245
0.367834 0.632715 0.735409
0.473655 0.628962 0.726513
0.60145 0.624475 0.713451
0.714839 0.624582 0.69482
0.811383 0.632288 0.659129
0.880766 0.64715 0.597696
0.238102 0.74641 0.785382
0.277516 0.744503 0.783276
0.331838 0.740505 0.779065
0.407004 0.734325 0.772061
0.501442 0.727275 0.762966
0.618204 0.718502 0.750439
0.73135 0.713436 0.739345
0.819837 0.715221 0.724056
0.88101 0.724254 0.675807
0.27039 0.823835 0.792157
0.309636 0.823774 0.792035
0.362066 0.823621 0.79176
0.433677 0.823667 0.791287
0.521523 0.820249 0.790219
0.630243 0.808118 0.780652
0.742611 0.797467 0.768368
0.828351 0.793271 0.760647
0.883406 0.796155 0.740169
0.279377 0.88159 0.795789
0.312367 0.881498 0.795621
0.352117 0.881422 0.795438
0.403357 0.881239 0.79501
0.476234 0.881117 0.794476
0.572976 0.880888 0.793561
0.694194 0.880446 0.792386
0.819425 0.880323 0.791119
0.889616 0.873167 0.784634
