LUTS/Secondary LUTS/SHROUDED OASIS.cube
TITLE "Generated by Resolve"
LUT_3D_SIZE 33
0.00590524 0.00775158 0.00834669
0.0128176 0.00854505 0.00865187
0.019913 0.00936904 0.00900282
0.0272068 0.0101778 0.00941482
0.0353857 0.0111238 0.0100404
0.0442817 0.0121157 0.0107424
0.054612 0.0130312 0.011368
0.0669718 0.0139773 0.0120089
0.0810101 0.0149996 0.0127413
0.0966506 0.0159915 0.0137636
0.116197 0.0168917 0.0154726
0.139376 0.0176394 0.0172427
0.166796 0.0183413 0.0193637
0.198901 0.0206302 0.0218204
0.233051 0.0233616 0.0245518
0.268086 0.0272221 0.0280156
0.302647 0.0311589 0.0314641
0.336019 0.0345006 0.0344091
0.369985 0.0380407 0.0374304
0.404807 0.0412146 0.0400702
0.440131 0.0445563 0.0428779
0.475334 0.0486915 0.046128
0.510018 0.052781 0.049424
0.543465 0.0569162 0.0527047
0.575708 0.0608377 0.0558633
0.605966 0.0641947 0.0585489
0.633844 0.0672465 0.0610056
0.660792 0.0700542 0.0632639
0.686824 0.0726787 0.0653697
0.712337 0.075227 0.0674296
0.737072 0.0782483 0.06981
0.761624 0.0812695 0.072221
0.785733 0.0842451 0.0746471
0.00672923 0.0161593 0.0110933
0.0137484 0.016846 0.0114748
0.0207675 0.0175784 0.0115511
0.0279545 0.018265 0.0117189
0.0359503 0.0191196 0.0121309
0.0446326 0.0200198 0.0126192
0.0547951 0.0208743 0.0131228
0.0670329 0.0218051 0.0137179
0.0807355 0.022797 0.0143587
0.0960098 0.0237736 0.0150454
0.114778 0.0247044 0.0156558
0.136965 0.0255436 0.0172885
0.163027 0.0263828 0.0192569
0.1935 0.0272984 0.0216068
0.227207 0.0292515 0.0242466
0.261784 0.0328069 0.0275273
0.296742 0.0366369 0.0309758
0.330419 0.0400397 0.0339818
0.364294 0.0434577 0.0369268
0.399145 0.0466621 0.0396735
0.43476 0.0499428 0.0424201
0.470542 0.0540475 0.0456855
0.50605 0.0582284 0.0490578
0.540475 0.0624399 0.0524147
0.573693 0.0664225 0.0556191
0.60502 0.0698558 0.0583963
0.634104 0.0729992 0.0609445
0.66157 0.0758221 0.0632486
0.688167 0.0784772 0.0653849
0.714229 0.0810712 0.0674907
0.739559 0.084184 0.0699626
0.764477 0.0872358 0.0724193
0.788861 0.0903334 0.0748913
0.0075227 0.0247807 0.0141299
0.0144961 0.0254063 0.0144198
0.021622 0.0259861 0.0145266
0.0286259 0.0266117 0.0144198
0.0364691 0.0273594 0.0145724
0.0449531 0.0281376 0.0148318
0.055024 0.0289616 0.0151522
0.0670024 0.0298314 0.0155795
0.0805066 0.030808 0.0161288
0.0954147 0.0317388 0.0166781
0.113542 0.0326696 0.0172427
0.135195 0.0336156 0.0177615
0.160082 0.0344701 0.0192111
0.189609 0.0354772 0.0215152
0.222583 0.0365454 0.0240482
0.256901 0.0386206 0.0271916
0.292103 0.0423133 0.0306096
0.326253 0.0457313 0.0336919
0.360281 0.0490425 0.0366064
0.395132 0.0522621 0.0393835
0.431037 0.0555123 0.0421302
0.467262 0.0595865 0.0453803
0.503334 0.063859 0.0488136
0.53843 0.0680705 0.0522011
0.57258 0.0720989 0.0554818
0.604761 0.0756085 0.05832
0.634668 0.0787823 0.0609445
0.662669 0.0817121 0.0632792
0.689784 0.0845045 0.0654917
0.716167 0.0872511 0.0676738
0.741985 0.0905165 0.070222
0.767346 0.0937057 0.0727703
0.791974 0.096849 0.0752728
0.00827039 0.0334783 0.017319
0.0151522 0.0339818 0.01738
0.0222629 0.0344854 0.0174563
0.0292821 0.0349737 0.0173953
0.0369421 0.0355993 0.0172427
0.0452735 0.0362707 0.0172427
0.0552377 0.0370184 0.017319
0.0671092 0.0378576 0.0175631
0.0804456 0.0387579 0.0179446
0.0951247 0.0395972 0.0183108
0.11281 0.0405127 0.0187228
0.134005 0.0414588 0.0191653
0.158145 0.0423896 0.0195773
0.186908 0.0434577 0.0214847
0.219409 0.0446174 0.0240024
0.253529 0.0462806 0.0270695
0.288899 0.0483406 0.0304112
0.323323 0.0515602 0.0334936
0.357488 0.0547646 0.036408
0.392248 0.0579843 0.0391852
0.428565 0.0611887 0.0419318
0.464973 0.0652323 0.0451667
0.501472 0.0695811 0.0486305
0.537301 0.0739605 0.0521096
0.571984 0.0781109 0.055436
0.604791 0.0817578 0.058381
0.635508 0.0850843 0.0610361
0.664012 0.0880446 0.0634165
0.69163 0.0908675 0.0656901
0.718318 0.0938735 0.0679637
0.744472 0.0973526 0.0705882
0.770138 0.100725 0.073167
0.795331 0.104067 0.0757305
0.00932326 0.0434424 0.0211337
0.0161593 0.0439307 0.0209964
0.0230869 0.0442969 0.0209201
0.0299992 0.0446326 0.0208591
0.0376745 0.0451667 0.0207523
0.0458076 0.0456855 0.0204013
0.0557717 0.0464179 0.0202487
0.0675059 0.0471962 0.020264
0.0807202 0.0480507 0.0204166
0.0951705 0.0487984 0.0205539
0.11249 0.0496223 0.020798
0.133516 0.0505531 0.0211643
0.157 0.0514076 0.0214694
0.184985 0.05243 0.0219577
0.216938 0.0534371 0.0241398
0.250889 0.0548714 0.0270848
0.286259 0.0566262 0.0303197
0.321111 0.0585641 0.033402
0.355398 0.0606699 0.0362707
0.390295 0.063798 0.0390478
0.426474 0.0670481 0.0417792
0.463249 0.0712444 0.0450752
0.500145 0.0758068 0.0485847
0.536294 0.0801709 0.0520943
0.57174 0.0844739 0.0554818
0.605249 0.0884565 0.0584878
0.636652 0.0920882 0.0612497
0.665721 0.0952926 0.0637064
0.693828 0.0983444 0.0660563
0.720943 0.101472 0.0684215
0.747463 0.104921 0.071046
0.773892 0.109361 0.0737163
0.799908 0.115572 0.0764477
0.0104677 0.0540932 0.0252079
0.0172427 0.0544594 0.0248569
0.0240024 0.054902 0.0246281
0.0307622 0.0551003 0.0244144
0.0383154 0.0554513 0.0243076
0.046479 0.0558328 0.0239719
0.0564431 0.056611 0.0236057
0.0681468 0.0574197 0.0234226
0.0812238 0.0583505 0.0233768
0.0955673 0.0591592 0.0233616
0.112764 0.0600137 0.0234379
0.133486 0.0610513 0.0236973
0.15671 0.0619821 0.0239567
0.184009 0.0630045 0.0243839
0.215595 0.0641184 0.0249943
0.249195 0.0655375 0.027512
0.284657 0.0670939 0.0306401
0.319661 0.068925 0.0336767
0.354269 0.0708934 0.0364996
0.389013 0.0731518 0.0392462
0.425269 0.0754711 0.0419623
0.462058 0.0787366 0.0452125
0.499413 0.0835279 0.0488289
0.536049 0.0882124 0.052369
0.571878 0.092607 0.0557565
0.606149 0.0964981 0.0588083
0.638346 0.100099 0.0616007
0.66807 0.103319 0.0641337
0.696529 0.106554 0.0665446
0.724224 0.11136 0.0690623
0.751766 0.117006 0.0718395
0.779217 0.123095 0.0746929
0.805707 0.129671 0.0774548
0.0113832 0.0670787 0.0296941
0.018204 0.0675975 0.02916
0.0249943 0.0679332 0.0287633
0.031754 0.0682536 0.0284581
0.0393683 0.0686351 0.0282292
0.0476997 0.068986 0.0280461
0.0578775 0.0697185 0.0277867
0.0695048 0.0706035 0.0274357
0.082475 0.0715496 0.0272374
0.0965896 0.0723583 0.027039
0.113695 0.0733196 0.0270085
0.134325 0.0744945 0.0272221
0.157214 0.0755322 0.0274052
0.184085 0.0766766 0.0278172
0.215183 0.0777905 0.0283513
0.248646 0.0792401 0.0291752
0.283894 0.0808423 0.0314946
0.319219 0.0827192 0.0344396
0.354131 0.0848402 0.0372168
0.388678 0.0872511 0.0399176
0.42504 0.0897688 0.0426642
0.461936 0.0929732 0.0458991
0.499367 0.0966659 0.049424
0.536446 0.100389 0.0529183
0.572778 0.104143 0.0562448
0.607797 0.107881 0.0593118
0.640558 0.111727 0.06215
0.670893 0.115923 0.0647593
0.700359 0.120623 0.0673533
0.729137 0.125933 0.0700847
0.75761 0.131945 0.0729229
0.78558 0.138415 0.0758068
0.812634 0.145251 0.0785992
0.0122835 0.0813001 0.0350347
0.0191806 0.0819562 0.0343938
0.0260471 0.0823529 0.0338445
0.0329137 0.0827192 0.0334173
0.040589 0.0832227 0.0330816
0.049012 0.0836652 0.0328069
0.0593881 0.0843366 0.0327306
0.0711833 0.0852369 0.0323491
0.084062 0.0863203 0.0318914
0.0981308 0.0873426 0.0314946
0.115236 0.0884413 0.0313725
0.13579 0.0896315 0.0314946
0.158434 0.0907912 0.031632
0.185031 0.0919356 0.0319219
0.215778 0.0930037 0.0323186
0.248936 0.0942245 0.0329595
0.284108 0.0957198 0.0338903
0.319417 0.0975357 0.0353552
0.354452 0.0995804 0.0380102
0.38909 0.102144 0.0406958
0.42533 0.10486 0.0434424
0.462379 0.108064 0.0466926
0.500053 0.111574 0.0502174
0.537438 0.115145 0.0536049
0.574258 0.118715 0.0568856
0.609827 0.122484 0.0599527
0.643778 0.126558 0.0628519
0.675319 0.131319 0.0656291
0.705653 0.136522 0.0683757
0.735317 0.142443 0.0712749
0.764599 0.14934 0.0742962
0.792859 0.15668 0.0773022
0.820386 0.164477 0.0803082
0.0131838 0.0970779 0.041474
0.0201877 0.0977035 0.04065
0.0271611 0.0982681 0.0399939
0.0341344 0.0987869 0.0394751
0.041886 0.099382 0.0390173
0.0504921 0.100099 0.0386358
0.060914 0.100816 0.038407
0.0729534 0.10161 0.0383154
0.0859846 0.102739 0.0377203
0.0999008 0.103868 0.0369573
0.117266 0.105211 0.0365606
0.137758 0.106554 0.0364691
0.160403 0.107958 0.0364691
0.186786 0.109224 0.0366979
0.217411 0.110338 0.0369726
0.250263 0.111635 0.0374914
0.285206 0.113054 0.0381781
0.320485 0.114916 0.0391089
0.355901 0.117067 0.0401923
0.390417 0.119753 0.0419928
0.426612 0.122499 0.0447242
0.463783 0.125612 0.0479744
0.501534 0.128893 0.0513924
0.539483 0.132311 0.0547036
0.577142 0.136004 0.0579385
0.613809 0.140352 0.0611124
0.648844 0.145174 0.0641947
0.681529 0.150835 0.0672007
0.712505 0.156847 0.0701152
0.74287 0.163394 0.0731518
0.772335 0.17023 0.0761578
0.800717 0.177508 0.0791791
0.828275 0.185245 0.0822614
0.014023 0.114137 0.049073
0.021149 0.114809 0.0479438
0.0282597 0.115511 0.0471962
0.0353399 0.116075 0.04654
0.0432136 0.116884 0.0459907
0.0520027 0.117754 0.0455024
0.0624704 0.1187 0.0451667
0.074403 0.119692 0.0449378
0.0879377 0.120806 0.0448157
0.102113 0.122057 0.0439155
0.119722 0.123613 0.0431373
0.140352 0.125231 0.0426795
0.16286 0.126909 0.0424048
0.189242 0.128344 0.0423133
0.219699 0.129732 0.042359
0.252399 0.131151 0.0426642
0.287266 0.132784 0.0431678
0.322499 0.134813 0.0439612
0.357931 0.137102 0.0449531
0.39263 0.139925 0.0462806
0.429007 0.142992 0.0478981
0.466453 0.146395 0.0499886
0.505074 0.150027 0.0533303
0.54377 0.153841 0.0566415
0.582208 0.158007 0.0599069
0.619486 0.162509 0.0630808
0.655253 0.167529 0.0661631
0.688533 0.173144 0.0691691
0.719997 0.179294 0.0721141
0.750408 0.185916 0.0751354
0.780011 0.192844 0.0783246
0.808042 0.200153 0.0828107
0.835294 0.208118 0.0877546
0.0157473 0.134035 0.0603037
0.0229801 0.134951 0.058732
0.0301976 0.135821 0.0574807
0.0373693 0.136614 0.0564279
0.0452583 0.137621 0.0555123
0.0541238 0.13872 0.0547494
0.0647746 0.13991 0.0541238
0.0767681 0.141085 0.0536507
0.0903944 0.142321 0.053315
0.105303 0.143359 0.0529946
0.123674 0.145068 0.052079
0.143999 0.14696 0.0511025
0.166262 0.148775 0.0503243
0.192844 0.15053 0.0498512
0.223194 0.152148 0.049424
0.255634 0.153719 0.0493172
0.290394 0.155627 0.0495155
0.325643 0.157809 0.0501259
0.361471 0.160555 0.0511482
0.396704 0.163745 0.0526436
0.433356 0.167102 0.0544442
0.471458 0.170687 0.056611
0.510369 0.174411 0.0589456
0.549416 0.178393 0.0613565
0.588083 0.182666 0.0639048
0.625727 0.187289 0.0666056
0.661738 0.192462 0.0695354
0.695293 0.198169 0.072694
0.72668 0.20441 0.0762341
0.757076 0.211048 0.0800031
0.786389 0.21796 0.0841688
0.814008 0.225437 0.0886091
0.840711 0.233326 0.0933394
0.0177462 0.156115 0.0758679
0.0250858 0.157321 0.0739452
0.0323033 0.158236 0.0722362
0.0395361 0.159228 0.0707408
0.047425 0.160357 0.0692149
0.0563668 0.161624 0.0677501
0.0671702 0.163027 0.0664225
0.0793164 0.164492 0.0652934
0.09308 0.165972 0.0643778
0.108125 0.167361 0.0635996
0.127504 0.168719 0.0631876
0.14818 0.170581 0.0614939
0.170138 0.172595 0.0598154
0.196826 0.174578 0.0587625
0.227359 0.176669 0.0579232
0.260014 0.178988 0.0576028
0.295109 0.181384 0.0575723
0.330617 0.184161 0.0580453
0.366613 0.187274 0.0589303
0.401953 0.190707 0.0603647
0.438804 0.194293 0.0620737
0.476951 0.198016 0.0639658
0.515816 0.201755 0.0660258
0.555016 0.205814 0.0682231
0.593469 0.210117 0.070573
0.631312 0.214801 0.0731365
0.667323 0.219944 0.0759136
0.700908 0.225544 0.0789654
0.732189 0.231724 0.082414
0.762402 0.238224 0.0860609
0.791333 0.245136 0.0900435
0.818494 0.252415 0.0943618
0.844846 0.260136 0.09897
0.0209812 0.181033 0.0918898
0.0268711 0.182101 0.0901198
0.0341344 0.183169 0.0885176
0.0413977 0.184207 0.0871443
0.0491951 0.185382 0.0855573
0.0582132 0.186847 0.084062
0.0691081 0.188312 0.0824903
0.0812695 0.189899 0.0809644
0.0953689 0.191669 0.0795758
0.110887 0.193469 0.078294
0.130343 0.195056 0.0772412
0.152544 0.19678 0.0764477
0.175158 0.199268 0.073579
0.202304 0.201785 0.0711681
0.232807 0.20444 0.069337
0.26566 0.207279 0.0685283
0.300465 0.210269 0.0681621
0.336126 0.213504 0.0683604
0.372015 0.216922 0.0689097
0.407477 0.220706 0.0699779
0.444114 0.22446 0.0711681
0.482322 0.22826 0.0725567
0.521019 0.23209 0.0741283
0.559945 0.236103 0.0758679
0.598505 0.240238 0.0778821
0.636072 0.244663 0.0801251
0.672023 0.249531 0.0826734
0.705547 0.254673 0.085481
0.736736 0.260533 0.0886854
0.766644 0.266651 0.0922255
0.795041 0.273289 0.0961318
0.82182 0.280186 0.100145
0.847745 0.287678 0.104433
0.0250858 0.20795 0.10901
0.0309758 0.209262 0.107424
0.0368505 0.210391 0.105913
0.0436713 0.211627 0.104616
0.0512703 0.21294 0.103151
0.0603799 0.214603 0.101656
0.0715648 0.216495 0.100206
0.0839857 0.218616 0.0988632
0.0986038 0.220935 0.0975509
0.114702 0.223178 0.0964065
0.134585 0.225513 0.0953689
0.156878 0.227756 0.0944228
0.181491 0.229755 0.0934462
0.209064 0.232593 0.0898299
0.239094 0.235386 0.0863966
0.271763 0.238376 0.0839551
0.30634 0.241749 0.0822919
0.341726 0.245029 0.0813001
0.37734 0.248707 0.081117
0.412665 0.252537 0.0813306
0.44918 0.256245 0.0817273
0.487175 0.259968 0.0823377
0.525689 0.263645 0.0832074
0.564538 0.267369 0.0843519
0.602838 0.271305 0.0859236
0.640208 0.275395 0.0877546
0.676081 0.279927 0.0899977
0.709361 0.284916 0.0925765
0.740291 0.290562 0.0956893
0.770047 0.296407 0.0989548
0.797757 0.302525 0.102449
0.824094 0.308965 0.10602
0.849424 0.315785 0.109758
0.0296483 0.23859 0.127184
0.035523 0.240101 0.126162
0.0413977 0.241596 0.1252
0.0472725 0.242985 0.124269
0.0546273 0.244617 0.123278
0.06392 0.246693 0.122194
0.0755932 0.248936 0.121065
0.0884565 0.251133 0.119875
0.103548 0.253727 0.118654
0.120012 0.256321 0.117464
0.140002 0.258762 0.116258
0.162066 0.261219 0.115099
0.186603 0.263355 0.113771
0.216419 0.264973 0.112413
0.245991 0.267628 0.108019
0.278477 0.270817 0.104204
0.312535 0.274128 0.100969
0.347784 0.277775 0.0985428
0.383047 0.281559 0.0967727
0.418082 0.285389 0.0958267
0.454398 0.289097 0.0950942
0.492088 0.292699 0.094789
0.530282 0.296254 0.094789
0.568795 0.299733 0.095079
0.606882 0.30338 0.0958114
0.643915 0.307057 0.0968948
0.679438 0.311192 0.0984512
0.712489 0.315618 0.100404
0.742962 0.320623 0.102876
0.772213 0.325856 0.105547
0.799649 0.331518 0.108553
0.825864 0.337758 0.111971
0.851118 0.344732 0.115755
0.0365606 0.272862 0.147616
0.0425727 0.274525 0.147127
0.0486152 0.276188 0.146715
0.0546426 0.277821 0.146365
0.0620127 0.279652 0.145907
0.0717174 0.28191 0.145342
0.0838636 0.284245 0.14461
0.0965438 0.286641 0.143664
0.111315 0.289296 0.142611
0.127489 0.29192 0.14139
0.146822 0.294499 0.140017
0.16849 0.297047 0.13872
0.192828 0.299199 0.137209
0.221988 0.300816 0.135393
0.254261 0.302037 0.133257
0.286046 0.304723 0.127672
0.31899 0.307485 0.122896
0.353643 0.310842 0.119005
0.388327 0.314641 0.115618
0.423224 0.318486 0.113008
0.459388 0.322118 0.110735
0.496712 0.325536 0.10898
0.5346 0.328679 0.107744
0.572763 0.331807 0.10692
0.610437 0.335073 0.106813
0.647135 0.338384 0.107103
0.68217 0.342 0.107912
0.714916 0.346014 0.109178
0.745251 0.350729 0.111086
0.774594 0.355917 0.113359
0.802304 0.361761 0.116091
0.828779 0.368124 0.119219
0.853727 0.375143 0.122789
0.0445716 0.309941 0.170153
0.05066 0.311604 0.169665
0.0567941 0.313359 0.169314
0.0631571 0.315099 0.168994
0.0712749 0.316793 0.168521
0.0816815 0.319036 0.168063
0.0935531 0.321386 0.167483
0.105943 0.323751 0.166873
0.120302 0.326314 0.166033
0.136385 0.328817 0.16495
0.155016 0.331228 0.163561
0.176257 0.333684 0.162371
0.200183 0.335729 0.160937
0.228656 0.337118 0.159106
0.260151 0.338033 0.156924
0.294301 0.338811 0.154421
0.326619 0.341192 0.148684
0.360403 0.34406 0.14316
0.394263 0.347387 0.138048
0.428626 0.350973 0.1337
0.464103 0.354467 0.130007
0.500999 0.357687 0.126589
0.538689 0.360861 0.123613
0.576364 0.363699 0.121263
0.613565 0.366537 0.119738
0.650004 0.369497 0.118914
0.684947 0.372961 0.118929
0.717952 0.376883 0.119585
0.748714 0.381582 0.120958
0.77847 0.386831 0.122774
0.806378 0.392508 0.125063
0.832959 0.398917 0.127825
0.857267 0.406073 0.131151
0.0540932 0.348043 0.195392
0.0602121 0.349874 0.195056
0.0665751 0.351644 0.194629
0.074052 0.353246 0.194308
0.0824598 0.355093 0.193759
0.0932174 0.357168 0.193088
0.104677 0.359457 0.192416
0.116823 0.361913 0.191531
0.130785 0.364263 0.190387
0.146807 0.366629 0.189014
0.16495 0.368872 0.187442
0.185458 0.371084 0.185916
0.208576 0.372641 0.184192
0.236057 0.373678 0.182086
0.266621 0.374273 0.179767
0.300313 0.374563 0.177234
0.334874 0.375036 0.174258
0.367514 0.377096 0.168597
0.400153 0.379477 0.163088
0.433738 0.382544 0.157778
0.468696 0.385672 0.152529
0.50515 0.38851 0.147311
0.542397 0.391348 0.142763
0.580056 0.394156 0.13901
0.617441 0.397177 0.136156
0.6542 0.400381 0.133944
0.68954 0.404013 0.132738
0.722759 0.408103 0.132479
0.753765 0.413062 0.133059
0.783749 0.41828 0.134051
0.811383 0.424125 0.135698
0.837797 0.430518 0.137789
0.861051 0.43769 0.14052
0.0638437 0.386664 0.221424
0.0706798 0.388251 0.220996
0.0780957 0.389929 0.220691
0.0856947 0.39147 0.22034
0.0946365 0.393103 0.219806
0.105241 0.395056 0.21912
0.116289 0.397162 0.218418
0.128344 0.399252 0.21738
0.141863 0.401495 0.216144
0.1579 0.403555 0.214618
0.175555 0.405692 0.212848
0.194812 0.407507 0.210605
0.217334 0.408774 0.208042
0.244068 0.409583 0.205417
0.273976 0.409812 0.202564
0.306676 0.409705 0.199619
0.340902 0.409384 0.196658
0.375418 0.409522 0.193256
0.407065 0.411444 0.187625
0.439963 0.414054 0.182193
0.474205 0.416754 0.176822
0.510414 0.419608 0.171405
0.547417 0.422614 0.166247
0.584939 0.425467 0.161288
0.622354 0.428595 0.156847
0.658991 0.431968 0.153216
0.694286 0.435859 0.150271
0.727565 0.440131 0.148165
0.758618 0.445121 0.147158
0.788754 0.450324 0.147051
0.815885 0.456184 0.147707
0.842161 0.462623 0.148928
0.864424 0.469688 0.150713
0.0753796 0.425864 0.24654
0.0825971 0.427329 0.24622
0.0898146 0.428733 0.245869
0.0974899 0.430121 0.245487
0.10692 0.431647 0.244923
0.117037 0.43328 0.24419
0.127611 0.43505 0.243336
0.139452 0.436851 0.242191
0.152941 0.438834 0.24094
0.168063 0.440574 0.239292
0.184939 0.44213 0.237125
0.203265 0.443595 0.234607
0.225025 0.444511 0.231525
0.250889 0.444846 0.228244
0.279744 0.444724 0.224872
0.311757 0.444358 0.221515
0.345571 0.44416 0.21828
0.380499 0.444007 0.215335
0.414496 0.444678 0.211963
0.446647 0.446799 0.20621
0.480507 0.449119 0.200793
0.51635 0.451865 0.195254
0.553017 0.454734 0.190173
0.59028 0.457694 0.185122
0.627344 0.460716 0.180133
0.663874 0.464042 0.175387
0.699077 0.467918 0.171191
0.732174 0.472358 0.167697
0.763302 0.47747 0.164996
0.793347 0.482963 0.162875
0.820081 0.488838 0.161608
0.845884 0.495262 0.161471
0.867323 0.502205 0.162066
0.0870527 0.464286 0.269917
0.0940871 0.465553 0.269612
0.101411 0.466758 0.269261
0.109239 0.467994 0.268818
0.118486 0.469245 0.268254
0.128222 0.470588 0.267597
0.138399 0.472068 0.266651
0.149874 0.47361 0.265583
0.162982 0.475151 0.264195
0.177523 0.476814 0.262577
0.193896 0.478248 0.260548
0.211643 0.479545 0.258183
0.232853 0.4804 0.255268
0.257969 0.480781 0.25185
0.286152 0.480827 0.248249
0.317678 0.480446 0.24477
0.351186 0.480247 0.241428
0.385901 0.48011 0.23827
0.420508 0.480369 0.235477
0.454643 0.481209 0.231724
0.488243 0.483452 0.225605
0.523354 0.485817 0.219638
0.559457 0.488258 0.21416
0.596124 0.491005 0.208927
0.632761 0.493919 0.203677
0.668833 0.497093 0.198749
0.703639 0.50074 0.194095
0.736324 0.505043 0.189624
0.76733 0.509987 0.185412
0.797055 0.515373 0.18146
0.823453 0.521218 0.178363
0.849027 0.527657 0.17586
0.869642 0.534661 0.174609
0.0985428 0.502251 0.290761
0.105455 0.503304 0.290578
0.112779 0.504341 0.290257
0.120851 0.505348 0.289937
0.129915 0.5066 0.289555
0.139376 0.507881 0.289113
0.149462 0.5093 0.288411
0.160708 0.510826 0.287572
0.173892 0.512352 0.286473
0.187945 0.513817 0.285191
0.204044 0.515267 0.283528
0.221637 0.516625 0.281559
0.24239 0.517418 0.278889
0.266377 0.517769 0.275456
0.293599 0.517815 0.271763
0.324651 0.517601 0.268452
0.35758 0.517266 0.265171
0.391714 0.517067 0.261906
0.425956 0.517327 0.259068
0.460822 0.517571 0.256199
0.496376 0.518364 0.251896
0.530694 0.520211 0.245258
0.56643 0.522438 0.239033
0.602625 0.525017 0.233051
0.638819 0.527611 0.227359
0.674281 0.53051 0.222278
0.708644 0.533745 0.217395
0.740719 0.537789 0.212497
0.771389 0.542473 0.207599
0.80058 0.547799 0.202731
0.826307 0.553475 0.197833
0.851362 0.559747 0.192996
0.871275 0.566537 0.188907
0.110826 0.540612 0.310719
0.117998 0.541741 0.310689
0.125536 0.542611 0.310536
0.13373 0.543618 0.310475
0.142672 0.544808 0.310307
0.151919 0.546075 0.310048
0.161944 0.547372 0.309651
0.173419 0.548974 0.309117
0.186389 0.550286 0.308309
0.200198 0.551766 0.307393
0.215854 0.553216 0.30605
0.233173 0.554406 0.304356
0.253651 0.555184 0.301991
0.276707 0.555444 0.299046
0.303319 0.555398 0.295659
0.333028 0.555154 0.292332
0.365286 0.554894 0.288975
0.398672 0.55465 0.285786
0.43212 0.554681 0.282963
0.466346 0.554879 0.280186
0.502663 0.554833 0.27715
0.538842 0.55555 0.27248
0.573922 0.557366 0.265568
0.609522 0.559518 0.258701
0.645182 0.561791 0.252155
0.680186 0.56437 0.246159
0.713787 0.567346 0.240467
0.745342 0.570993 0.235279
0.775418 0.575128 0.230289
0.803876 0.579751 0.224796
0.828794 0.58497 0.219013
0.853101 0.590921 0.212604
0.872374 0.597513 0.20621
0.124422 0.580194 0.329488
0.13167 0.581186 0.329641
0.139605 0.582025 0.329747
0.147753 0.582956 0.329839
0.156435 0.583963 0.329915
0.165743 0.585138 0.329931
0.175631 0.586389 0.329793
0.187381 0.587701 0.329458
0.200015 0.589059 0.329076
0.213642 0.590311 0.328466
0.228717 0.591531 0.327535
0.246098 0.592645 0.326207
0.266163 0.593256 0.324269
0.288472 0.593378 0.321675
0.314427 0.593301 0.3187
0.342794 0.592935 0.31545
0.37409 0.592554 0.312261
0.406348 0.592126 0.309224
0.43917 0.592081 0.306523
0.472572 0.592035 0.303838
0.508217 0.591836 0.300832
0.545388 0.591379 0.297704
0.581888 0.591943 0.292729
0.616846 0.593637 0.285801
0.651667 0.595499 0.278676
0.686122 0.597742 0.271794
0.719097 0.60029 0.264912
0.749996 0.603647 0.258671
0.779599 0.607416 0.252674
0.807095 0.611505 0.24686
0.8309 0.616159 0.240711
0.854261 0.621393 0.233433
0.872816 0.627359 0.22536
0.139025 0.619669 0.347356
0.146807 0.620645 0.347585
0.154559 0.621424 0.347753
0.162722 0.622339 0.347906
0.171298 0.623194 0.348043
0.180545 0.624353 0.348135
0.190707 0.625437 0.348165
0.202335 0.626642 0.348165
0.214725 0.627955 0.348028
0.228138 0.629007 0.347707
0.243153 0.630167 0.347173
0.260166 0.631037 0.346273
0.279835 0.631418 0.344778
0.301717 0.631434 0.342702
0.326925 0.631098 0.340185
0.354162 0.630625 0.337331
0.384253 0.63006 0.334447
0.415381 0.629511 0.331746
0.44712 0.629206 0.329244
0.479561 0.628916 0.326741
0.514336 0.628504 0.323873
0.550591 0.627832 0.320806
0.588205 0.627008 0.317464
0.62417 0.627405 0.312276
0.658381 0.628931 0.305364
0.692226 0.630747 0.298314
0.724407 0.632761 0.291127
0.754391 0.635538 0.283848
0.783398 0.638621 0.276585
0.809918 0.642222 0.269093
0.832792 0.646036 0.261662
0.854948 0.65037 0.2542
0.872694 0.655329 0.244999
0.154879 0.659068 0.365469
0.162585 0.659907 0.365759
0.170306 0.660655 0.365942
0.178408 0.661402 0.366079
0.187015 0.662181 0.366201
0.196155 0.663157 0.366293
0.206897 0.664149 0.366445
0.218235 0.665293 0.366476
0.23035 0.666285 0.366308
0.243656 0.667384 0.366125
0.258808 0.668284 0.365652
0.275624 0.668894 0.364797
0.294865 0.669078 0.363531
0.316472 0.668894 0.36173
0.340948 0.668406 0.359609
0.367193 0.667704 0.357229
0.396063 0.666896 0.354849
0.425757 0.666117 0.352514
0.456458 0.665537 0.350393
0.4878 0.664942 0.348104
0.521553 0.664088 0.345571
0.556771 0.663035 0.342596
0.593423 0.661982 0.339498
0.63061 0.660929 0.336339
0.665537 0.661067 0.331151
0.698512 0.662455 0.324346
0.729732 0.663783 0.317006
0.758877 0.665995 0.309789
0.787106 0.668437 0.301976
0.812451 0.671138 0.293385
0.834211 0.674235 0.284108
0.855192 0.677668 0.274235
0.872343 0.681682 0.264057
0.171435 0.697581 0.38378
0.178973 0.698253 0.383932
0.186831 0.698985 0.384131
0.194995 0.699672 0.384283
0.203494 0.700404 0.384405
0.213245 0.701152 0.384512
