LUTS/Secondary LUTS/SHROUDED OASIS.cube
TITLE "Generated by Resolve"
LUT_3D_SIZE 5
0.00590524 0.00775158 0.00834669
0.0810101 0.0149996 0.0127413
0.302647 0.0311589 0.0314641
0.575708 0.0608377 0.0558633
0.785733 0.0842451 0.0746471
0.0131838 0.0970779 0.041474
0.0859846 0.102739 0.0377203
0.285206 0.113054 0.0381781
0.577142 0.136004 0.0579385
0.828275 0.185245 0.0822614
0.0445716 0.309941 0.170153
0.120302 0.326314 0.166033
0.326619 0.341192 0.148684
0.613565 0.366537 0.119738
0.857267 0.406073 0.131151
0.139025 0.619669 0.347356
0.214725 0.627955 0.348028
0.384253 0.63006 0.334447
0.658381 0.628931 0.305364
0.872694 0.655329 0.244999
0.256611 0.87689 0.450462
0.329961 0.876753 0.449653
0.465354 0.876371 0.450446
0.686748 0.852857 0.436408
0.8766 0.839033 0.412375
0.0103151 0.0162509 0.0838178
0.0850996 0.0201877 0.0785687
0.308721 0.0316472 0.0898299
0.587152 0.061738 0.113481
0.801266 0.0873732 0.132067
0.0148928 0.108583 0.129427
0.091722 0.114366 0.119249
0.303563 0.125093 0.103838
0.59971 0.15404 0.115206
0.843046 0.206043 0.145968
0.0518959 0.337194 0.280156
0.131044 0.352407 0.274601
0.342855 0.362173 0.249195
0.626413 0.382834 0.196353
0.863081 0.42443 0.197147
0.149599 0.637858 0.444099
0.226078 0.644923 0.4448
0.397482 0.644938 0.432105
0.668757 0.641703 0.400687
0.873426 0.66421 0.324163
0.260105 0.877806 0.532769
0.333944 0.877775 0.532067
0.471138 0.877516 0.532509
0.694759 0.856703 0.522148
0.877745 0.842451 0.497093
0.0160525 0.0304875 0.198627
0.0945296 0.0332799 0.187991
0.320439 0.0449531 0.176318
0.605768 0.0732433 0.193347
0.836057 0.119234 0.20856
0.0212558 0.140948 0.263783
0.102449 0.147173 0.24654
0.33138 0.162158 0.215305
0.626215 0.193149 0.209903
0.854383 0.245212 0.231098
0.0718547 0.385367 0.414282
0.153307 0.39527 0.405951
0.366369 0.395224 0.377813
0.646571 0.413947 0.311757
0.871321 0.458518 0.285847
0.169436 0.669459 0.553719
0.248234 0.674479 0.553597
0.4224 0.670481 0.540337
0.686198 0.66247 0.512337
0.875074 0.680278 0.423377
0.266102 0.879194 0.618524
0.340597 0.879042 0.618006
0.479118 0.878691 0.618021
0.705623 0.863554 0.61268
0.879988 0.848554 0.588678
0.0241245 0.060914 0.351202
0.11516 0.0643626 0.334234
0.351263 0.082475 0.302785
0.641459 0.120348 0.299855
0.857923 0.170733 0.315465
0.0381781 0.211246 0.426398
0.128405 0.219028 0.416434
0.365423 0.228367 0.365255
0.64889 0.252796 0.327916
0.865034 0.302327 0.333532
0.0998093 0.445869 0.556848
0.184375 0.451225 0.548836
0.394293 0.447898 0.522057
0.671275 0.462898 0.45861
0.878843 0.507332 0.395621
0.198749 0.709041 0.670924
0.283085 0.709682 0.668742
0.456184 0.700816 0.654124
0.707347 0.685985 0.627497
0.877745 0.70103 0.541039
0.272847 0.880812 0.706905
0.347585 0.88072 0.706477
0.484459 0.880293 0.705806
0.711177 0.874998 0.70573
0.883558 0.858091 0.684047
0.0495003 0.150286 0.547997
0.160662 0.150286 0.536614
0.399969 0.162341 0.481559
0.669169 0.190768 0.433219
0.874998 0.243046 0.431159
0.0801862 0.30959 0.610834
0.182742 0.308629 0.597345
0.412253 0.306294 0.557946
0.681315 0.329549 0.490394
0.881605 0.381857 0.455863
0.143236 0.522087 0.702296
0.238788 0.521874 0.696529
0.445853 0.518212 0.676661
0.701518 0.527642 0.621973
0.881697 0.56289 0.531197
0.238102 0.74641 0.785382
0.331838 0.740505 0.779065
0.501442 0.727275 0.762966
0.73135 0.713436 0.739345
0.88101 0.724254 0.675807
0.279377 0.88159 0.795789
0.352117 0.881422 0.795438
0.476234 0.881117 0.794476
0.694194 0.880446 0.792386
0.889616 0.873167 0.784634
