LUTS/Secondary LUTS/SUPERIA.cube
TITLE "Generated by Resolve"
LUT_3D_SIZE 9
0.0630198 0.0842451 0.0949111
0.0707256 0.0860761 0.0956283
0.128771 0.0987564 0.0968338
0.3075 0.113832 0.0814069
0.587366 0.0543221 0.0357671
0.71899 0.033875 0.0341039
0.750362 0.0332494 0.033753
0.749905 0.03122 0.0425116
0.749264 0.028687 0.0746929
0.0518502 0.099321 0.0993057
0.0609903 0.096788 0.0984817
0.129458 0.102358 0.0970474
0.307134 0.113832 0.0814832
0.587594 0.0541848 0.0357671
0.719127 0.033875 0.0340887
0.750362 0.0332494 0.033753
0.749905 0.03122 0.0425116
0.749264 0.028687 0.0746929
0.0228885 0.137942 0.111147
0.0233616 0.136385 0.110719
0.119142 0.140887 0.105058
0.302403 0.152026 0.0815595
0.582361 0.0567941 0.0354772
0.718776 0.0338903 0.0341192
0.750362 0.0332494 0.033753
0.749905 0.03122 0.0425116
0.749264 0.028687 0.0746929
0.0142519 0.241535 0.123415
0.0143282 0.239826 0.123354
0.0144503 0.237598 0.12314
0.287907 0.275364 0.0647288
0.625116 0.285679 0.0155642
0.742809 0.171283 0.0240482
0.750362 0.0332494 0.033753
0.749905 0.0312047 0.0425879
0.749264 0.028687 0.0746929
0.00813306 0.416159 0.109834
0.00814832 0.415229 0.110018
0.00817884 0.413642 0.110277
0.0197604 0.462745 0.0227207
0.651499 0.562158 0.000366217
0.864164 0.553506 0
0.873457 0.463432 0.00276188
0.750362 0.0332494 0.033753
0.749264 0.0286717 0.0748608
0.00732433 0.528572 0.0612955
0.00732433 0.528389 0.0613565
0.00732433 0.52813 0.0614481
0.00733959 0.52726 0.0615702
0.577981 0.716182 0
0.905577 0.774197 0
0.955169 0.763256 0
0.951446 0.713115 0
0.822553 0.319127 0.0139773
0.00674449 0.561822 0.0876478
0.00674449 0.561822 0.0876478
0.00674449 0.561822 0.0876478
0.00764477 0.631266 0.0134279
0.568963 0.755535 0
0.888334 0.829389 0
0.952224 0.833036 0
0.952514 0.82742 0
0.953185 0.813123 0
0.565957 0.754803 0
0.577752 0.757687 0
0.595773 0.762081 0
0.644816 0.774151 0
0.746273 0.799573 0
0.886122 0.829511 0
0.951934 0.839155 0
0.952026 0.837751 0
0.952026 0.837751 0
0.906172 0.83331 0
0.907088 0.833478 0
0.908522 0.833753 0
0.912642 0.834546 0
0.922576 0.836454 0
0.94229 0.839826 0
0.951949 0.838941 0
0.952026 0.837751 0
0.952026 0.837751 0
0.059266 0.0858015 0.113451
0.0651255 0.086717 0.110674
0.126558 0.0992599 0.112795
0.306584 0.114 0.098497
0.587137 0.0544442 0.0357671
0.718944 0.033875 0.0341039
0.750362 0.0332494 0.033753
0.749905 0.03122 0.0425116
0.749264 0.028687 0.0746929
0.0501717 0.0962692 0.114565
0.0574044 0.0933089 0.112749
0.129335 0.100237 0.113848
0.304448 0.113939 0.0943313
0.587594 0.0541848 0.0357671
0.719127 0.033875 0.0340887
0.750362 0.0332494 0.033753
0.749905 0.03122 0.0425116
0.749264 0.028687 0.0746929
0.0217136 0.13785 0.12665
0.0220645 0.136217 0.125399
0.115694 0.13994 0.114153
0.288884 0.151659 0.0876631
0.582818 0.0565194 0.0354772
0.718776 0.0338903 0.0341192
0.750362 0.0332494 0.033753
0.749905 0.03122 0.0425116
0.749264 0.028687 0.0746929
0.014313 0.240345 0.123384
0.0143893 0.238712 0.123247
0.0145113 0.236423 0.123049
0.286641 0.27332 0.0661326
0.624216 0.283604 0.0156863
0.742046 0.169039 0.0241855
0.750362 0.0332494 0.033753
0.749905 0.0312047 0.0425879
0.749264 0.028687 0.0746929
0.00814832 0.415656 0.109941
0.00816358 0.41471 0.110124
0.00819409 0.413138 0.110384
0.0193942 0.461921 0.0229953
0.651362 0.561593 0.000381476
0.863966 0.55288 0
0.873198 0.462623 0.00280766
0.750362 0.0332494 0.033753
0.749264 0.0286717 0.0748608
0.00732433 0.528542 0.0613107
0.00732433 0.528389 0.0613565
0.00732433 0.528099 0.0614633
0.00733959 0.52723 0.0615702
0.577752 0.716075 0
0.905547 0.774105 0
0.955169 0.763256 0
0.951431 0.713008 0
0.822187 0.318151 0.0140536
0.00674449 0.561822 0.0876478
0.00674449 0.561822 0.0876478
0.00674449 0.561822 0.0876478
0.00761425 0.630945 0.0134279
0.568505 0.755428 0
0.888334 0.829389 0
0.952224 0.83299 0
0.952514 0.82742 0
0.953185 0.813123 0
0.565728 0.754757 0
0.577508 0.757626 0
0.595544 0.76202 0
0.644602 0.77409 0
0.746273 0.799573 0
0.886122 0.829511 0
0.951934 0.839155 0
0.952026 0.837751 0
0.952026 0.837751 0
0.906172 0.83331 0
0.907088 0.833478 0
0.908415 0.833738 0
0.912642 0.834546 0
0.922576 0.836454 0
0.94229 0.839857 0
0.951949 0.838941 0
0.952026 0.837751 0
0.952026 0.837751 0
0.0478523 0.0886854 0.155489
0.0489509 0.0885634 0.152636
0.121599 0.100542 0.157763
0.305715 0.11519 0.159991
0.585168 0.0362707 0.140749
0.717494 0.0281682 0.0737621
0.750362 0.0332494 0.033753
0.749905 0.03122 0.0425116
0.749264 0.028687 0.0746929
0.0480659 0.0886702 0.15494
0.0483711 0.0886244 0.154147
0.123964 0.101061 0.159152
0.306294 0.115175 0.158602
0.585657 0.0360418 0.139178
0.717678 0.0281834 0.0708934
0.750362 0.0332494 0.033753
0.749905 0.03122 0.0425116
0.749264 0.028687 0.0746929
0.0191501 0.138689 0.176272
0.0192569 0.136767 0.174975
0.105699 0.139742 0.165194
0.293568 0.146395 0.154192
0.579355 0.0376898 0.130663
0.716991 0.0287022 0.0560159
0.750362 0.0332494 0.033753
0.749905 0.03122 0.0425116
0.749264 0.028687 0.0746929
0.0134432 0.247333 0.187228
0.0135348 0.245548 0.186465
0.0136873 0.242405 0.185229
0.277714 0.27718 0.159426
0.606836 0.275731 0.0661326
0.744732 0.185245 0.0232242
0.750362 0.0332494 0.033753
0.749905 0.0312047 0.0425879
0.749264 0.028687 0.0746929
0.00790417 0.418219 0.134478
0.00793469 0.417014 0.132372
0.00801099 0.415015 0.128832
0.0173953 0.460838 0.0336614
0.650858 0.560311 0.000427253
0.863508 0.551446 0
0.87277 0.461341 0.00289921
0.750362 0.0332494 0.033753
0.749264 0.0286717 0.0748608
0.00732433 0.528389 0.0613565
0.00732433 0.528252 0.0614176
0.00732433 0.527947 0.0615091
0.00733959 0.527123 0.0616159
0.577066 0.715801 0
0.905531 0.774014 0
0.955169 0.763088 0
0.9514 0.712779 0
0.821653 0.31664 0.0141756
0.00674449 0.561822 0.0876478
0.00674449 0.561822 0.0876478
0.00674449 0.561822 0.0876478
0.00755322 0.630503 0.0134279
0.568261 0.755383 0
0.888228 0.829358 0
0.952224 0.83299 0
0.952514 0.82742 0
0.953185 0.813077 0
0.565499 0.754696 0
0.577279 0.75758 0
0.595315 0.761959 0
0.644373 0.774044 0
0.746105 0.799542 0
0.886015 0.829496 0
0.951934 0.839155 0
0.952026 0.837751 0
0.952026 0.837751 0
0.906172 0.83331 0
0.906981 0.833463 0
0.908415 0.833738 0
0.912642 0.834546 0
0.922499 0.836439 0
0.94229 0.839857 0
0.951949 0.838941 0
0.952026 0.837751 0
0.952026 0.837751 0
0.0255741 0.0797742 0.266514
0.0255894 0.0799573 0.265873
0.106401 0.0931868 0.269886
0.301442 0.108888 0.292271
0.590433 0.0347906 0.303395
0.726909 0.0267491 0.298268
0.754131 0.0276036 0.215686
0.749905 0.03122 0.0425116
0.749264 0.028687 0.0746929
0.0255741 0.0799573 0.26566
0.0255894 0.0800641 0.265293
0.107836 0.0936446 0.269429
0.303929 0.108949 0.291691
0.591409 0.0347601 0.302632
0.727001 0.0267491 0.297475
0.754101 0.0276036 0.214572
0.749905 0.03122 0.0425116
0.749264 0.028687 0.0746929
0.0197757 0.114717 0.280201
0.0199283 0.111971 0.278157
0.0788281 0.115236 0.269734
0.29897 0.108827 0.292973
0.587366 0.0353246 0.299779
0.726741 0.0267643 0.29546
0.753994 0.0276188 0.212604
0.749905 0.03122 0.0425116
0.749264 0.028687 0.0746929
0.0123598 0.252201 0.324071
0.0124666 0.250172 0.32311
0.0126345 0.246403 0.321553
0.250965 0.27332 0.311254
0.604349 0.25301 0.293187
0.725399 0.0432593 0.257969
0.752789 0.0278172 0.186145
0.749905 0.03122 0.0425116
0.749264 0.028687 0.0746929
0.0055848 0.450584 0.348135
0.00561532 0.449409 0.34725
0.00564584 0.4477 0.345998
0.00505074 0.484062 0.337545
0.611002 0.54963 0.275105
0.831128 0.531624 0.178866
0.862699 0.45655 0.00456245
0.750362 0.0332494 0.033753
0.749264 0.0286717 0.0748608
0.00408942 0.562463 0.331319
0.00410468 0.562112 0.330236
0.0041352 0.561608 0.328695
0.00421149 0.560037 0.323781
0.515373 0.702953 0.160494
0.880583 0.759228 0
0.955093 0.76669 0
0.951308 0.712108 0
0.819852 0.311635 0.0145724
0.00674449 0.561822 0.0876478
0.00674449 0.561822 0.0876478
0.00674449 0.561822 0.0876478
0.00704967 0.626169 0.0134585
0.564813 0.754528 0
0.888029 0.829297 0
0.952239 0.832959 0
0.952514 0.827375 0
0.953185 0.813031 0
0.564553 0.754467 0
0.576364 0.757351 0
0.594385 0.761746 0
0.643717 0.773877 0
0.745602 0.799405 0
0.885893 0.829465 0
0.951934 0.839155 0
0.952026 0.837751 0
0.952026 0.837751 0
0.906065 0.83328 0
0.906981 0.833463 0
0.908324 0.833722 0
0.912566 0.834531 0
0.922499 0.836439 0
0.94229 0.839857 0
0.951949 0.838941 0
0.952026 0.837751 0
0.952026 0.837751 0
0.0235904 0.0270695 0.430091
0.0235904 0.0270695 0.430014
0.0236057 0.0270848 0.427863
0.280171 0.0439307 0.465812
0.595529 0.0285191 0.498451
0.742184 0.0264286 0.514961
0.775448 0.0268864 0.51252
0.765362 0.0267491 0.399023
0.749264 0.028687 0.0746929
0.0235904 0.0270695 0.429938
0.0235904 0.0270695 0.429847
0.0280003 0.0281071 0.426703
0.286442 0.0437324 0.466514
0.597223 0.0283513 0.498451
0.742351 0.0264286 0.514824
0.775418 0.0268864 0.512306
0.765332 0.0267491 0.39855
0.749264 0.028687 0.0746929
0.0235904 0.0270695 0.42916
0.0235904 0.0270695 0.429084
0.023621 0.0271 0.4271
0.28188 0.0441138 0.465095
0.595911 0.0285191 0.497749
0.742504 0.0264286 0.514565
0.775387 0.0268864 0.511894
0.76527 0.0267643 0.397726
0.749264 0.028687 0.0746929
0.0150301 0.190249 0.485069
0.015198 0.18706 0.483925
0.0155032 0.180911 0.481727
0.195514 0.21413 0.486442
0.571267 0.153979 0.493172
0.738079 0.0263676 0.509773
0.775189 0.0268711 0.509712
0.765042 0.0267643 0.395117
0.749264 0.028687 0.0746929
0.00463874 0.463569 0.566308
0.00466926 0.462226 0.56582
0.00469978 0.459998 0.564858
0.00436408 0.476432 0.567163
0.567163 0.543481 0.557504
0.812772 0.511269 0.546319
0.832425 0.40618 0.528161
0.761944 0.0269627 0.351675
0.749264 0.0286717 0.0748608
0.00137331 0.605783 0.608194
0.00137331 0.605509 0.607782
0.00138857 0.605066 0.607202
0.00141909 0.603922 0.605524
0.387945 0.732937 0.574197
0.824262 0.768475 0.53669
0.9066 0.756237 0.477668
0.915419 0.693172 0.123445
0.814206 0.295827 0.0158541
0.00047303 0.638102 0.612467
0.00047303 0.638056 0.612131
0.00047303 0.63801 0.611795
0.000488289 0.637827 0.61059
0.355291 0.772335 0.550866
0.797391 0.826703 0.482124
0.921431 0.827649 0.385992
0.952468 0.828412 0
0.953201 0.812787 0
0.550011 0.750927 0
0.562249 0.753902 0
0.580972 0.758465 0
0.632502 0.771115 0
0.739559 0.797879 0
0.883955 0.829099 0
0.951934 0.83917 0
0.952026 0.837751 0
0.952026 0.837751 0
0.905867 0.833249 0
0.906676 0.833402 0
0.90811 0.833677 0
0.912398 0.834501 0
0.922332 0.836408 0
0.942199 0.839841 0
0.951949 0.838941 0
0.952026 0.837751 0
0.952026 0.837751 0
0.0234684 0.0269932 0.549386
0.0234684 0.0269932 0.549386
0.0234684 0.0269932 0.549325
0.185641 0.026215 0.573312
0.582162 0.0248569 0.628046
0.754681 0.0269627 0.653223
0.79411 0.0275425 0.665782
0.792554 0.0274205 0.655283
0.782406 0.0270237 0.576791
0.0234684 0.0269932 0.549386
0.0234684 0.0269932 0.549325
0.0234684 0.0269932 0.549325
0.197024 0.026276 0.57499
0.584344 0.0248875 0.628275
0.754849 0.0269627 0.653239
0.794079 0.0275425 0.665766
0.792554 0.0274205 0.655283
0.782406 0.0270237 0.576699
0.0234684 0.0269932 0.549325
0.0234684 0.0269932 0.549279
0.0234684 0.0269932 0.549279
0.213001 0.0263828 0.577432
0.58761 0.0249332 0.628656
0.755154 0.0269627 0.653223
0.794079 0.0275425 0.665721
0.792538 0.0274205 0.655222
0.782376 0.0270237 0.576516
0.0234684 0.0269932 0.548562
0.0234684 0.0269932 0.548516
0.0234684 0.0269932 0.548516
0.16231 0.0261082 0.568948
0.572274 0.0247349 0.625956
0.75288 0.0269322 0.65211
0.794049 0.0275425 0.665553
0.792523 0.0274205 0.655039
0.782315 0.0270237 0.575814
0.00619516 0.405478 0.68394
0.0062562 0.403372 0.683238
0.00636301 0.400015 0.682155
0.00666819 0.38967 0.678706
0.511421 0.465827 0.703243
0.78764 0.408911 0.707546
0.801083 0.174029 0.685679
0.792264 0.0274052 0.653361
0.782086 0.0270085 0.57377
0.000671397 0.614206 0.752422
0.000671397 0.613977 0.7523
0.000686656 0.613519 0.752026
0.000732433 0.6121 0.751263
0.124987 0.729122 0.756359
0.792432 0.764767 0.747646
0.886397 0.747799 0.744701
0.878538 0.681056 0.725277
0.780423 0.0269474 0.558343
0 0.661097 0.781384
0 0.661082 0.781338
0 0.661082 0.781277
0 0.661067 0.78114
0.0295872 0.787152 0.78146
0.740566 0.849454 0.755749
0.889235 0.858351 0.73962
0.900999 0.850278 0.699519
0.909636 0.81944 0.558694
0.0616617 0.786954 0.748425
0.0825666 0.789502 0.74699
0.133852 0.792264 0.744121
0.2804 0.800107 0.737499
0.526009 0.822293 0.72961
0.747112 0.852598 0.715663
0.880125 0.866041 0.694926
0.905928 0.8636 0.654139
0.93901 0.822309 0.134112
0.839414 0.812039 0.237552
0.840406 0.812116 0.235767
0.842084 0.812207 0.232258
0.847135 0.812512 0.222126
0.861784 0.813382 0.19086
0.892836 0.81622 0.0684215
0.951476 0.835203 0
0.952026 0.837751 0
0.952026 0.837751 0
0.0234379 0.0269932 0.602045
0.0234379 0.0269932 0.602045
0.0234379 0.0269932 0.602014
0.0234379 0.0269932 0.602014
0.513848 0.0246738 0.675792
0.756039 0.0272831 0.71104
0.803677 0.0278935 0.724895
0.803586 0.0278782 0.724514
0.802548 0.0278325 0.718883
0.0234379 0.0269932 0.602045
0.0234379 0.0269932 0.602014
0.0234379 0.0269932 0.602014
0.0234379 0.0269932 0.602014
0.517281 0.0246891 0.67628
0.756237 0.0272831 0.71107
0.803677 0.0278935 0.724895
0.803586 0.0278782 0.724514
0.802548 0.0278325 0.718883
0.0234379 0.0269932 0.602014
0.0234379 0.0269932 0.602014
0.0234379 0.0269932 0.602014
0.0234379 0.0269932 0.602014
0.522499 0.0247196 0.676951
0.756619 0.0272831 0.711177
0.803677 0.0278935 0.724895
0.803586 0.0278782 0.724514
0.802548 0.0278325 0.718883
0.0234379 0.0269932 0.602014
0.0234379 0.0269932 0.602014
0.0234379 0.0269932 0.602014
0.0234379 0.0269932 0.601984
0.538323 0.0247959 0.679103
0.757687 0.0272831 0.711345
0.803677 0.0278935 0.724865
0.803571 0.0278782 0.724468
0.802533 0.0278325 0.718853
0.0188907 0.123354 0.649165
0.0191043 0.119127 0.648554
0.0197452 0.106813 0.646693
0.0222019 0.0586862 0.63949
0.430961 0.139986 0.679454
0.744198 0.0271 0.708125
0.803494 0.0278782 0.72401
0.803571 0.0278782 0.724392
0.802533 0.0278325 0.718776
0.00134279 0.590845 0.79556
0.00135805 0.590341 0.795407
0.00137331 0.589563 0.795163
0.00143435 0.587213 0.794415
0 0.669703 0.814832
0.768017 0.718975 0.818616
0.874647 0.688304 0.820447
0.857877 0.568887 0.802304
0.802289 0.0278172 0.71754
0 0.662989 0.820768
0 0.662943 0.820722
0 0.662913 0.820706
0 0.66273 0.820645
0 0.743694 0.838453
0.690394 0.846525 0.834958
0.876051 0.857633 0.832822
0.89015 0.848783 0.828458
0.888487 0.822553 0.820142
0 0.754147 0.840299
0 0.759106 0.840604
0 0.766491 0.840742
0 0.78677 0.840986
0.313069 0.816312 0.831098
0.688014 0.858427 0.833219
0.858732 0.878172 0.831418
0.891646 0.88069 0.828901
0.892363 0.880079 0.820798
0.735195 0.863005 0.819089
0.736767 0.863203 0.819074
0.739071 0.863478 0.819013
0.74638 0.864332 0.818891
0.765484 0.866468 0.818372
0.809613 0.871473 0.817227
0.864958 0.877333 0.815015
0.893309 0.879332 0.810803
0.894575 0.877943 0.795239
0.0234531 0.0270237 0.606104
0.0234531 0.0270237 0.606104
0.0234531 0.0270237 0.606104
0.0234531 0.0270237 0.606104
0.0487068 0.0287175 0.612802
0.734829 0.0270237 0.718318
0.805203 0.0279698 0.732296
0.805203 0.0279698 0.732296
0.805203 0.0279698 0.732296
0.0234531 0.0270237 0.606104
0.0234531 0.0270237 0.606104
0.0234531 0.0270237 0.606104
0.0234531 0.0270237 0.606104
0.0655833 0.0294804 0.614862
0.735241 0.0270237 0.718379
0.805203 0.0279698 0.732296
0.805203 0.0279698 0.732296
0.805203 0.0279698 0.732296
0.0234531 0.0270237 0.606104
0.0234531 0.0270237 0.606104
0.0234531 0.0270237 0.606104
0.0234531 0.0270237 0.606104
0.0916304 0.0301213 0.618173
0.735866 0.027039 0.718486
0.805203 0.0279698 0.732296
0.805203 0.0279698 0.732296
0.805203 0.0279698 0.732296
0.0234531 0.0270237 0.606104
0.0234531 0.0270237 0.606104
0.0234531 0.0270237 0.606104
0.0234531 0.0270237 0.606104
0.16437 0.0302586 0.627955
0.737819 0.0270542 0.718837
0.805203 0.0279698 0.732296
0.805203 0.0279698 0.732296
0.805203 0.0279698 0.732296
0.0234531 0.0270237 0.606104
0.0234531 0.0270237 0.606104
0.0234531 0.0270237 0.606104
0.0234531 0.0270237 0.606104
0.297566 0.0310216 0.649943
0.742855 0.0271153 0.719646
0.805203 0.0279698 0.732296
0.805203 0.0279698 0.732296
0.805203 0.0279698 0.732296
0.00453193 0.475257 0.763088
0.00454719 0.474861 0.762951
0.00457771 0.473289 0.762463
0.00476081 0.466026 0.760082
0.0052491 0.444038 0.752773
0.732372 0.511528 0.787976
0.83241 0.402213 0.775051
0.805203 0.0279698 0.732296
0.805203 0.0279698 0.732296
0 0.655711 0.817975
0 0.655665 0.81796
0 0.655573 0.817929
0 0.655299 0.817838
0 0.654566 0.817578
0.606592 0.824445 0.833982
0.868833 0.840818 0.838437
0.887495 0.826429 0.836591
0.883375 0.774563 0.830793
0 0.665171 0.821653
0 0.665171 0.821653
0 0.665171 0.821653
0 0.665171 0.821653
0 0.777401 0.840864
0.60473 0.847211 0.838102
0.846265 0.878035 0.843992
0.890257 0.881819 0.844312
0.890257 0.881819 0.844312
0.673457 0.85713 0.840436
0.675578 0.85742 0.840497
0.678828 0.857877 0.840589
0.688762 0.859236 0.840848
0.716548 0.862913 0.84152
0.775998 0.869947 0.842725
0.851087 0.878553 0.844068
0.890257 0.881819 0.844312
0.890257 0.881819 0.844312
0.0234531 0.0270237 0.606104
0.0234531 0.0270237 0.606104
0.0234531 0.0270237 0.606104
0.0234531 0.0270237 0.606104
0.0234531 0.0270237 0.606104
0.517006 0.0248875 0.684199
0.802121 0.0278935 0.731472
0.805203 0.0279698 0.732296
0.805203 0.0279698 0.732296
0.0234531 0.0270237 0.606104
0.0234531 0.0270237 0.606104
0.0234531 0.0270237 0.606104
0.0234531 0.0270237 0.606104
0.0234531 0.0270237 0.606104
0.51986 0.0248875 0.684642
0.802167 0.0278935 0.731487
0.805203 0.0279698 0.732296
0.805203 0.0279698 0.732296
0.0234531 0.0270237 0.606104
0.0234531 0.0270237 0.606104
0.0234531 0.0270237 0.606104
0.0234531 0.0270237 0.606104
0.0234531 0.0270237 0.606104
0.52433 0.0248875 0.685328
0.802228 0.0278935 0.731487
0.805203 0.0279698 0.732296
0.805203 0.0279698 0.732296
0.0234531 0.0270237 0.606104
0.0234531 0.0270237 0.606104
0.0234531 0.0270237 0.606104
0.0234531 0.0270237 0.606104
0.0234531 0.0270237 0.606104
0.537926 0.0248722 0.687343
0.802411 0.0279088 0.731548
0.805203 0.0279698 0.732296
0.805203 0.0279698 0.732296
0.0234531 0.0270237 0.606104
0.0234531 0.0270237 0.606104
0.0234531 0.0270237 0.606104
0.0234531 0.0270237 0.606104
0.0234531 0.0270237 0.606104
0.572747 0.0251164 0.692805
0.803067 0.0279088 0.731731
0.805203 0.0279698 0.732296
0.805203 0.0279698 0.732296
0.0234531 0.0270237 0.606104
0.0234531 0.0270237 0.606104
0.0234531 0.0270237 0.606104
0.0234531 0.0270237 0.606104
0.0234531 0.0270237 0.606104
0.646952 0.0259861 0.70457
0.804913 0.0279545 0.732235
0.805203 0.0279698 0.732296
0.805203 0.0279698 0.732296
0.000259403 0.625849 0.808148
0.000259403 0.625849 0.808148
0.000259403 0.625803 0.808133
0.000289921 0.624628 0.807736
0.000396735 0.620981 0.806561
0.0849012 0.733883 0.821729
0.858869 0.758785 0.828809
0.877104 0.707805 0.823316
0.841489 0.458045 0.784924
0 0.665171 0.821653
0 0.665171 0.821653
0 0.665171 0.821653
0 0.665171 0.821653
0 0.665171 0.821653
0.0500954 0.811322 0.838697
0.823072 0.875456 0.843626
0.890257 0.881819 0.844312
0.890272 0.876616 0.843458
0.506249 0.833509 0.835264
0.510964 0.83415 0.835416
0.518563 0.835172 0.835615
0.541894 0.838315 0.836255
0.598764 0.846326 0.837903
0.707637 0.861799 0.841321
0.831357 0.876417 0.843809
0.890257 0.881819 0.844312
0.890257 0.881819 0.844312
