LUTS/Secondary LUTS/SUPERIA.cube
TITLE "Generated by Resolve"
LUT_3D_SIZE 33
0.0630198 0.0842451 0.0949111
0.0630198 0.0842451 0.0949111
0.0630198 0.0842451 0.0949111
0.0630198 0.0842451 0.0949111
0.0707256 0.0860761 0.0956283
0.0846265 0.0883803 0.0962539
0.0985733 0.090898 0.0966354
0.112795 0.0944686 0.0968948
0.128771 0.0987564 0.0968338
0.155016 0.103456 0.0964065
0.198199 0.107424 0.0941787
0.248768 0.111757 0.0899977
0.3075 0.113832 0.0814069
0.379171 0.109071 0.0621653
0.458335 0.0982681 0.0363622
0.527565 0.081178 0.0322881
0.587366 0.0543221 0.0357671
0.637278 0.0445106 0.0369726
0.674403 0.0390784 0.0363012
0.700053 0.0367132 0.0353704
0.71899 0.033875 0.0341039
0.733532 0.0330053 0.0330663
0.745678 0.0328679 0.0331579
0.750362 0.0332494 0.033753
0.750362 0.0332494 0.033753
0.750362 0.0332494 0.033753
0.750362 0.0332494 0.033753
0.750286 0.0329747 0.0348211
0.749905 0.03122 0.0425116
0.74963 0.0299535 0.0484932
0.749416 0.0289616 0.0545357
0.74934 0.028809 0.0649424
0.749264 0.028687 0.0746929
0.0630198 0.0842451 0.0949111
0.0630198 0.0842451 0.0949111
0.0630198 0.0842451 0.0949111
0.0630198 0.0842451 0.0949111
0.0721447 0.0862898 0.0956741
0.0863203 0.0887007 0.0963149
0.0998856 0.0912032 0.0966354
0.113161 0.0945754 0.09691
0.12929 0.0988479 0.0968185
0.155688 0.103563 0.0964065
0.198978 0.107485 0.0941024
0.249561 0.111788 0.0898909
0.308278 0.113863 0.0813153
0.379904 0.10898 0.0619059
0.45893 0.0981613 0.0361486
0.527932 0.0810559 0.0322728
0.587716 0.0541238 0.0357824
0.637476 0.0444648 0.0369726
0.67454 0.0390784 0.036286
0.700099 0.0367132 0.0353704
0.71899 0.033875 0.0341039
0.733532 0.0330053 0.0330663
0.745708 0.0328679 0.0331426
0.750362 0.0332494 0.033753
0.750362 0.0332494 0.033753
0.750362 0.0332494 0.033753
0.750362 0.0332494 0.033753
0.750286 0.0329747 0.0348211
0.749905 0.03122 0.0425116
0.74963 0.0299535 0.0484932
0.749416 0.0289616 0.0545357
0.74934 0.028809 0.0649424
0.749264 0.028687 0.0746929
0.0630198 0.0842451 0.0949111
0.0630198 0.0842451 0.0949111
0.0630198 0.0842451 0.0949111
0.0630198 0.0842451 0.0949111
0.071519 0.0862135 0.0956741
0.0865339 0.0887312 0.0963149
0.10071 0.0914015 0.0966506
0.114748 0.0950484 0.0968948
0.13109 0.0992447 0.0968032
0.155764 0.103578 0.0964065
0.199207 0.1075 0.0940871
0.24979 0.111803 0.0898451
0.3084 0.113848 0.0812848
0.380041 0.108965 0.0618448
0.459068 0.0981308 0.0361028
0.528191 0.0809644 0.0322728
0.587823 0.0540627 0.0357824
0.637675 0.044419 0.0369726
0.674662 0.0390631 0.036286
0.700206 0.0366827 0.0353552
0.719036 0.033875 0.0341039
0.733562 0.0330053 0.0330663
0.745708 0.0328679 0.0331426
0.750362 0.0332494 0.033753
0.750362 0.0332494 0.033753
0.750362 0.0332494 0.033753
0.750362 0.0332494 0.033753
0.750286 0.0329747 0.0348211
0.749905 0.03122 0.0425116
0.74963 0.0299535 0.0484932
0.749416 0.0289616 0.0545357
0.74934 0.028809 0.0649424
0.749264 0.028687 0.0746929
0.0612039 0.0894026 0.0969253
0.0616464 0.0888991 0.0968032
0.0617533 0.0885481 0.0966659
0.0619364 0.0878767 0.096376
0.0683299 0.0880598 0.0962234
0.0844739 0.0897383 0.0963912
0.100496 0.0915541 0.0966049
0.115663 0.0953384 0.0968948
0.133425 0.0997482 0.0968032
0.160784 0.104341 0.0962844
0.200793 0.107637 0.0939803
0.249332 0.111788 0.0899214
0.308156 0.113863 0.0813306
0.379751 0.108995 0.0619516
0.45893 0.0981613 0.0361486
0.528069 0.0810101 0.0322728
0.587823 0.0540627 0.0357824
0.637675 0.044419 0.0369726
0.674739 0.0390631 0.0362707
0.700267 0.0366827 0.0353552
0.719081 0.033875 0.0340887
0.733608 0.0330053 0.0330663
0.745739 0.0328679 0.0331426
0.750362 0.0332494 0.033753
0.750362 0.0332494 0.033753
0.750362 0.0332494 0.033753
0.750362 0.0332494 0.033753
0.750286 0.0329747 0.0348211
0.749905 0.03122 0.0425116
0.74963 0.0299535 0.0484932
0.749416 0.0289616 0.0545357
0.74934 0.028809 0.0649424
0.749264 0.028687 0.0746929
0.0518502 0.099321 0.0993057
0.052491 0.0987564 0.0991684
0.0522774 0.0989548 0.0992142
0.0532692 0.0979629 0.0989548
0.0609903 0.096788 0.0984817
0.0790112 0.0976883 0.0982376
0.0962844 0.0991684 0.098024
0.112657 0.100755 0.0975814
0.129458 0.102358 0.0970474
0.15906 0.104417 0.0961929
0.206119 0.108095 0.0935836
0.254978 0.112139 0.0892195
0.307134 0.113832 0.0814832
0.378882 0.109102 0.0622721
0.458183 0.0982986 0.0364233
0.527687 0.0811322 0.0322881
0.587594 0.0541848 0.0357671
0.637583 0.0444343 0.0369726
0.674662 0.0390631 0.036286
0.700267 0.0366827 0.0353552
0.719127 0.033875 0.0340887
0.733608 0.0330053 0.0330663
0.745739 0.0328679 0.0331426
0.750362 0.0332494 0.033753
0.750362 0.0332494 0.033753
0.750362 0.0332494 0.033753
0.750362 0.0332494 0.033753
0.750286 0.0329747 0.0348211
0.749905 0.03122 0.0425116
0.74963 0.0299535 0.0484932
0.749416 0.0289616 0.0545357
0.74934 0.028809 0.0649424
0.749264 0.028687 0.0746929
0.0425879 0.107927 0.101732
0.043061 0.107469 0.101595
0.0434577 0.107118 0.101503
0.0443275 0.10631 0.101289
0.0467079 0.104906 0.100816
0.070985 0.105623 0.100069
0.0923171 0.10721 0.0996262
0.110735 0.109209 0.0990921
0.127016 0.111467 0.0982071
0.153857 0.112978 0.096849
0.197818 0.111452 0.093904
0.254978 0.112139 0.0892195
0.313832 0.113725 0.0801556
0.377554 0.109224 0.0626535
0.457099 0.0984207 0.0366522
0.52694 0.0813764 0.0323186
0.587137 0.0544442 0.0357671
0.637385 0.04448 0.0369726
0.674601 0.0390631 0.036286
0.700267 0.0366827 0.0353552
0.719158 0.0338598 0.0340887
0.733639 0.0330053 0.0330663
0.745769 0.0328679 0.0331426
0.750362 0.0332494 0.033753
0.750362 0.0332494 0.033753
0.750362 0.0332494 0.033753
0.750362 0.0332494 0.033753
0.750286 0.0329595 0.0349126
0.749905 0.03122 0.0425116
0.74963 0.0299535 0.0484932
0.749416 0.0289616 0.0545357
0.74934 0.028809 0.0649424
0.749264 0.028687 0.0746929
0.0318608 0.116228 0.104082
0.0322881 0.115877 0.10396
0.0328985 0.115419 0.103853
0.0336919 0.114794 0.10367
0.0352178 0.113603 0.103319
0.0552071 0.113527 0.102312
0.0856336 0.115343 0.101656
0.107973 0.117739 0.100893
0.125154 0.120577 0.0999008
0.151797 0.123049 0.0982376
0.194003 0.123507 0.0948196
0.245426 0.12134 0.0895857
0.309926 0.113863 0.0810254
0.383658 0.108553 0.0606394
0.455283 0.0986801 0.0371557
0.525795 0.0816968 0.0322576
0.586313 0.0547951 0.0356756
0.63679 0.0446174 0.0369879
0.674403 0.0390784 0.0363012
0.70016 0.0366979 0.0353704
0.719127 0.033875 0.0340887
0.733684 0.0330053 0.0330663
0.745769 0.0328679 0.0331426
0.750362 0.0332494 0.033753
0.750362 0.0332494 0.033753
0.750362 0.0332494 0.033753
0.750362 0.0332494 0.033753
0.750286 0.0329595 0.0349126
0.749905 0.03122 0.0425116
0.74963 0.0299535 0.0484932
0.749416 0.0289616 0.0545357
0.74934 0.028809 0.0649424
0.749264 0.028687 0.0746929
0.0266423 0.125628 0.107515
0.0267643 0.125338 0.107408
0.0268711 0.124987 0.107256
0.027039 0.124605 0.107118
0.0273899 0.123659 0.106752
0.0305333 0.122454 0.105928
0.0712139 0.124224 0.104433
0.103044 0.127199 0.103273
0.123491 0.130831 0.102037
0.14963 0.134279 0.100298
0.191943 0.136278 0.0966659
0.244282 0.136736 0.090486
0.300893 0.133516 0.0805829
0.370382 0.118318 0.061265
0.457252 0.0983902 0.0366064
0.523537 0.0823835 0.0322423
0.584802 0.0555276 0.035584
0.635798 0.0447852 0.0369726
0.673838 0.0390936 0.0363012
0.699916 0.0367285 0.0353704
0.719036 0.033875 0.0341039
0.733684 0.0330053 0.0330663
0.7458 0.0328679 0.0331426
0.750362 0.0332494 0.033753
0.750362 0.0332494 0.033753
0.750362 0.0332494 0.033753
0.750362 0.0332494 0.033753
0.750286 0.0329595 0.0349126
0.749905 0.03122 0.0425116
0.74963 0.0299535 0.0484932
0.749416 0.0289616 0.0545357
0.74934 0.028809 0.0649424
0.749264 0.028687 0.0746929
0.0228885 0.137942 0.111147
0.0229953 0.137606 0.111055
0.0230869 0.137255 0.110948
0.0232242 0.136812 0.110842
0.0233616 0.136385 0.110719
0.023743 0.135012 0.110338
0.0392615 0.134035 0.108476
0.0913863 0.136858 0.106661
0.119142 0.140887 0.105058
0.146593 0.145586 0.103197
0.189441 0.149096 0.0992142
0.244556 0.151553 0.092256
0.302403 0.152026 0.0815595
0.368261 0.145571 0.0608835
0.442725 0.127657 0.0360418
0.520241 0.0833448 0.0321508
0.582361 0.0567941 0.0354772
0.634211 0.0450904 0.0369573
0.672999 0.0391241 0.0363165
0.699397 0.0368353 0.0354009
0.718776 0.0338903 0.0341192
0.733562 0.0330053 0.0330663
0.7458 0.0328679 0.0331426
0.750362 0.0332494 0.033753
0.750362 0.0332494 0.033753
0.750362 0.0332494 0.033753
0.750362 0.0332494 0.033753
0.750286 0.0329595 0.0349126
0.749905 0.03122 0.0425116
0.74963 0.0299535 0.0484932
0.749416 0.0289616 0.0545357
0.74934 0.028809 0.0649424
0.749264 0.028687 0.0746929
0.0189975 0.154681 0.114717
0.019089 0.15433 0.114641
0.0191806 0.153918 0.114565
0.0192721 0.15349 0.114473
0.019379 0.153017 0.114382
0.0194858 0.152544 0.11429
0.019913 0.150683 0.113909
0.0568551 0.150927 0.110475
0.108568 0.155169 0.108309
0.139376 0.160403 0.105928
0.18378 0.165026 0.101976
0.243351 0.168444 0.0946517
0.304738 0.170367 0.0834516
0.372656 0.167895 0.0619364
0.447791 0.160494 0.0332799
0.518715 0.145342 0.0234531
0.574197 0.099855 0.0260319
0.632914 0.045304 0.0369421
0.671626 0.0391852 0.0363622
0.698573 0.0369726 0.0354467
0.718227 0.0339361 0.034165
0.733227 0.0330205 0.0330968
0.745678 0.0328679 0.0331579
0.750362 0.0332494 0.033753
0.750362 0.0332494 0.033753
0.750362 0.0332494 0.033753
0.750362 0.0332494 0.033753
0.750286 0.0329595 0.0349126
0.749905 0.03122 0.0425116
0.74963 0.0299535 0.0484932
0.749416 0.0289616 0.0545357
0.74934 0.028809 0.0649424
0.749264 0.028687 0.0746929
0.0173495 0.180011 0.117678
0.0173648 0.179599 0.117632
0.0173953 0.179095 0.117571
0.0174258 0.178607 0.117525
0.0174563 0.178042 0.117479
0.0174868 0.177462 0.117418
0.0175174 0.176822 0.117357
0.0177005 0.173663 0.116945
0.0681773 0.176379 0.11133
0.121736 0.182574 0.108217
0.171328 0.188449 0.104189
0.237659 0.192218 0.0959793
0.305043 0.195514 0.0826886
0.377081 0.195575 0.0575113
0.456275 0.191287 0.0300145
0.531472 0.183749 0.0217746
0.588159 0.167697 0.0225223
0.631708 0.132616 0.024918
0.669047 0.0392615 0.0364233
0.697154 0.0371405 0.0354925
0.717372 0.0339971 0.0342412
0.732586 0.033051 0.0331273
0.745327 0.0328374 0.0330968
0.750362 0.0332494 0.033753
0.750362 0.0332494 0.033753
0.750362 0.0332494 0.033753
0.750362 0.0332494 0.033753
0.750286 0.0329595 0.0349126
0.749905 0.03122 0.0425116
0.74963 0.0299535 0.0484932
0.749416 0.0289616 0.0545357
0.74934 0.028809 0.0649424
0.749264 0.028687 0.0746929
0.0158846 0.208942 0.120516
0.0158999 0.20853 0.12047
0.0159304 0.208087 0.120409
0.0159457 0.207599 0.120363
0.0159762 0.207111 0.120333
0.0159915 0.206699 0.120287
0.016022 0.206012 0.120211
0.0160678 0.205112 0.120134
0.0190127 0.203601 0.116793
0.0785077 0.211185 0.109987
0.147021 0.220325 0.104234
0.222568 0.227604 0.0940261
0.300206 0.233478 0.0747845
0.378576 0.236667 0.0429541
0.463127 0.236133 0.0227817
0.544427 0.230716 0.0187381
0.607111 0.218677 0.0196078
0.654826 0.197848 0.0213626
0.687282 0.167147 0.0235904
0.702266 0.10782 0.0271916
0.716731 0.0340429 0.0343023
0.731655 0.0331121 0.0331884
0.744732 0.0327611 0.0329747
0.750362 0.0332494 0.033753
0.750362 0.0332494 0.033753
0.750362 0.0332494 0.033753
0.750362 0.0332494 0.033753
0.750286 0.0329595 0.0349126
0.749905 0.03122 0.0425116
0.74963 0.0299535 0.0484932
0.749416 0.0289616 0.0545357
0.74934 0.028809 0.0649424
0.749264 0.028687 0.0746929
0.0142519 0.241535 0.123415
0.0142672 0.241154 0.123384
0.0142824 0.240696 0.123384
0.014313 0.240253 0.123384
0.0143282 0.239826 0.123354
0.0143587 0.239384 0.123293
0.0143893 0.238788 0.123262
0.0144198 0.238041 0.123201
0.0144503 0.237598 0.12314
0.0184939 0.241245 0.114961
0.0966812 0.253758 0.105043
0.194644 0.2654 0.0925307
0.287907 0.275364 0.0647288
0.376165 0.284779 0.0260014
0.467262 0.290471 0.0160678
0.555688 0.291508 0.0149233
0.625116 0.285679 0.0155642
0.677867 0.271 0.0168307
0.71574 0.247456 0.0186923
0.736736 0.21529 0.02121
0.742809 0.171283 0.0240482
0.735515 0.0660105 0.0296483
0.743862 0.0326848 0.0328679
0.750362 0.0332494 0.033753
0.750362 0.0332494 0.033753
0.750362 0.0332494 0.033753
0.750362 0.0332494 0.033753
0.750286 0.0329442 0.0349889
0.749905 0.0312047 0.0425879
0.74963 0.0299535 0.0484932
0.749416 0.0289616 0.0545357
0.74934 0.028809 0.0649424
0.749264 0.028687 0.0746929
0.0124514 0.280095 0.123735
0.0124666 0.279683 0.12372
0.0124819 0.279301 0.123735
0.0125124 0.278828 0.123751
0.0125277 0.278462 0.123751
0.0125429 0.277989 0.123766
0.0125734 0.277485 0.123751
0.012604 0.276722 0.123766
0.0126497 0.275654 0.123766
0.0126497 0.275654 0.123766
0.0170291 0.289036 0.107515
0.139437 0.305623 0.0886397
0.26421 0.320409 0.0518502
0.367468 0.335927 0.019913
0.466651 0.347189 0.0121767
0.562966 0.352834 0.0113375
0.640635 0.352178 0.011368
0.698878 0.344656 0.0118715
0.741894 0.330526 0.0129854
0.768307 0.310643 0.0145113
0.780591 0.28249 0.0166934
0.7823 0.23978 0.0197757
0.772564 0.173053 0.0242313
0.750362 0.0332494 0.033753
0.750362 0.0332494 0.033753
0.750362 0.0332494 0.033753
0.750362 0.0332494 0.033753
0.750286 0.0329442 0.0349889
0.749905 0.0312047 0.0425879
0.74963 0.0299382 0.0485847
0.749416 0.0289616 0.0545357
0.74934 0.028809 0.0649424
0.749264 0.0286717 0.0748608
0.0106661 0.325444 0.121706
0.0106966 0.324987 0.121721
0.0106966 0.324666 0.121752
0.0107118 0.324254 0.121798
0.0107271 0.323827 0.121843
0.0107424 0.3234 0.121889
0.0107729 0.322835 0.121904
0.0108034 0.322103 0.121981
0.0108339 0.321141 0.122087
0.0108797 0.319844 0.122179
0.0106966 0.327092 0.113069
0.0375677 0.349859 0.0813916
0.217197 0.370428 0.0360418
0.348135 0.391882 0.0128939
0.458427 0.408469 0.00880446
0.563302 0.41825 0.00769055
0.650675 0.421714 0.00703441
0.715175 0.418204 0.00686656
0.763638 0.408392 0.00726329
0.796002 0.394659 0.00816358
0.813352 0.376196 0.00939956
0.820951 0.351263 0.0114595
0.820401 0.316503 0.0141756
0.801404 0.256977 0.0187381
0.76762 0.13994 0.0262303
0.750362 0.0332494 0.033753
0.750362 0.0332494 0.033753
0.750362 0.0332494 0.033753
0.749905 0.0312047 0.0425879
0.74963 0.0299382 0.0485847
0.749416 0.0289616 0.0545357
0.74934 0.028809 0.0649424
0.749264 0.0286717 0.0748608
0.00907912 0.373358 0.116503
0.00909438 0.373068 0.116548
0.00909438 0.372671 0.116609
0.00910964 0.372381 0.116655
0.00910964 0.372091 0.116701
0.0091249 0.371695 0.116762
0.00914015 0.371267 0.116793
0.00914015 0.370687 0.116884
0.00917067 0.369909 0.117006
0.00918593 0.368872 0.117113
0.00917067 0.369909 0.117006
0.00898756 0.392401 0.0779431
0.103182 0.421927 0.0251164
0.314397 0.4486 0.00967422
0.441581 0.471809 0.00654612
0.556558 0.48661 0.00451667
0.655329 0.495048 0.00308232
0.726467 0.495415 0.00238041
0.780468 0.489189 0.00218204
0.81854 0.479179 0.00224308
0.840406 0.465522 0.00294499
0.852415 0.44686 0.00404364
0.857679 0.422965 0.00563058
0.847684 0.387533 0.00839246
0.828611 0.335836 0.0126345
0.797681 0.244419 0.0196078
0.750362 0.0332494 0.033753
0.750362 0.0332494 0.033753
0.750362 0.0332494 0.033753
0.74963 0.0299382 0.0485847
0.749416 0.0289616 0.0545357
0.74934 0.028809 0.0649424
0.749264 0.0286717 0.0748608
0.00813306 0.416159 0.109834
0.00813306 0.415915 0.10988
0.00814832 0.415656 0.109941
0.00814832 0.415396 0.109987
0.00814832 0.415229 0.110018
0.00816358 0.414969 0.110063
0.00816358 0.414633 0.11014
0.00817884 0.41416 0.11017
0.00817884 0.413642 0.110277
0.00819409 0.412879 0.11043
0.00822461 0.411902 0.110567
0.00820935 0.421408 0.0929274
0.0197604 0.462745 0.0227207
0.250751 0.495567 0.00975052
0.411414 0.525643 0.00508125
0.539849 0.547524 0.00209049
0.651499 0.562158 0.000366217
0.733318 0.568521 1.5259e-05
0.794293 0.56733 0
0.838453 0.562234 0
0.864164 0.553506 0
0.880339 0.541161 0
0.888808 0.524651 0
0.885252 0.499992 0.000900282
0.873457 0.463432 0.00276188
0.856168 0.411673 0.00646983
0.82591 0.328527 0.0132296
0.77055 0.152041 0.0255131
0.750362 0.0332494 0.033753
0.750362 0.0332494 0.033753
0.749416 0.0289616 0.0545357
0.74934 0.028809 0.0649424
0.749264 0.0286717 0.0748608
0.00764477 0.452918 0.0991989
0.00764477 0.452766 0.0992599
0.00764477 0.452613 0.099321
0.00766003 0.452384 0.0994125
0.00766003 0.452232 0.0994736
0.00766003 0.452064 0.0995346
0.00766003 0.451804 0.0995499
0.00766003 0.451499 0.0996719
0.00767529 0.451102 0.0998245
0.00767529 0.450568 0.100038
0.00769055 0.44976 0.100267
0.00770581 0.44892 0.100603
0.0081178 0.48806 0.0246433
0.133364 0.530343 0.0120699
0.369574 0.565698 0.00468452
0.514061 0.594125 0.000671397
0.639124 0.615061 0
0.732692 0.627604 0
0.801038 0.631769 0
0.851148 0.6309 0
0.882979 0.627115 0
0.902998 0.620325 0
0.915099 0.611078 0
0.917418 0.597162 0
0.90985 0.574929 0
0.899138 0.542687 0
0.88127 0.487694 0.00135805
0.854047 0.405402 0.00694286
0.805722 0.270207 0.0177615
0.750362 0.0332494 0.033753
0.750362 0.0332494 0.033753
0.74934 0.028809 0.0649424
0.749264 0.0286717 0.0748608
0.00759899 0.484627 0.0827192
0.00759899 0.484504 0.0828107
0.00759899 0.484367 0.0829023
0.00759899 0.484245 0.0830091
0.00759899 0.484108 0.0831006
0.00759899 0.483986 0.0831922
0.00759899 0.483848 0.0832837
0.00761425 0.483619 0.0833143
0.00761425 0.483299 0.0835431
0.00761425 0.482963 0.0837873
0.00761425 0.482521 0.0841077
0.00762951 0.481834 0.0844587
0.00784314 0.502251 0.0353246
0.0289616 0.55845 0.0139315
0.317983 0.597696 0.00515755
0.48278 0.632853 0.000167849
0.619669 0.658763 0
0.726131 0.676951 0
0.802563 0.685924 0
0.858167 0.687816 0
0.895247 0.686931 0
0.918364 0.683482 0
0.933608 0.677729 0
0.940917 0.669734 0
0.936706 0.656474 0
0.931075 0.638743 0
0.921599 0.609766 0
0.905806 0.56289 0
0.880888 0.486564 0.00140383
0.838361 0.361639 0.0105135
0.750362 0.0332494 0.033753
0.750362 0.0332494 0.033753
0.749264 0.0286717 0.0748608
0.00753796 0.510994 0.0654307
0.00753796 0.510842 0.0653544
0.00753796 0.510796 0.0653697
0.00753796 0.510719 0.0654154
0.00753796 0.510674 0.0654307
0.00753796 0.510582 0.0654765
0.00753796 0.510506 0.065507
0.00753796 0.510414 0.0655528
0.00753796 0.510246 0.0656291
0.00753796 0.510063 0.0657054
0.00755322 0.509743 0.0657206
0.00755322 0.5093 0.0660563
0.00753796 0.510109 0.0656901
0.00865187 0.57731 0.0139925
0.243687 0.622614 0.00680552
0.450477 0.662364 0.000244144
0.598245 0.693233 0
0.715419 0.71635 0
0.798413 0.729244 0
0.85977 0.734478 0
0.902113 0.736416 0
0.928512 0.735759 0
0.945174 0.732845 0
0.953338 0.727153 0
0.952224 0.718914 0
0.950759 0.708095 0
0.946883 0.690929 0
0.939376 0.664897 0
0.927398 0.627359 0
0.906706 0.565682 0
0.86865 0.448508 0.00370794
0.780713 0.188159 0.0233768
0.750362 0.0332494 0.033753
0.00732433 0.528572 0.0612955
0.00732433 0.528542 0.0613107
0.00732433 0.528496 0.061326
0.00732433 0.528466 0.0613413
0.00732433 0.528389 0.0613565
0.00732433 0.528359 0.0613718
0.00732433 0.528313 0.061387
0.00732433 0.528252 0.0614176
0.00732433 0.52813 0.0614481
0.00732433 0.527993 0.0614939
0.00733959 0.527779 0.061387
0.00733959 0.527565 0.0614633
0.00733959 0.52726 0.0615702
0.00727855 0.587671 0.0139162
0.174197 0.639261 0.0087129
0.422583 0.681483 0
0.577981 0.716182 0
0.704128 0.743526 0
0.791943 0.760479 0
0.858274 0.769574 0
0.905577 0.774197 0
0.93492 0.775341 0
0.95082 0.773404 0
0.954711 0.768292 0
0.955169 0.763256 0
0.955306 0.757168 0
0.954833 0.747692 0
0.953964 0.733669 0
0.951446 0.713115 0
0.94435 0.681956 0
0.928908 0.632029 0
0.897002 0.536171 0
0.822553 0.319127 0.0139773
0.00714122 0.541802 0.0629435
0.00714122 0.541787 0.0629435
0.00714122 0.541756 0.0629282
0.00714122 0.541756 0.0629282
0.00714122 0.541726 0.0629129
0.00714122 0.541695 0.0628977
0.00714122 0.54168 0.0628824
0.00712596 0.541619 0.0628519
0.00712596 0.541573 0.0628367
0.00712596 0.541497 0.0627909
0.00712596 0.541329 0.062562
0.00712596 0.541238 0.0625162
0.00712596 0.54107 0.0624247
0.007187 0.597314 0.0138705
0.142596 0.651301 0.00949111
0.403235 0.693675 0.000335698
0.562051 0.730297 0
0.691142 0.759503 0
0.783764 0.779065 0
0.853544 0.790082 0
0.905043 0.796521 0
0.935744 0.799359 0
0.952819 0.799191 0
0.953948 0.79501 0
0.954253 0.791547 0
0.954406 0.788022 0
0.954589 0.783673 0
0.954849 0.777417 0
0.955093 0.766522 0
0.955077 0.751598 0
0.95346 0.728054 0
0.945937 0.687556 0
0.922393 0.612161 0
0.00701915 0.552071 0.0727398
0.00701915 0.552071 0.0727398
0.00701915 0.552041 0.0727245
0.00701915 0.552026 0.072694
0.00701915 0.551995 0.0726787
0.00701915 0.551995 0.0726787
0.00701915 0.551965 0.0726482
0.00701915 0.551919 0.0726024
0.00701915 0.551904 0.0725719
0.00703441 0.551858 0.0725261
0.00703441 0.551781 0.0724498
0.00703441 0.551629 0.0721904
0.00703441 0.551537 0.0720989
0.00691234 0.613352 0.0136568
0.1552 0.66363 0.00883497
0.399222 0.704158 0.000335698
0.553109 0.740261 0
0.680903 0.76997 0
0.774777 0.791363 0
0.846876 0.804486 0
0.900877 0.812116 0
0.935012 0.816159 0
0.952239 0.81651 0
0.953201 0.812833 0
0.953338 0.809964 0
0.953429 0.807828 0
0.953582 0.804898 0
0.95378 0.801053 0
0.954025 0.796292 0
0.95433 0.789593 0
0.954726 0.780133 0
0.955169 0.76318 0
0.953948 0.733364 0
0.00675975 0.561334 0.0865797
0.00675975 0.561303 0.0865339
0.00675975 0.561303 0.0865339
0.00675975 0.561288 0.0864881
0.00675975 0.561257 0.0864424
0.00675975 0.561257 0.0864424
0.00675975 0.561242 0.0863966
0.00675975 0.561227 0.0863508
0.00675975 0.561196 0.086305
0.00675975 0.561151 0.0862135
0.00675975 0.561105 0.0861067
0.00675975 0.561074 0.0860151
0.00675975 0.561028 0.0859236
0.0118563 0.639918 0.0132753
0.220996 0.67921 0.0059968
0.41529 0.715999 1.5259e-05
0.554849 0.749126 0
0.675883 0.777646 0
0.767315 0.798978 0
0.839323 0.813321 0
0.89485 0.822232 0
0.933013 0.827756 0
0.949859 0.828519 0
0.952621 0.825864 0
0.952712 0.823224 0
0.952773 0.821836 0
0.95285 0.820218 0
0.952956 0.817899 0
0.953109 0.814786 0
0.953292 0.810987 0
0.953521 0.805966 0
0.953902 0.798672 0
0.954406 0.787762 0
0.00674449 0.561822 0.0876478
0.00674449 0.561822 0.0876478
0.00674449 0.561822 0.0876478
0.00674449 0.561822 0.0876478
0.00674449 0.561822 0.0876478
0.00674449 0.561822 0.0876478
0.00674449 0.561822 0.0876478
0.00674449 0.561822 0.0876478
0.00674449 0.561822 0.0876478
0.00674449 0.561822 0.0876478
0.00674449 0.561822 0.0876478
0.00674449 0.561822 0.0876478
0.00764477 0.631266 0.0134279
0.106203 0.665599 0.0102693
0.310643 0.694942 0.00247196
0.448951 0.726268 0
0.568963 0.755535 0
0.677302 0.782238 0
0.762722 0.803555 0
0.832319 0.819196 0
0.888334 0.829389 0
0.928679 0.835889 0
0.948028 0.837598 0
0.952087 0.83566 0
0.952224 0.833036 0
0.952285 0.831891 0
0.952361 0.83061 0
0.952438 0.82919 0
0.952514 0.82742 0
0.952621 0.825193 0
0.952743 0.822446 0
0.952911 0.818921 0
0.953185 0.813123 0
0.00646983 0.563058 0.112062
0.00646983 0.563058 0.112062
0.00646983 0.563058 0.112062
0.00646983 0.563043 0.111833
0.00646983 0.563043 0.111833
0.00646983 0.563043 0.111833
0.00646983 0.563043 0.111833
0.00646983 0.563043 0.111833
0.00688182 0.579538 0.0602121
0.00691234 0.612314 0.0154421
0.00807202 0.634897 0.0133974
0.0425116 0.65449 0.0124666
0.155413 0.672847 0.00848402
0.297292 0.692302 0.00300603
0.402853 0.715053 0.000198367
0.500206 0.738872 0
0.597162 0.762402 0
0.687633 0.784833 0
0.762722 0.803555 0
0.827405 0.818219 0
0.881193 0.82858 0
0.922576 0.836454 0
0.946303 0.840421 0
0.951888 0.839918 0
0.95198 0.838209 0
0.952026 0.837751 0
0.952026 0.837751 0
0.952026 0.837751 0
0.952041 0.836973 0
0.952102 0.835416 0
0.952209 0.833494 0
0.952331 0.831174 0
0.952483 0.828305 0
0.0330205 0.650614 0.012726
0.0394598 0.653498 0.0125582
0.0486915 0.656291 0.0122835
0.06392 0.658793 0.0117494
0.0788586 0.661234 0.0112154
0.0934462 0.66363 0.0107118
0.111009 0.666499 0.0100862
0.1346 0.670314 0.00926223
0.173404 0.674968 0.00779736
0.222034 0.680659 0.00595102
0.275822 0.688045 0.00387579
0.324636 0.697734 0.00190738
0.378317 0.709407 0.000579843
0.436255 0.723095 0
0.499016 0.738598 0
0.567575 0.755215 0
0.640635 0.773114 0
0.710597 0.7906 0
0.771374 0.805615 0
0.82829 0.818402 0
0.877638 0.827909 0
0.918029 0.835569 0
0.942992 0.839933 0
0.951873 0.84033 0
0.951965 0.838544 0
0.952026 0.837751 0
0.952026 0.837751 0
0.952026 0.837751 0
0.952026 0.837751 0
0.952026 0.837751 0
0.952026 0.837751 0
0.952026 0.837751 0
0.952026 0.837751 0
