LUTS/Secondary LUTS/SUPERIA.cube
TITLE "Generated by Resolve"
LUT_3D_SIZE 5
0.0630198 0.0842451 0.0949111
0.128771 0.0987564 0.0968338
0.587366 0.0543221 0.0357671
0.750362 0.0332494 0.033753
0.749264 0.028687 0.0746929
0.0228885 0.137942 0.111147
0.119142 0.140887 0.105058
0.582361 0.0567941 0.0354772
0.750362 0.0332494 0.033753
0.749264 0.028687 0.0746929
0.00813306 0.416159 0.109834
0.00817884 0.413642 0.110277
0.651499 0.562158 0.000366217
0.873457 0.463432 0.00276188
0.749264 0.0286717 0.0748608
0.00674449 0.561822 0.0876478
0.00674449 0.561822 0.0876478
0.568963 0.755535 0
0.952224 0.833036 0
0.953185 0.813123 0
0.906172 0.83331 0
0.908522 0.833753 0
0.922576 0.836454 0
0.951949 0.838941 0
0.952026 0.837751 0
0.0478523 0.0886854 0.155489
0.121599 0.100542 0.157763
0.585168 0.0362707 0.140749
0.750362 0.0332494 0.033753
0.749264 0.028687 0.0746929
0.0191501 0.138689 0.176272
0.105699 0.139742 0.165194
0.579355 0.0376898 0.130663
0.750362 0.0332494 0.033753
0.749264 0.028687 0.0746929
0.00790417 0.418219 0.134478
0.00801099 0.415015 0.128832
0.650858 0.560311 0.000427253
0.87277 0.461341 0.00289921
0.749264 0.0286717 0.0748608
0.00674449 0.561822 0.0876478
0.00674449 0.561822 0.0876478
0.568261 0.755383 0
0.952224 0.83299 0
0.953185 0.813077 0
0.906172 0.83331 0
0.908415 0.833738 0
0.922499 0.836439 0
0.951949 0.838941 0
0.952026 0.837751 0
0.0235904 0.0270695 0.430091
0.0236057 0.0270848 0.427863
0.595529 0.0285191 0.498451
0.775448 0.0268864 0.51252
0.749264 0.028687 0.0746929
0.0235904 0.0270695 0.42916
0.023621 0.0271 0.4271
0.595911 0.0285191 0.497749
0.775387 0.0268864 0.511894
0.749264 0.028687 0.0746929
0.00463874 0.463569 0.566308
0.00469978 0.459998 0.564858
0.567163 0.543481 0.557504
0.832425 0.40618 0.528161
0.749264 0.0286717 0.0748608
0.00047303 0.638102 0.612467
0.00047303 0.63801 0.611795
0.355291 0.772335 0.550866
0.921431 0.827649 0.385992
0.953201 0.812787 0
0.905867 0.833249 0
0.90811 0.833677 0
0.922332 0.836408 0
0.951949 0.838941 0
0.952026 0.837751 0
0.0234379 0.0269932 0.602045
0.0234379 0.0269932 0.602014
0.513848 0.0246738 0.675792
0.803677 0.0278935 0.724895
0.802548 0.0278325 0.718883
0.0234379 0.0269932 0.602014
0.0234379 0.0269932 0.602014
0.522499 0.0247196 0.676951
0.803677 0.0278935 0.724895
0.802548 0.0278325 0.718883
0.0188907 0.123354 0.649165
0.0197452 0.106813 0.646693
0.430961 0.139986 0.679454
0.803494 0.0278782 0.72401
0.802533 0.0278325 0.718776
0 0.662989 0.820768
0 0.662913 0.820706
0 0.743694 0.838453
0.876051 0.857633 0.832822
0.888487 0.822553 0.820142
0.735195 0.863005 0.819089
0.739071 0.863478 0.819013
0.765484 0.866468 0.818372
0.864958 0.877333 0.815015
0.894575 0.877943 0.795239
0.0234531 0.0270237 0.606104
0.0234531 0.0270237 0.606104
0.0234531 0.0270237 0.606104
0.802121 0.0278935 0.731472
0.805203 0.0279698 0.732296
0.0234531 0.0270237 0.606104
0.0234531 0.0270237 0.606104
0.0234531 0.0270237 0.606104
0.802228 0.0278935 0.731487
0.805203 0.0279698 0.732296
0.0234531 0.0270237 0.606104
0.0234531 0.0270237 0.606104
0.0234531 0.0270237 0.606104
0.803067 0.0279088 0.731731
0.805203 0.0279698 0.732296
0.000259403 0.625849 0.808148
0.000259403 0.625803 0.808133
0.000396735 0.620981 0.806561
0.858869 0.758785 0.828809
0.841489 0.458045 0.784924
0.506249 0.833509 0.835264
0.518563 0.835172 0.835615
0.598764 0.846326 0.837903
0.831357 0.876417 0.843809
0.890257 0.881819 0.844312
