LUTS/Secondary LUTS/TAXI DRIVER.cube
TITLE "Generated by Resolve"
LUT_3D_SIZE 33
0 0 0
0.0191196 0.00222782 0.000335698
0.0415503 0.000885023 0.000823987
0.0645151 0.00514229 0.00111391
0.0868086 0.00729381 0.00274662
0.111299 0.0113069 0.0065156
0.132128 0.0153964 0.00668345
0.159686 0.0185702 0.0065919
0.183108 0.0223392 0.0056611
0.209659 0.0252995 0.00740063
0.235767 0.0290532 0.00868238
0.263691 0.0328069 0.0112154
0.290394 0.0352941 0.0104982
0.321172 0.0371405 0.0118868
0.351568 0.0377813 0.0119783
0.383185 0.039353 0.0132448
0.416327 0.0401007 0.0138552
0.454871 0.038117 0.0166781
0.488746 0.0334173 0.0177615
0.527504 0.0256657 0.0185397
0.567254 0.0145266 0.0205997
0.608042 0.0130007 0.0197604
0.648814 0.0138552 0.0204929
0.690242 0.016083 0.0209812
0.731746 0.0155795 0.0209506
0.769696 0.0168612 0.0247959
0.808377 0.0172274 0.0235142
0.848981 0.0180819 0.0247501
0.883772 0.0205539 0.02916
0.907134 0.0194247 0.0309453
0.922606 0.019791 0.0336004
0.938277 0.0219577 0.0339971
0.953918 0.0205539 0.0394141
0.000289921 0.0257572 0
0.0158999 0.0296941 0
0.0367895 0.0319371 0.000518807
0.0611734 0.0310216 0.00234989
0.0803845 0.036286 0.000579843
0.108919 0.0390631 0.00178531
0.135149 0.0395972 0.00326543
0.158236 0.0452888 0.00695811
0.183001 0.048127 0.00762951
0.208225 0.0492256 0.0080415
0.234867 0.0523232 0.0084535
0.261601 0.055314 0.0105135
0.289647 0.0576791 0.00901808
0.320806 0.0598154 0.00909438
0.352804 0.0605936 0.0115206
0.385199 0.061326 0.0133974
0.417395 0.0620432 0.0116426
0.454902 0.0619821 0.0137484
0.490013 0.0580911 0.0158083
0.528099 0.0479744 0.0167697
0.569955 0.0392767 0.0203861
0.608301 0.0294347 0.0206455
0.648966 0.0302129 0.0189975
0.69044 0.0324712 0.0209201
0.730755 0.0320287 0.0230564
0.769482 0.0328069 0.0237736
0.810422 0.0351873 0.0259709
0.84918 0.0344549 0.0240024
0.883986 0.0368658 0.0280919
0.905531 0.0357061 0.0277867
0.922927 0.0378882 0.0328222
0.938445 0.0365454 0.0333257
0.953918 0.0369268 0.0361791
0.000656138 0.057084 0
0.0178988 0.060853 0
0.0366979 0.0578927 0.000564584
0.0595712 0.0586709 0.00227359
0.0818647 0.0623636 0.00062562
0.103304 0.0649424 0.00177005
0.128939 0.066331 0.004654
0.157076 0.0680095 0.00608835
0.181552 0.0718242 0.00526436
0.20856 0.0742809 0.00691234
0.236225 0.0749065 0.00703441
0.264195 0.0797589 0.0074464
0.29163 0.0797436 0.0080415
0.321996 0.0803998 0.0100862
0.355764 0.0836194 0.0112459
0.387243 0.0843366 0.0120394
0.419501 0.0840314 0.0130922
0.45716 0.0830549 0.013962
0.493828 0.080354 0.0155337
0.529183 0.0733349 0.0165866
0.572076 0.0649271 0.0199435
0.608942 0.0493935 0.017731
0.650889 0.0484169 0.0193332
0.690639 0.0488441 0.0201877
0.732708 0.0484169 0.0213779
0.772824 0.0492256 0.0221408
0.811337 0.0500801 0.0248722
0.85275 0.0509346 0.024506
0.885527 0.0517281 0.0252232
0.907454 0.0521248 0.0271458
0.923095 0.0525521 0.032105
0.938704 0.0529183 0.0351263
0.954284 0.0532998 0.0379034
0.00103761 0.0847334 0
0.0165408 0.0832227 0
0.0337224 0.0854353 0.000335698
0.0529946 0.087541 0
0.0738231 0.0900282 0.000167849
0.105577 0.0893263 0.00216678
0.129656 0.0912337 0.00198367
0.155795 0.0953841 0.00416571
0.179599 0.0947738 0.0043183
0.208896 0.097673 0.00616464
0.236576 0.100526 0.00709544
0.262028 0.101503 0.00595102
0.293034 0.103059 0.00828565
0.322301 0.106523 0.00822461
0.354101 0.106249 0.0100404
0.386633 0.107988 0.0107271
0.420462 0.108614 0.0113985
0.458289 0.108629 0.0128023
0.493935 0.105684 0.0141451
0.531136 0.100175 0.0148165
0.571191 0.0932631 0.0159915
0.610101 0.0802167 0.0164797
0.652811 0.0641947 0.0166476
0.695552 0.0639811 0.020737
0.734524 0.0648508 0.0235904
0.77435 0.0669871 0.0218051
0.813214 0.0667887 0.0229953
0.852613 0.0672923 0.0235447
0.885756 0.0679637 0.0224155
0.907698 0.0685435 0.028336
0.923293 0.068925 0.0314183
0.938888 0.0693065 0.0343633
0.954482 0.069688 0.0371557
0.00144961 0.115434 0
0.0184634 0.11397 0
0.032517 0.112856 0
0.0514382 0.116594 0.00177005
0.0741588 0.119097 0.00254826
0.101396 0.12108 0.000350958
0.130709 0.12166 0.00297551
0.155932 0.121477 0.00509651
0.181048 0.12372 0.00610361
0.209079 0.123171 0.00588998
0.236332 0.126055 0.00541695
0.2645 0.128374 0.00790417
0.295506 0.130831 0.00776684
0.324865 0.13225 0.0087892
0.355383 0.132891 0.00941482
0.387518 0.133608 0.0110018
0.421042 0.133471 0.0114595
0.459464 0.133364 0.0136263
0.492592 0.133104 0.013138
0.532601 0.129229 0.0137942
0.573922 0.123583 0.0157321
0.613214 0.116182 0.016022
0.654322 0.100618 0.0181735
0.693629 0.0842451 0.0207523
0.735164 0.081239 0.0229648
0.77351 0.0820172 0.0217899
0.810437 0.0827649 0.0209049
0.850446 0.0850233 0.0227512
0.885039 0.0846113 0.0256199
0.907607 0.0848707 0.025864
0.923476 0.0852979 0.0304875
0.939055 0.0856794 0.0332189
0.954589 0.0859998 0.0338293
0.00172427 0.141238 0
0.017319 0.143725 0
0.0327764 0.142046 0
0.0485847 0.144137 0
0.0675059 0.143603 0
0.0945754 0.148943 0.00242618
0.122728 0.14931 0.00381476
0.152926 0.151583 0.00361639
0.180331 0.149523 0.00363165
0.209201 0.153323 0.00395209
0.236011 0.153521 0.00480659
0.264897 0.154528 0.00547799
0.295262 0.156298 0.00822461
0.32459 0.157153 0.00943008
0.354803 0.157977 0.00891127
0.388342 0.160418 0.0091249
0.423789 0.16112 0.0112917
0.46128 0.161517 0.0129244
0.496452 0.160571 0.0129397
0.535836 0.156268 0.015198
0.576654 0.153079 0.0142824
0.614984 0.147234 0.014786
0.656458 0.13846 0.0187228
0.698024 0.119814 0.0197452
0.734813 0.101183 0.0174411
0.776608 0.0984512 0.0207523
0.812985 0.0992599 0.0209506
0.852003 0.101625 0.0221866
0.884657 0.102632 0.0233768
0.90808 0.103151 0.0262608
0.923659 0.103243 0.0288243
0.939254 0.102052 0.0328527
0.954925 0.102495 0.0381933
0.00503548 0.171435 0
0.0180362 0.173495 0
0.0332189 0.175021 0
0.0492866 0.175402 0
0.064683 0.175494 0.00132753
0.0899672 0.175128 0.000534066
0.121126 0.176928 0
0.151812 0.179736 0
0.178561 0.180682 0.00210575
0.208515 0.181201 0.00517281
0.237064 0.182879 0.00531014
0.265476 0.184192 0.00578317
0.296864 0.187015 0.00790417
0.325643 0.186419 0.00657664
0.359228 0.188418 0.00796521
0.391302 0.188754 0.00952163
0.4262 0.189502 0.0106813
0.463478 0.189425 0.0122683
0.500679 0.189044 0.013077
0.539147 0.187198 0.0131228
0.5794 0.184833 0.013138
0.619715 0.178683 0.0134279
0.663798 0.170794 0.0171969
0.700603 0.159258 0.0179141
0.740353 0.146899 0.0189822
0.775387 0.125277 0.0198062
0.812818 0.115602 0.0180209
0.853727 0.116457 0.0217288
0.885496 0.117693 0.0257115
0.908293 0.117708 0.0276799
0.923858 0.118074 0.0291447
0.939452 0.118441 0.0320287
0.955047 0.118822 0.0353552
0.00288396 0.201938 0
0.0183871 0.202213 0
0.0335546 0.20296 0
0.0490578 0.203326 0
0.0679026 0.202884 0
0.0811475 0.203586 0
0.11371 0.206165 0
0.150118 0.207279 0.00111391
0.179568 0.209201 0.00195315
0.207645 0.2094 0.00135805
0.238392 0.211185 0.00337224
0.269886 0.212711 0.00389105
0.300633 0.211749 0.00535592
0.330282 0.213687 0.00662242
0.361654 0.214374 0.00794995
0.396796 0.216602 0.00859083
0.429923 0.216602 0.0106355
0.469993 0.216297 0.0119936
0.505852 0.215198 0.0123903
0.544198 0.214725 0.0133059
0.585458 0.212131 0.0130159
0.623468 0.207324 0.0146792
0.664439 0.203479 0.0154269
0.703929 0.196948 0.0142977
0.742046 0.187945 0.0153658
0.779232 0.172595 0.0171359
0.818387 0.155444 0.0194095
0.855161 0.135348 0.0207675
0.89015 0.133654 0.0249485
0.907195 0.134173 0.0259861
0.924102 0.134478 0.0304265
0.939696 0.134859 0.0332647
0.955306 0.135256 0.0369573
0.00459297 0.229908 0
0.0201114 0.230243 0
0.0343786 0.230488 0
0.0493477 0.231312 0
0.0655222 0.232441 0
0.082002 0.231769 0
0.111284 0.233692 0
0.146014 0.23508 0
0.178317 0.239139 0
0.20853 0.237125 0.000411994
0.24062 0.239658 0.000503548
0.272587 0.241077 0.000885023
0.301274 0.242557 0.00489815
0.33196 0.244266 0.00619516
0.365133 0.244541 0.00683604
0.398489 0.245991 0.00891127
0.434272 0.245716 0.0096437
0.472969 0.245548 0.0104677
0.507439 0.246082 0.00999466
0.545785 0.244724 0.0103304
0.584604 0.24387 0.0127413
0.624582 0.240375 0.0116884
0.664881 0.236927 0.0125429
0.702922 0.231495 0.0126497
0.742596 0.227329 0.0122225
0.778958 0.218936 0.0146181
0.81677 0.208545 0.0166323
0.857862 0.197055 0.0207065
0.888395 0.186099 0.0209659
0.908782 0.171801 0.0244755
0.923033 0.157946 0.0263981
0.939818 0.151186 0.0306401
0.95555 0.151675 0.0381628
0.00311284 0.26009 0
0.0198825 0.260182 0
0.034226 0.25919 0
0.0496986 0.261585 0
0.0686503 0.261051 0
0.0809491 0.262821 0
0.102327 0.262806 0
0.140734 0.265888 0
0.179065 0.265675 0
0.20972 0.267979 0
0.241138 0.269459 0.00134279
0.273518 0.270191 0.00187686
0.306462 0.270588 0.00299077
0.338506 0.270787 0.00250248
0.370199 0.271916 0.00560006
0.403052 0.273518 0.00714122
0.438376 0.274022 0.00949111
0.477134 0.27422 0.00984207
0.51458 0.275929 0.00927749
0.550988 0.275334 0.00952163
0.591272 0.273167 0.0105898
0.63154 0.269596 0.011902
0.668925 0.266178 0.00962844
0.711421 0.262867 0.0105745
0.748592 0.25774 0.01178
0.783307 0.252598 0.0123751
0.821698 0.24538 0.0143435
0.861799 0.236728 0.0175326
0.892424 0.229953 0.0195773
0.908232 0.223102 0.0207218
0.925002 0.216419 0.0252689
0.940505 0.208927 0.0284886
0.9561 0.206424 0.0326696
0.00469978 0.288746 0
0.0202182 0.289067 0
0.0357366 0.289403 0
0.0524147 0.290944 0
0.0658732 0.291844 0
0.0811627 0.293385 0
0.0971389 0.29276 0
0.13814 0.293782 0
0.178012 0.294972 0
0.211978 0.296544 0
0.243717 0.297826 0
0.27628 0.298299 0
0.310582 0.300847 0.00267033
0.341238 0.299672 0.00115969
0.375494 0.301564 0.00268559
0.409003 0.301762 0.00486763
0.443381 0.302815 0.00561532
0.482551 0.30367 0.0087892
0.519722 0.304494 0.00920119
0.55787 0.304051 0.00782788
0.597314 0.302541 0.0093843
0.636378 0.300954 0.0107118
0.674113 0.298009 0.0103914
0.711971 0.296513 0.0090486
0.750622 0.292912 0.00842298
0.787625 0.287297 0.00978103
0.82565 0.280751 0.0132296
0.864744 0.275715 0.0158846
0.893507 0.271397 0.0180514
0.90869 0.266361 0.0199588
0.924285 0.261189 0.0234684
0.941115 0.258625 0.0277562
0.956741 0.25716 0.0328069
0.00616464 0.319432 0
0.0222477 0.320363 0
0.035462 0.32076 0
0.0504158 0.320272 0
0.0658732 0.321813 0
0.0820935 0.321523 0
0.0986038 0.323095 0
0.136187 0.323339 0
0.17937 0.325154 0
0.213718 0.327153 0
0.248341 0.328649 0
0.283131 0.328466 0
0.314794 0.329778 0
0.346899 0.330739 0.000946059
0.380545 0.331716 0.000839246
0.416464 0.332219 0.00137331
0.451987 0.333974 0.00396735
0.489921 0.333227 0.0056611
0.52697 0.334295 0.00541695
0.564401 0.334066 0.00541695
0.605402 0.334371 0.00682078
0.641749 0.332891 0.00830091
0.677592 0.3299 0.0077821
0.717372 0.327138 0.00877394
0.757504 0.321645 0.0087129
0.793057 0.32137 0.00814832
0.828824 0.316258 0.0107271
0.867796 0.310765 0.013611
0.894911 0.30837 0.016434
0.910399 0.303899 0.0181125
0.924178 0.302296 0.0194553
0.939208 0.300282 0.0253147
0.956024 0.298894 0.0303349
0.00547799 0.349935 0
0.0203403 0.350286 0
0.035874 0.351705 0
0.0508278 0.351583 0
0.0662394 0.351324 0
0.0818952 0.35288 0
0.102403 0.352728 0
0.147875 0.351812 0
0.187961 0.356268 0
0.21854 0.357244 0
0.25333 0.358175 0
0.287694 0.358099 0
0.32166 0.360449 0
0.354101 0.360891 0
0.387945 0.362387 0
0.423835 0.362661 0
0.458991 0.36405 0
0.497444 0.364141 0.000320439
0.533196 0.363714 0.000518807
0.571633 0.364248 0.00216678
0.608743 0.36347 0.00476081
0.646448 0.363622 0.00555428
0.683589 0.362432 0.0055848
0.721798 0.359854 0.00708019
0.758556 0.35639 0.00636301
0.793591 0.35523 0.00737011
0.828428 0.352605 0.0078584
0.866026 0.349401 0.00959792
0.893797 0.346685 0.0120851
0.909651 0.345876 0.0157168
0.926452 0.343313 0.0191196
0.942016 0.342382 0.0230259
0.956573 0.342077 0.0278935
0.00553903 0.381888 0
0.0210574 0.382208 0
0.0366217 0.382635 0
0.0528878 0.382193 0
0.0668956 0.384161 0
0.082063 0.38378 0
0.0984665 0.384817 0
0.141039 0.385962 0
0.186648 0.385519 0
0.220905 0.388357 0
0.258106 0.389685 0
0.292165 0.390127 0
0.325399 0.390967 0
0.359243 0.392691 0
0.393881 0.393942 0
0.430213 0.394217 0
0.466835 0.395392 0
0.505028 0.395834 0
0.541451 0.395834 0
0.578744 0.396307 0
0.615778 0.394507 0
0.652552 0.394034 0.000701915
0.691554 0.394461 0.00210575
0.727886 0.392081 0.00390631
0.765026 0.389868 0.00463874
0.798657 0.387457 0.00531014
0.832807 0.385077 0.0065156
0.868315 0.384024 0.00932326
0.894026 0.382544 0.0115511
0.91017 0.378759 0.0132601
0.926818 0.377325 0.0188602
0.941741 0.376669 0.0226596
0.957336 0.377035 0.0254978
0.0055848 0.413931 0
0.0202945 0.41442 0
0.035874 0.414816 0
0.0522011 0.416007 0
0.0682536 0.416205 0
0.0845808 0.416342 0
0.101869 0.417029 0
0.150774 0.417868 0
0.194324 0.418082 0
0.230106 0.42005 0
0.265736 0.421805 0
0.30045 0.422034 0
0.334783 0.422354 0
0.36965 0.424155 0
0.403784 0.424353 0
0.438453 0.424247 0
0.476356 0.42681 0
0.514946 0.42678 0
0.55198 0.426856 0
0.588434 0.426291 0
0.625315 0.426352 0
0.662593 0.425208 0
0.697124 0.42414 0
0.733425 0.422797 0
0.768566 0.421057 0
0.802838 0.420127 0.00209049
0.837171 0.41857 0.00370794
0.873533 0.418677 0.00701915
0.895903 0.414923 0.00805676
0.910658 0.413474 0.00968948
0.927245 0.412009 0.0164492
0.942916 0.411643 0.0223545
0.958526 0.41207 0.0258793
0.00512703 0.447181 0
0.0206455 0.447486 0
0.0361791 0.447913 0
0.0524453 0.447395 0
0.0690929 0.447562 0
0.082887 0.44799 0
0.11368 0.451011 0
0.163272 0.451408 0
0.202106 0.452506 0
0.238331 0.45304 0
0.274113 0.453391 0
0.308476 0.454841 0
0.343877 0.454978 0
0.378439 0.456519 0
0.414435 0.456168 0
0.450248 0.457038 0
0.486046 0.458732 0
0.524056 0.458152 0
0.560967 0.458885 0
0.597528 0.458717 0
0.633738 0.457282 0
0.669413 0.457984 0
0.70486 0.457771 0
0.740337 0.456489 0
0.77409 0.454414 0
0.808499 0.454093 0
0.840665 0.451453 0
0.874647 0.452155 0.00314336
0.895445 0.449012 0.00515755
0.911162 0.448463 0.00994888
0.927596 0.445228 0.0159915
0.943267 0.444755 0.0201877
0.957946 0.445136 0.0241398
0.00552377 0.479362 0
0.0210117 0.479683 0
0.0374456 0.480964 0
0.0521401 0.481346 0
0.0691386 0.480797 0
0.0978561 0.483177 0
0.14023 0.484077 0
0.182574 0.484977 0
0.217212 0.486641 0
0.252964 0.485786 0
0.287785 0.488136 0
0.321798 0.489143 0
0.356085 0.488396 0
0.389731 0.488975 0
0.424979 0.491264 0
0.460365 0.491325 0
0.496529 0.493004 0
0.533211 0.493309 0
0.569482 0.492729 0
0.605295 0.493523 0
0.641749 0.493019 0
0.67718 0.493538 0
0.711772 0.493019 0
0.743343 0.491829 0
0.777539 0.490684 0
0.81181 0.48957 0
0.842618 0.488518 0
0.872465 0.488243 0
0.896788 0.489509 0.00077821
0.912398 0.486229 0.0061799
0.927138 0.484871 0.0116274
0.942824 0.485374 0.0164187
0.959396 0.486763 0.0229953
0.00759899 0.517174 0
0.0233158 0.518471 0
0.0369573 0.517739 0
0.0534066 0.520073 0
0.0680247 0.517601 0
0.0888075 0.518853 0
0.140703 0.519295 0
0.187213 0.520974 0
0.223713 0.521828 0
0.259556 0.522789 0
0.296101 0.522759 0
0.333394 0.523217 0
0.365972 0.524422 0
0.399588 0.52665 0
0.434516 0.526696 0
0.471809 0.526101 0
0.507103 0.527794 0
0.543389 0.527611 0
0.579049 0.527489 0
0.614557 0.528237 0
0.650813 0.529458 0
0.684245 0.525795 0
0.71809 0.526818 0
0.751583 0.526513 0
0.785565 0.524865 0
0.815885 0.522927 0
0.848966 0.522713 0
0.876844 0.522026 0
0.897032 0.52076 0
0.912703 0.520256 0.00164797
0.92842 0.519081 0.00950637
0.944167 0.519493 0.0180972
0.958862 0.517937 0.0240177
0.00633249 0.551308 0
0.0218509 0.551598 0
0.0380713 0.550195 0
0.0537118 0.550484 0
0.0684825 0.55053 0
0.110811 0.552407 0
0.159258 0.553109 0
0.198718 0.553643 0
0.233249 0.554208 0
0.269337 0.55668 0
0.307073 0.557321 0
0.341802 0.556863 0
0.375402 0.559091 0
0.40705 0.558938 0
0.443336 0.560174 0
0.480369 0.560876 0
0.514366 0.560662 0
0.551202 0.560433 0
0.58735 0.560265 0
0.623392 0.561059 0
0.655985 0.561837 0
0.690257 0.560098 0
0.724056 0.560464 0
0.758328 0.559152 0
0.790982 0.557153 0
0.820966 0.557412 0
0.851881 0.556985 0
0.878752 0.556435 0
0.897353 0.556435 0
0.912245 0.553338 0
0.928801 0.551125 0.0087892
0.943786 0.552682 0.0165713
0.960204 0.552041 0.021973
0.00675975 0.585245 0
0.0232547 0.584482 0
0.0384985 0.585107 0
0.0539864 0.585443 0
0.0873884 0.584283 0
0.13611 0.586343 0
0.177554 0.587732 0
0.213504 0.588983 0
0.249577 0.589761 0
0.281895 0.588357 0
0.319951 0.590005 0
0.35201 0.591592 0
0.386435 0.592248 0
0.419547 0.592508 0
0.453681 0.593256 0
0.488579 0.592737 0
0.524742 0.594263 0
0.560708 0.593896 0
0.596536 0.595392 0
0.630182 0.594614 0
0.664225 0.594583 0
0.696544 0.595102 0
0.732387 0.593225 0
0.762539 0.593408 0
0.792599 0.594446 0
0.824979 0.58999 0
0.855619 0.589944 0
0.880186 0.589395 0
0.897673 0.58703 0
0.911406 0.588251 0
0.927123 0.585946 0.00369268
0.943877 0.585763 0.0151522
0.960662 0.58706 0.0224765
0.0327916 0.615778 0
0.0488441 0.619654 0
0.0655833 0.61709 0
0.0937972 0.618662 0
0.133104 0.619226 0
0.165927 0.622141 0
0.198108 0.621622 0
0.234165 0.622232 0
0.265446 0.623163 0
0.296941 0.622858 0
0.330953 0.624765 0
0.364828 0.624613 0
0.395468 0.626337 0
0.428214 0.62768 0
0.462989 0.626871 0
0.498375 0.627741 0
0.532235 0.628809 0
0.567117 0.627878 0
0.602502 0.628824 0
0.635538 0.628504 0
0.66894 0.629389 0
0.702525 0.628824 0
0.734188 0.628916 0
0.765423 0.627619 0
0.79881 0.628656 0
0.825666 0.626291 0
0.854749 0.626184 0
0.882704 0.625467 0
0.897383 0.62388 0
0.91371 0.622339 0
0.929335 0.622705 0
0.945129 0.623285 0.00761425
0.958755 0.621942 0.018616
0.00985733 0.652689 0
0.025391 0.652476 0
0.0485847 0.653727 0
0.0931258 0.655787 0
0.134539 0.656214 0
0.168276 0.656687 0
0.20502 0.655039 0
0.236759 0.657481 0
0.270512 0.657099 0
0.302754 0.657984 0
0.338033 0.658808 0
0.372564 0.659297 0
0.405509 0.660044 0
0.438468 0.660349 0
0.472389 0.660197 0
0.507179 0.660609 0
0.541802 0.661112 0
0.574853 0.661479 0
0.608804 0.662379 0
0.643168 0.662928 0
0.673198 0.664744 0
0.705623 0.66363 0
0.738918 0.664775 0
0.771466 0.664469 0
0.801541 0.662638 0
0.827131 0.661006 0
0.854505 0.66125 0
0.882582 0.659495 0
0.898558 0.65626 0
0.914076 0.656016 0
0.929595 0.654536 0
0.945541 0.654459 0.00579843
0.961379 0.651987 0.0187533
0.0256504 0.685435 0
0.0584573 0.688701 0
0.0934157 0.689387 0
0.128573 0.689082 0
0.157015 0.692683 0
0.186481 0.689754 0
0.221851 0.68983 0
0.254963 0.69012 0
0.284566 0.692073 0
0.316854 0.692836 0
0.349874 0.691707 0
0.384527 0.691371 0
0.414969 0.691295 0
0.448661 0.693736 0
0.481971 0.693172 0
0.515816 0.693324 0
0.548012 0.69369 0
0.58172 0.693507 0
0.614816 0.695079 0
0.647517 0.695567 0
0.678111 0.696574 0
0.711238 0.695613 0
0.742016 0.697505 0
0.771557 0.699229 0
0.802945 0.69749 0
0.830854 0.696818 0
0.856214 0.695064 0
0.88246 0.693324 0
0.89897 0.691112 0
0.914305 0.690211 0
0.928191 0.688685 0
0.945876 0.68751 0.00267033
0.961852 0.685786 0.0201114
0.0749523 0.721386 0
0.0957046 0.721294 0
0.125277 0.722683 0
0.152239 0.721645 0
0.179812 0.72137 0
0.206943 0.721767 0
0.238468 0.721996 0
0.271351 0.721904 0
0.301961 0.724407 0
0.333288 0.723659 0
0.365225 0.724498 0
0.393408 0.725017 0
0.426413 0.724498 0
0.459159 0.725216 0
0.490211 0.725322 0
0.523583 0.725063 0
0.555489 0.727138 0
0.588846 0.726406 0
0.619928 0.72723 0
0.651362 0.727367 0
0.682902 0.726986 0
0.714137 0.728649 0
0.745708 0.728832 0
0.775631 0.729076 0
0.804974 0.728939 0
0.833494 0.730312 0
0.857389 0.730419 0
0.882338 0.726284 0
0.899382 0.724605 0
0.914824 0.721675 0
0.930251 0.720088 0
0.945235 0.718776 0
0.962219 0.719448 0.0180819
0.116045 0.752453 0
0.138521 0.750607 0
0.158648 0.754208 0
0.1832 0.754818 0
0.207477 0.75108 0
0.232609 0.756191 0
0.263066 0.753933 0
0.292241 0.753597 0
0.319463 0.756634 0
0.348608 0.755398 0
0.376715 0.755917 0
0.406043 0.755917 0
0.438422 0.756542 0
0.469978 0.757015 0
0.500862 0.757855 0
0.531685 0.757702 0
0.562463 0.757641 0
0.594278 0.757534 0
0.625391 0.758602 0
0.655558 0.758648 0
0.686702 0.760525 0
0.716197 0.760266 0
0.745922 0.760922 0
0.77261 0.759594 0
0.802487 0.759426 0
0.82919 0.76321 0
0.858396 0.762463 0
0.882536 0.761486 0
0.899779 0.759747 0
0.915236 0.757382 0
0.930755 0.755077 0
0.946639 0.753689 0
0.962585 0.752529 0.0161593
0.123537 0.786389 0
0.145235 0.784726 0
0.168185 0.787717 0
0.192386 0.786099 0
0.219211 0.785519 0
0.244587 0.785992 0
0.271626 0.786557 0
0.298482 0.787884 0
0.329473 0.787778 0
0.359396 0.788418 0
0.387488 0.787533 0
0.416815 0.788022 0
0.448569 0.788022 0
0.477577 0.787961 0
0.507195 0.788235 0
0.538079 0.789532 0
0.569665 0.789517 0
0.599786 0.789746 0
0.62948 0.789654 0
0.66038 0.790402 0
0.688533 0.791333 0
0.718746 0.790753 0
0.747127 0.790356 0
0.774182 0.791745 0
0.800305 0.792798 0
0.827893 0.792737 0
0.854246 0.793286 0
0.881941 0.794263 0
0.90013 0.792233 0
0.915618 0.789258 0
0.931212 0.787411 0
0.946868 0.788006 0.00569161
0.962676 0.785687 0.0182498
0.152804 0.813855 0
0.173953 0.817731 0
0.194736 0.816327 0
0.215518 0.815213 0
0.237613 0.816907 0
0.266255 0.815946 0
0.290013 0.816602 0
0.320058 0.815473 0
0.345922 0.816205 0
0.375387 0.816541 0
0.401862 0.816159 0
0.431098 0.817868 0
0.460151 0.818799 0
0.490089 0.817807 0
0.517952 0.818647 0
0.546517 0.819944 0
0.57702 0.818433 0
0.606821 0.81912 0
0.635569 0.818006 0
0.662379 0.820615 0
0.689784 0.821042 0
0.72314 0.820752 0
0.746593 0.820111 0
0.774182 0.819944 0
0.802945 0.820325 0
0.827695 0.82208 0
0.854002 0.822919 0
0.881941 0.823636 0
0.900496 0.823072 0
0.915953 0.820356 0
0.931914 0.820691 0
0.946044 0.818296 0.0133516
0.961852 0.815854 0.0253452
0.1823 0.845411 0
0.202564 0.845838 0
0.223316 0.846372 0
0.245319 0.846632 0
0.266835 0.845884 0
0.290211 0.847654 0
0.313191 0.848478 0
0.340169 0.84715 0
0.366171 0.847883 0
