LUTS/Secondary LUTS/TAXI DRIVER.cube
TITLE "Generated by Resolve"
LUT_3D_SIZE 9
0 0 0
0.0868086 0.00729381 0.00274662
0.183108 0.0223392 0.0056611
0.290394 0.0352941 0.0104982
0.416327 0.0401007 0.0138552
0.567254 0.0145266 0.0205997
0.731746 0.0155795 0.0209506
0.883772 0.0205539 0.02916
0.953918 0.0205539 0.0394141
0.00144961 0.115434 0
0.0741588 0.119097 0.00254826
0.181048 0.12372 0.00610361
0.295506 0.130831 0.00776684
0.421042 0.133471 0.0114595
0.573922 0.123583 0.0157321
0.735164 0.081239 0.0229648
0.885039 0.0846113 0.0256199
0.954589 0.0859998 0.0338293
0.00459297 0.229908 0
0.0655222 0.232441 0
0.178317 0.239139 0
0.301274 0.242557 0.00489815
0.434272 0.245716 0.0096437
0.584604 0.24387 0.0127413
0.742596 0.227329 0.0122225
0.888395 0.186099 0.0209659
0.95555 0.151675 0.0381628
0.00547799 0.349935 0
0.0662394 0.351324 0
0.187961 0.356268 0
0.32166 0.360449 0
0.458991 0.36405 0
0.608743 0.36347 0.00476081
0.758556 0.35639 0.00636301
0.893797 0.346685 0.0120851
0.956573 0.342077 0.0278935
0.00552377 0.479362 0
0.0691386 0.480797 0
0.217212 0.486641 0
0.356085 0.488396 0
0.496529 0.493004 0
0.641749 0.493019 0
0.777539 0.490684 0
0.896788 0.489509 0.00077821
0.959396 0.486763 0.0229953
0.0327916 0.615778 0
0.133104 0.619226 0
0.265446 0.623163 0
0.395468 0.626337 0
0.532235 0.628809 0
0.66894 0.629389 0
0.79881 0.628656 0
0.897383 0.62388 0
0.958755 0.621942 0.018616
0.116045 0.752453 0
0.207477 0.75108 0
0.319463 0.756634 0
0.438422 0.756542 0
0.562463 0.757641 0
0.686702 0.760525 0
0.802487 0.759426 0
0.899779 0.759747 0
0.962585 0.752529 0.0161593
0.213687 0.875029 0
0.293767 0.875059 0
0.384466 0.876997 0
0.486824 0.878035 0
0.593942 0.877989 0
0.700755 0.879255 0
0.804303 0.882033 0
0.901762 0.883452 0.0147402
0.964813 0.881666 0.0372168
0.326299 0.979828 0.0252384
0.393545 0.979629 0.027924
0.472038 0.982971 0.0313268
0.557046 0.984131 0.0365606
0.642985 0.984863 0.043122
0.733913 0.985046 0.0526741
0.824521 0.985779 0.0663615
0.905211 0.987442 0.0770886
0.966049 0.990753 0.0968948
0.00190738 0.00329595 0.0680247
0.08365 0.011902 0.0694896
0.183352 0.0249943 0.0725719
0.294667 0.0374609 0.0752728
0.42002 0.0405432 0.0788586
0.572366 0.0135195 0.0825208
0.737118 0.0169833 0.0854963
0.889952 0.0216983 0.0901656
0.953918 0.0216983 0.0959945
0.004654 0.115023 0.0664073
0.0745403 0.118135 0.0656596
0.184314 0.126101 0.0700542
0.297292 0.133394 0.0738994
0.427085 0.136233 0.0754406
0.578653 0.12015 0.0812848
0.740734 0.0829786 0.0859846
0.889479 0.0859541 0.0878309
0.95494 0.0872511 0.0957046
0.00453193 0.230686 0.0580453
0.0666819 0.232166 0.0610361
0.184237 0.237369 0.0636759
0.306065 0.24242 0.0670481
0.440665 0.246006 0.0734112
0.592096 0.242206 0.0748913
0.74931 0.218235 0.0766003
0.889738 0.164614 0.0828107
0.957046 0.153201 0.0923934
0.00607309 0.351263 0.0536049
0.0682994 0.350958 0.0567941
0.192233 0.355718 0.0564279
0.327398 0.360082 0.0621195
0.464973 0.363256 0.062211
0.615198 0.362219 0.0681468
0.763394 0.355734 0.0700999
0.896742 0.341115 0.0760357
0.959167 0.338369 0.0838636
0.00790417 0.48127 0.0363622
0.0733654 0.482414 0.0358434
0.225788 0.485618 0.0412909
0.361639 0.48986 0.0431525
0.501579 0.49189 0.0440528
0.646021 0.491402 0.0431983
0.782788 0.488365 0.0526894
0.898512 0.485298 0.0665904
0.960006 0.48307 0.0794842
0.0341497 0.617334 0.0177615
0.143709 0.619074 0.0187839
0.271031 0.622309 0.0210727
0.40206 0.624659 0.0241398
0.537972 0.625834 0.0269322
0.674266 0.627314 0.0298009
0.80029 0.626093 0.0325933
0.899321 0.622614 0.0387732
0.962585 0.621454 0.0768292
0.130175 0.75169 0.0121767
0.22208 0.753597 0.0149844
0.325689 0.754955 0.016083
0.442023 0.757702 0.0186007
0.567895 0.757168 0.0218509
0.690349 0.759869 0.0239872
0.806714 0.760266 0.0272068
0.900893 0.756649 0.0284276
0.964126 0.75256 0.0722972
0.224979 0.873442 0.0084535
0.300038 0.874647 0.0101015
0.395178 0.876081 0.0122377
0.494102 0.876814 0.0142367
0.600351 0.878096 0.0182498
0.704585 0.879911 0.0319371
0.809201 0.881437 0.0516976
0.903517 0.884749 0.070222
0.966079 0.88397 0.0907912
0.331243 0.980697 0.0750591
0.401465 0.982254 0.0783703
0.477211 0.983658 0.0831159
0.559411 0.985046 0.086717
0.64715 0.984192 0.0934005
0.736309 0.985489 0.103151
0.824994 0.986648 0.11194
0.906355 0.989868 0.124849
0.967483 0.991424 0.141222
0.00378424 0.00657664 0.135103
0.0750744 0.0148165 0.136645
0.182162 0.0262303 0.141024
0.298878 0.0360266 0.144167
0.428412 0.0347601 0.146975
0.581033 0.0158389 0.153674
0.742977 0.0185245 0.15581
0.890852 0.0220493 0.15845
0.957351 0.0231327 0.163836
0.005066 0.115099 0.13164
0.0697795 0.114397 0.134264
0.185458 0.125536 0.137728
0.302586 0.131899 0.140383
0.432654 0.131655 0.144411
0.586419 0.105211 0.14876
0.748104 0.0841535 0.154742
0.892332 0.0886244 0.156619
0.958099 0.0888075 0.16083
0.00683604 0.231571 0.129503
0.0689097 0.235004 0.129931
0.185641 0.238529 0.133532
0.310079 0.243244 0.136599
0.444327 0.246403 0.13991
0.598779 0.238193 0.14313
0.753674 0.213336 0.145724
0.895964 0.152773 0.153811
0.958862 0.154498 0.157839
0.00914015 0.351736 0.121416
0.0717327 0.353536 0.122179
0.194644 0.358419 0.124956
0.332097 0.361074 0.12903
0.471214 0.36379 0.132769
0.62153 0.362463 0.137285
0.770016 0.353185 0.140719
0.898268 0.343984 0.144045
0.960311 0.337865 0.150347
0.00915541 0.482765 0.109743
0.0711833 0.48307 0.109606
0.22475 0.487144 0.114031
0.365927 0.491585 0.117418
0.50753 0.492576 0.119692
0.651453 0.492302 0.120943
0.787518 0.487984 0.12874
0.899763 0.485084 0.136339
0.961349 0.484977 0.14406
0.0315709 0.618799 0.0891432
0.141146 0.621561 0.092668
0.271504 0.624964 0.0937514
0.406928 0.627253 0.095964
0.541634 0.628916 0.0974289
0.679408 0.630594 0.100832
0.805676 0.627253 0.105165
0.901549 0.624643 0.121874
0.963546 0.624155 0.141558
0.133425 0.752834 0.0629435
0.220417 0.757 0.0638895
0.32929 0.756344 0.0665904
0.447364 0.757717 0.0701305
0.570199 0.759579 0.0749523
0.693874 0.76109 0.0827192
0.810346 0.760998 0.0903639
0.902892 0.758602 0.10959
0.965927 0.755962 0.13637
0.232715 0.876219 0.0805066
0.311116 0.875273 0.0844129
0.401663 0.877699 0.090135
0.501335 0.878782 0.094728
0.604105 0.879561 0.101549
0.710903 0.881453 0.109514
0.809934 0.882994 0.119234
0.904448 0.885756 0.132204
0.966339 0.88394 0.149401
0.338201 0.980362 0.133288
0.407355 0.982208 0.133333
0.480674 0.983764 0.137789
0.565774 0.98526 0.14229
0.651041 0.985977 0.148989
0.738384 0.986908 0.155566
0.829541 0.989319 0.166629
0.905684 0.990555 0.178637
0.970474 0.992767 0.192584
0.00581369 0.0148775 0.205142
0.0737163 0.0187991 0.205798
0.18645 0.0280308 0.208774
0.304097 0.0347295 0.213794
0.435172 0.0279088 0.217166
0.590402 0.0167391 0.224689
0.753063 0.0203403 0.227405
0.897139 0.023209 0.230457
0.959182 0.0244907 0.230198
0.00856031 0.115709 0.201572
0.069398 0.118303 0.202243
0.187366 0.12488 0.205951
0.310567 0.129259 0.208743
0.441947 0.127642 0.213931
0.594308 0.0876326 0.21828
0.75404 0.0859998 0.223285
0.896178 0.0886549 0.225727
0.95935 0.0912184 0.229526
0.00985733 0.231006 0.19762
0.0718242 0.231922 0.199527
0.188205 0.236179 0.201343
0.320241 0.240604 0.203693
0.454963 0.241184 0.209064
0.608637 0.227192 0.212222
0.762493 0.187121 0.216602
0.897246 0.155413 0.222904
0.960464 0.15555 0.226047
0.0106203 0.353231 0.192859
0.0719463 0.356283 0.194598
0.196155 0.357916 0.195224
0.338857 0.362066 0.199237
0.476738 0.362463 0.202808
0.627787 0.358679 0.205951
0.775723 0.348653 0.209339
0.900298 0.336599 0.213642
0.9626 0.33843 0.218357
0.0121157 0.484565 0.184329
0.0739147 0.486595 0.183261
0.222141 0.489906 0.185534
0.371084 0.4934 0.189105
0.51577 0.495247 0.190631
0.659678 0.4907 0.196506
0.792279 0.488182 0.202365
0.902373 0.486549 0.206363
0.96463 0.488334 0.213397
0.0303197 0.625071 0.1673
0.128267 0.626444 0.168551
0.273182 0.627573 0.172
0.410651 0.629236 0.175036
0.549111 0.631281 0.178271
0.686381 0.632059 0.180346
0.810391 0.626871 0.185351
0.90251 0.62771 0.198627
0.966384 0.629526 0.211673
0.141924 0.756741 0.154788
0.22887 0.758267 0.159319
0.336996 0.759365 0.1608
0.455772 0.760662 0.16437
0.577691 0.760601 0.167605
0.701564 0.762097 0.172595
0.813352 0.763607 0.175738
0.905165 0.761364 0.186923
0.966995 0.760052 0.204135
0.250782 0.878264 0.162264
0.325017 0.877729 0.166506
0.415351 0.879728 0.167712
0.5122 0.881117 0.171756
0.613413 0.880873 0.176349
0.716258 0.882033 0.18172
0.816098 0.883452 0.190951
0.906294 0.886778 0.19762
0.968704 0.885924 0.21004
0.350011 0.983749 0.195453
0.41735 0.983368 0.194125
0.490761 0.986023 0.199252
0.570993 0.985672 0.201923
0.657618 0.986969 0.209079
0.742626 0.988037 0.214466
0.831159 0.98996 0.223316
0.908919 0.991623 0.235004
0.97203 0.992752 0.249424
0.00775158 0.0217136 0.272999
0.0778668 0.0242313 0.273228
0.196246 0.0297398 0.277852
0.315236 0.0323949 0.281727
0.446784 0.0178531 0.286503
0.604913 0.0193942 0.294926
0.763134 0.0218051 0.29836
0.898085 0.0262913 0.300175
0.961181 0.0259861 0.302296
0.00886549 0.118517 0.268528
0.0715801 0.121187 0.270237
0.198627 0.125475 0.275273
0.321202 0.126909 0.278447
0.452918 0.120211 0.283238
0.611353 0.0840467 0.29012
0.765988 0.0873426 0.295277
0.899489 0.0902419 0.296117
0.961898 0.0922866 0.297566
0.0107271 0.231952 0.267781
0.0731365 0.230655 0.269886
0.200046 0.235126 0.271946
0.331334 0.237186 0.275929
0.469795 0.234363 0.279164
0.622797 0.220432 0.285283
0.769833 0.164202 0.289174
0.900328 0.155856 0.29221
0.96199 0.1579 0.294759
0.0128634 0.355138 0.263706
0.0749523 0.354452 0.266499
0.207279 0.356451 0.268284
0.347494 0.357443 0.270954
0.495171 0.357794 0.274571
0.641123 0.352819 0.276814
0.785565 0.342931 0.280964
0.901625 0.341176 0.284825
0.964355 0.34876 0.288411
0.0132296 0.486519 0.256962
0.0804913 0.489677 0.256626
0.237095 0.491569 0.260212
0.378286 0.493187 0.263005
0.527901 0.493599 0.266896
0.665888 0.491554 0.270436
0.799954 0.489799 0.274037
0.904341 0.488807 0.278859
0.96614 0.494469 0.282246
0.0432136 0.624338 0.246708
0.15462 0.627466 0.246784
0.286183 0.629267 0.250202
0.418982 0.631266 0.252033
0.55761 0.632197 0.254292
0.69485 0.633066 0.257145
0.815579 0.629114 0.263111
0.90428 0.631678 0.27248
0.968292 0.634241 0.279393
0.171603 0.758785 0.237552
0.256703 0.758572 0.24062
0.353399 0.761196 0.240848
0.466239 0.761517 0.243198
0.588129 0.763561 0.245869
0.707195 0.764309 0.250248
0.819303 0.76527 0.253941
0.906523 0.762646 0.260334
0.969528 0.7635 0.272694
0.267994 0.878355 0.238804
0.340841 0.879973 0.239582
0.427024 0.879606 0.242649
0.522316 0.881956 0.245686
0.621942 0.882719 0.249271
0.723232 0.883833 0.253239
0.820661 0.886595 0.258305
0.908339 0.888518 0.266087
0.969879 0.887984 0.276432
0.357794 0.984222 0.258625
0.425025 0.984604 0.260563
0.498817 0.987015 0.263828
0.575586 0.987366 0.266789
0.660471 0.986984 0.27216
0.746212 0.989853 0.278859
0.833524 0.990875 0.286793
0.909682 0.992615 0.295323
0.973617 0.995102 0.306142
0.0108492 0.0222782 0.345022
0.103761 0.0271763 0.347219
0.220417 0.027039 0.350973
0.340536 0.0198215 0.355032
0.473243 0.0173648 0.35874
0.619058 0.0205692 0.363775
0.775723 0.0248875 0.36846
0.901015 0.0261082 0.370626
0.963073 0.0285649 0.370214
0.0111391 0.120348 0.344564
0.100328 0.121874 0.344274
0.221576 0.123278 0.346685
0.343496 0.119829 0.351537
0.477699 0.0964218 0.355428
0.626505 0.0858778 0.363119
0.777295 0.0906691 0.366613
0.901732 0.0916762 0.366522
0.963653 0.0928664 0.366491
0.0139467 0.229664 0.341497
0.0760815 0.231113 0.339788
0.219745 0.233692 0.344488
0.351186 0.234394 0.347753
0.491218 0.22591 0.353552
0.640177 0.198947 0.356878
0.786145 0.154833 0.363806
0.902525 0.15729 0.364752
0.963211 0.16025 0.363134
0.0150759 0.353368 0.335027
0.076173 0.353887 0.338796
0.221241 0.353155 0.341161
0.362387 0.354467 0.345144
0.509499 0.351781 0.349248
0.662425 0.340276 0.354116
0.797482 0.336583 0.353933
0.904524 0.33727 0.35584
0.966934 0.35581 0.358938
0.0159457 0.48748 0.331441
0.111452 0.487877 0.331258
0.254505 0.490181 0.336446
0.392874 0.490379 0.339712
0.539071 0.489189 0.342153
0.68307 0.488304 0.343984
0.809491 0.490852 0.347127
0.906355 0.497551 0.349722
0.967666 0.512489 0.353902
0.0990616 0.629892 0.322866
0.197391 0.629786 0.325307
0.314931 0.632502 0.328038
0.438865 0.633524 0.330922
0.572091 0.633082 0.333272
0.704341 0.631785 0.3355
0.817319 0.632471 0.340658
0.907576 0.636362 0.345022
0.969863 0.641779 0.348684
0.199252 0.760098 0.315373
0.282475 0.761639 0.316716
0.379919 0.762493 0.318425
0.490105 0.762554 0.322316
0.604669 0.763348 0.325338
0.717266 0.76318 0.32784
0.827054 0.766613 0.332235
0.907958 0.766369 0.336217
0.970565 0.770642 0.347967
0.297642 0.87837 0.314412
0.37142 0.879103 0.318044
0.45771 0.881224 0.32137
0.544747 0.882826 0.324086
0.631937 0.882643 0.324331
0.729778 0.884138 0.328664
0.825162 0.887114 0.33228
0.90985 0.891585 0.340887
0.972824 0.890318 0.347066
0.374166 0.985122 0.333303
0.443671 0.985153 0.336568
0.51133 0.988205 0.336263
0.583001 0.989044 0.33666
0.664057 0.989975 0.340734
0.750393 0.990997 0.346456
0.834318 0.991836 0.351751
0.912963 0.994018 0.35996
0.974243 0.995209 0.369818
0.0557717 0.0210422 0.425666
0.140841 0.0216831 0.425422
0.252018 0.0171511 0.429313
0.370611 0.0172427 0.432227
0.503029 0.0201267 0.436332
0.647623 0.0222934 0.442252
0.793347 0.0253605 0.444541
0.903029 0.0276646 0.44329
0.965087 0.0307774 0.442603
0.0469215 0.121035 0.419852
0.137407 0.121492 0.422278
0.251347 0.118044 0.427131
0.37171 0.107179 0.43032
0.506981 0.0849928 0.435142
0.650813 0.088304 0.43859
0.798505 0.0911574 0.444266
0.903502 0.0942855 0.442023
0.965805 0.0948501 0.438972
0.0143435 0.229709 0.417197
0.122927 0.229877 0.420081
0.247578 0.2327 0.422217
0.375784 0.228916 0.42501
0.511437 0.215564 0.429786
0.658015 0.170031 0.435355
0.8065 0.156664 0.440955
0.904494 0.160006 0.438865
0.965881 0.162799 0.434821
0.0173037 0.350378 0.413611
0.0874342 0.349691 0.413931
0.244022 0.35024 0.418723
0.380789 0.350378 0.422644
0.524437 0.345892 0.425406
0.673884 0.333089 0.430167
0.815167 0.317922 0.434379
0.906203 0.330007 0.430716
0.968841 0.352941 0.430167
0.0404059 0.483055 0.409491
0.143496 0.485985 0.411185
0.27129 0.485405 0.415244
0.401923 0.484047 0.417273
0.546166 0.482521 0.420386
0.692454 0.48043 0.425818
0.824857 0.479942 0.428046
0.907362 0.495384 0.423163
0.969802 0.510887 0.424567
0.134463 0.628412 0.405493
0.224796 0.628092 0.407141
0.33135 0.627924 0.409781
0.453437 0.63035 0.412177
0.582238 0.62855 0.415259
0.710353 0.629007 0.417456
0.828305 0.633585 0.419547
0.910048 0.643595 0.420584
0.972534 0.655131 0.424475
0.226276 0.766186 0.396933
0.30721 0.764981 0.400427
0.401419 0.766369 0.401343
0.506127 0.766445 0.4038
0.617655 0.767132 0.407507
0.727047 0.765515 0.40972
0.83003 0.767834 0.413809
0.911788 0.771389 0.420798
0.974075 0.775631 0.424735
0.311177 0.881849 0.394537
0.386114 0.882658 0.394965
0.470115 0.882475 0.398444
0.558373 0.883406 0.401938
0.649882 0.884978 0.406744
0.742977 0.885969 0.412055
0.827207 0.889693 0.410803
0.91313 0.891722 0.417945
0.974411 0.894484 0.424826
0.38146 0.986664 0.40296
0.449561 0.985031 0.407187
0.521538 0.987488 0.4112
0.598535 0.988952 0.41622
0.675074 0.989563 0.420462
0.750393 0.994171 0.419272
0.835035 0.994278 0.425742
0.915038 0.996277 0.433753
0.975998 0.998337 0.440726
0.0837568 0.0120394 0.512886
0.167666 0.0137636 0.512612
0.27277 0.0164645 0.518059
0.394186 0.0186007 0.519417
0.522225 0.0229801 0.523522
0.666133 0.0250248 0.527749
0.802686 0.0272984 0.53106
0.905592 0.0311742 0.535546
0.967285 0.0307774 0.52311
0.075288 0.114626 0.508217
0.164981 0.114458 0.512093
0.27248 0.105974 0.511696
0.392142 0.086305 0.515846
0.525612 0.0869612 0.51928
0.664942 0.090486 0.525338
0.804395 0.0930495 0.529091
0.906325 0.0950179 0.532601
0.96492 0.0976577 0.519631
0.0489967 0.228122 0.502831
0.148333 0.23093 0.505577
0.267521 0.22887 0.507561
0.393713 0.223636 0.514214
0.526619 0.207935 0.516503
0.668803 0.157549 0.521355
0.808789 0.158785 0.527687
0.907103 0.162188 0.529854
0.968856 0.161608 0.519539
0.0189059 0.3449 0.500435
0.128603 0.345418 0.502083
0.261799 0.347082 0.505699
0.396338 0.347127 0.508354
0.534997 0.340352 0.513375
0.678355 0.329488 0.516503
0.813169 0.318486 0.520378
0.907271 0.315038 0.523842
0.971054 0.351843 0.511315
0.0511177 0.477348 0.497215
0.154238 0.477638 0.499214
0.277409 0.477897 0.501198
0.41181 0.478859 0.504189
0.55198 0.477974 0.508614
0.690455 0.477607 0.511406
0.822019 0.476951 0.514916
0.910063 0.483604 0.517128
0.971313 0.508873 0.505226
0.156741 0.618952 0.492546
0.240436 0.617594 0.494972
0.345846 0.619837 0.498268
0.459953 0.62031 0.500099
0.582589 0.619028 0.502739
0.710216 0.622644 0.506065
0.826474 0.627924 0.507698
0.911421 0.635615 0.509957
0.974578 0.652796 0.503243
0.247562 0.755627 0.490791
0.323705 0.758358 0.491005
0.415412 0.760235 0.493996
0.516579 0.760647 0.496681
0.623285 0.762234 0.498024
0.729564 0.763333 0.501381
0.828733 0.76672 0.502663
0.91284 0.775097 0.504768
0.97641 0.782513 0.506676
0.324971 0.886015 0.486015
0.397253 0.886656 0.489052
0.477562 0.888685 0.489708
0.56405 0.887587 0.492882
0.654246 0.887312 0.49456
0.742992 0.888945 0.498527
0.83389 0.889769 0.501778
0.915816 0.894896 0.507195
0.97644 0.897093 0.512901
0.386892 0.98822 0.486336
0.453971 0.986526 0.48896
0.525887 0.989792 0.491402
0.59762 0.990021 0.492515
0.677119 0.99176 0.49839
0.756954 0.993835 0.504891
0.837674 0.995865 0.513649
0.916991 0.998154 0.516335
0.979492 1 0.526055
0.0741131 0.0137636 0.608713
0.163943 0.0156558 0.610666
0.275257 0.0179904 0.611765
0.394949 0.0217441 0.616327
0.529397 0.0234531 0.621607
0.664881 0.0263066 0.623819
0.799985 0.0291752 0.627634
0.908141 0.0314336 0.628183
0.970291 0.0327916 0.631662
0.0615396 0.108965 0.603708
0.157687 0.106966 0.604059
0.273136 0.0971695 0.609995
0.397147 0.0871138 0.612528
0.529091 0.0898451 0.616678
0.665248 0.0923934 0.619425
0.800549 0.094667 0.624079
0.908949 0.0970016 0.627405
0.971038 0.0982834 0.628626
0.0304723 0.226963 0.598856
0.145464 0.226032 0.601907
0.268589 0.225589 0.60293
0.396445 0.220691 0.60943
0.530953 0.204013 0.611017
0.666438 0.162264 0.61738
0.801083 0.160571 0.622904
0.907347 0.162432 0.623926
0.971801 0.163806 0.625925
0.0228733 0.341192 0.594827
0.121309 0.342031 0.597848
0.265064 0.344564 0.600732
0.398795 0.344396 0.603052
0.536156 0.33756 0.608194
0.673106 0.330617 0.611124
0.803021 0.324422 0.613855
0.910887 0.329564 0.617685
0.974014 0.352407 0.618967
0.0221103 0.463645 0.591852
0.100359 0.464439 0.59176
0.279454 0.469062 0.59649
0.413413 0.471672 0.599649
0.549767 0.471931 0.601846
0.686839 0.471778 0.605829
0.810773 0.476555 0.609796
0.913497 0.488182 0.611719
0.973968 0.505501 0.611688
0.15375 0.602533 0.589105
0.239902 0.605875 0.591287
0.337057 0.605905 0.594446
0.450294 0.606683 0.595407
0.578378 0.610224 0.598093
0.703487 0.615991 0.600275
0.818814 0.623209 0.602396
0.915038 0.633631 0.603296
0.977447 0.649027 0.606546
0.261738 0.745205 0.586328
0.335225 0.746517 0.587716
0.421592 0.748104 0.589288
0.517708 0.748318 0.591852
0.619989 0.752056 0.593652
0.723354 0.752941 0.595529
0.82266 0.759304 0.598032
0.916548 0.769223 0.600885
0.977569 0.77734 0.600427
0.341192 0.875959 0.584955
0.410681 0.879545 0.585794
0.487236 0.87985 0.587427
0.566583 0.881437 0.589761
0.652888 0.883238 0.590875
0.740505 0.885985 0.594583
0.82536 0.889097 0.595407
0.913191 0.893477 0.598001
0.980529 0.902541 0.601541
0.384726 0.997894 0.582269
0.450416 0.99556 0.586313
0.519631 0.996994 0.586419
0.595392 0.998611 0.588876
0.67332 0.997406 0.589609
0.751553 0.998856 0.592447
0.834607 0.996567 0.593332
0.916472 0.999771 0.597131
0.981949 1 0.60592
