LUTS/Secondary LUTS/TAXI DRIVER.cube
TITLE "Generated by Resolve"
LUT_3D_SIZE 5
0 0 0
0.183108 0.0223392 0.0056611
0.416327 0.0401007 0.0138552
0.731746 0.0155795 0.0209506
0.953918 0.0205539 0.0394141
0.00459297 0.229908 0
0.178317 0.239139 0
0.434272 0.245716 0.0096437
0.742596 0.227329 0.0122225
0.95555 0.151675 0.0381628
0.00552377 0.479362 0
0.217212 0.486641 0
0.496529 0.493004 0
0.777539 0.490684 0
0.959396 0.486763 0.0229953
0.116045 0.752453 0
0.319463 0.756634 0
0.562463 0.757641 0
0.802487 0.759426 0
0.962585 0.752529 0.0161593
0.326299 0.979828 0.0252384
0.472038 0.982971 0.0313268
0.642985 0.984863 0.043122
0.824521 0.985779 0.0663615
0.966049 0.990753 0.0968948
0.00378424 0.00657664 0.135103
0.182162 0.0262303 0.141024
0.428412 0.0347601 0.146975
0.742977 0.0185245 0.15581
0.957351 0.0231327 0.163836
0.00683604 0.231571 0.129503
0.185641 0.238529 0.133532
0.444327 0.246403 0.13991
0.753674 0.213336 0.145724
0.958862 0.154498 0.157839
0.00915541 0.482765 0.109743
0.22475 0.487144 0.114031
0.50753 0.492576 0.119692
0.787518 0.487984 0.12874
0.961349 0.484977 0.14406
0.133425 0.752834 0.0629435
0.32929 0.756344 0.0665904
0.570199 0.759579 0.0749523
0.810346 0.760998 0.0903639
0.965927 0.755962 0.13637
0.338201 0.980362 0.133288
0.480674 0.983764 0.137789
0.651041 0.985977 0.148989
0.829541 0.989319 0.166629
0.970474 0.992767 0.192584
0.00775158 0.0217136 0.272999
0.196246 0.0297398 0.277852
0.446784 0.0178531 0.286503
0.763134 0.0218051 0.29836
0.961181 0.0259861 0.302296
0.0107271 0.231952 0.267781
0.200046 0.235126 0.271946
0.469795 0.234363 0.279164
0.769833 0.164202 0.289174
0.96199 0.1579 0.294759
0.0132296 0.486519 0.256962
0.237095 0.491569 0.260212
0.527901 0.493599 0.266896
0.799954 0.489799 0.274037
0.96614 0.494469 0.282246
0.171603 0.758785 0.237552
0.353399 0.761196 0.240848
0.588129 0.763561 0.245869
0.819303 0.76527 0.253941
0.969528 0.7635 0.272694
0.357794 0.984222 0.258625
0.498817 0.987015 0.263828
0.660471 0.986984 0.27216
0.833524 0.990875 0.286793
0.973617 0.995102 0.306142
0.0557717 0.0210422 0.425666
0.252018 0.0171511 0.429313
0.503029 0.0201267 0.436332
0.793347 0.0253605 0.444541
0.965087 0.0307774 0.442603
0.0143435 0.229709 0.417197
0.247578 0.2327 0.422217
0.511437 0.215564 0.429786
0.8065 0.156664 0.440955
0.965881 0.162799 0.434821
0.0404059 0.483055 0.409491
0.27129 0.485405 0.415244
0.546166 0.482521 0.420386
0.824857 0.479942 0.428046
0.969802 0.510887 0.424567
0.226276 0.766186 0.396933
0.401419 0.766369 0.401343
0.617655 0.767132 0.407507
0.83003 0.767834 0.413809
0.974075 0.775631 0.424735
0.38146 0.986664 0.40296
0.521538 0.987488 0.4112
0.675074 0.989563 0.420462
0.835035 0.994278 0.425742
0.975998 0.998337 0.440726
0.0741131 0.0137636 0.608713
0.275257 0.0179904 0.611765
0.529397 0.0234531 0.621607
0.799985 0.0291752 0.627634
0.970291 0.0327916 0.631662
0.0304723 0.226963 0.598856
0.268589 0.225589 0.60293
0.530953 0.204013 0.611017
0.801083 0.160571 0.622904
0.971801 0.163806 0.625925
0.0221103 0.463645 0.591852
0.279454 0.469062 0.59649
0.549767 0.471931 0.601846
0.810773 0.476555 0.609796
0.973968 0.505501 0.611688
0.261738 0.745205 0.586328
0.421592 0.748104 0.589288
0.619989 0.752056 0.593652
0.82266 0.759304 0.598032
0.977569 0.77734 0.600427
0.384726 0.997894 0.582269
0.519631 0.996994 0.586419
0.67332 0.997406 0.589609
0.834607 0.996567 0.593332
0.981949 1 0.60592
