LUTS/Secondary LUTS/TEAL TEMPEST.cube
TITLE "Generated by Resolve"
LUT_3D_SIZE 9
0.0128481 0.0175937 0.0108339
0.0793622 0.0196689 0.010544
0.215854 0.0243534 0.0107271
0.360906 0.0222019 0.010956
0.495857 0.0220798 0.010956
0.628901 0.0217746 0.010956
0.754467 0.0204471 0.0109865
0.875425 0.0174716 0.0108949
0.946349 0.0232395 0.0106355
0.0131991 0.0532387 0.00985733
0.0696574 0.057084 0.010193
0.211643 0.0656596 0.0112612
0.367651 0.0638285 0.0107576
0.507057 0.0599222 0.0108797
0.640314 0.0624094 0.0107576
0.768933 0.0637522 0.0106813
0.883391 0.0644388 0.0105287
0.959655 0.0924697 0.00991836
0.0130159 0.132677 0.0111238
0.0652934 0.128267 0.00978103
0.194598 0.157275 0.0104219
0.371527 0.178759 0.0109255
0.532876 0.191638 0.0107729
0.678828 0.20148 0.00978103
0.80763 0.212085 0.00862135
0.908049 0.22295 0.0110018
0.963867 0.229023 0.0124666
0.0130159 0.235492 0.0136568
0.0676585 0.219684 0.012192
0.171389 0.245396 0.0126497
0.343343 0.285435 0.0106508
0.522148 0.316106 0.00947585
0.689479 0.344823 0.00956741
0.822583 0.35758 0.013489
0.910002 0.359487 0.0189059
0.965362 0.357443 0.023682
0.0154726 0.350088 0.0189364
0.0756085 0.328786 0.0179599
0.164019 0.342519 0.0156558
0.318975 0.376898 0.0198672
0.49044 0.418799 0.0107271
0.652415 0.454932 0.0084535
0.796078 0.481239 0.00895705
0.906813 0.490288 0.0103456
0.966659 0.484962 0.0130465
0.0264286 0.466667 0.0262608
0.0848096 0.447349 0.0250858
0.167025 0.454307 0.0230411
0.307057 0.48426 0.0208896
0.479362 0.521675 0.0288701
0.625055 0.556634 0.0113069
0.766415 0.587945 0.00888075
0.890547 0.60621 0.00881971
0.957275 0.608759 0.00973526
0.0380865 0.607233 0.0350042
0.0951553 0.592416 0.0319524
0.194507 0.594064 0.0294041
0.336873 0.629526 0.03093
0.49192 0.64918 0.045304
0.630274 0.669215 0.0400397
0.749538 0.69218 0.0128634
0.876051 0.713756 0.01149
0.952819 0.721843 0.0123903
0.0704814 0.767071 0.0556802
0.145556 0.767895 0.0525673
0.260365 0.773693 0.0544137
0.388022 0.787549 0.0552987
0.529091 0.795178 0.0493782
0.65951 0.791821 0.0652476
0.770367 0.806348 0.0554665
0.875822 0.829068 0.0229038
0.947555 0.841154 0.017731
0.114366 0.908248 0.0707103
0.190845 0.910109 0.0694896
0.302358 0.915068 0.0713817
0.425696 0.917433 0.0686656
0.554253 0.919722 0.0605936
0.681392 0.920699 0.0644999
0.7935 0.919356 0.0821698
0.892897 0.928161 0.0712291
0.952789 0.930602 0.0426184
0.0126345 0.0200198 0.039353
0.0737469 0.0213321 0.0385443
0.219226 0.0244755 0.0392462
0.36614 0.0231022 0.0402075
0.500114 0.0215 0.0414282
0.630243 0.0209049 0.0400397
0.756832 0.0192874 0.0377356
0.878355 0.0167391 0.0375982
0.951064 0.0242771 0.0371405
0.0124819 0.0588083 0.038941
0.0686046 0.0590829 0.0384222
0.213458 0.0644694 0.0378729
0.372641 0.061799 0.0382849
0.510369 0.0556649 0.0383154
0.640345 0.0547951 0.0359655
0.770459 0.05449 0.0345617
0.885161 0.0529183 0.0340124
0.961685 0.0951553 0.0376135
0.0124666 0.142367 0.0437476
0.0637522 0.133074 0.0390478
0.196155 0.156481 0.0366064
0.379522 0.179934 0.0365759
0.540185 0.191394 0.0356298
0.686793 0.19913 0.0378271
0.814267 0.209766 0.043534
0.908568 0.219791 0.0494087
0.963867 0.22855 0.0539406
0.0130007 0.248249 0.0450599
0.0656443 0.226825 0.0396582
0.173419 0.244541 0.0370947
0.35201 0.287984 0.0370184
0.533715 0.32076 0.0398566
0.702159 0.345296 0.0479133
0.830427 0.355093 0.0539712
0.911421 0.358144 0.0591745
0.965438 0.356924 0.0657206
0.0133516 0.361501 0.0532692
0.0725261 0.333867 0.0464179
0.164157 0.33991 0.0417792
0.321767 0.375921 0.0451209
0.498985 0.419699 0.0418708
0.661845 0.457267 0.0444495
0.806119 0.482429 0.0462348
0.911543 0.487907 0.0484169
0.966171 0.483055 0.0545052
0.0253147 0.474205 0.0603647
0.0811933 0.452262 0.0546883
0.164858 0.45127 0.0509957
0.307439 0.478889 0.0470893
0.485145 0.519692 0.0627756
0.631678 0.557702 0.0488441
0.772152 0.58793 0.0456703
0.896056 0.6065 0.0464179
0.964477 0.606531 0.0489509
0.0343633 0.612009 0.0737316
0.0911727 0.592767 0.0631723
0.19118 0.592523 0.059678
0.335088 0.620401 0.0624399
0.492607 0.644938 0.0787823
0.63415 0.666209 0.0784466
0.756359 0.692668 0.0538033
0.882063 0.714046 0.0487221
0.959258 0.721157 0.05243
0.0685435 0.769635 0.0978256
0.137697 0.766415 0.0911421
0.253071 0.772717 0.0908827
0.384222 0.781674 0.0915389
0.527306 0.790188 0.0858778
0.661036 0.789868 0.100816
0.77377 0.805554 0.0975509
0.881422 0.827726 0.0687114
0.956878 0.837995 0.0606394
0.110613 0.908095 0.111849
0.182498 0.909636 0.107881
0.296056 0.914473 0.108019
0.42388 0.915343 0.104768
0.552483 0.917754 0.0976577
0.682109 0.920378 0.100938
0.79675 0.920409 0.119707
0.896483 0.92781 0.113466
0.962417 0.92932 0.0938582
0.0124208 0.0270542 0.0998856
0.069749 0.0238346 0.100938
0.21767 0.0281682 0.105531
0.371862 0.0251011 0.103426
0.504494 0.0195926 0.103105
0.63238 0.0194858 0.110582
0.760662 0.0176089 0.117952
0.878004 0.0143893 0.125368
0.952758 0.0274052 0.119539
0.012604 0.0720989 0.0997482
0.06598 0.067689 0.10341
0.210956 0.0713359 0.102968
0.377935 0.0632639 0.0942245
0.514076 0.0569924 0.0925917
0.644739 0.0502937 0.0966506
0.774227 0.0489815 0.103929
0.890043 0.0483101 0.107103
0.962356 0.0981003 0.111589
0.0125429 0.163699 0.116533
0.0536202 0.1579 0.111025
0.202426 0.166537 0.108522
0.389487 0.182712 0.106615
0.556283 0.183246 0.0996719
0.705303 0.180209 0.100404
0.825605 0.187427 0.102022
0.910323 0.198047 0.103044
0.964248 0.230915 0.12369
0.012726 0.273152 0.123934
0.0478676 0.261875 0.108232
0.173587 0.252232 0.0921492
0.364187 0.294697 0.0941939
0.560723 0.326925 0.105776
0.725841 0.343328 0.112367
0.844846 0.349584 0.111284
0.913298 0.351934 0.108415
0.965133 0.356847 0.128298
0.0131838 0.381643 0.109346
0.0587167 0.359976 0.0947585
0.159609 0.346105 0.0834974
0.326802 0.37847 0.083772
0.510842 0.426322 0.0846876
0.677363 0.461738 0.0892958
0.820218 0.484215 0.0908522
0.915282 0.485695 0.0910506
0.96643 0.481346 0.112398
0.0162966 0.498451 0.11046
0.0704967 0.469718 0.0927291
0.15729 0.456779 0.0806744
0.306996 0.478843 0.0772564
0.491676 0.522408 0.10222
0.641505 0.56109 0.0906386
0.782803 0.591913 0.0879683
0.902953 0.606592 0.0873579
0.9673 0.606714 0.105318
0.0303044 0.630793 0.133623
0.0787823 0.605447 0.103914
0.178637 0.597787 0.0930648
0.327871 0.615579 0.0965896
0.493797 0.644739 0.11223
0.639368 0.667491 0.117311
0.761791 0.692744 0.0944381
0.887282 0.714534 0.088777
0.96614 0.720195 0.110628
0.0603189 0.779858 0.156725
0.118715 0.771298 0.136416
0.233021 0.773541 0.12755
0.373785 0.779141 0.12665
0.522866 0.788067 0.120211
0.661601 0.789975 0.136172
0.778225 0.805768 0.136431
0.885756 0.827893 0.110277
0.96347 0.836622 0.119081
0.10222 0.908812 0.158846
0.161105 0.908629 0.148333
0.276585 0.912795 0.142611
0.415091 0.914031 0.139101
0.547326 0.916823 0.132311
0.680659 0.922316 0.134493
0.798245 0.921965 0.154559
0.899229 0.929061 0.151064
0.96405 0.930022 0.149676
0.0123598 0.0382696 0.175616
0.0544442 0.0312047 0.184878
0.219394 0.0311894 0.198138
0.377111 0.0328069 0.201907
0.517311 0.0288853 0.218555
0.644648 0.0156252 0.231983
0.766079 0.0129244 0.23859
0.878508 0.0112459 0.248127
0.95314 0.0281987 0.242649
0.0124819 0.0936141 0.180194
0.0586862 0.0858778 0.198337
0.21326 0.078294 0.20209
0.383444 0.0788891 0.201724
0.53286 0.0691081 0.21178
0.656321 0.0469215 0.216129
0.776913 0.0432136 0.22472
0.89604 0.0504768 0.228443
0.961837 0.102281 0.233051
0.0123293 0.181384 0.190295
0.0595712 0.183612 0.2
0.201419 0.179706 0.209522
0.387366 0.194934 0.215442
0.564538 0.185168 0.218387
0.713237 0.176455 0.218112
0.833432 0.175204 0.216358
0.911772 0.179965 0.216312
0.964462 0.232914 0.234073
0.0122377 0.294453 0.223255
0.0453498 0.296345 0.225071
0.178531 0.28455 0.210437
0.375753 0.309483 0.218601
0.573739 0.335683 0.229877
0.744518 0.340963 0.225284
0.850736 0.341955 0.216205
0.917403 0.338842 0.21091
0.965759 0.35668 0.233936
0.0124514 0.408881 0.232715
0.0522621 0.402106 0.225132
0.15816 0.38529 0.193896
0.331655 0.389654 0.184237
0.529946 0.439719 0.197391
0.705119 0.471229 0.205524
0.847166 0.483879 0.202747
0.919158 0.477745 0.192432
0.966552 0.48011 0.22417
0.0121157 0.530312 0.229374
0.0453956 0.516243 0.206455
0.146883 0.490669 0.168978
0.301381 0.485008 0.158267
0.497322 0.527977 0.174609
0.655207 0.569833 0.154788
0.797391 0.598459 0.151019
0.912749 0.60679 0.159823
0.967254 0.609522 0.218631
0.0123598 0.666026 0.223514
0.0675517 0.640009 0.189166
0.162737 0.619593 0.15378
0.315862 0.619135 0.150134
0.489754 0.644602 0.155367
0.646235 0.672145 0.168856
0.770855 0.697948 0.151507
0.89366 0.715312 0.142535
0.967666 0.721492 0.179934
0.0452125 0.797177 0.233509
0.105394 0.787823 0.210819
0.200076 0.779751 0.181064
0.354726 0.781033 0.173205
0.51165 0.788632 0.164263
0.660655 0.791928 0.177951
0.781155 0.806394 0.185107
0.889982 0.82887 0.160571
0.966964 0.835767 0.186526
0.0860609 0.910903 0.226932
0.142657 0.909529 0.210483
0.237629 0.911818 0.189914
0.390494 0.914305 0.182513
0.535851 0.917784 0.173312
0.6748 0.923568 0.173053
0.798917 0.922957 0.197269
0.900099 0.930922 0.196918
0.963333 0.933593 0.210941
0.0117342 0.056672 0.241703
0.052842 0.0440833 0.259266
0.195682 0.037171 0.286244
0.389548 0.042649 0.299046
0.529412 0.042298 0.306249
0.666651 0.0425269 0.330159
0.78819 0.0319219 0.344732
0.888991 0.0217136 0.349508
0.953048 0.0275883 0.345953
0.0131685 0.118517 0.248554
0.0513466 0.111009 0.282719
0.192752 0.0895705 0.298833
0.396719 0.0923629 0.304829
0.547524 0.090898 0.309102
0.690486 0.0930953 0.33022
0.805737 0.0793774 0.33901
0.903059 0.0650492 0.339239
0.961425 0.106065 0.34049
0.0125582 0.202533 0.256504
0.0635538 0.210727 0.286442
0.191501 0.202075 0.309438
0.390616 0.209201 0.312886
0.57435 0.215808 0.32166
0.734951 0.207858 0.336843
0.843885 0.18706 0.336782
0.911879 0.180102 0.333547
0.963745 0.235874 0.341787
0.0122835 0.300343 0.28574
0.0585489 0.308461 0.304723
0.184176 0.314992 0.312993
0.375463 0.324422 0.322683
0.574716 0.346654 0.33991
0.745418 0.345663 0.343297
0.849882 0.341924 0.337453
0.916899 0.335088 0.330587
0.965576 0.358099 0.339513
0.011841 0.428641 0.329046
0.0436255 0.432807 0.33814
0.155215 0.436728 0.340322
0.346426 0.421317 0.315358
0.54435 0.455756 0.330541
0.716808 0.482872 0.339208
0.852094 0.482811 0.330816
0.920119 0.472679 0.319295
0.966552 0.480079 0.333272
0.0160983 0.556878 0.357992
0.070161 0.553979 0.354681
0.178332 0.551461 0.332692
0.316701 0.528618 0.299077
0.499336 0.538048 0.291386
0.669856 0.582452 0.301137
0.819486 0.605097 0.310475
0.919875 0.609262 0.309606
0.967239 0.608911 0.335485
0.0469368 0.688899 0.363897
0.0935225 0.683543 0.350851
0.16524 0.674678 0.313436
0.301885 0.653376 0.280446
0.478202 0.647334 0.258915
0.652918 0.678706 0.265309
0.783352 0.703944 0.238895
0.903197 0.718135 0.24126
0.967117 0.725536 0.317021
0.0231785 0.819272 0.338048
0.0688029 0.808621 0.320439
0.180255 0.801358 0.276005
0.318837 0.796002 0.245182
0.493812 0.787121 0.228733
0.65478 0.793805 0.233845
0.784283 0.80853 0.248905
0.893462 0.829221 0.230945
0.96817 0.836957 0.26566
0.0368658 0.919341 0.320745
0.107378 0.915129 0.296757
0.200229 0.91339 0.265446
0.345403 0.915679 0.248646
0.513329 0.917266 0.235248
0.664637 0.922881 0.226276
0.795041 0.924544 0.248264
0.902007 0.931685 0.254948
0.963226 0.937377 0.283696
0.0116884 0.0819867 0.297963
0.0512551 0.0635386 0.319768
0.168978 0.0440375 0.350866
0.366217 0.0497292 0.380652
0.543038 0.0571756 0.391531
0.675242 0.0572061 0.400214
0.805188 0.0689097 0.424704
0.907118 0.0697185 0.44152
0.9617 0.0822614 0.446967
0.0128939 0.142153 0.305104
0.0506294 0.134859 0.342672
0.168582 0.102327 0.373541
0.371511 0.10277 0.389471
0.564523 0.114855 0.399405
0.701289 0.117601 0.40647
0.828992 0.137804 0.428717
0.911696 0.143328 0.444999
0.962554 0.16968 0.452049
0.0188296 0.22536 0.317723
0.0707713 0.236667 0.359197
0.190326 0.227832 0.394934
0.365103 0.223224 0.406607
0.58735 0.239551 0.408621
0.745876 0.240864 0.419409
0.853422 0.250797 0.442985
0.916808 0.239597 0.452705
0.964279 0.270191 0.456718
0.021622 0.316777 0.343206
0.0690623 0.328923 0.373724
0.182834 0.341878 0.396414
0.358938 0.342245 0.415015
0.575265 0.366873 0.419821
0.74377 0.379141 0.435569
0.853895 0.376181 0.447456
0.918776 0.355947 0.448798
0.96582 0.363745 0.445579
0.0290837 0.427512 0.387671
0.0739147 0.435157 0.406302
0.180652 0.45037 0.4215
0.34876 0.45658 0.425177
0.549523 0.474784 0.430442
0.718944 0.492927 0.442161
0.85127 0.485328 0.441306
0.919097 0.473014 0.432654
0.966781 0.481132 0.437324
0.022034 0.576761 0.445243
0.072221 0.579095 0.458564
0.179248 0.596429 0.471946
0.332021 0.595865 0.458442
0.512978 0.569039 0.417319
0.689082 0.598108 0.434897
0.826734 0.622614 0.443442
0.919799 0.61236 0.433997
0.967285 0.611948 0.441932
0.0610971 0.71809 0.487968
0.120623 0.719036 0.486534
0.208515 0.719631 0.474083
0.329686 0.710018 0.44448
0.480079 0.680247 0.402609
0.656046 0.688106 0.395773
0.794965 0.71252 0.399329
0.91107 0.724437 0.409842
0.967041 0.736339 0.444831
0.0833143 0.827893 0.485832
0.137606 0.826688 0.479484
0.210315 0.825269 0.456825
0.292668 0.818753 0.408347
0.461494 0.8009 0.377432
0.639658 0.796033 0.352239
0.784787 0.812039 0.352605
0.897047 0.830777 0.321279
0.967208 0.8392 0.390158
0.0491493 0.9252 0.467536
0.0928817 0.924315 0.455009
0.149004 0.923049 0.420874
0.300343 0.921172 0.379004
0.473915 0.919631 0.343572
0.649454 0.919539 0.313298
0.791226 0.925734 0.312139
0.902159 0.932647 0.32549
0.963378 0.937621 0.35761
0.0121157 0.105379 0.349401
0.0503243 0.0921492 0.372519
0.165957 0.0613107 0.407187
0.337194 0.0593271 0.447791
0.533165 0.0737316 0.472023
0.698192 0.091783 0.485893
0.80882 0.0965896 0.491493
0.90605 0.122789 0.520897
0.957122 0.163165 0.544015
0.0159304 0.164935 0.358511
0.0625162 0.158404 0.397757
0.163668 0.124132 0.431525
0.337667 0.112764 0.461006
0.543633 0.13489 0.480919
0.720638 0.16051 0.492332
0.830976 0.167025 0.499336
0.909316 0.194034 0.532006
0.958709 0.236057 0.551568
0.0298772 0.25156 0.380545
0.0826581 0.258946 0.423987
0.185946 0.252247 0.465095
0.333852 0.232395 0.487907
0.555245 0.253803 0.499947
0.753292 0.274693 0.504311
0.850629 0.273167 0.513939
0.913756 0.292119 0.542702
0.961593 0.327489 0.557275
0.0317998 0.34023 0.404044
0.0768139 0.351278 0.4383
0.184802 0.367803 0.475242
0.346044 0.368414 0.503532
0.546105 0.38172 0.512734
0.740154 0.400656 0.502678
0.852171 0.400244 0.517937
0.9178 0.410529 0.54725
0.964874 0.420935 0.5579
0.0390021 0.44184 0.446494
0.0810101 0.450385 0.469612
0.179431 0.467826 0.498268
0.327596 0.48278 0.513298
0.526955 0.489418 0.522103
0.714672 0.515694 0.520394
0.848188 0.526467 0.541665
0.920256 0.517922 0.555047
0.966964 0.511666 0.551141
0.0504005 0.567819 0.50779
0.104158 0.576883 0.524712
0.197055 0.593881 0.547662
0.326741 0.607446 0.557534
0.511513 0.605417 0.542718
0.693843 0.622858 0.544381
0.832303 0.629801 0.551019
0.919188 0.617777 0.546593
0.967163 0.619364 0.548409
0.0780652 0.729564 0.587182
0.131395 0.732403 0.596582
0.207767 0.741115 0.609735
0.320073 0.74902 0.616678
0.496101 0.73901 0.577264
0.665995 0.715312 0.527749
0.806821 0.730907 0.539895
0.914534 0.744396 0.551736
0.966369 0.746929 0.561761
0.103853 0.845762 0.622827
0.155779 0.847135 0.627543
0.231403 0.848341 0.622095
0.335348 0.845518 0.597818
0.476524 0.833402 0.548135
0.634791 0.811643 0.502251
0.787091 0.82005 0.492927
0.902296 0.837186 0.497704
0.966659 0.849317 0.538125
0.11812 0.933104 0.621363
0.169436 0.932891 0.619928
0.236316 0.932769 0.608148
0.332815 0.931258 0.571557
0.440391 0.924529 0.513298
0.62414 0.915633 0.476509
0.78265 0.920668 0.454536
0.903151 0.932525 0.453056
0.964187 0.939467 0.468574
0.021088 0.1337 0.41004
0.0738384 0.11165 0.431556
0.178882 0.0823224 0.460883
0.323354 0.0727245 0.508858
0.508766 0.0868238 0.548898
0.686397 0.118044 0.576425
0.822675 0.145769 0.589334
0.902068 0.158343 0.592981
0.95108 0.198062 0.614099
0.0377356 0.193164 0.426291
0.0797589 0.183078 0.457145
0.170596 0.151446 0.489693
0.318318 0.128832 0.52639
0.510796 0.149813 0.560479
0.706691 0.190616 0.590356
0.842695 0.214832 0.597421
0.904418 0.22327 0.600671
0.952331 0.267201 0.619181
0.0461891 0.280385 0.44506
0.0938277 0.287037 0.488426
0.192233 0.276432 0.537102
0.32221 0.251438 0.567529
0.51751 0.263996 0.589319
0.725948 0.298299 0.603006
0.85153 0.312001 0.602075
0.908186 0.312245 0.603738
0.954253 0.357504 0.619974
0.0454566 0.369039 0.470848
0.0872969 0.379171 0.507652
0.190158 0.393393 0.553048
0.33724 0.394659 0.592798
0.510124 0.391135 0.61294
0.705989 0.418219 0.602609
0.849332 0.429496 0.593469
0.909728 0.423911 0.598978
0.956481 0.456352 0.622538
0.0450141 0.463004 0.508186
0.0846265 0.469963 0.535103
0.175631 0.487434 0.572625
0.319081 0.508232 0.606928
0.505074 0.512627 0.624399
0.684291 0.528328 0.617288
0.837644 0.54377 0.603754
0.913115 0.540047 0.614694
0.960769 0.563684 0.644373
0.0537881 0.581003 0.572381
0.105425 0.58851 0.592508
0.191653 0.604898 0.621942
0.305196 0.620279 0.642191
0.474342 0.625727 0.638071
0.671199 0.636149 0.637736
0.824002 0.657359 0.639399
0.915663 0.662623 0.651102
0.963729 0.664683 0.664073
0.0872206 0.723171 0.643702
0.139086 0.72575 0.65861
0.211276 0.733272 0.678218
0.309178 0.740948 0.696559
0.472969 0.74612 0.691188
0.660044 0.750484 0.666346
0.812085 0.761761 0.663005
0.911955 0.755764 0.661372
0.966262 0.751095 0.659831
0.111788 0.850324 0.718791
0.16112 0.852842 0.732906
0.226184 0.857755 0.74284
0.315175 0.86389 0.745953
0.462409 0.862837 0.742931
0.645579 0.860014 0.69929
0.791135 0.841703 0.637934
0.906172 0.851835 0.645029
0.96495 0.864805 0.673152
0.129213 0.941604 0.747234
0.178195 0.941482 0.747433
0.242924 0.942626 0.743679
0.345327 0.942794 0.735637
0.471916 0.937087 0.723308
0.618402 0.933852 0.664149
0.772229 0.92369 0.611276
0.902754 0.933028 0.59997
0.962768 0.941741 0.619638
0.0524147 0.162325 0.484993
0.103822 0.136782 0.500893
0.205951 0.110475 0.52845
0.337087 0.0957198 0.579248
0.49247 0.102571 0.622583
0.661204 0.143954 0.663615
0.81384 0.181506 0.688762
0.902312 0.206332 0.695979
0.946975 0.22678 0.689845
0.0640421 0.225803 0.503578
0.106538 0.212619 0.530053
0.193912 0.181582 0.558907
0.332021 0.161288 0.601785
0.490349 0.172366 0.640177
0.671717 0.21384 0.678645
0.830488 0.24773 0.698268
0.904128 0.269749 0.700359
0.947585 0.291676 0.689174
0.0654612 0.317494 0.519799
0.11902 0.317433 0.56553
0.205417 0.304768 0.612955
0.327031 0.278691 0.645609
0.491646 0.280125 0.674479
0.679469 0.314809 0.69987
0.839796 0.339696 0.701366
0.906905 0.351293 0.695857
0.947951 0.376974 0.680232
0.0627451 0.403754 0.549554
0.10193 0.411688 0.586816
0.203922 0.421592 0.637675
0.337865 0.417441 0.680827
0.488502 0.405173 0.711208
0.664393 0.427375 0.71371
0.823468 0.448356 0.696406
0.907225 0.456992 0.684474
0.949783 0.470985 0.676844
0.0553597 0.49424 0.585077
0.0945449 0.501488 0.614511
0.184497 0.518288 0.657984
0.310384 0.535149 0.702052
0.480201 0.536171 0.731456
0.650935 0.53611 0.732174
0.806973 0.557382 0.709987
0.907088 0.566064 0.695888
0.95024 0.573037 0.694713
0.0591897 0.607584 0.641672
0.10837 0.610162 0.663798
0.187701 0.623468 0.697795
0.285527 0.637415 0.728679
0.446632 0.648142 0.74931
0.635416 0.653178 0.754711
0.795254 0.669017 0.736675
0.904372 0.681544 0.727291
0.952804 0.68455 0.730022
0.0806897 0.734768 0.70869
0.131014 0.734646 0.729259
0.200229 0.740627 0.757443
0.287282 0.746777 0.774517
0.424918 0.752529 0.774655
0.607599 0.756176 0.773236
0.784741 0.773236 0.763119
0.899992 0.789914 0.76463
0.956558 0.790814 0.767895
0.108522 0.845884 0.775937
0.15671 0.84567 0.789288
0.21976 0.847959 0.793988
0.29926 0.85481 0.795651
0.426139 0.85771 0.797375
0.59704 0.866209 0.8
0.776837 0.875608 0.793561
0.895476 0.886503 0.783444
0.959381 0.877516 0.783856
0.134752 0.939788 0.810071
0.181903 0.940993 0.809918
0.239994 0.942718 0.811017
0.32015 0.945113 0.812802
0.437964 0.946029 0.815213
0.582254 0.946624 0.818631
0.747585 0.948531 0.809155
0.889326 0.942 0.759747
0.959213 0.946197 0.76321
