LUTS/Secondary LUTS/TEAL TEMPEST.cube
TITLE "Generated by Resolve"
LUT_3D_SIZE 5
0.0128481 0.0175937 0.0108339
0.215854 0.0243534 0.0107271
0.495857 0.0220798 0.010956
0.754467 0.0204471 0.0109865
0.946349 0.0232395 0.0106355
0.0130159 0.132677 0.0111238
0.194598 0.157275 0.0104219
0.532876 0.191638 0.0107729
0.80763 0.212085 0.00862135
0.963867 0.229023 0.0124666
0.0154726 0.350088 0.0189364
0.164019 0.342519 0.0156558
0.49044 0.418799 0.0107271
0.796078 0.481239 0.00895705
0.966659 0.484962 0.0130465
0.0380865 0.607233 0.0350042
0.194507 0.594064 0.0294041
0.49192 0.64918 0.045304
0.749538 0.69218 0.0128634
0.952819 0.721843 0.0123903
0.114366 0.908248 0.0707103
0.302358 0.915068 0.0713817
0.554253 0.919722 0.0605936
0.7935 0.919356 0.0821698
0.952789 0.930602 0.0426184
0.0124208 0.0270542 0.0998856
0.21767 0.0281682 0.105531
0.504494 0.0195926 0.103105
0.760662 0.0176089 0.117952
0.952758 0.0274052 0.119539
0.0125429 0.163699 0.116533
0.202426 0.166537 0.108522
0.556283 0.183246 0.0996719
0.825605 0.187427 0.102022
0.964248 0.230915 0.12369
0.0131838 0.381643 0.109346
0.159609 0.346105 0.0834974
0.510842 0.426322 0.0846876
0.820218 0.484215 0.0908522
0.96643 0.481346 0.112398
0.0303044 0.630793 0.133623
0.178637 0.597787 0.0930648
0.493797 0.644739 0.11223
0.761791 0.692744 0.0944381
0.96614 0.720195 0.110628
0.10222 0.908812 0.158846
0.276585 0.912795 0.142611
0.547326 0.916823 0.132311
0.798245 0.921965 0.154559
0.96405 0.930022 0.149676
0.0117342 0.056672 0.241703
0.195682 0.037171 0.286244
0.529412 0.042298 0.306249
0.78819 0.0319219 0.344732
0.953048 0.0275883 0.345953
0.0125582 0.202533 0.256504
0.191501 0.202075 0.309438
0.57435 0.215808 0.32166
0.843885 0.18706 0.336782
0.963745 0.235874 0.341787
0.011841 0.428641 0.329046
0.155215 0.436728 0.340322
0.54435 0.455756 0.330541
0.852094 0.482811 0.330816
0.966552 0.480079 0.333272
0.0469368 0.688899 0.363897
0.16524 0.674678 0.313436
0.478202 0.647334 0.258915
0.783352 0.703944 0.238895
0.967117 0.725536 0.317021
0.0368658 0.919341 0.320745
0.200229 0.91339 0.265446
0.513329 0.917266 0.235248
0.795041 0.924544 0.248264
0.963226 0.937377 0.283696
0.0121157 0.105379 0.349401
0.165957 0.0613107 0.407187
0.533165 0.0737316 0.472023
0.80882 0.0965896 0.491493
0.957122 0.163165 0.544015
0.0298772 0.25156 0.380545
0.185946 0.252247 0.465095
0.555245 0.253803 0.499947
0.850629 0.273167 0.513939
0.961593 0.327489 0.557275
0.0390021 0.44184 0.446494
0.179431 0.467826 0.498268
0.526955 0.489418 0.522103
0.848188 0.526467 0.541665
0.966964 0.511666 0.551141
0.0780652 0.729564 0.587182
0.207767 0.741115 0.609735
0.496101 0.73901 0.577264
0.806821 0.730907 0.539895
0.966369 0.746929 0.561761
0.11812 0.933104 0.621363
0.236316 0.932769 0.608148
0.440391 0.924529 0.513298
0.78265 0.920668 0.454536
0.964187 0.939467 0.468574
0.0524147 0.162325 0.484993
0.205951 0.110475 0.52845
0.49247 0.102571 0.622583
0.81384 0.181506 0.688762
0.946975 0.22678 0.689845
0.0654612 0.317494 0.519799
0.205417 0.304768 0.612955
0.491646 0.280125 0.674479
0.839796 0.339696 0.701366
0.947951 0.376974 0.680232
0.0553597 0.49424 0.585077
0.184497 0.518288 0.657984
0.480201 0.536171 0.731456
0.806973 0.557382 0.709987
0.95024 0.573037 0.694713
0.0806897 0.734768 0.70869
0.200229 0.740627 0.757443
0.424918 0.752529 0.774655
0.784741 0.773236 0.763119
0.956558 0.790814 0.767895
0.134752 0.939788 0.810071
0.239994 0.942718 0.811017
0.437964 0.946029 0.815213
0.747585 0.948531 0.809155
0.959213 0.946197 0.76321
