LUTS/Secondary LUTS/TEAL TEMPEST.cube
TITLE "Generated by Resolve"
LUT_3D_SIZE 33
0.0128481 0.0175937 0.0108339
0.0248722 0.0181888 0.0107424
0.0366369 0.0183871 0.0106661
0.0517128 0.0190585 0.0107271
0.0793622 0.0196689 0.010544
0.10959 0.0214694 0.0107729
0.143114 0.0228733 0.0108644
0.178576 0.023682 0.0111849
0.215854 0.0243534 0.0107271
0.252781 0.0245823 0.0113069
0.289555 0.0236667 0.0113985
0.326421 0.0230869 0.0113375
0.360906 0.0222019 0.010956
0.396445 0.0214542 0.010956
0.430274 0.0215915 0.011368
0.465248 0.0216678 0.0118257
0.495857 0.0220798 0.010956
0.529946 0.021622 0.010956
0.561913 0.0215763 0.010956
0.5953 0.0218967 0.010956
0.628901 0.0217746 0.010956
0.66212 0.0213169 0.010956
0.693645 0.0211795 0.0109407
0.726528 0.0207828 0.0109407
0.754467 0.0204471 0.0109865
0.78616 0.0201267 0.0111391
0.81767 0.0196078 0.0109255
0.848432 0.0183719 0.0109102
0.875425 0.0174716 0.0108949
0.894636 0.016846 0.0108797
0.91252 0.0165103 0.0110018
0.928908 0.0158389 0.0107271
0.946349 0.0232395 0.0106355
0.0131533 0.0256809 0.010605
0.0245212 0.0260624 0.0107271
0.0358892 0.0263066 0.0107271
0.0512245 0.0269017 0.0105592
0.0752575 0.0281224 0.0104524
0.104814 0.0297704 0.0104067
0.139635 0.031342 0.0106203
0.177188 0.0322118 0.0110475
0.215412 0.0328985 0.0110628
0.253452 0.0326696 0.0110781
0.290806 0.0321965 0.0109102
0.326757 0.0319829 0.0109102
0.363058 0.0306554 0.0109102
0.398291 0.0298466 0.0109102
0.431174 0.0296483 0.0113069
0.466682 0.0303197 0.0110781
0.498604 0.0303197 0.0109407
0.532677 0.030457 0.0108949
0.564523 0.0306401 0.011017
0.597665 0.0310063 0.0111849
0.629892 0.0310826 0.0108797
0.664057 0.0308385 0.0109865
0.696544 0.0309758 0.0110781
0.728817 0.0304265 0.0108644
0.758221 0.0300755 0.011017
0.788754 0.0297398 0.0109865
0.820096 0.0291905 0.0111391
0.850385 0.0283818 0.0112154
0.876844 0.0280003 0.0110323
0.896162 0.0268711 0.0108644
0.91426 0.0263676 0.0107881
0.931151 0.0267948 0.0106508
0.949294 0.0351568 0.0106813
0.0124208 0.033814 0.0103914
0.0240482 0.0341039 0.0103761
0.0354772 0.0342412 0.0103609
0.0511177 0.0350805 0.0104982
0.0729992 0.0362097 0.0104219
0.102037 0.0386358 0.0108339
0.136172 0.039704 0.0106508
0.175601 0.0406348 0.0112917
0.214771 0.0414893 0.0115206
0.250507 0.0408637 0.0109102
0.289479 0.0408484 0.0108949
0.327489 0.0404059 0.0108949
0.36405 0.0396582 0.0108949
0.400183 0.038468 0.0108797
0.432258 0.0385138 0.0108644
0.467567 0.0386206 0.0108492
0.501747 0.0390326 0.0111543
0.534737 0.0393988 0.0108339
0.566613 0.039765 0.0108339
0.600671 0.0401923 0.0109865
0.632761 0.0403601 0.0108186
0.666041 0.0404364 0.0108186
0.699382 0.0403143 0.0108186
0.731106 0.040116 0.0108186
0.760098 0.0397955 0.0108186
0.792386 0.039826 0.0108034
0.822889 0.0388342 0.010956
0.852644 0.0381018 0.0111543
0.879133 0.037583 0.0110628
0.897826 0.037171 0.0107424
0.916487 0.0366827 0.0107118
0.933669 0.0386206 0.0105745
0.952407 0.0486915 0.0104524
0.0123751 0.0431678 0.010132
0.0237583 0.0437018 0.0104067
0.0347143 0.0437171 0.0101778
0.0497444 0.04448 0.0102388
0.0718547 0.0459907 0.0105898
0.0995346 0.0480049 0.0108339
0.134096 0.0495308 0.0107881
0.172534 0.050782 0.0108492
0.211933 0.0511177 0.0116579
0.25095 0.0510719 0.0109407
0.290547 0.0508278 0.0111391
0.328511 0.0500038 0.0112154
0.365606 0.0500343 0.0108949
0.403067 0.0502937 0.0112001
0.435523 0.0496986 0.0108034
0.468498 0.0483253 0.0107881
0.502754 0.0492103 0.0110475
0.536629 0.0495613 0.0108339
0.57116 0.0500496 0.0108034
0.60325 0.0506142 0.0108186
0.635462 0.0513008 0.0107424
0.669657 0.0512245 0.0108186
0.702068 0.051133 0.0108797
0.733654 0.0509499 0.0110933
0.764721 0.05066 0.0108339
0.794903 0.0502937 0.0107271
0.825788 0.0497597 0.0107271
0.855573 0.0491951 0.0107271
0.881102 0.0488441 0.0109407
0.900511 0.0484169 0.0106661
0.918105 0.0484627 0.0106355
0.938033 0.0545205 0.0108949
0.95642 0.0683604 0.010132
0.0131991 0.0532387 0.00985733
0.0238041 0.0533913 0.00991836
0.0345617 0.0543069 0.0099794
0.0488441 0.0557717 0.0103914
0.0696574 0.057084 0.010193
0.0964675 0.0599069 0.0102998
0.131411 0.0619821 0.0104524
0.171511 0.0641947 0.0108797
0.211643 0.0656596 0.0112612
0.250278 0.0659037 0.0109865
0.291493 0.0646982 0.0110018
0.330602 0.0641947 0.0109865
0.367651 0.0638285 0.0107576
0.405173 0.0634318 0.0107271
0.439185 0.0629129 0.0107271
0.471687 0.0614176 0.0106966
0.507057 0.0599222 0.0108797
0.541512 0.0600137 0.0107271
0.572259 0.0607156 0.0106813
0.607294 0.0616159 0.0109712
0.640314 0.0624094 0.0107576
0.672679 0.0630503 0.0108186
0.705974 0.0634318 0.0109712
0.738216 0.0638743 0.0106355
0.768933 0.0637522 0.0106813
0.799741 0.0638132 0.0106203
0.829343 0.06392 0.0106813
0.858228 0.0639963 0.0105745
0.883391 0.0644388 0.0105287
0.903075 0.0632181 0.0105135
0.922744 0.071397 0.0103456
0.943023 0.0822003 0.0103151
0.959655 0.0924697 0.00991836
0.0133822 0.0699168 0.0100099
0.0243381 0.0708171 0.0106966
0.0343328 0.0706493 0.0101015
0.048188 0.0711833 0.00994888
0.0684825 0.0727703 0.0102083
0.0941787 0.0767987 0.0101778
0.128603 0.0800031 0.0104219
0.16791 0.0843214 0.0105135
0.20734 0.0865339 0.0108339
0.24892 0.0887617 0.01149
0.29041 0.0881056 0.0107576
0.331121 0.0873426 0.0107424
0.370871 0.0876936 0.0111086
0.410605 0.0871595 0.0110933
0.444816 0.0881971 0.0106813
0.478828 0.0882582 0.0106661
0.515801 0.0848554 0.0112459
0.548974 0.0830091 0.0110628
0.581079 0.0820935 0.0111086
0.61593 0.0826123 0.0111391
0.64863 0.0839094 0.0108339
0.681971 0.0859388 0.0107576
0.713573 0.0867628 0.0109102
0.74638 0.0886091 0.0105287
0.777188 0.0887312 0.0108186
0.807355 0.0898299 0.0104677
0.83653 0.0896773 0.0104372
0.863844 0.0899672 0.0102693
0.89015 0.0925307 0.0105592
0.909773 0.0996109 0.00987259
0.930465 0.108232 0.0099794
0.94876 0.113252 0.0099031
0.964736 0.120912 0.0093843
0.01355 0.0887465 0.0109255
0.024155 0.0891737 0.0108339
0.034165 0.0884718 0.0107576
0.0472572 0.0892958 0.0103304
0.067216 0.0914321 0.0103914
0.0914931 0.0950942 0.0104219
0.124743 0.100114 0.0101625
0.162783 0.105653 0.0104219
0.20499 0.110353 0.010544
0.247517 0.113985 0.0108644
0.291615 0.115496 0.0108339
0.333974 0.115572 0.0108339
0.374548 0.115007 0.0108186
0.415854 0.114382 0.0108034
0.451499 0.114473 0.0106508
0.488731 0.115923 0.0106203
0.526131 0.115969 0.0106661
0.56173 0.115785 0.0106813
0.59292 0.115358 0.0106661
0.627176 0.114931 0.010605
0.661662 0.113405 0.0109255
0.693401 0.114061 0.0106966
0.724727 0.115816 0.0105135
0.757336 0.117357 0.0103914
0.787411 0.118181 0.0107729
0.818448 0.121904 0.0101472
0.846235 0.125292 0.00981155
0.876326 0.133455 0.00972
0.90045 0.138048 0.00958267
0.917357 0.143496 0.0101167
0.935012 0.146761 0.00996414
0.950668 0.150698 0.00946059
0.964157 0.157565 0.00909438
0.0134585 0.109407 0.0107576
0.0236667 0.108766 0.0102998
0.0343938 0.107988 0.0104219
0.0477455 0.107713 0.0100557
0.065507 0.109224 0.00985733
0.0899825 0.113725 0.0099031
0.120821 0.119707 0.0104219
0.157366 0.126543 0.0102083
0.200229 0.132906 0.0105592
0.244663 0.138109 0.0105135
0.288624 0.140688 0.0105898
0.333242 0.14403 0.0108797
0.375723 0.145953 0.010956
0.417426 0.1458 0.0106508
0.45478 0.147372 0.0108644
0.494285 0.150286 0.0108339
0.530266 0.152773 0.0107881
0.567407 0.155901 0.0107576
0.602014 0.156039 0.0104982
0.635904 0.157397 0.0103761
0.671687 0.1579 0.010544
0.704356 0.159976 0.0101625
0.736248 0.163317 0.010193
0.7682 0.165347 0.00965896
0.798474 0.167041 0.00961318
0.829236 0.172198 0.0093843
0.85742 0.175418 0.00924697
0.884108 0.180728 0.00929274
0.903838 0.183124 0.00985733
0.919524 0.184558 0.00982681
0.934844 0.186343 0.00927749
0.949752 0.191073 0.00892653
0.96376 0.195056 0.00848402
0.0130159 0.132677 0.0111238
0.023331 0.129458 0.0102388
0.0346227 0.127352 0.0102083
0.0480507 0.126299 0.00996414
0.0652934 0.128267 0.00978103
0.0878309 0.133272 0.00993362
0.116472 0.140002 0.0102846
0.151217 0.148226 0.0104829
0.194598 0.157275 0.0104219
0.236835 0.163546 0.0104067
0.282475 0.168765 0.0107576
0.326085 0.172534 0.0106355
0.371527 0.178759 0.0109255
0.415824 0.181842 0.0115053
0.454795 0.185885 0.010956
0.495567 0.187015 0.0115206
0.532876 0.191638 0.0107729
0.570886 0.193347 0.010544
0.606592 0.197436 0.0104219
0.642863 0.199588 0.010132
0.678828 0.20148 0.00978103
0.712535 0.204074 0.00927749
0.745693 0.20676 0.00895705
0.777096 0.209552 0.00868238
0.80763 0.212085 0.00862135
0.837858 0.2168 0.00877394
0.86627 0.21854 0.00917067
0.890745 0.22118 0.010132
0.908049 0.22295 0.0110018
0.921355 0.224369 0.0120394
0.935317 0.224643 0.0123598
0.950439 0.225055 0.0119326
0.963867 0.229023 0.0124666
0.0123903 0.155322 0.0109712
0.0230564 0.15314 0.0104372
0.0335393 0.150759 0.0104372
0.0480659 0.14757 0.0100252
0.0641489 0.14847 0.00991836
0.0867323 0.154452 0.0106203
0.114549 0.161105 0.0104067
0.14876 0.16994 0.0107729
0.188602 0.178988 0.0107271
0.230472 0.187366 0.0106203
0.275715 0.195102 0.0104524
0.321553 0.202914 0.0107881
0.366155 0.207492 0.0105745
0.411856 0.211505 0.0106508
0.453315 0.217258 0.0108034
0.494133 0.22211 0.0109712
0.534997 0.228153 0.0104219
0.574548 0.230655 0.010071
0.610697 0.233661 0.00972
0.648707 0.236713 0.00950637
0.684901 0.238972 0.00906386
0.718715 0.242008 0.00900282
0.752483 0.244877 0.00929274
0.78526 0.248631 0.00978103
0.815061 0.250294 0.0103456
0.84683 0.253849 0.0115969
0.87071 0.256764 0.0131533
0.892027 0.258976 0.0140536
0.908766 0.258747 0.0150607
0.923095 0.258625 0.0160525
0.935164 0.259464 0.0165408
0.949905 0.259556 0.0166629
0.964446 0.262135 0.0168612
0.0123445 0.179828 0.0112001
0.0226749 0.176883 0.0108949
0.034226 0.174624 0.0108797
0.0484627 0.171176 0.0102998
0.0659953 0.171893 0.0103151
0.0859846 0.175692 0.00996414
0.11162 0.181949 0.0103609
0.143099 0.190188 0.0106813
0.182177 0.201312 0.0114595
0.225025 0.21088 0.0112459
0.270191 0.220798 0.0108186
0.313268 0.228244 0.0102998
0.358083 0.233021 0.0104372
0.405158 0.240589 0.0105745
0.446662 0.24625 0.0109102
0.491676 0.252415 0.0112459
0.535302 0.259281 0.0101778
0.576699 0.265797 0.00996414
0.614313 0.269886 0.00917067
0.651316 0.272847 0.0087129
0.688716 0.275776 0.00852979
0.724437 0.278431 0.0087892
0.758114 0.2822 0.00943008
0.791394 0.285603 0.0104524
0.821591 0.287541 0.0123445
0.853284 0.290745 0.014023
0.874159 0.292668 0.0155489
0.893477 0.294286 0.0171511
0.909407 0.293385 0.0180819
0.923079 0.293233 0.0187533
0.936522 0.292866 0.0196078
0.950744 0.292897 0.0196841
0.964416 0.293477 0.0198825
0.0127413 0.206332 0.0127718
0.0230716 0.203403 0.012192
0.0346838 0.199237 0.0117952
0.0496834 0.195041 0.0114443
0.0665293 0.194858 0.0115206
0.0859083 0.19855 0.0108339
0.110369 0.204715 0.0111391
0.139849 0.213092 0.0109712
0.17818 0.224079 0.0121157
0.217838 0.23447 0.0118868
0.263432 0.244862 0.0124056
0.306416 0.251637 0.0110933
0.352331 0.26096 0.0105287
0.396918 0.268009 0.0104067
0.440497 0.27512 0.0104829
0.482658 0.281422 0.0107424
0.52755 0.288258 0.00972
0.570947 0.295506 0.00921645
0.612482 0.302296 0.00892653
0.652857 0.30634 0.00859083
0.689586 0.312245 0.00859083
0.72401 0.313191 0.00914015
0.759228 0.317037 0.0104677
0.792645 0.320378 0.0113832
0.820523 0.323537 0.0130312
0.852522 0.325399 0.0149691
0.875257 0.326497 0.0164492
0.895445 0.327749 0.0179751
0.910552 0.325795 0.0194247
0.923506 0.325643 0.0209354
0.937392 0.324575 0.0223697
0.95137 0.325399 0.022797
0.965087 0.325933 0.023682
0.0130159 0.235492 0.0136568
0.0229343 0.232197 0.0136721
0.0352331 0.227131 0.013138
0.0510109 0.220249 0.012604
0.0676585 0.219684 0.012192
0.0875868 0.223529 0.0121767
0.110307 0.229221 0.0115206
0.138689 0.23624 0.0116732
0.171389 0.245396 0.0126497
0.211475 0.255756 0.0126955
0.256214 0.266697 0.013077
0.299962 0.276585 0.0125277
0.343343 0.285435 0.0106508
0.38996 0.295094 0.0101167
0.432822 0.302342 0.010132
0.475639 0.308568 0.0102846
0.522148 0.316106 0.00947585
0.564767 0.324529 0.00898756
0.607156 0.331243 0.00856031
0.649348 0.338323 0.00895705
0.689479 0.344823 0.00956741
0.72398 0.347845 0.00962844
0.759457 0.350988 0.0106661
0.791913 0.354177 0.0119631
0.822583 0.35758 0.013489
0.852186 0.359289 0.0148775
0.875105 0.359701 0.0162356
0.895247 0.361761 0.0173953
0.910002 0.359487 0.0189059
0.924376 0.357885 0.0205844
0.937728 0.356725 0.0224155
0.952117 0.355703 0.0228428
0.965362 0.357443 0.023682
0.0131075 0.263569 0.0148013
0.0236057 0.259846 0.0146181
0.0365759 0.254749 0.0143587
0.052369 0.24773 0.0139315
0.0693675 0.246494 0.0137026
0.0881208 0.24892 0.0131991
0.110018 0.253452 0.0127718
0.137484 0.260563 0.0127565
0.169253 0.268269 0.0128786
0.208423 0.279026 0.0138705
0.251591 0.28925 0.0144045
0.294575 0.29984 0.0137942
0.338552 0.309865 0.0128481
0.382071 0.318868 0.0117037
0.42446 0.326131 0.0103761
0.468315 0.33518 0.00993362
0.513283 0.3449 0.00956741
0.558221 0.352453 0.00889601
0.6 0.360494 0.00868238
0.638743 0.365194 0.00852979
0.679057 0.372686 0.00868238
0.717861 0.378485 0.00933852
0.755871 0.385809 0.0104524
0.788342 0.388998 0.0106661
0.817563 0.39057 0.0121157
0.846342 0.392447 0.0126192
0.872663 0.393301 0.0139162
0.896361 0.394446 0.0152743
0.911696 0.392477 0.0172274
0.925292 0.390326 0.018555
0.938964 0.388754 0.0204318
0.953368 0.38793 0.0218967
0.965576 0.389624 0.0226444
0.0131685 0.293873 0.0160372
0.0244144 0.287907 0.0158389
0.0379187 0.281926 0.0156863
0.0546578 0.274434 0.0154116
0.0717937 0.272557 0.0150607
0.0891127 0.274128 0.0146181
0.11078 0.278202 0.0141299
0.137469 0.286366 0.013962
0.167773 0.292988 0.01355
0.203571 0.30164 0.0141299
0.242359 0.310689 0.0157931
0.285328 0.321553 0.0158541
0.332738 0.333135 0.0152438
0.378546 0.343847 0.0133974
0.417914 0.349966 0.0108949
0.461753 0.359884 0.00976577
0.504875 0.370733 0.00933852
0.547829 0.377935 0.00889601
0.590173 0.385901 0.00898756
0.631479 0.393454 0.0090486
0.672221 0.4 0.00854505
0.710109 0.407141 0.00877394
0.745571 0.413886 0.0090486
0.781064 0.419806 0.00946059
0.812467 0.42475 0.0101472
0.84152 0.425254 0.0107271
0.869673 0.426551 0.0116121
0.895003 0.426825 0.0123751
0.912306 0.42417 0.0149233
0.926314 0.422126 0.0165255
0.940597 0.420188 0.0178531
0.953872 0.41944 0.0187381
0.96585 0.420142 0.0194705
0.0133059 0.323033 0.0173953
0.0257115 0.317678 0.017258
0.0396124 0.310369 0.0171817
0.0572518 0.302342 0.016846
0.0742046 0.300069 0.016434
0.0916152 0.301366 0.0159457
0.111818 0.30518 0.0154879
0.136812 0.310582 0.0149081
0.164981 0.318883 0.0142519
0.200168 0.326131 0.0153048
0.238392 0.335073 0.0165255
0.279881 0.344747 0.0174716
0.326101 0.355261 0.0182498
0.370733 0.366918 0.0157321
0.413169 0.37612 0.0129854
0.451728 0.384039 0.0111238
0.497261 0.394812 0.0100099
0.539971 0.403998 0.00888075
0.580758 0.413382 0.00854505
0.62092 0.419638 0.00846876
0.661982 0.428641 0.00849927
0.699748 0.435691 0.00863661
0.737148 0.442664 0.00875868
0.772137 0.448386 0.0090486
0.805188 0.454231 0.00965896
0.836042 0.456474 0.0101625
0.865797 0.458976 0.0103456
0.89102 0.460273 0.0106813
0.909636 0.457374 0.0118257
0.925902 0.454353 0.0131991
0.94287 0.451469 0.0148013
0.955612 0.451591 0.0153658
0.966445 0.451957 0.015671
0.0154726 0.350088 0.0189364
0.0282902 0.345388 0.0187991
0.042298 0.337621 0.0185092
0.0591592 0.330602 0.018265
0.0756085 0.328786 0.0179599
0.0935073 0.328923 0.0174868
0.113756 0.331136 0.0169528
0.136934 0.33489 0.0162356
0.164019 0.342519 0.0156558
0.198413 0.350347 0.0160372
0.234546 0.35935 0.0162966
0.273106 0.366979 0.0175479
0.318975 0.376898 0.0198672
0.364706 0.388693 0.0188449
0.409277 0.40029 0.0162661
0.449058 0.410574 0.0135958
0.49044 0.418799 0.0107271
0.531838 0.427268 0.00892653
0.572213 0.437659 0.00866712
0.610605 0.446143 0.00839246
0.652415 0.454932 0.0084535
0.691829 0.462409 0.00892653
0.727977 0.4692 0.00863661
0.763012 0.476417 0.00866712
0.796078 0.481239 0.00895705
0.829511 0.485328 0.00906386
0.859434 0.488594 0.00933852
0.887755 0.492073 0.010071
0.906813 0.490288 0.0103456
0.925505 0.486473 0.0111086
0.941558 0.484642 0.0119173
0.955154 0.483375 0.0127871
0.966659 0.484962 0.0130465
0.0183566 0.378271 0.0206607
0.0307622 0.373373 0.020676
0.0444953 0.366476 0.0205386
0.0627756 0.359472 0.0203708
0.0784772 0.357229 0.0195621
0.0964981 0.357412 0.0190585
0.115496 0.359152 0.0187076
0.138369 0.363653 0.0181735
0.16289 0.370321 0.0174258
0.194446 0.377813 0.0171511
0.229953 0.385733 0.0162966
0.271153 0.393973 0.0187991
0.310552 0.400824 0.0216983
0.355703 0.411582 0.0217746
0.402045 0.423529 0.019913
0.444602 0.43476 0.0170291
0.484596 0.445853 0.0133974
0.522225 0.452537 0.00950637
0.562005 0.462226 0.00891127
0.602716 0.472114 0.00874342
0.641566 0.481361 0.00833143
0.680522 0.488075 0.00839246
0.718227 0.496681 0.00917067
0.754986 0.503334 0.00909438
0.789914 0.508904 0.00892653
0.82208 0.513573 0.00900282
0.853544 0.516686 0.00892653
0.88333 0.521447 0.00901808
0.904189 0.520745 0.0096437
0.921645 0.521111 0.00968948
0.940063 0.517983 0.0101472
0.954879 0.518166 0.0108186
0.966888 0.518029 0.0108492
0.0216831 0.40827 0.0229038
0.0336767 0.402365 0.0224613
0.0471199 0.395224 0.0222934
0.0643626 0.388617 0.0222934
0.0815137 0.386938 0.0217746
0.0993362 0.386404 0.0212406
0.117998 0.387045 0.0203555
0.139788 0.39057 0.0196536
0.162921 0.39736 0.0190585
0.192569 0.403998 0.0186618
0.227634 0.411856 0.0179751
0.265049 0.420188 0.0191501
0.306813 0.426337 0.0211337
0.352132 0.436286 0.0222934
0.397665 0.4477 0.0242161
0.439734 0.457969 0.0221561
0.483085 0.471153 0.0178531
0.523995 0.48191 0.0137484
0.559396 0.488441 0.0103151
0.59617 0.497261 0.00856031
0.632868 0.505791 0.00859083
0.672099 0.51368 0.0084535
0.708156 0.52079 0.00851453
0.747692 0.528466 0.00883497
0.781399 0.533913 0.00877394
0.815213 0.539437 0.00898756
0.846769 0.544503 0.00895705
0.876432 0.550256 0.00883497
0.898543 0.549233 0.00886549
0.91693 0.549081 0.00918593
0.936095 0.549432 0.0093843
0.952224 0.549233 0.00978103
0.964218 0.550607 0.0102083
0.0236973 0.436698 0.0248264
0.0360876 0.430579 0.0241855
0.0499886 0.423835 0.0240024
0.0668956 0.418677 0.0238193
0.0829023 0.416876 0.023682
0.102037 0.415351 0.0229343
0.120684 0.416739 0.0222171
0.141955 0.419837 0.0215305
0.164965 0.426001 0.0209812
0.19295 0.431876 0.0201114
0.227039 0.440452 0.0193179
0.264942 0.44799 0.0201267
0.306004 0.454917 0.0205692
0.35285 0.463828 0.02327
0.394156 0.471534 0.0274662
0.438056 0.481605 0.0277562
0.482567 0.495644 0.0224765
0.522225 0.508537 0.0174563
0.55729 0.517052 0.0125887
0.590692 0.522988 0.00848402
0.625589 0.52987 0.00843824
0.663554 0.539345 0.00868238
0.700038 0.547707 0.00863661
0.738476 0.554849 0.00869764
0.775891 0.560647 0.00889601
0.80943 0.566079 0.00883497
0.840192 0.571923 0.0089723
0.870451 0.577493 0.00868238
0.893751 0.578592 0.0089723
0.913314 0.578256 0.00901808
0.93167 0.577295 0.00923171
0.948074 0.578195 0.00959792
0.960479 0.580774 0.0099794
0.0264286 0.466667 0.0262608
0.0395209 0.460777 0.0260319
0.0528878 0.454047 0.0260471
0.069337 0.449882 0.0256352
0.0848096 0.447349 0.0250858
0.104097 0.447471 0.0246586
0.123171 0.447227 0.0241703
0.14464 0.449363 0.0233005
0.167025 0.454307 0.0230411
0.192554 0.461585 0.0222477
0.227024 0.469825 0.0213779
0.264561 0.475532 0.0213779
0.307057 0.48426 0.0208896
0.351339 0.492241 0.0230411
0.395834 0.500984 0.0282139
0.437232 0.510384 0.029572
0.479362 0.521675 0.0288701
0.520836 0.533639 0.0257115
0.557626 0.543359 0.0194095
0.592187 0.55172 0.0137484
0.625055 0.556634 0.0113069
0.658717 0.563424 0.00862135
0.695247 0.571893 0.00889601
0.731258 0.581781 0.00894179
0.766415 0.587945 0.00888075
0.799649 0.593744 0.00881971
0.83212 0.599176 0.0087129
0.866102 0.605112 0.00874342
0.890547 0.60621 0.00881971
0.908995 0.606226 0.009308
0.927184 0.607004 0.00932326
0.943908 0.607263 0.00950637
0.957275 0.608759 0.00973526
0.0303044 0.498436 0.0278172
0.042298 0.493217 0.027863
0.0550546 0.484535 0.0275578
0.0712139 0.48188 0.0274205
0.0872816 0.480858 0.0271763
0.105959 0.478676 0.0263828
0.125551 0.477699 0.0257725
0.147311 0.480537 0.0252689
0.168963 0.485344 0.0248875
0.196521 0.492515 0.0240482
0.233005 0.500679 0.0233158
0.271077 0.509651 0.0221408
0.313313 0.517983 0.0212253
0.359304 0.527459 0.0236515
0.399649 0.534157 0.0285496
0.440192 0.541741 0.0322118
0.482307 0.550713 0.0363317
0.520729 0.558938 0.0345312
0.557382 0.568078 0.0267796
0.593957 0.579126 0.0196231
0.626307 0.586313 0.014313
0.658274 0.592248 0.00885023
0.690166 0.598352 0.00888075
0.723095 0.606943 0.00892653
0.757092 0.614298 0.00885023
0.792554 0.620661 0.00889601
0.825696 0.627161 0.00901808
0.859434 0.632517 0.00906386
0.885725 0.634775 0.00915541
0.904982 0.635935 0.00985733
0.923201 0.636103 0.00987259
0.939788 0.636133 0.00991836
0.953857 0.637171 0.0102541
0.0327306 0.533989 0.0293278
0.0447395 0.527581 0.0295262
0.0572518 0.520317 0.0294652
0.0733196 0.516808 0.0292973
0.088838 0.516075 0.0289769
0.107652 0.515557 0.0284428
0.127474 0.513207 0.0275578
0.149767 0.514199 0.0270237
0.173495 0.518883 0.0265812
0.202869 0.526055 0.0257572
0.238743 0.53434 0.0245823
0.279759 0.544564 0.0235752
0.32253 0.553933 0.0224918
0.365103 0.561898 0.0246738
0.405158 0.566522 0.0289921
0.444358 0.573953 0.0344396
0.485405 0.58024 0.0408484
0.522164 0.587442 0.040528
0.559197 0.595376 0.0345617
0.593423 0.604944 0.0290074
0.627176 0.614069 0.0215763
0.660243 0.621729 0.0145876
0.689097 0.626963 0.0121004
0.719265 0.63267 0.00939956
0.753994 0.639277 0.00918593
0.787442 0.647486 0.00927749
0.819409 0.652247 0.00927749
0.85359 0.658503 0.00933852
0.881575 0.660975 0.00975052
0.900465 0.663203 0.0101167
0.919219 0.664515 0.0102693
0.936019 0.664134 0.0103609
0.950835 0.66569 0.0104982
0.0357366 0.5673 0.0314946
0.0475776 0.559365 0.0312657
0.0598917 0.552575 0.0313115
0.0755016 0.553033 0.0313268
0.0911116 0.552361 0.0308232
0.109026 0.549371 0.0301213
0.129992 0.549691 0.029572
0.15259 0.551461 0.0289311
0.180148 0.55407 0.0282292
0.214206 0.562356 0.0275731
0.24976 0.569604 0.0264286
0.290089 0.579095 0.0260014
0.329046 0.589944 0.025803
0.371695 0.599222 0.028397
0.411444 0.60531 0.0314794
0.449042 0.610162 0.0364996
0.489235 0.613062 0.0428321
0.527016 0.618311 0.0442817
0.560967 0.624018 0.0432898
0.596887 0.631968 0.03888
0.628016 0.641215 0.0305028
0.661692 0.650019 0.0215763
0.691173 0.655787 0.0158389
0.719509 0.660655 0.00999466
0.746593 0.665476 0.00959792
0.778454 0.67248 0.00968948
0.812055 0.68101 0.0099794
0.847761 0.685054 0.00994888
0.877714 0.68957 0.010071
0.897902 0.690105 0.0104219
0.918807 0.690806 0.0109102
0.936507 0.691676 0.0113069
0.951965 0.693278 0.0112459
0.0380865 0.607233 0.0350042
0.0496223 0.599893 0.0338293
0.0622568 0.592584 0.032578
0.0782025 0.592157 0.0320897
0.0951553 0.592416 0.0319524
0.116655 0.593103 0.03093
0.138964 0.591028 0.0303502
0.165042 0.593668 0.0299077
0.194507 0.594064 0.0294041
0.227024 0.601892 0.0292363
0.262562 0.610132 0.0292515
0.302647 0.618723 0.0300908
0.336873 0.629526 0.03093
0.378134 0.638025 0.0327306
0.41706 0.644068 0.0343023
0.45333 0.646891 0.0394446
0.49192 0.64918 0.045304
0.52932 0.651972 0.0483406
0.563668 0.654459 0.0505226
0.59913 0.661723 0.0479744
0.630274 0.669215 0.0400397
0.663523 0.676844 0.0320745
0.694591 0.683894 0.0236667
0.722103 0.690394 0.0153658
0.749538 0.69218 0.0128634
0.778485 0.697444 0.0112001
0.810239 0.703166 0.0106203
0.846784 0.709407 0.0111849
0.876051 0.713756 0.01149
0.897673 0.716991 0.0115206
0.918364 0.720043 0.0115358
0.936858 0.718715 0.0117494
0.952819 0.721843 0.0123903
0.0395972 0.644434 0.0373541
0.0516976 0.639124 0.034699
0.0649729 0.635325 0.0332952
0.0808423 0.634058 0.032929
0.0993057 0.634379 0.0323033
0.122133 0.631968 0.0316014
0.151369 0.633143 0.031754
0.180438 0.636179 0.030869
0.208515 0.637949 0.0309758
0.241962 0.642344 0.0319982
0.274968 0.65095 0.0337835
0.314137 0.658106 0.0353094
0.351217 0.669581 0.0377508
0.38851 0.674601 0.0382239
0.424353 0.68101 0.0392615
0.460945 0.685588 0.0426032
0.498985 0.685084 0.0464942
0.534157 0.686458 0.049424
0.569497 0.687572 0.0528115
0.604196 0.692378 0.0529793
0.636667 0.697093 0.0494698
0.669856 0.702373 0.0442359
0.699397 0.709194 0.0354772
