LUTS/Secondary LUTS/THE HAUNTING OF HILL HOUSE.cube
TITLE "Generated by Resolve"
LUT_3D_SIZE 5
0.000106813 0.00289921 0.00688182
0.0749676 0.0109407 0.0172122
0.249668 0.0298009 0.0363012
0.498131 0.0507515 0.0529793
0.726894 0.0953841 0.0949264
0.0146029 0.119493 0.0363622
0.0956588 0.133639 0.0442206
0.285267 0.157916 0.0583963
0.52575 0.184009 0.076051
0.748012 0.233127 0.118914
0.0427863 0.295827 0.0819257
0.145464 0.315679 0.0902419
0.345739 0.36289 0.107134
0.567041 0.396979 0.126116
0.777234 0.44152 0.162295
0.112657 0.502022 0.1402
0.244266 0.518349 0.148409
0.42884 0.566903 0.159396
0.613901 0.625208 0.186923
0.810819 0.654047 0.219684
0.252415 0.730907 0.216449
0.36463 0.743984 0.220691
0.523629 0.759457 0.224659
0.680262 0.804685 0.245136
0.84007 0.84213 0.272755
0.00181582 0.0110323 0.108751
0.0601511 0.0207218 0.126986
0.259968 0.0383764 0.146578
0.503395 0.0551919 0.16788
0.731319 0.0997635 0.213214
0.0144198 0.129809 0.142336
0.0843214 0.143725 0.154177
0.295354 0.162371 0.166979
0.532784 0.182223 0.181277
0.75111 0.242298 0.238926
0.0416724 0.312734 0.195636
0.129778 0.327108 0.185138
0.348974 0.369467 0.205432
0.572854 0.402487 0.229496
0.779232 0.447745 0.282399
0.109255 0.500801 0.250645
0.228321 0.523354 0.236469
0.429709 0.567056 0.244633
0.615274 0.627634 0.287251
0.812085 0.656611 0.343969
0.254383 0.736278 0.308522
0.356817 0.747982 0.295552
0.521126 0.766094 0.301183
0.681422 0.805463 0.332479
0.841276 0.84329 0.391226
0.00550851 0.0364538 0.242496
0.0583352 0.0444953 0.256809
0.26656 0.0611734 0.270314
0.512352 0.0753796 0.303212
0.73611 0.11725 0.38233
0.0166629 0.153475 0.268452
0.0690471 0.16817 0.288106
0.293156 0.182361 0.306935
0.539055 0.198352 0.336538
0.754284 0.255909 0.406363
0.0386816 0.334249 0.33579
0.103349 0.353658 0.352102
0.334493 0.37792 0.367605
0.577173 0.412345 0.39649
0.780087 0.455055 0.441917
0.132311 0.551507 0.427268
0.20621 0.551461 0.417029
0.396048 0.572747 0.407965
0.617823 0.629328 0.445472
0.81326 0.66009 0.497063
0.256443 0.751553 0.488258
0.333608 0.757504 0.465187
0.495476 0.782635 0.447623
0.677821 0.803693 0.47892
0.842771 0.846189 0.536751
0.0106966 0.077409 0.393668
0.0629435 0.0815747 0.404318
0.248096 0.0950332 0.408774
0.51397 0.101061 0.439918
0.715969 0.151843 0.509636
0.0215 0.194949 0.415854
0.0725872 0.205707 0.432685
0.261875 0.219135 0.452827
0.533318 0.228519 0.47924
0.738384 0.285893 0.542367
0.0463111 0.35877 0.472938
0.10985 0.377188 0.492927
0.280919 0.397314 0.517281
0.557702 0.421256 0.539773
0.773678 0.46334 0.588449
0.14107 0.559258 0.560983
0.200229 0.572976 0.571908
0.323919 0.589807 0.584543
0.596338 0.619394 0.59379
0.809949 0.66009 0.636515
0.225681 0.758038 0.639109
0.289342 0.769985 0.638254
0.418402 0.781781 0.629053
0.648569 0.801785 0.618112
0.84332 0.849104 0.670863
0.0179904 0.130526 0.552682
0.0753338 0.129641 0.5561
0.225879 0.137728 0.565209
0.485542 0.1552 0.591104
0.743236 0.160784 0.688685
0.0328679 0.249439 0.568109
0.0917372 0.257664 0.581659
0.214466 0.262287 0.597574
0.500923 0.274037 0.628275
0.753521 0.291798 0.695811
0.0742351 0.406546 0.617243
0.137194 0.41854 0.630594
0.229252 0.427665 0.647852
0.504921 0.438376 0.668956
0.776104 0.471489 0.715785
0.148119 0.576288 0.679301
0.20473 0.587427 0.689189
0.281727 0.596246 0.699016
0.549844 0.619455 0.716014
0.805097 0.665125 0.755627
0.219867 0.748699 0.737087
0.272938 0.758724 0.742199
0.34287 0.769772 0.747784
0.588876 0.791669 0.75697
0.814725 0.825071 0.76875
