LUTS/Secondary LUTS/THE HAUNTING OF HILL HOUSE.cube
TITLE "Generated by Resolve"
LUT_3D_SIZE 33
0.000106813 0.00289921 0.00688182
0.00527962 0.00352483 0.00750744
0.0106203 0.00408942 0.00865187
0.0175937 0.004654 0.00984207
0.0253605 0.0052491 0.0109255
0.0358129 0.0062562 0.0122988
0.0471809 0.00749218 0.0137331
0.0603647 0.00888075 0.0153201
0.0749676 0.0109407 0.0172122
0.0902724 0.013138 0.0192264
0.10663 0.0156405 0.0213779
0.124102 0.0182498 0.0235904
0.145464 0.0209354 0.0260777
0.168688 0.0234989 0.0286564
0.194049 0.0256657 0.0317845
0.22089 0.0277256 0.0342412
0.249668 0.0298009 0.0363012
0.279973 0.0316625 0.0379034
0.312352 0.0332952 0.0390021
0.3458 0.0347448 0.039826
0.378836 0.0370489 0.0413519
0.40885 0.0399634 0.0436561
0.438727 0.0434272 0.0465095
0.468254 0.0470283 0.0497139
0.498131 0.0507515 0.0529793
0.52781 0.0548867 0.0565957
0.556878 0.0594186 0.0607462
0.586267 0.0644388 0.0654154
0.615579 0.0699931 0.0703136
0.645151 0.0761578 0.0759289
0.674632 0.0826276 0.0821241
0.701122 0.089128 0.0886549
0.726894 0.0953841 0.0949264
0.00169375 0.011902 0.00985733
0.00758373 0.0124819 0.0107881
0.0128481 0.0131991 0.0120851
0.0191653 0.0140841 0.0125582
0.0269017 0.0147707 0.0132448
0.0373541 0.0158541 0.0142977
0.0487221 0.0171359 0.0155642
0.0619211 0.0186007 0.0169375
0.0765545 0.020798 0.0188602
0.0918746 0.0230564 0.0207675
0.108324 0.0256962 0.0229648
0.12604 0.0283818 0.0251621
0.147723 0.0311284 0.0276036
0.17116 0.033875 0.0300298
0.196674 0.0361181 0.0331426
0.223667 0.0383307 0.0354772
0.252522 0.0404974 0.0374762
0.282994 0.0423743 0.0389868
0.31516 0.0442359 0.0402533
0.348501 0.0459144 0.0412604
0.381201 0.0482032 0.0429084
0.411048 0.0510872 0.045243
0.440833 0.0542763 0.0479286
0.47039 0.0576638 0.0510719
0.500252 0.0614481 0.0544289
0.529732 0.0657664 0.0580453
0.558694 0.0704051 0.0622263
0.588098 0.0755169 0.0668803
0.617411 0.0810712 0.0719158
0.647044 0.0872663 0.0777295
0.676402 0.0936904 0.0839399
0.702693 0.100069 0.0903182
0.728328 0.106249 0.0964828
0.00282292 0.0211032 0.0124514
0.00883497 0.0217746 0.0133974
0.0146944 0.0225071 0.0144503
0.0213474 0.023331 0.0152438
0.0287785 0.0241855 0.0156558
0.0390631 0.0254215 0.0164187
0.0503243 0.0267491 0.01738
0.0635386 0.0283055 0.018616
0.0782025 0.0306401 0.0204929
0.0935531 0.0330358 0.0224002
0.110063 0.0357977 0.0245518
0.128023 0.0385595 0.0267185
0.150057 0.0414435 0.0291447
0.173709 0.0443427 0.0315251
0.199237 0.0467231 0.0344396
0.226459 0.049073 0.0367285
0.255421 0.0512551 0.0386358
0.285924 0.0530709 0.0400702
0.317861 0.0552224 0.0415351
0.351186 0.0570687 0.0427253
0.383551 0.0593118 0.044419
0.413199 0.0620737 0.0467536
0.443015 0.0651713 0.049424
0.472526 0.0686961 0.0525978
0.502235 0.0725109 0.0559548
0.53167 0.0768749 0.0596628
0.560571 0.0815137 0.0637827
0.589914 0.0865797 0.0683757
0.619303 0.0921798 0.0735637
0.648859 0.0983749 0.0794537
0.678126 0.104723 0.0855726
0.704356 0.11107 0.0919509
0.729778 0.117113 0.0980392
0.00410468 0.0323949 0.0154421
0.0102235 0.0331731 0.0162966
0.0162814 0.0339361 0.0171511
0.0231785 0.0347906 0.0179141
0.0305791 0.0357366 0.0184787
0.0408942 0.0370184 0.019089
0.0523995 0.0383917 0.0196841
0.0657969 0.0400702 0.0207218
0.0803693 0.0424811 0.0224765
0.0957656 0.0449073 0.0242771
0.112428 0.0476997 0.0263981
0.13077 0.0505531 0.0285649
0.153109 0.0535439 0.0309606
0.176959 0.0564889 0.0333104
0.20267 0.059205 0.0359808
0.23003 0.061677 0.0382239
0.259068 0.06392 0.0400854
0.289586 0.0658579 0.0415351
0.321584 0.0682383 0.0432288
0.354803 0.0701152 0.0444343
0.386618 0.0724041 0.0462043
0.416159 0.0752422 0.0485542
0.445838 0.0785382 0.0513313
0.475303 0.0822156 0.0544594
0.504952 0.0861982 0.0578927
0.534157 0.0905776 0.0616007
0.563149 0.0953078 0.0657816
0.592538 0.100511 0.0705425
0.62182 0.106203 0.0757458
0.651377 0.112398 0.0816052
0.680507 0.118746 0.0876936
0.706462 0.125078 0.0940108
0.731792 0.131228 0.10013
0.00560006 0.0460212 0.0190127
0.0118257 0.046891 0.0197757
0.0180209 0.0477302 0.0205692
0.0249027 0.0487526 0.0212253
0.0323033 0.0499123 0.0218509
0.0430304 0.0511025 0.0224002
0.0549325 0.0524758 0.0229343
0.0685283 0.0543069 0.0239567
0.0830396 0.0567941 0.0256199
0.0983597 0.0592203 0.0272374
0.115175 0.062089 0.0292973
0.134005 0.0649882 0.0313573
0.156649 0.068101 0.0337072
0.180636 0.0710765 0.0359197
0.206577 0.0739452 0.0383764
0.233768 0.0766155 0.0405737
0.262852 0.0790875 0.0425574
0.293645 0.0813001 0.0441901
0.325841 0.0834516 0.0457313
0.35877 0.085359 0.0468299
0.390127 0.0878309 0.048661
0.419684 0.0908675 0.0510719
0.449195 0.094316 0.0538796
0.478599 0.0980545 0.0569619
0.508049 0.102052 0.0603037
0.537163 0.106401 0.0640574
0.56611 0.111315 0.0684367
0.595514 0.116762 0.0733501
0.62472 0.122545 0.0785229
0.654215 0.128786 0.0843366
0.683253 0.13521 0.0904097
0.709239 0.141665 0.096849
0.734295 0.147738 0.102922
0.00747692 0.0623331 0.0231022
0.0138094 0.0632486 0.0238193
0.0201114 0.0641337 0.0245212
0.027039 0.0652628 0.0251011
0.0345312 0.0664225 0.0256962
0.0451972 0.0678264 0.0263523
0.0568704 0.069398 0.0269474
0.0707256 0.0713512 0.0280919
0.085893 0.0738231 0.0296025
0.10164 0.0763409 0.0311131
0.118608 0.0791028 0.0330358
0.137911 0.0818799 0.0348821
0.160678 0.0849928 0.0370947
0.184894 0.088014 0.0392004
0.211048 0.0909743 0.0414588
0.238376 0.0937972 0.0435645
0.267674 0.0964065 0.0455787
0.298543 0.0986343 0.0471351
0.331014 0.100694 0.0484932
0.363806 0.102739 0.0495918
0.394415 0.105486 0.0515755
0.423774 0.108659 0.0540627
0.453117 0.112215 0.0569162
0.482414 0.116045 0.059968
0.511849 0.12015 0.0633402
0.540932 0.124773 0.067277
0.569863 0.129854 0.0717937
0.59913 0.135363 0.0766308
0.628244 0.141192 0.0817578
0.657633 0.147478 0.087541
0.68661 0.15407 0.0937667
0.712566 0.160723 0.100328
0.737392 0.166796 0.10631
0.00946059 0.0795911 0.0274052
0.0158846 0.0805524 0.0280003
0.0222629 0.0814984 0.0285649
0.0292515 0.0826886 0.0291142
0.0369116 0.0840162 0.0297704
0.0472725 0.0857404 0.0304417
0.0584268 0.0876936 0.0311589
0.0726177 0.0897993 0.0323796
0.0889143 0.0922866 0.0339208
0.105241 0.0948196 0.0353246
0.122423 0.0975662 0.0371557
0.142245 0.100389 0.0389105
0.165286 0.103502 0.0410163
0.189654 0.106477 0.0429389
0.2159 0.109499 0.0451667
0.243732 0.112352 0.0471656
0.273136 0.115053 0.0490425
0.304112 0.117388 0.0504768
0.336614 0.119631 0.0518044
0.36939 0.121935 0.0530556
0.399237 0.124895 0.0551766
0.428412 0.12813 0.0576028
0.457588 0.131777 0.060441
0.486763 0.135683 0.063508
0.516045 0.140108 0.0670481
0.545129 0.145022 0.0711223
0.573938 0.15021 0.0755779
0.603204 0.155871 0.0804761
0.632288 0.161746 0.0856336
0.661448 0.168124 0.0914473
0.690501 0.174914 0.0978408
0.716289 0.181765 0.104402
0.740764 0.187884 0.11017
0.0119478 0.0991836 0.0320134
0.0185245 0.100206 0.0325628
0.0251164 0.101305 0.0331121
0.0323033 0.102556 0.0336461
0.0402991 0.103944 0.0343175
0.0505531 0.10576 0.035111
0.0614633 0.107729 0.0358587
0.075761 0.109957 0.0372625
0.0922866 0.112642 0.0390631
0.108888 0.115419 0.0407874
0.126513 0.118502 0.0426032
0.147021 0.121584 0.0442969
0.170184 0.124743 0.0461738
0.194736 0.127764 0.0478676
0.221424 0.130709 0.0499428
0.249424 0.133394 0.0518502
0.279057 0.135973 0.0534676
0.310216 0.138293 0.0548257
0.34284 0.140536 0.0560922
0.375097 0.14287 0.0573434
0.404303 0.145953 0.0594492
0.433326 0.14931 0.0617838
0.462409 0.153048 0.0645762
0.491646 0.157122 0.0677501
0.52079 0.161624 0.0714122
0.549737 0.166613 0.0754864
0.578332 0.171878 0.0799115
0.607538 0.177646 0.0848554
0.636637 0.183673 0.0901045
0.665904 0.190311 0.0960555
0.694697 0.197284 0.102403
0.720211 0.204135 0.108827
0.744259 0.210101 0.114336
0.0146029 0.119493 0.0363622
0.0214084 0.120714 0.0369116
0.0282292 0.121935 0.0374609
0.0356909 0.123278 0.0380407
0.0441749 0.124758 0.0388037
0.0545052 0.126436 0.0397192
0.0654307 0.128099 0.0406043
0.0795148 0.130434 0.0420844
0.0956588 0.133639 0.0442206
0.112261 0.136828 0.0462806
0.130648 0.140352 0.0481422
0.15201 0.14374 0.0498817
0.175509 0.146868 0.0516976
0.200534 0.149813 0.0533608
0.227131 0.152743 0.0551766
0.25539 0.155352 0.0568856
0.285267 0.157916 0.0583963
0.316701 0.160189 0.0595865
0.349157 0.162325 0.0606546
0.380896 0.164752 0.0619211
0.409552 0.167895 0.0639963
0.43859 0.17142 0.0664225
0.467613 0.175204 0.0692302
0.496818 0.179507 0.0724956
0.52575 0.184009 0.076051
0.554498 0.189029 0.0801709
0.583001 0.194339 0.0845808
0.612238 0.20029 0.089601
0.641337 0.206607 0.0949569
0.670512 0.213413 0.100877
0.699016 0.220447 0.107118
0.724269 0.227329 0.113512
0.748012 0.233127 0.118914
0.0175937 0.140276 0.0412299
0.0246433 0.141711 0.0419013
0.031693 0.14316 0.0425422
0.0395514 0.14461 0.0432593
0.0486 0.146258 0.0442054
0.0590524 0.147921 0.045243
0.0702983 0.149538 0.0462806
0.0841688 0.15198 0.0477913
0.0997177 0.155184 0.0496986
0.115938 0.158602 0.051667
0.134966 0.162707 0.0540169
0.156909 0.166659 0.0561227
0.181094 0.170016 0.0581826
0.206516 0.173266 0.0599069
0.23328 0.176226 0.0615549
0.261921 0.178866 0.0629892
0.292103 0.181231 0.0641184
0.323583 0.183322 0.0649577
0.355749 0.185428 0.0658579
0.386618 0.187991 0.0672465
0.415091 0.191257 0.069398
0.444129 0.194842 0.0718395
0.472923 0.198627 0.0745556
0.502007 0.202899 0.0776837
0.530724 0.207431 0.0811322
0.559396 0.212589 0.0852522
0.587915 0.218051 0.0896162
0.617182 0.224186 0.0947738
0.646235 0.230533 0.10016
0.675181 0.237354 0.105989
0.703563 0.244434 0.112322
0.728634 0.251301 0.118624
0.751995 0.257053 0.123796
0.020798 0.161501 0.0463111
0.0281071 0.16318 0.0471962
0.0353857 0.164843 0.0480049
0.0438087 0.166354 0.0488441
0.0532998 0.168109 0.0498817
0.0640269 0.169711 0.0509346
0.0757763 0.171344 0.0520333
0.0894789 0.173831 0.0534676
0.104311 0.176867 0.0550546
0.120317 0.180591 0.057084
0.139681 0.185245 0.0598154
0.161608 0.189761 0.062211
0.186435 0.193668 0.0645609
0.21239 0.197421 0.0665141
0.239521 0.200412 0.0680705
0.268482 0.203037 0.0692149
0.29897 0.205219 0.0700389
0.330709 0.207248 0.0707561
0.36231 0.209491 0.0717021
0.392248 0.212192 0.0730907
0.420752 0.215427 0.0750591
0.449454 0.218967 0.0773022
0.478126 0.222827 0.0799878
0.507179 0.227115 0.0830396
0.535775 0.231846 0.0865339
0.564416 0.237064 0.0906844
0.593011 0.242527 0.0950637
0.622187 0.248692 0.100237
0.651102 0.255055 0.105577
0.679988 0.261875 0.111421
0.708171 0.269108 0.117723
0.732921 0.27599 0.123796
0.75581 0.281727 0.12874
0.0241245 0.183062 0.0518654
0.0316625 0.184909 0.0528115
0.0391546 0.186648 0.053727
0.0480507 0.188327 0.0546883
0.0579232 0.190173 0.0558022
0.0689097 0.191775 0.0568399
0.0810712 0.193439 0.057969
0.0946975 0.195987 0.0593118
0.109117 0.199145 0.0607919
0.125551 0.203021 0.0626993
0.145495 0.207813 0.065095
0.167544 0.212634 0.0674296
0.192157 0.217334 0.0702678
0.218112 0.221729 0.0726635
0.24593 0.225223 0.0746166
0.275547 0.228321 0.0760204
0.306523 0.230488 0.076585
0.338308 0.232517 0.0770733
0.369192 0.234806 0.0779278
0.398016 0.237507 0.0792859
0.426474 0.240665 0.0810712
0.454963 0.244236 0.083238
0.483757 0.248234 0.0859388
0.512673 0.252613 0.0890364
0.541253 0.257496 0.0926223
0.569726 0.262699 0.0967117
0.59826 0.268147 0.10103
0.627008 0.274144 0.105989
0.656062 0.280537 0.111376
0.684703 0.287419 0.117113
0.712764 0.294743 0.123308
0.737316 0.30164 0.129305
0.759823 0.307286 0.134127
0.0276188 0.204898 0.0579843
0.0352636 0.206775 0.0589609
0.0429236 0.208591 0.0598917
0.0521248 0.210452 0.0609293
0.062211 0.21236 0.0619516
0.0733349 0.21413 0.0629587
0.0858167 0.215854 0.0639963
0.0995804 0.218555 0.0652628
0.11458 0.221759 0.0666056
0.132326 0.225834 0.0683452
0.152422 0.230716 0.0703136
0.174212 0.235691 0.0727092
0.198337 0.240955 0.0758526
0.224186 0.246082 0.078645
0.252811 0.25034 0.0809949
0.282887 0.254139 0.0826123
0.314 0.256413 0.0831769
0.345647 0.258534 0.0835431
0.375616 0.260838 0.0843519
0.403861 0.263661 0.0857099
0.432166 0.26685 0.08748
0.460868 0.270527 0.0897383
0.489464 0.274525 0.0923323
0.518044 0.27895 0.0953689
0.546273 0.283742 0.0987716
0.574655 0.288945 0.102708
0.603052 0.294438 0.106966
0.63183 0.300496 0.111788
0.660822 0.306935 0.117067
0.689189 0.313634 0.122698
0.717205 0.320943 0.128923
0.741436 0.327703 0.134813
0.763317 0.333272 0.139544
0.0311437 0.227085 0.0641947
0.0389563 0.228992 0.0651713
0.0467231 0.230838 0.0660258
0.05626 0.232776 0.0670176
0.0665141 0.234852 0.0679637
0.0778821 0.236713 0.068925
0.0906539 0.238621 0.0699168
0.104692 0.241459 0.0711528
0.12105 0.24477 0.0724346
0.139834 0.249058 0.0740368
0.159854 0.254017 0.0758984
0.181796 0.259281 0.0785077
0.205676 0.264912 0.081529
0.231525 0.27042 0.0842298
0.260075 0.275319 0.0862135
0.29015 0.279728 0.0881208
0.321447 0.282658 0.0894789
0.352682 0.285634 0.090486
0.381979 0.288136 0.0914473
0.410147 0.291112 0.0928511
0.438422 0.294377 0.0945449
0.466773 0.297978 0.0966354
0.495079 0.301823 0.09897
0.523522 0.306264 0.101884
0.5514 0.310933 0.105119
0.579751 0.316136 0.10901
0.608057 0.321736 0.113268
0.636851 0.327718 0.117998
0.665782 0.334188 0.123293
0.694011 0.340841 0.128847
0.721828 0.347997 0.134905
0.745525 0.354467 0.140459
0.766751 0.359838 0.144961
0.0348821 0.249561 0.0699779
0.0428321 0.251591 0.0709239
0.0507362 0.253468 0.0717937
0.0605325 0.255497 0.0727855
0.070985 0.257694 0.0737774
0.0825971 0.259724 0.0747692
0.0956741 0.261921 0.0758221
0.11075 0.264698 0.0769665
0.128466 0.267842 0.0781567
0.148089 0.272251 0.0797742
0.168765 0.27747 0.0818799
0.19118 0.283131 0.084596
0.214847 0.28896 0.0872511
0.240208 0.294728 0.089662
0.268162 0.300175 0.0911116
0.298039 0.305333 0.0936751
0.329366 0.309316 0.0957809
0.359411 0.313191 0.0974136
0.3879 0.316075 0.098558
0.415915 0.319234 0.0999161
0.443946 0.322591 0.101579
0.472282 0.326101 0.103517
0.500572 0.329793 0.105714
0.528817 0.334218 0.108614
0.556481 0.338888 0.111757
0.584863 0.344182 0.115648
0.612909 0.349523 0.119677
0.641703 0.355673 0.124453
0.670237 0.361883 0.129396
0.698177 0.368383 0.134737
0.72578 0.375326 0.140551
0.749249 0.381567 0.145922
0.770138 0.386709 0.150317
0.0386664 0.272465 0.0759442
0.0467231 0.274479 0.0768597
0.0547646 0.276448 0.0776989
0.0648814 0.278599 0.0786908
0.0754864 0.280919 0.0796521
0.0874495 0.28307 0.0805982
0.101579 0.285451 0.0816358
0.117845 0.288365 0.0826734
0.136294 0.291539 0.0838026
0.156878 0.29601 0.0859083
0.178286 0.301488 0.0881971
0.20119 0.307469 0.0907759
0.224643 0.313588 0.0931258
0.249973 0.319997 0.0955825
0.277485 0.32578 0.0968338
0.306935 0.331411 0.0993057
0.337545 0.336034 0.101396
0.365789 0.340566 0.10338
0.393347 0.344167 0.10518
0.421286 0.348089 0.107118
0.449439 0.351629 0.108934
0.477836 0.355123 0.110857
0.506264 0.358999 0.113146
0.534157 0.363333 0.115908
0.561868 0.367834 0.118914
0.590097 0.372854 0.122637
0.617899 0.378103 0.126436
0.646433 0.383978 0.130968
0.674693 0.389944 0.135653
0.702419 0.396216 0.140841
0.729702 0.40293 0.146456
0.753017 0.409049 0.151751
0.773663 0.414099 0.156115
0.0427863 0.295827 0.0819257
0.0510414 0.297932 0.0827955
0.0593118 0.299916 0.0835889
0.0697185 0.302251 0.0845197
0.0804913 0.304814 0.0853742
0.0932021 0.307286 0.0862745
0.108156 0.309926 0.0872969
0.125765 0.312795 0.0886702
0.145464 0.315679 0.0902419
0.166369 0.319829 0.0921798
0.188418 0.325277 0.0944228
0.21207 0.33138 0.0969253
0.236271 0.337911 0.0991989
0.262104 0.344793 0.101335
0.288838 0.351247 0.10251
0.316823 0.357702 0.105013
0.345739 0.36289 0.107134
0.37232 0.367926 0.109377
0.399527 0.37229 0.111818
0.427085 0.376654 0.114137
0.455085 0.380667 0.116258
0.483375 0.384543 0.11841
0.511543 0.388449 0.120653
0.5393 0.392538 0.123217
0.567041 0.396979 0.126116
0.594736 0.40174 0.129488
0.622477 0.40679 0.133196
0.650813 0.412329 0.137484
0.678752 0.41799 0.142
0.706325 0.424048 0.147082
0.733516 0.430533 0.15259
0.756771 0.436606 0.157961
0.777234 0.44152 0.162295
0.0470588 0.319692 0.0876631
0.0554665 0.321935 0.0884718
0.0641031 0.324193 0.0892958
0.074815 0.326787 0.0902266
0.0859388 0.329412 0.0911727
0.0999161 0.33193 0.092256
0.116091 0.33463 0.0935225
0.134722 0.337362 0.0951095
0.15523 0.340108 0.0967727
0.176806 0.344121 0.0986954
0.199481 0.349569 0.100923
0.223972 0.355795 0.103426
0.248753 0.362783 0.105547
0.274891 0.370275 0.107378
0.300511 0.377478 0.108736
0.327092 0.384787 0.111238
0.353231 0.390295 0.113069
0.379156 0.395712 0.115297
0.40621 0.400565 0.117891
0.43331 0.405249 0.120485
0.460853 0.409674 0.12311
0.488609 0.414115 0.125704
0.516381 0.418265 0.128252
0.544121 0.422354 0.130907
0.571832 0.426459 0.1337
0.59942 0.430869 0.136873
0.627192 0.435615 0.140429
0.655329 0.440894 0.144549
0.683207 0.446357 0.148989
0.710628 0.45211 0.153903
0.737804 0.458381 0.159411
0.760937 0.464256 0.164675
0.781003 0.468818 0.168704
0.0517128 0.344915 0.0934005
0.0603037 0.34725 0.0942092
0.0693065 0.349569 0.0950484
0.0806897 0.351995 0.0961776
0.092668 0.354452 0.0973831
0.108309 0.356909 0.0988022
0.125612 0.359594 0.100343
0.14461 0.362341 0.101991
0.16556 0.365164 0.103639
0.187686 0.369009 0.105501
0.211444 0.374029 0.107683
0.236286 0.379782 0.109773
0.261601 0.387289 0.111894
0.287984 0.394827 0.113207
0.313268 0.402365 0.114382
0.338079 0.410285 0.116197
0.361944 0.416663 0.118898
0.386679 0.423835 0.121431
0.413275 0.429068 0.124117
0.440024 0.434028 0.12697
0.467124 0.438514 0.130007
0.494301 0.443015 0.132967
0.521614 0.44744 0.135973
0.549065 0.45153 0.138705
0.576684 0.455512 0.141329
0.604212 0.459831 0.144518
0.631876 0.464286 0.147921
0.659861 0.469291 0.151904
0.687541 0.474495 0.156176
0.714763 0.479866 0.160891
0.741604 0.485771 0.166125
0.764569 0.491371 0.171115
0.784695 0.49575 0.175021
0.0567178 0.370489 0.0997787
0.0657206 0.372808 0.100862
0.0754711 0.375082 0.101976
0.0886091 0.377493 0.103243
0.102129 0.379904 0.104509
0.118471 0.382452 0.10605
0.136263 0.385107 0.107576
0.155535 0.387823 0.109148
0.176532 0.390616 0.110628
0.199191 0.394095 0.112413
0.223682 0.398367 0.114229
0.249088 0.403876 0.116045
0.27483 0.41146 0.117876
0.30135 0.419577 0.119188
0.325658 0.427726 0.120287
0.349081 0.43624 0.122744
0.371618 0.444083 0.125246
0.39501 0.45243 0.128435
0.421012 0.457649 0.130587
0.447318 0.462516 0.133288
0.474113 0.46717 0.136431
0.500648 0.471595 0.139651
0.527199 0.47602 0.143099
0.554192 0.480415 0.146304
0.581399 0.484611 0.149432
0.609049 0.48893 0.152728
0.636683 0.493126 0.155932
0.664363 0.497734 0.159655
0.691752 0.50251 0.163729
0.718776 0.507515 0.168154
0.745647 0.513161 0.173236
0.768765 0.518425 0.178058
0.788998 0.522622 0.181872
0.0637064 0.396536 0.107149
0.0740978 0.398764 0.108309
0.0855726 0.400977 0.109514
0.0990158 0.403388 0.11078
0.112947 0.405768 0.112093
0.129488 0.408148 0.113481
0.147509 0.410712 0.11487
0.166964 0.413321 0.116289
0.188144 0.416052 0.117708
0.21117 0.419272 0.119371
0.236133 0.423209 0.121004
0.262043 0.428351 0.122499
0.288411 0.435935 0.124132
0.314397 0.443824 0.125322
0.337041 0.452537 0.126879
0.360159 0.461295 0.128878
0.382315 0.469322 0.131228
0.40499 0.477913 0.134676
0.42977 0.484276 0.136873
0.455039 0.490867 0.139818
0.481254 0.495949 0.143053
0.50724 0.500526 0.146654
0.533455 0.504921 0.15053
0.559884 0.509087 0.154025
0.586679 0.513313 0.157626
0.613993 0.517372 0.160815
0.641382 0.521263 0.163912
0.668742 0.52549 0.167514
0.695964 0.52987 0.171328
0.723064 0.534676 0.175677
0.749966 0.539986 0.180529
0.773205 0.545052 0.185153
0.793362 0.549111 0.188815
0.0740368 0.423194 0.11516
0.0849622 0.425238 0.116258
0.0970169 0.427375 0.117418
0.110658 0.429694 0.118654
0.124971 0.431922 0.11986
0.141741 0.434241 0.121141
0.159548 0.436606 0.122225
0.179431 0.439094 0.123598
0.201083 0.441749 0.125078
0.224125 0.444892 0.126711
0.249348 0.448341 0.127962
0.275181 0.452979 0.129122
0.301091 0.459968 0.130495
0.325368 0.467567 0.131868
0.348287 0.476829 0.133577
0.371527 0.486061 0.135027
0.393606 0.49453 0.137911
0.416327 0.503517 0.141421
0.439841 0.511269 0.14432
0.463523 0.519448 0.147417
0.489097 0.524697 0.150042
0.514626 0.529137 0.153536
0.540475 0.533288 0.157427
0.566476 0.537209 0.161242
0.59266 0.541131 0.165148
0.619287 0.544961 0.168673
0.646097 0.548928 0.17229
0.673457 0.553033 0.175769
0.700633 0.557198 0.179339
0.727642 0.561791 0.183444
0.754345 0.566766 0.187976
0.777707 0.571633 0.192462
0.797757 0.575448 0.195926
0.0859998 0.449454 0.123384
0.0970321 0.451392 0.124437
0.1093 0.453376 0.125475
0.122942 0.455482 0.126558
0.137606 0.457679 0.127626
0.154696 0.459953 0.128817
0.172915 0.462211 0.130068
0.193042 0.464591 0.131456
0.214817 0.467155 0.132799
0.238041 0.4701 0.134142
0.262943 0.473487 0.135195
0.28806 0.477714 0.135943
0.312551 0.484184 0.137285
0.336507 0.491234 0.138537
0.359701 0.500771 0.140368
0.38291 0.510201 0.142382
0.405203 0.519219 0.144686
0.427817 0.528237 0.148516
0.45037 0.536507 0.151354
0.473091 0.545235 0.154589
0.497566 0.551415 0.157031
0.522393 0.557183 0.160555
0.547616 0.561578 0.164401
0.57319 0.565393 0.16849
0.598871 0.5691 0.172732
0.625162 0.572854 0.176654
0.65156 0.576806 0.180682
0.678584 0.58056 0.184009
0.705608 0.584421 0.187472
0.732341 0.588617 0.191272
0.758968 0.593301 0.195514
0.782238 0.598077 0.199969
0.802182 0.60177 0.203357
0.0990311 0.4757 0.131884
0.11014 0.477409 0.132723
0.122484 0.479316 0.133639
0.136324 0.481361 0.13463
0.151263 0.483467 0.135668
0.168795 0.485679 0.136904
0.18732 0.487953 0.138186
0.207553 0.490242 0.139422
0.22945 0.492821 0.140627
0.252277 0.495628 0.141634
0.27631 0.498939 0.142351
0.299687 0.502983 0.143114
0.323598 0.508446 0.144289
0.347646 0.514641 0.145342
0.371038 0.524178 0.147372
0.394324 0.53373 0.14934
0.416831 0.543114 0.152071
0.439353 0.552468 0.155383
0.46125 0.560815 0.159228
0.483696 0.570291 0.162585
0.50692 0.577813 0.165179
0.530541 0.58526 0.168536
0.555398 0.590158 0.171618
0.580743 0.593942 0.175586
0.606195 0.597345 0.179751
0.63209 0.600763 0.183963
0.657725 0.604135 0.188144
0.68423 0.607599 0.191867
0.710765 0.611276 0.195636
0.737301 0.615259 0.199374
0.763928 0.619776 0.203723
0.786908 0.624384 0.208103
0.806577 0.628092 0.211536
0.112657 0.502022 0.1402
0.124117 0.50367 0.141024
0.136538 0.505379 0.141848
0.150774 0.507378 0.142947
0.166033 0.509316 0.14403
0.183734 0.511421 0.145159
0.202487 0.513588 0.146334
0.222751 0.515908 0.147433
0.244266 0.518349 0.148409
0.266194 0.521141 0.149203
0.288502 0.524636 0.149996
0.310796 0.528618 0.150835
0.334874 0.533501 0.151781
0.35903 0.539269 0.152789
0.382773 0.548226 0.154849
0.406516 0.557412 0.156832
0.42884 0.566903 0.159396
0.451011 0.57644 0.162707
0.472541 0.585321 0.166339
0.494133 0.594324 0.170199
0.516609 0.602564 0.172946
0.539528 0.611032 0.176379
0.563943 0.616892 0.179034
0.588815 0.621561 0.182849
0.613901 0.625208 0.186923
0.639078 0.628275 0.191226
0.66424 0.631312 0.195575
0.690394 0.634699 0.199802
0.716548 0.638209 0.203998
0.742809 0.641962 0.207858
0.768978 0.646174 0.212116
0.791577 0.65066 0.216419
0.810819 0.654047 0.219684
0.127306 0.527703 0.148775
0.139101 0.529351 0.149615
0.151843 0.530983 0.150484
0.166125 0.532891 0.151446
0.181842 0.534844 0.152468
0.199619 0.537011 0.153552
0.218357 0.539178 0.154559
0.2383 0.54165 0.155581
0.258793 0.544289 0.156466
0.279469 0.547372 0.157366
0.300954 0.551034 0.158206
0.323247 0.554986 0.158999
0.346975 0.559716 0.159884
0.370932 0.565118 0.160876
0.39472 0.572808 0.162539
0.418433 0.580514 0.16405
0.440604 0.590326 0.166262
0.462333 0.599893 0.169894
0.483787 0.60885 0.173632
0.505333 0.618021 0.177523
0.527382 0.626459 0.180896
0.549462 0.635172 0.184466
0.573022 0.642069 0.18703
0.597498 0.648646 0.190677
0.621912 0.652811 0.194141
0.646662 0.655665 0.198322
0.671656 0.658549 0.202686
0.697261 0.661646 0.207233
0.722881 0.664897 0.21178
0.748684 0.668406 0.216129
0.774365 0.672389 0.220676
0.796307 0.676555 0.224979
0.814801 0.679667 0.228244
0.144244 0.554147 0.157977
0.156207 0.555718 0.15874
0.1691 0.557366 0.159518
0.1832 0.559258 0.160403
0.198947 0.561166 0.161288
0.216342 0.563394 0.162203
0.234348 0.565759 0.163165
0.253101 0.568399 0.164096
