LUTS/Secondary LUTS/THE HAUNTING OF HILL HOUSE.cube
TITLE "Generated by Resolve"
LUT_3D_SIZE 9
0.000106813 0.00289921 0.00688182
0.0253605 0.0052491 0.0109255
0.0749676 0.0109407 0.0172122
0.145464 0.0209354 0.0260777
0.249668 0.0298009 0.0363012
0.378836 0.0370489 0.0413519
0.498131 0.0507515 0.0529793
0.615579 0.0699931 0.0703136
0.726894 0.0953841 0.0949264
0.00560006 0.0460212 0.0190127
0.0323033 0.0499123 0.0218509
0.0830396 0.0567941 0.0256199
0.156649 0.068101 0.0337072
0.262852 0.0790875 0.0425574
0.390127 0.0878309 0.048661
0.508049 0.102052 0.0603037
0.62472 0.122545 0.0785229
0.734295 0.147738 0.102922
0.0146029 0.119493 0.0363622
0.0441749 0.124758 0.0388037
0.0956588 0.133639 0.0442206
0.175509 0.146868 0.0516976
0.285267 0.157916 0.0583963
0.409552 0.167895 0.0639963
0.52575 0.184009 0.076051
0.641337 0.206607 0.0949569
0.748012 0.233127 0.118914
0.0276188 0.204898 0.0579843
0.062211 0.21236 0.0619516
0.11458 0.221759 0.0666056
0.198337 0.240955 0.0758526
0.314 0.256413 0.0831769
0.432166 0.26685 0.08748
0.546273 0.283742 0.0987716
0.660822 0.306935 0.117067
0.763317 0.333272 0.139544
0.0427863 0.295827 0.0819257
0.0804913 0.304814 0.0853742
0.145464 0.315679 0.0902419
0.236271 0.337911 0.0991989
0.345739 0.36289 0.107134
0.455085 0.380667 0.116258
0.567041 0.396979 0.126116
0.678752 0.41799 0.142
0.777234 0.44152 0.162295
0.0637064 0.396536 0.107149
0.112947 0.405768 0.112093
0.188144 0.416052 0.117708
0.288411 0.435935 0.124132
0.382315 0.469322 0.131228
0.481254 0.495949 0.143053
0.586679 0.513313 0.157626
0.695964 0.52987 0.171328
0.793362 0.549111 0.188815
0.112657 0.502022 0.1402
0.166033 0.509316 0.14403
0.244266 0.518349 0.148409
0.334874 0.533501 0.151781
0.42884 0.566903 0.159396
0.516609 0.602564 0.172946
0.613901 0.625208 0.186923
0.716548 0.638209 0.203998
0.810819 0.654047 0.219684
0.180728 0.609674 0.17641
0.230961 0.616602 0.179263
0.300984 0.62739 0.182818
0.386282 0.64239 0.186191
0.477104 0.662577 0.190661
0.560128 0.693706 0.203281
0.647227 0.72578 0.217105
0.743313 0.743587 0.23386
0.826764 0.756176 0.253025
0.252415 0.730907 0.216449
0.299718 0.736507 0.218524
0.36463 0.743984 0.220691
0.441596 0.751522 0.222919
0.523629 0.759457 0.224659
0.601709 0.776608 0.231586
0.680262 0.804685 0.245136
0.769146 0.830472 0.258488
0.84007 0.84213 0.272755
0.000564584 0.00514229 0.0496223
0.0247349 0.00823987 0.0563516
0.0746014 0.0144045 0.0644999
0.14725 0.024033 0.0721447
0.252491 0.0322423 0.0837568
0.380957 0.0385901 0.0904555
0.499352 0.0521706 0.102007
0.616129 0.0719921 0.120607
0.727886 0.0976425 0.145632
0.0059205 0.0495003 0.0638895
0.03093 0.0538186 0.0679942
0.08159 0.0603647 0.0717479
0.157855 0.0696422 0.0770733
0.2663 0.0782025 0.0851148
0.392447 0.0858778 0.0913405
0.508995 0.100145 0.104082
0.625422 0.120851 0.123445
0.7355 0.151263 0.15407
0.0144656 0.123217 0.0836042
0.0419013 0.128176 0.0835431
0.0935683 0.13666 0.0873426
0.177295 0.149508 0.0930343
0.287984 0.159655 0.0984817
0.411337 0.169055 0.104524
0.527062 0.18471 0.117113
0.642542 0.207324 0.136858
0.749172 0.236652 0.168414
0.0274205 0.209644 0.103914
0.0592203 0.215915 0.10135
0.112322 0.225101 0.104555
0.199542 0.243671 0.113436
0.316152 0.258778 0.12221
0.43415 0.269123 0.127489
0.547845 0.285786 0.139193
0.662348 0.308995 0.158099
0.76405 0.336553 0.188205
0.0420844 0.298589 0.125658
0.0776379 0.307729 0.122057
0.142672 0.319722 0.126009
0.237964 0.340352 0.134569
0.34725 0.365179 0.143771
0.456687 0.38291 0.155734
0.568521 0.399054 0.166598
0.680125 0.419913 0.183459
0.777996 0.443809 0.211337
0.0618753 0.394736 0.149798
0.109056 0.406943 0.147097
0.185718 0.419577 0.153613
0.289235 0.438087 0.159731
0.384222 0.470863 0.166049
0.482261 0.497536 0.18085
0.58764 0.51487 0.198672
0.696895 0.531197 0.21355
0.794003 0.550652 0.238621
0.109346 0.498283 0.184054
0.161776 0.509483 0.180865
0.241428 0.520165 0.185473
0.333623 0.535134 0.188663
0.430411 0.567529 0.193927
0.5178 0.603326 0.209049
0.614435 0.626032 0.226642
0.716945 0.638972 0.247059
0.811307 0.654978 0.270939
0.178454 0.608621 0.218296
0.22858 0.618265 0.215808
0.298619 0.628733 0.21825
0.383978 0.642557 0.220951
0.476921 0.663096 0.224994
0.561135 0.694072 0.238773
0.647807 0.726055 0.255833
0.743603 0.744091 0.275929
0.827253 0.75671 0.303807
0.254597 0.734096 0.251987
0.300313 0.738781 0.253254
0.36289 0.744991 0.255222
0.439994 0.752926 0.257862
0.523018 0.761776 0.260227
0.602548 0.777615 0.267338
0.68101 0.805188 0.282643
0.769635 0.830854 0.29868
0.840558 0.842512 0.320272
0.00181582 0.0110323 0.108751
0.0252232 0.0142977 0.114961
0.0601511 0.0207218 0.126986
0.147478 0.0313878 0.13463
0.259968 0.0383764 0.146578
0.387289 0.0435492 0.155108
0.503395 0.0551919 0.16788
0.61944 0.0740063 0.186847
0.731319 0.0997635 0.213214
0.00666819 0.0567025 0.122347
0.0299229 0.0615854 0.130114
0.0657054 0.0690929 0.139513
0.157061 0.0774243 0.144183
0.272496 0.0834974 0.153292
0.398199 0.0886549 0.159915
0.513085 0.100755 0.171954
0.628046 0.121157 0.191501
0.737713 0.154772 0.221729
0.0144198 0.129809 0.142336
0.038529 0.135683 0.147005
0.0843214 0.143725 0.154177
0.17615 0.155169 0.162036
0.295354 0.162371 0.166979
0.418189 0.169146 0.170428
0.532784 0.182223 0.181277
0.647562 0.202945 0.200122
0.75111 0.242298 0.238926
0.0259251 0.219638 0.170047
0.0538949 0.224384 0.169833
0.101579 0.232853 0.170108
0.198276 0.248112 0.179004
0.320165 0.263142 0.188647
0.439368 0.273014 0.192889
0.553643 0.288457 0.203235
0.667933 0.310643 0.221286
0.765316 0.341878 0.258762
0.0416724 0.312734 0.195636
0.0720073 0.316258 0.190875
0.129778 0.327108 0.185138
0.234852 0.344793 0.19292
0.348974 0.369467 0.205432
0.459739 0.38703 0.218967
0.572854 0.402487 0.229496
0.68481 0.422675 0.245823
0.779232 0.447745 0.282399
0.0665141 0.405692 0.220035
0.103868 0.411231 0.212802
0.172641 0.424949 0.207324
0.283436 0.441855 0.213596
0.385702 0.47303 0.221256
0.483757 0.500542 0.240711
0.589944 0.517372 0.260075
0.700145 0.53341 0.275257
0.795071 0.553124 0.310994
0.109255 0.500801 0.250645
0.152667 0.508873 0.2439
0.228321 0.523354 0.236469
0.326818 0.539315 0.240314
0.429709 0.567056 0.244633
0.519219 0.604196 0.264118
0.615274 0.627634 0.287251
0.718563 0.640558 0.308949
0.812085 0.656611 0.343969
0.176608 0.607828 0.284733
0.218524 0.617487 0.27396
0.288945 0.632517 0.266056
0.378302 0.646845 0.268055
0.474128 0.663844 0.272068
0.561563 0.693553 0.288487
0.648371 0.726192 0.312261
0.744228 0.745052 0.336339
0.827955 0.757687 0.376013
0.254383 0.736278 0.308522
0.29543 0.740978 0.296773
0.356817 0.747982 0.295552
0.435798 0.756786 0.297581
0.521126 0.766094 0.301183
0.603113 0.778576 0.310597
0.681422 0.805463 0.332479
0.770047 0.831678 0.3552
0.841276 0.84329 0.391226
0.00347906 0.0215 0.173999
0.0267948 0.0247349 0.17969
0.0565805 0.0306554 0.189349
0.129046 0.0407568 0.200565
0.267475 0.0496986 0.206714
0.395193 0.052491 0.220783
0.508354 0.063035 0.239689
0.622553 0.0810407 0.26215
0.734356 0.106584 0.292485
0.00816358 0.0686809 0.185138
0.0311589 0.0733654 0.193393
0.0616922 0.0809491 0.203769
0.14078 0.0896468 0.211917
0.279835 0.0957046 0.216846
0.404608 0.0990005 0.229358
0.517678 0.110018 0.247211
0.631769 0.12813 0.268818
0.742107 0.160479 0.299947
0.0151369 0.138735 0.203113
0.038117 0.145922 0.210834
0.0732891 0.154299 0.221332
0.165652 0.163607 0.231052
0.296712 0.171283 0.237461
0.422797 0.175311 0.247486
0.537194 0.186114 0.260426
0.651911 0.205066 0.280476
0.753017 0.246494 0.314855
0.0249332 0.227131 0.234104
0.0487678 0.234546 0.239582
0.0869306 0.24329 0.24622
0.186191 0.254612 0.255268
0.320027 0.268193 0.264744
0.442741 0.279561 0.273136
0.558801 0.293263 0.284062
0.673961 0.312734 0.301595
0.7664 0.347753 0.337377
0.0390021 0.327794 0.269276
0.0669718 0.332418 0.270268
0.114611 0.340551 0.271199
0.215808 0.35378 0.273793
0.348882 0.372946 0.28365
0.46305 0.392203 0.29897
0.577905 0.407156 0.309392
0.690837 0.426001 0.325826
0.780255 0.451774 0.361212
0.0730602 0.431708 0.304814
0.106783 0.431464 0.299748
0.158633 0.437613 0.29369
0.262638 0.451102 0.291554
0.382025 0.473991 0.296132
0.486061 0.503349 0.318288
0.592966 0.520577 0.338323
0.70486 0.535973 0.353307
0.796185 0.555642 0.388983
0.12282 0.526284 0.336629
0.157412 0.523507 0.328649
0.212848 0.530236 0.319738
0.306828 0.545892 0.313161
0.42063 0.567361 0.316518
0.519341 0.603952 0.33817
0.616281 0.62977 0.363287
0.720699 0.642298 0.38381
0.812833 0.658381 0.420356
0.184924 0.624613 0.368917
0.218723 0.625147 0.359701
0.270954 0.63624 0.345113
0.360372 0.653605 0.336431
0.464363 0.66891 0.341268
0.559197 0.692088 0.357321
0.648325 0.726238 0.383902
0.744976 0.746563 0.408118
0.828611 0.758801 0.450935
0.256535 0.742412 0.39736
0.291722 0.745022 0.382589
0.341711 0.75285 0.36199
0.424765 0.766491 0.358495
0.51574 0.776211 0.364111
0.600565 0.783062 0.376837
0.680446 0.805325 0.402869
0.770275 0.832898 0.424781
0.842039 0.844419 0.464988
0.00550851 0.0364538 0.242496
0.0287175 0.0393225 0.248341
0.0583352 0.0444953 0.256809
0.114641 0.0520027 0.267216
0.26656 0.0611734 0.270314
0.403571 0.0662547 0.275517
0.512352 0.0753796 0.303212
0.623926 0.091783 0.340154
0.73611 0.11725 0.38233
0.010132 0.0848707 0.251987
0.03299 0.0895857 0.260426
0.0629282 0.0964218 0.271901
0.127871 0.103563 0.281407
0.279301 0.108278 0.28278
0.412573 0.114473 0.286595
0.521614 0.124041 0.313909
0.633494 0.141283 0.350805
0.743877 0.17322 0.391974
0.0166629 0.153475 0.268452
0.0395972 0.160571 0.27628
0.0690471 0.16817 0.288106
0.152087 0.177493 0.300221
0.293156 0.182361 0.306935
0.426764 0.187732 0.309636
0.539055 0.198352 0.336538
0.652766 0.216068 0.369039
0.754284 0.255909 0.406363
0.0251164 0.235309 0.296315
0.0483558 0.243992 0.304768
0.0768597 0.253101 0.315099
0.163226 0.264988 0.327703
0.310414 0.275288 0.337392
0.442603 0.284947 0.34435
0.56025 0.298909 0.366873
0.676966 0.316732 0.390143
0.766751 0.351705 0.420645
0.0386816 0.334249 0.33579
0.0672007 0.343557 0.343374
0.103349 0.353658 0.352102
0.18854 0.365743 0.361807
0.334493 0.37792 0.367605
0.459236 0.396262 0.381567
0.577173 0.412345 0.39649
0.691157 0.43032 0.414618
0.780087 0.455055 0.441917
0.0760815 0.446326 0.384161
0.107774 0.451743 0.386908
0.149248 0.457694 0.389075
0.231205 0.466697 0.388937
0.361929 0.478706 0.390249
0.484688 0.503288 0.404746
0.595132 0.523766 0.425391
0.708095 0.538796 0.44007
0.796948 0.557687 0.467689
0.132311 0.551507 0.427268
0.164279 0.550881 0.422827
0.20621 0.551461 0.417029
0.281209 0.557382 0.411643
0.396048 0.572747 0.407965
0.51487 0.599161 0.419776
0.617823 0.629328 0.445472
0.723003 0.644541 0.466621
0.81326 0.66009 0.497063
0.18793 0.649012 0.459861
0.22266 0.645991 0.452537
0.265431 0.647715 0.443397
0.33341 0.659449 0.430762
0.439567 0.675319 0.424628
0.549676 0.691432 0.434028
0.646998 0.723491 0.461662
0.74583 0.747433 0.486305
0.829129 0.760113 0.524163
0.256443 0.751553 0.488258
0.291173 0.752834 0.478645
0.333608 0.757504 0.465187
0.3991 0.769741 0.448615
0.495476 0.782635 0.447623
0.591608 0.788968 0.45626
0.677821 0.803693 0.47892
0.770199 0.834089 0.507622
0.842771 0.846189 0.536751
0.00787366 0.054963 0.314992
0.0308843 0.0571298 0.320821
0.0604562 0.0615396 0.328618
0.113512 0.0668345 0.336721
0.258503 0.0770123 0.336019
0.403937 0.0747845 0.346929
0.516518 0.0928359 0.355688
0.621164 0.10753 0.400916
0.730617 0.131167 0.458213
0.0127413 0.105394 0.324605
0.035462 0.109728 0.332647
0.0645151 0.11458 0.345006
0.12697 0.119966 0.352789
0.269245 0.127764 0.35024
0.411734 0.124422 0.359762
0.525353 0.143191 0.368917
0.630564 0.158984 0.414054
0.738796 0.190112 0.469535
0.0192111 0.172198 0.33991
0.0419623 0.178683 0.348058
0.0696574 0.185519 0.359396
0.138674 0.193332 0.370886
0.280156 0.201053 0.375509
0.422995 0.199771 0.385229
0.539315 0.215717 0.395041
0.647868 0.232685 0.438285
0.751324 0.270268 0.488945
0.0261387 0.249928 0.364981
0.0493324 0.258595 0.374136
0.0780804 0.267247 0.385412
0.143145 0.277165 0.398627
0.291981 0.288502 0.407492
0.433448 0.294957 0.419318
0.553994 0.309422 0.431128
0.668788 0.327291 0.468452
0.766171 0.361456 0.508003
0.0398871 0.342199 0.402029
0.0695506 0.35259 0.411826
0.103288 0.362951 0.422843
0.163973 0.374136 0.435767
0.308705 0.38674 0.445991
0.447669 0.399634 0.454643
0.571359 0.414969 0.468788
0.689204 0.432792 0.496208
0.781353 0.457572 0.52314
0.0823682 0.45066 0.451057
0.113527 0.459312 0.458351
0.148226 0.468376 0.466773
0.205509 0.477424 0.475105
0.330129 0.488594 0.481804
0.46891 0.502403 0.485878
0.588266 0.523995 0.504356
0.70457 0.540108 0.522148
0.796429 0.558801 0.542718
0.137026 0.557946 0.50042
0.16585 0.563226 0.503319
0.198291 0.568612 0.506188
0.250553 0.574746 0.507439
0.358816 0.584344 0.506401
0.494606 0.599069 0.506004
0.614054 0.625879 0.526192
0.72343 0.646265 0.548348
0.81323 0.661814 0.569772
0.183917 0.660838 0.541527
0.214221 0.66389 0.539544
0.250935 0.667124 0.53547
0.307332 0.671611 0.529412
0.404776 0.68069 0.522988
0.526055 0.694347 0.518761
0.640024 0.715282 0.534539
0.74519 0.744671 0.562142
0.829023 0.761669 0.594736
0.238819 0.761135 0.571786
0.276844 0.762325 0.566018
0.321279 0.764172 0.55874
0.377356 0.77023 0.548348
0.460716 0.782696 0.53695
0.569253 0.792584 0.534859
0.669459 0.800778 0.545602
0.767163 0.829419 0.576638
0.843488 0.848447 0.605859
0.0106966 0.077409 0.393668
0.033402 0.078233 0.398871
0.0629435 0.0815747 0.404318
0.119249 0.0857862 0.410269
0.248096 0.0950332 0.408774
0.395209 0.0970626 0.413779
0.51397 0.101061 0.439918
0.615381 0.129625 0.454963
0.715969 0.151843 0.509636
0.0156252 0.129381 0.402991
0.0383154 0.13286 0.409613
0.0665904 0.13579 0.420218
0.12694 0.139879 0.426032
0.25481 0.147463 0.426764
0.402289 0.149798 0.430121
0.521782 0.153582 0.454063
0.625086 0.182513 0.469383
0.7252 0.210407 0.522728
0.0215 0.194949 0.415854
0.0441901 0.200366 0.422553
0.0725872 0.205707 0.432685
0.127352 0.211749 0.443122
0.261875 0.219135 0.452827
0.409949 0.223362 0.457862
0.533318 0.228519 0.47924
0.63859 0.25391 0.492622
0.738384 0.285893 0.542367
0.0280308 0.270558 0.438254
0.0522316 0.278264 0.446815
0.0841993 0.285527 0.457206
0.13077 0.293355 0.469581
0.268238 0.303777 0.48159
0.415534 0.310842 0.491798
0.544976 0.321218 0.509987
0.652689 0.341451 0.521187
0.752987 0.372595 0.563745
0.0463111 0.35877 0.472938
0.0762188 0.368383 0.482689
0.10985 0.377188 0.492927
0.153933 0.385885 0.504341
0.280919 0.397314 0.517281
0.424186 0.407736 0.524239
0.557702 0.421256 0.539773
0.670176 0.437293 0.552499
0.773678 0.46334 0.588449
0.0860304 0.458152 0.516579
0.117388 0.466972 0.524666
0.151873 0.475364 0.533089
0.1935 0.483253 0.541695
0.29865 0.494072 0.552743
0.443351 0.505943 0.559762
0.573846 0.522103 0.568154
0.690379 0.538079 0.585534
0.793378 0.560693 0.61297
0.14107 0.559258 0.560983
0.169299 0.565957 0.566064
0.200229 0.572976 0.571908
0.236759 0.580194 0.578058
0.323919 0.589807 0.584543
0.465675 0.602701 0.588281
0.596338 0.619394 0.59379
0.711635 0.642008 0.616022
0.809949 0.66009 0.636515
0.184207 0.658732 0.603342
0.211337 0.664622 0.606363
0.240986 0.670878 0.60914
0.279164 0.677562 0.610681
0.357107 0.687205 0.609339
0.491051 0.697276 0.607965
0.61944 0.71133 0.608011
0.736706 0.738018 0.63212
0.827527 0.761471 0.661936
0.225681 0.758038 0.639109
0.253315 0.76405 0.639597
0.289342 0.769985 0.638254
0.3393 0.775051 0.634638
0.418402 0.781781 0.629053
0.531212 0.792203 0.620508
0.648569 0.801785 0.618112
0.755947 0.819104 0.637064
0.84332 0.849104 0.670863
0.0139467 0.102571 0.47393
0.036286 0.102022 0.478264
0.0670481 0.104295 0.481209
0.120928 0.107362 0.484306
0.236927 0.115679 0.488319
0.376287 0.121004 0.496574
0.500786 0.130678 0.511467
0.620081 0.13341 0.557946
0.702068 0.176196 0.559243
0.0194553 0.15639 0.48278
0.0421454 0.159304 0.488243
0.0721447 0.160327 0.496254
0.121691 0.162768 0.500053
0.240879 0.169436 0.506813
0.383764 0.174533 0.514611
0.509651 0.184192 0.527398
0.628519 0.186664 0.568826
0.71162 0.230823 0.570581
0.0246891 0.220859 0.492821
0.0488746 0.225376 0.499031
0.0803998 0.229938 0.508247
0.122499 0.233982 0.516091
0.240131 0.239841 0.527825
0.388983 0.244114 0.540276
0.519417 0.253986 0.550683
0.642161 0.259174 0.585916
0.72221 0.303349 0.586511
0.0338903 0.295247 0.513863
0.0620584 0.302296 0.521645
0.094377 0.308263 0.530755
0.1364 0.314595 0.541604
0.234028 0.321569 0.55259
0.38967 0.326986 0.5664
0.526452 0.336309 0.57731
0.655467 0.347921 0.606668
0.733349 0.384268 0.604639
0.0579232 0.381186 0.545846
0.0883192 0.389792 0.554284
0.121859 0.396628 0.562432
0.1635 0.40293 0.571694
0.245441 0.410407 0.583413
0.394095 0.418341 0.592065
0.534829 0.427008 0.604913
0.669017 0.444343 0.62916
0.749279 0.468345 0.628489
0.0971237 0.472755 0.582269
0.128542 0.480781 0.589639
0.161944 0.487449 0.596551
0.201099 0.493172 0.603525
0.26804 0.500603 0.613138
0.413001 0.51165 0.623392
0.550301 0.52282 0.630442
0.686213 0.540093 0.650919
0.77174 0.55639 0.656245
0.141924 0.565347 0.620432
0.169665 0.572061 0.6262
0.199496 0.57789 0.631693
0.23505 0.583551 0.637324
0.29543 0.590661 0.64416
0.437552 0.603387 0.653635
0.573587 0.618036 0.65716
0.694301 0.63798 0.672862
0.792172 0.653727 0.688502
0.185367 0.657862 0.657877
0.212146 0.663401 0.661662
0.241215 0.669017 0.665599
0.275349 0.675074 0.669688
0.325658 0.682536 0.673976
0.45391 0.695521 0.679103
0.594491 0.709667 0.679545
0.713588 0.725963 0.687984
0.816388 0.752071 0.714641
0.223651 0.750835 0.691661
0.249928 0.756497 0.69395
0.278126 0.763088 0.696498
0.310674 0.770459 0.698512
0.361517 0.778134 0.699596
0.481544 0.787533 0.700298
0.616098 0.80032 0.695552
0.734188 0.811933 0.698329
0.837049 0.842405 0.727062
0.0179904 0.130526 0.552682
0.0426337 0.129366 0.554803
0.0753338 0.129641 0.5561
0.115221 0.131106 0.556481
0.225879 0.137728 0.565209
0.363928 0.142885 0.579202
0.485542 0.1552 0.591104
0.60145 0.17026 0.611383
0.743236 0.160784 0.688685
0.0257572 0.186313 0.561547
0.0516976 0.188449 0.565316
0.0823682 0.187839 0.570184
0.1234 0.188174 0.572915
0.22356 0.192355 0.581674
0.367391 0.195529 0.596719
0.494957 0.207614 0.60676
0.612055 0.222232 0.624781
0.747555 0.213275 0.691569
0.0328679 0.249439 0.568109
0.0596628 0.253529 0.573205
0.0917372 0.257664 0.581659
0.133898 0.260487 0.590005
0.214466 0.262287 0.597574
0.364431 0.264057 0.618265
0.500923 0.274037 0.628275
0.623102 0.287678 0.642649
0.753521 0.291798 0.695811
0.0470436 0.323186 0.587884
0.0756237 0.329107 0.594491
0.108248 0.334218 0.602777
0.15021 0.339712 0.612818
0.213519 0.343099 0.621378
0.356619 0.345464 0.632319
0.50045 0.35256 0.649836
0.630976 0.364889 0.662699
0.761395 0.379171 0.702434
0.0742351 0.406546 0.617243
0.104524 0.413764 0.624369
0.137194 0.41854 0.630594
0.177234 0.422568 0.637919
0.229252 0.427665 0.647852
0.358663 0.43212 0.656077
0.504921 0.438376 0.668956
0.63743 0.449989 0.681254
0.776104 0.471489 0.715785
0.112459 0.491264 0.647868
0.142596 0.498085 0.654078
0.173007 0.503349 0.659709
0.208026 0.507088 0.665003
0.253285 0.511879 0.672602
0.38085 0.520409 0.68275
0.52256 0.528572 0.689509
0.653086 0.539361 0.700847
0.794491 0.567651 0.733013
0.148119 0.576288 0.679301
0.17557 0.582467 0.684535
0.20473 0.587427 0.689189
0.238911 0.591516 0.693599
0.281727 0.596246 0.699016
0.406577 0.607065 0.709102
0.549844 0.619455 0.716014
0.674495 0.632166 0.72076
0.805097 0.665125 0.755627
0.187976 0.661692 0.709987
0.21471 0.667002 0.713817
0.243107 0.671778 0.717296
0.27602 0.676005 0.720546
0.315847 0.680903 0.724208
0.426032 0.692531 0.731136
0.573999 0.706844 0.73695
0.696773 0.723033 0.740063
0.808072 0.751339 0.76643
0.219867 0.748699 0.737087
0.245594 0.753826 0.739757
0.272938 0.758724 0.742199
0.304524 0.764035 0.744686
0.34287 0.769772 0.747784
0.439445 0.777386 0.754253
0.588876 0.791669 0.75697
0.712612 0.808148 0.758816
0.814725 0.825071 0.76875
