LUTS/Secondary LUTS/VELVIA.cube
TITLE "Generated by Resolve"
LUT_3D_SIZE 5
0 0 0
0 0 0
0.705837 0.0658579 0.0651713
0.970687 0.068574 0.080766
0.973358 0.0658122 0.149706
0.0409552 0.165621 0.0359655
0.0934768 0.125399 0.0335088
0.699107 0.0658122 0.0651408
0.970687 0.068574 0.080766
0.973358 0.0658122 0.149706
0.0735637 0.76318 0.0301061
0.0726177 0.758312 0.0295262
0.699001 0.704555 0.0120089
1 0.61941 0.0174258
0.973373 0.0658122 0.149935
0.143587 1 0.186023
0.143587 1 0.186023
0.698863 0.992401 0.0433509
1 0.981826 0.049546
1 0.954116 0.0468757
0.932662 0.99176 0.0481117
0.934295 0.991623 0.0481422
0.945708 0.990784 0.0483711
1 0.987533 0.0497292
1 0.987015 0.0500496
0 0 0
0 0 0
0.712215 0.0614481 0.185031
0.970687 0.068574 0.080766
0.973358 0.0658122 0.149706
0.0398413 0.144488 0.149096
0.0797131 0.103502 0.114992
0.70309 0.0619364 0.166232
0.970687 0.068574 0.080766
0.973358 0.0658122 0.149706
0.0732128 0.761395 0.0298924
0.0722972 0.756603 0.0293278
0.698528 0.702495 0.0117952
1 0.617243 0.0172732
0.973373 0.0658122 0.149935
0.143587 1 0.186023
0.143587 1 0.186023
0.69836 0.992386 0.0433509
1 0.981826 0.049546
1 0.95407 0.0468757
0.932662 0.99176 0.0481117
0.934295 0.991623 0.0481422
0.945708 0.990784 0.0483711
1 0.987533 0.0497292
1 0.987015 0.0500496
0.0327459 0.0319829 0.171344
0.0323033 0.0315709 0.168704
0.74757 0.0577249 0.68333
1 0.065095 0.756146
0.973358 0.0658122 0.149706
0.0325628 0.0318151 0.170245
0.0321508 0.0314183 0.167758
0.748089 0.0577249 0.682521
1 0.0650797 0.755398
0.973358 0.0658122 0.149706
0.0657816 0.703304 0.682765
0.0647135 0.697612 0.681071
0.662257 0.639841 0.653452
0.995941 0.536233 0.686305
0.973373 0.0658122 0.149935
0.132662 1 0.780056
0.132647 1 0.779339
0.62002 0.984817 0.651698
0.981155 0.945998 0.485527
1 0.953735 0.0468452
0.932418 0.991775 0.0480964
0.934051 0.991638 0.048127
0.945541 0.990799 0.0483711
1 0.987533 0.0497292
1 0.987015 0.0500496
0.0521401 0.0505684 0.323583
0.0521401 0.0505684 0.323583
0.651545 0.0589914 0.860655
1 0.0865644 0.951247
1 0.0852979 0.951598
0.0521401 0.0505684 0.323583
0.0521401 0.0505684 0.323583
0.662013 0.0589761 0.864713
1 0.0865644 0.951247
1 0.0852827 0.951598
0.0227665 0.284703 0.846082
0.0239872 0.274449 0.838483
0.542702 0.116182 0.84683
1 0.0864729 0.951263
1 0.0852522 0.951598
0.137392 1 0.938857
0.137392 1 0.938857
0.402884 0.990295 0.921492
0.952911 0.909163 0.891005
0.976761 0.877302 0.887953
0.840345 0.949004 0.875837
0.84271 0.948699 0.875364
0.859693 0.946532 0.872251
0.933654 0.939101 0.860899
0.964538 0.937697 0.840146
0.0521401 0.0505684 0.323583
0.0521401 0.0505684 0.323583
0.0521401 0.0505684 0.323583
1 0.0864729 0.951263
1 0.0869001 0.951141
0.0521401 0.0505684 0.323583
0.0521401 0.0505684 0.323583
0.0521401 0.0505684 0.323583
1 0.0864729 0.951263
1 0.0869001 0.951141
0.0521401 0.0505684 0.323583
0.0521401 0.0505684 0.323583
0.0521401 0.0505684 0.323583
1 0.0865644 0.951247
1 0.0869001 0.951141
0.129198 0.972671 0.935546
0.129168 0.972503 0.935531
0.126574 0.962341 0.934615
0.953719 0.832639 0.910826
1 0.592111 0.900404
0.710933 0.96875 0.91751
0.717235 0.967697 0.917464
0.75903 0.960739 0.916487
0.906737 0.940429 0.898741
0.963119 0.936172 0.894881
