LUTS/Secondary LUTS/VELVIA.cube
TITLE "Generated by Resolve"
LUT_3D_SIZE 9
0 0 0
0 0 0
0 0 0
0.261128 0.0538796 0.0536812
0.705837 0.0658579 0.0651713
0.909895 0.0677195 0.0700389
0.970687 0.068574 0.080766
0.97142 0.0683452 0.088716
0.973358 0.0658122 0.149706
0 0 0
0 0 0
0 0 0
0.260395 0.0538186 0.0536202
0.706065 0.0658579 0.0651713
0.910231 0.0677195 0.0700847
0.970687 0.068574 0.080766
0.97142 0.0683452 0.088716
0.973358 0.0658122 0.149706
0.0409552 0.165621 0.0359655
0.0412299 0.15996 0.0365148
0.0934768 0.125399 0.0335088
0.300587 0.0995499 0.037995
0.699107 0.0658122 0.0651408
0.909468 0.0677043 0.0699779
0.970687 0.068574 0.080766
0.97142 0.0683452 0.088716
0.973358 0.0658122 0.149706
0.016144 0.423026 0
0.0160525 0.41915 0
0.0159609 0.413565 0
0.325856 0.373358 0
0.730846 0.325429 0
0.928588 0.197238 0.00801099
0.970687 0.068574 0.080766
0.97142 0.0683452 0.088716
0.973358 0.0658122 0.149706
0.0735637 0.76318 0.0301061
0.0732128 0.761318 0.0298772
0.0726177 0.758312 0.0295262
0.214511 0.737652 0.0150607
0.699001 0.704555 0.0120089
0.937133 0.692409 0.0196231
1 0.61941 0.0174258
0.970687 0.068574 0.080766
0.973373 0.0658122 0.149935
0.123247 1 0.110414
0.123171 1 0.109987
0.123033 1 0.109026
0.122637 0.999878 0.106584
0.682734 0.933379 0.0361639
0.934325 0.907973 0.0395209
1 0.900893 0.0416419
1 0.856809 0.0373236
0.991348 0.438209 0.00822461
0.143587 1 0.186023
0.143587 1 0.186023
0.143587 1 0.186023
0.37641 0.992493 0.110948
0.698863 0.992401 0.0433509
0.919707 0.992874 0.0478676
1 0.981826 0.049546
1 0.973251 0.0487373
1 0.954116 0.0468757
0.697002 0.99237 0.0433509
0.704417 0.992447 0.0433661
0.715526 0.992584 0.0435187
0.74641 0.992966 0.0440375
0.815976 0.994125 0.0454871
0.917922 0.993027 0.047837
0.999573 0.98764 0.0496681
1 0.987015 0.0500496
1 0.987015 0.0500496
0.932662 0.99176 0.0481117
0.933318 0.991699 0.0481117
0.934295 0.991623 0.0481422
0.937377 0.991363 0.048188
0.945708 0.990784 0.0483711
0.965896 0.98938 0.0488136
1 0.987533 0.0497292
1 0.987015 0.0500496
1 0.987015 0.0500496
0 0 0
0 0 0
0 0 0
0.262303 0.0539254 0.0605936
0.705562 0.0658579 0.0651713
0.909895 0.0677195 0.0700389
0.970687 0.068574 0.080766
0.97142 0.0683452 0.088716
0.973358 0.0658122 0.149706
0 0 0
0 0 0
0 0 0
0.256962 0.0535134 0.0567788
0.706065 0.0658579 0.0651713
0.910231 0.0677195 0.0700847
0.970687 0.068574 0.080766
0.97142 0.0683452 0.088716
0.973358 0.0658122 0.149706
0.0410315 0.158328 0.051194
0.0412757 0.152758 0.0503395
0.0876631 0.118532 0.0359197
0.282673 0.100999 0.0371252
0.699657 0.0658274 0.0651408
0.909468 0.0677043 0.0699779
0.970687 0.068574 0.080766
0.97142 0.0683452 0.088716
0.973358 0.0658122 0.149706
0.016083 0.420447 0
0.0159915 0.416373 0
0.0159304 0.41059 0
0.324453 0.369406 0
0.730587 0.322011 0
0.928069 0.193286 0.00849927
0.970687 0.068574 0.080766
0.97142 0.0683452 0.088716
0.973358 0.0658122 0.149706
0.0733959 0.762325 0.0299992
0.0730449 0.760464 0.0297704
0.0724498 0.757458 0.0294194
0.213046 0.736965 0.0150301
0.698787 0.704005 0.0119478
0.937102 0.69189 0.0195926
1 0.618692 0.01738
0.970687 0.068574 0.080766
0.973373 0.0658122 0.149935
0.123232 1 0.110323
0.123156 1 0.109697
0.123018 1 0.108934
0.122621 0.999802 0.106493
0.682582 0.933318 0.0361486
0.934325 0.907912 0.0395209
1 0.900832 0.0416266
1 0.856641 0.0373083
0.991272 0.436866 0.00817884
0.143587 1 0.186023
0.143587 1 0.186023
0.143587 1 0.186023
0.375753 0.992508 0.111131
0.698604 0.992386 0.0433509
0.919631 0.992874 0.0478676
1 0.981826 0.049546
1 0.973251 0.0487373
1 0.95407 0.0468757
0.69688 0.99237 0.0433509
0.704295 0.992447 0.0433661
0.715419 0.992569 0.0435035
0.74641 0.992966 0.0440375
0.815976 0.994125 0.0454871
0.917922 0.993027 0.047837
0.999573 0.98764 0.0496681
1 0.987015 0.0500496
1 0.987015 0.0500496
0.932662 0.99176 0.0481117
0.933318 0.991699 0.0481117
0.934295 0.991623 0.0481422
0.937377 0.991363 0.048188
0.945708 0.990784 0.0483711
0.965896 0.98938 0.0488136
1 0.987533 0.0497292
1 0.987015 0.0500496
1 0.987015 0.0500496
0 0 0
0 0 0
0 0 0
0.286122 0.05449 0.150546
0.712215 0.0614481 0.185031
0.912215 0.0661021 0.116213
0.970687 0.068574 0.080766
0.97142 0.0683452 0.088716
0.973358 0.0658122 0.149706
0 0 0
0 0 0
0 0 0.00204471
0.286809 0.0545357 0.149187
0.712703 0.0615244 0.182361
0.912413 0.0662852 0.1122
0.970687 0.068574 0.080766
0.97142 0.0683452 0.088716
0.973358 0.0658122 0.149706
0.0398413 0.144488 0.149096
0.0400854 0.13904 0.145785
0.0797131 0.103502 0.114992
0.284459 0.073106 0.134554
0.70309 0.0619364 0.166232
0.909743 0.0670329 0.0916152
0.970687 0.068574 0.080766
0.97142 0.0683452 0.088716
0.973358 0.0658122 0.149706
0.0127871 0.407889 0.0894331
0.0127718 0.403922 0.0885481
0.0128176 0.396506 0.0878767
0.320027 0.361715 0.0757916
0.719158 0.326299 0.0220951
0.925368 0.21799 0.00585946
0.970687 0.068574 0.080766
0.97142 0.0683452 0.088716
0.973358 0.0658122 0.149706
0.0732128 0.761395 0.0298924
0.0728771 0.759655 0.0296788
0.0722972 0.756603 0.0293278
0.21062 0.736187 0.0150454
0.698528 0.702495 0.0117952
0.936934 0.690288 0.0194553
1 0.617243 0.0172732
0.970687 0.068574 0.080766
0.973373 0.0658122 0.149935
0.123171 1 0.109987
0.123079 1 0.10927
0.122942 1 0.108522
0.12256 0.999512 0.106172
0.682002 0.933196 0.0361181
0.934295 0.907759 0.0395056
1 0.900771 0.0416266
1 0.856489 0.0372931
0.99115 0.434699 0.0081178
0.143587 1 0.186023
0.143587 1 0.186023
0.143587 1 0.186023
0.374563 0.992523 0.111437
0.69836 0.992386 0.0433509
0.919631 0.992874 0.0478676
1 0.981826 0.049546
1 0.973251 0.0487373
1 0.95407 0.0468757
0.696757 0.99237 0.0433509
0.704173 0.992447 0.0433661
0.715175 0.992569 0.0435035
0.746166 0.992966 0.0440375
0.815869 0.994125 0.0454871
0.917845 0.993042 0.047837
0.999573 0.98764 0.0496681
1 0.987015 0.0500496
1 0.987015 0.0500496
0.932662 0.99176 0.0481117
0.933257 0.991699 0.0481117
0.934295 0.991623 0.0481422
0.937377 0.991363 0.048188
0.945708 0.990784 0.0483711
0.965896 0.98938 0.0488136
1 0.987533 0.0497292
1 0.987015 0.0500496
1 0.987015 0.0500496
0 0 0.0077821
0 0 0.00743114
0.0222934 0.0104067 0.0552071
0.323507 0.0570382 0.311223
0.734524 0.057969 0.422873
0.933806 0.0601511 0.44892
0.986587 0.062211 0.348135
0.97142 0.0683452 0.088716
0.973358 0.0658122 0.149706
0 0 0.00735485
0 0 0.00720226
0.0247654 0.0116274 0.0585184
0.327611 0.0571145 0.312306
0.735759 0.0579843 0.421973
0.934127 0.0601663 0.448066
0.986465 0.0622263 0.346517
0.97142 0.0683452 0.088716
0.973358 0.0658122 0.149706
0.0375219 0.0676738 0.16968
0.0340734 0.0561227 0.146746
0.0183719 0.0164797 0.0650492
0.319371 0.0569314 0.309987
0.730373 0.0579995 0.417456
0.933577 0.0601663 0.445136
0.986267 0.0622416 0.343816
0.97142 0.0683452 0.088716
0.973358 0.0658122 0.149706
0.0106203 0.37084 0.364828
0.0107271 0.366552 0.364096
0.0109865 0.358892 0.363104
0.305913 0.32137 0.347539
0.723064 0.269017 0.349401
0.928161 0.0982376 0.383688
0.983322 0.0626078 0.304234
0.97142 0.0683452 0.088716
0.973358 0.0658122 0.149706
0.0673838 0.742184 0.38146
0.0670176 0.740322 0.380041
0.0664073 0.737179 0.377722
0.179339 0.717205 0.359396
0.686229 0.683528 0.328725
0.926848 0.678111 0.300145
1 0.622889 0.180056
0.970687 0.068574 0.080766
0.973373 0.0658122 0.149935
0.119753 0.991485 0.43122
0.119615 0.990997 0.42977
0.119417 0.990265 0.427512
0.118853 0.988235 0.420356
0.656901 0.919692 0.299947
0.921309 0.894636 0.205646
1 0.903929 0.0419318
1 0.855833 0.037232
0.990799 0.428016 0.00794995
0.143587 1 0.186023
0.143587 1 0.186023
0.143587 1 0.186023
0.364691 0.99263 0.115358
0.696254 0.99237 0.0433509
0.919432 0.992889 0.0478676
1 0.981781 0.049546
1 0.973175 0.0487221
1 0.953964 0.0468605
0.696132 0.99237 0.0433509
0.703563 0.992447 0.0433661
0.714687 0.992569 0.0435035
0.745708 0.992966 0.0440223
0.815564 0.99411 0.0454871
0.917784 0.993042 0.047837
0.999527 0.98764 0.0496681
1 0.987015 0.0500496
1 0.987015 0.0500496
0.932601 0.99176 0.0480964
0.933196 0.991714 0.0481117
0.934234 0.991623 0.0481422
0.937316 0.991363 0.048188
0.945647 0.990784 0.0483711
0.96585 0.98938 0.0488136
1 0.987533 0.0497292
1 0.987015 0.0500496
1 0.987015 0.0500496
0.0327459 0.0319829 0.171344
0.0327153 0.0319677 0.171176
0.0323033 0.0315709 0.168704
0.320729 0.0596628 0.508812
0.74757 0.0577249 0.68333
0.952621 0.0620127 0.743374
1 0.065095 0.756146
1 0.0627451 0.60618
0.973358 0.0658122 0.149706
0.0327001 0.0319524 0.171084
0.0326848 0.0319371 0.171008
0.0320592 0.0313268 0.167224
0.330953 0.0597086 0.515663
0.749859 0.0577401 0.683757
0.952911 0.0620127 0.743297
1 0.0650797 0.755825
1 0.0627451 0.605447
0.973358 0.0658122 0.149706
0.0325628 0.0318151 0.170245
0.0325475 0.0317998 0.170153
0.0321508 0.0314183 0.167758
0.323308 0.0596628 0.509606
0.748089 0.0577249 0.682521
0.953277 0.0620279 0.743053
1 0.0650797 0.755398
1 0.0627298 0.60441
0.973358 0.0658122 0.149706
0.0218814 0.267887 0.620768
0.0226444 0.263096 0.617761
0.0239719 0.255131 0.612711
0.252049 0.20206 0.600519
0.689586 0.102663 0.640162
0.944915 0.0616312 0.735042
1 0.0650187 0.752743
1 0.0626841 0.600702
0.973358 0.0658122 0.149706
0.0657816 0.703304 0.682765
0.0653544 0.701076 0.682094
0.0647135 0.697612 0.681071
0.0627756 0.6869 0.679057
0.662257 0.639841 0.653452
0.925322 0.621408 0.672068
0.995941 0.536233 0.686305
1 0.0621805 0.538415
0.973373 0.0658122 0.149935
0.122515 0.971267 0.770626
0.122362 0.970718 0.770092
0.122133 0.969924 0.769223
0.121462 0.967498 0.76672
0.607843 0.898253 0.679438
0.893446 0.863935 0.634211
0.988388 0.861265 0.586755
0.999756 0.841459 0.333242
0.9897 0.405982 0.0074464
0.132662 1 0.780056
0.132662 1 0.779751
0.132647 1 0.779339
0.132647 1 0.777966
0.62002 0.984817 0.651698
0.871092 0.955901 0.564782
0.981155 0.945998 0.485527
1 0.97467 0.0488746
1 0.953735 0.0468452
0.686961 0.992279 0.0433509
0.694774 0.992355 0.0433509
0.706523 0.992477 0.0433661
0.738903 0.992874 0.0439002
0.811185 0.994034 0.0453803
0.916396 0.993164 0.0478065
0.999481 0.98764 0.0496681
1 0.987015 0.0500496
1 0.987015 0.0500496
0.932418 0.991775 0.0480964
0.933074 0.991714 0.0481117
0.934051 0.991638 0.048127
0.937133 0.991379 0.048188
0.945541 0.990799 0.0483711
0.965743 0.989395 0.0488136
1 0.987533 0.0497292
1 0.987015 0.0500496
1 0.987015 0.0500496
0.049958 0.0484932 0.302403
0.0499428 0.0484932 0.302358
0.0499428 0.0484932 0.302358
0.218357 0.0608682 0.538308
0.73283 0.0585336 0.818494
0.964248 0.0648814 0.889525
1 0.0740978 0.919402
1 0.0724804 0.907988
1 0.0669108 0.829694
0.0499428 0.0484932 0.302358
0.0499428 0.0484932 0.302358
0.0499428 0.0484932 0.302296
0.230137 0.0611124 0.550576
0.735561 0.0585489 0.819211
0.96463 0.0648966 0.889601
1 0.0740978 0.919402
1 0.0724804 0.907927
1 0.0668956 0.829541
0.0499428 0.0484932 0.302296
0.0499428 0.0484932 0.302296
0.0499275 0.0484779 0.302235
0.249271 0.061387 0.569299
0.739803 0.0585794 0.820371
0.965194 0.0649271 0.889815
1 0.0740978 0.919356
1 0.0724651 0.907866
1 0.0668956 0.829374
0.049836 0.0484016 0.301366
0.049836 0.0484016 0.301366
0.049836 0.0484016 0.301366
0.19443 0.0601816 0.511101
0.719875 0.0584573 0.813962
0.961135 0.064683 0.887541
1 0.0740673 0.919188
1 0.0724346 0.907637
1 0.0668803 0.828656
0.055314 0.618341 0.831739
0.0548562 0.61561 0.831418
0.0540932 0.611124 0.830869
0.0517891 0.597269 0.829236
0.6309 0.547005 0.823453
0.929152 0.5093 0.854322
0.994034 0.312612 0.888808
1 0.0722057 0.905898
1 0.0668193 0.826505
0.122438 0.951293 0.914763
0.12224 0.950637 0.914427
0.121996 0.949722 0.914
0.121233 0.946914 0.912657
0.543938 0.883345 0.857496
0.879072 0.839475 0.82678
0.984298 0.829099 0.832944
0.989975 0.778668 0.829419
1 0.0663615 0.809873
0.137392 1 0.938857
0.137392 1 0.938857
0.137392 1 0.938857
0.137392 1 0.938857
0.543572 0.98735 0.880537
0.84065 0.938109 0.821225
0.958404 0.920333 0.802686
0.972244 0.915236 0.773022
0.980911 0.90454 0.654078
0.555184 0.986938 0.850507
0.565255 0.986862 0.848508
0.57998 0.986755 0.845487
0.620371 0.985489 0.837034
0.709422 0.971786 0.816464
0.841367 0.951858 0.784726
0.940948 0.942351 0.760403
0.969146 0.942412 0.724544
0.992828 0.966247 0.329168
0.899748 0.970581 0.370962
0.900496 0.970581 0.369909
0.901686 0.97055 0.36846
0.905318 0.970504 0.363775
0.915801 0.970413 0.349752
0.940642 0.971115 0.306645
0.993545 0.981979 0.0946975
1 0.987015 0.0500496
1 0.987015 0.0500496
0.0521401 0.0505684 0.323583
0.0521401 0.0505684 0.323583
0.0521401 0.0505684 0.323583
0.0521401 0.0505684 0.323583
0.651545 0.0589914 0.860655
0.96405 0.0660716 0.944579
1 0.0865644 0.951247
1 0.0865644 0.951247
1 0.0852979 0.951598
0.0521401 0.0505684 0.323583
0.0521401 0.0505684 0.323583
0.0521401 0.0505684 0.323583
0.0521401 0.0505684 0.323583
0.655695 0.0589914 0.862272
0.964462 0.0660868 0.94464
1 0.0865644 0.951247
1 0.0865644 0.951247
1 0.0852827 0.951598
0.0521401 0.0505684 0.323583
0.0521401 0.0505684 0.323583
0.0521401 0.0505684 0.323583
0.0521401 0.0505684 0.323583
0.662013 0.0589761 0.864713
0.965087 0.0661173 0.944732
1 0.0865644 0.951247
1 0.0865644 0.951247
1 0.0852827 0.951598
0.0521401 0.0505684 0.323583
0.0521401 0.0505684 0.323583
0.0521401 0.0505684 0.323583
0.0521401 0.0505684 0.323583
0.681376 0.0589914 0.871962
0.967025 0.0662394 0.945037
1 0.0865644 0.951247
1 0.0865644 0.951247
1 0.0852827 0.951598
0.0227665 0.284703 0.846082
0.0230716 0.282017 0.844175
0.0239872 0.274449 0.838483
0.0285496 0.244312 0.810925
0.542702 0.116182 0.84683
0.94461 0.0650187 0.941405
1 0.0864729 0.951263
1 0.0865644 0.951247
1 0.0852522 0.951598
0.112795 0.90811 0.929931
0.112612 0.907271 0.929854
0.112306 0.905913 0.929717
0.111421 0.901946 0.929351
0.409262 0.85658 0.907774
0.869886 0.800076 0.904311
0.993515 0.784054 0.90927
1 0.689509 0.90457
1 0.0849622 0.95169
0.137392 1 0.938857
0.137392 1 0.938857
0.137392 1 0.938857
0.137392 1 0.938857
0.402884 0.990295 0.921492
0.815335 0.931594 0.907576
0.952911 0.909163 0.891005
0.971954 0.899382 0.888716
0.976761 0.877302 0.887953
0.420996 0.989822 0.921035
0.436042 0.989487 0.920699
0.458015 0.989044 0.920256
0.518761 0.98819 0.919371
0.643885 0.980316 0.918212
0.811933 0.95256 0.898634
0.929213 0.938979 0.879698
0.963592 0.93669 0.874357
0.963836 0.93695 0.865095
0.840345 0.949004 0.875837
0.84123 0.948898 0.875624
0.84271 0.948699 0.875364
0.847257 0.948119 0.874525
0.859693 0.946532 0.872251
0.888365 0.943175 0.867414
0.933654 0.939101 0.860899
0.964126 0.937255 0.854795
0.964538 0.937697 0.840146
0.0521401 0.0505684 0.323583
0.0521401 0.0505684 0.323583
0.0521401 0.0505684 0.323583
0.0521401 0.0505684 0.323583
0.119249 0.0569772 0.43212
0.927047 0.0641642 0.938323
1 0.0869001 0.951141
1 0.0869001 0.951141
1 0.0869001 0.951141
0.0521401 0.0505684 0.323583
0.0521401 0.0505684 0.323583
0.0521401 0.0505684 0.323583
0.0521401 0.0505684 0.323583
0.133364 0.0580606 0.453147
0.927657 0.0641947 0.93843
1 0.0869001 0.951141
1 0.0869001 0.951141
1 0.0869001 0.951141
0.0521401 0.0505684 0.323583
0.0521401 0.0505684 0.323583
0.0521401 0.0505684 0.323583
0.0521401 0.0505684 0.323583
0.153643 0.0592966 0.482155
0.928603 0.0642405 0.938598
1 0.0869001 0.951141
1 0.0869001 0.951141
1 0.0869001 0.951141
0.0521401 0.0505684 0.323583
0.0521401 0.0505684 0.323583
0.0521401 0.0505684 0.323583
0.0521401 0.0505684 0.323583
0.210666 0.0614176 0.554498
0.931395 0.0643626 0.939101
1 0.0869001 0.951141
1 0.0869001 0.951141
1 0.0869001 0.951141
0.0521401 0.0505684 0.323583
0.0521401 0.0505684 0.323583
0.0521401 0.0505684 0.323583
0.0521401 0.0505684 0.323583
0.37467 0.0617533 0.707652
0.939467 0.0647593 0.94052
1 0.0869001 0.951141
1 0.0869001 0.951141
1 0.0869001 0.951141
0.0756237 0.722301 0.912978
0.0755474 0.721859 0.912947
0.0751507 0.719646 0.912749
0.0732738 0.709285 0.911818
0.0680552 0.679835 0.909163
0.858228 0.605783 0.895109
1 0.535241 0.898665
1 0.0869001 0.951141
1 0.0869001 0.951141
0.137392 1 0.938857
0.137392 1 0.938857
0.137392 1 0.938857
0.137392 1 0.938857
0.137392 1 0.938857
0.76289 0.923858 0.914031
0.949783 0.892958 0.90573
0.976089 0.879652 0.907988
0.983261 0.845014 0.912642
0.137392 1 0.938857
0.137392 1 0.938857
0.137392 1 0.938857
0.137392 1 0.938857
0.490867 0.988525 0.919722
0.762524 0.960143 0.916304
0.919127 0.93933 0.897719
0.963119 0.936172 0.894881
0.963119 0.936172 0.894881
0.803388 0.953643 0.910948
0.804669 0.953445 0.91075
0.806821 0.953109 0.910445
0.813092 0.952117 0.909529
0.830198 0.949691 0.907286
0.867842 0.944686 0.902663
0.92311 0.938964 0.897398
0.963119 0.936172 0.894881
0.963119 0.936172 0.894881
0.0521401 0.0505684 0.323583
0.0521401 0.0505684 0.323583
0.0521401 0.0505684 0.323583
0.0521401 0.0505684 0.323583
0.0521401 0.0505684 0.323583
0.653864 0.0589914 0.861616
1 0.0864729 0.951263
1 0.0869001 0.951141
1 0.0869001 0.951141
0.0521401 0.0505684 0.323583
0.0521401 0.0505684 0.323583
0.0521401 0.0505684 0.323583
0.0521401 0.0505684 0.323583
0.0521401 0.0505684 0.323583
0.657343 0.0589914 0.862974
1 0.0864729 0.951263
1 0.0869001 0.951141
1 0.0869001 0.951141
0.0521401 0.0505684 0.323583
0.0521401 0.0505684 0.323583
0.0521401 0.0505684 0.323583
0.0521401 0.0505684 0.323583
0.0521401 0.0505684 0.323583
0.662882 0.0589761 0.865125
1 0.0864729 0.951263
1 0.0869001 0.951141
1 0.0869001 0.951141
0.0521401 0.0505684 0.323583
0.0521401 0.0505684 0.323583
0.0521401 0.0505684 0.323583
0.0521401 0.0505684 0.323583
0.0521401 0.0505684 0.323583
0.679469 0.0589914 0.871366
1 0.0864729 0.951263
1 0.0869001 0.951141
1 0.0869001 0.951141
0.0521401 0.0505684 0.323583
0.0521401 0.0505684 0.323583
0.0521401 0.0505684 0.323583
0.0521401 0.0505684 0.323583
0.0521401 0.0505684 0.323583
0.723888 0.0591592 0.886885
1 0.0865644 0.951247
1 0.0869001 0.951141
1 0.0869001 0.951141
0.0521401 0.0505684 0.323583
0.0521401 0.0505684 0.323583
0.0521401 0.0505684 0.323583
0.0521401 0.0505684 0.323583
0.0521401 0.0505684 0.323583
0.816312 0.0604562 0.914046
1 0.0868086 0.951171
1 0.0869001 0.951141
1 0.0869001 0.951141
0.129198 0.972671 0.935546
0.129198 0.972671 0.935546
0.129168 0.972503 0.935531
0.128573 0.970123 0.935302
0.126574 0.962341 0.934615
0.543755 0.886458 0.909346
0.953719 0.832639 0.910826
0.99118 0.798764 0.910109
1 0.592111 0.900404
0.137392 1 0.938857
0.137392 1 0.938857
0.137392 1 0.938857
0.137392 1 0.938857
0.137392 1 0.938857
0.599817 0.987182 0.918837
0.900435 0.941054 0.899321
0.963119 0.936172 0.894881
0.964828 0.928862 0.89659
0.710933 0.96875 0.91751
0.71339 0.968338 0.917494
0.717235 0.967697 0.917464
0.728359 0.96585 0.917403
0.75903 0.960739 0.916487
0.824308 0.950515 0.908049
0.906737 0.940429 0.898741
0.963119 0.936172 0.894881
0.963119 0.936172 0.894881
