LUTS/Secondary LUTS/VELVIA.cube
TITLE "Generated by Resolve"
LUT_3D_SIZE 33
0 0 0
0 0 0
0 0 0
0 0 0
0 0 0
0 0 0
0 0 0
0 0 0
0 0 0
0.00726329 0 0
0.0661173 0.0205539 0.0205234
0.145617 0.039765 0.0396735
0.261128 0.0538796 0.0536812
0.387549 0.0610208 0.0607004
0.510536 0.0640574 0.0635996
0.618418 0.0652628 0.064683
0.705837 0.0658579 0.0651713
0.773922 0.0663157 0.0655528
0.827482 0.0667735 0.0659342
0.871534 0.0672465 0.0671702
0.909895 0.0677195 0.0700389
0.945769 0.0682078 0.0749371
0.970596 0.0685893 0.0799878
0.970687 0.068574 0.080766
0.970687 0.068574 0.080766
0.970687 0.068574 0.080766
0.970687 0.068574 0.080766
0.970779 0.0685435 0.0816358
0.97142 0.0683452 0.088716
0.972168 0.0679332 0.100893
0.972778 0.0673991 0.115358
0.9729 0.0664073 0.135424
0.973358 0.0658122 0.149706
0 0 0
0 0 0
0 0 0
0 0 0
0 0 0
0 0 0
0 0 0
0 0 0
0 0 0
0.00820935 0 0
0.0672465 0.0209201 0.0208896
0.146975 0.0400092 0.0399176
0.262638 0.0539864 0.0538033
0.388678 0.0610666 0.0607462
0.511543 0.0640726 0.0636149
0.618906 0.0652628 0.064683
0.706188 0.0658579 0.0651713
0.774258 0.0663157 0.0655528
0.827649 0.0667735 0.0659342
0.871717 0.0672465 0.0671855
0.909972 0.0677195 0.0700542
0.945769 0.0682078 0.0749371
0.970596 0.0685893 0.0799878
0.970687 0.068574 0.080766
0.970687 0.068574 0.080766
0.970687 0.068574 0.080766
0.970687 0.068574 0.080766
0.970779 0.0685435 0.0816358
0.97142 0.0683452 0.088716
0.972168 0.0679332 0.100893
0.972778 0.0673991 0.115358
0.9729 0.0664073 0.135424
0.973358 0.0658122 0.149706
0 0 0
0 0 0
0 0 0
0 0 0
0 0 0
0 0 0
0 0 0
0 0 0
0 0 0
0.00833143 0 0
0.0673838 0.0209659 0.0209354
0.147356 0.0400702 0.0399786
0.263066 0.0540322 0.0538338
0.38912 0.0610819 0.0607614
0.511742 0.0640726 0.0636301
0.619226 0.0652781 0.064683
0.706462 0.0658579 0.0651713
0.774441 0.066331 0.0655528
0.827741 0.0667735 0.0659342
0.871794 0.0672465 0.0671855
0.910063 0.0677195 0.0700694
0.945861 0.0682231 0.0749523
0.970596 0.0685893 0.0799878
0.970687 0.068574 0.080766
0.970687 0.068574 0.080766
0.970687 0.068574 0.080766
0.970687 0.068574 0.080766
0.970779 0.0685435 0.0816358
0.97142 0.0683452 0.088716
0.972168 0.0679332 0.100893
0.972778 0.0673991 0.115358
0.9729 0.0664073 0.135424
0.973358 0.0658122 0.149706
0 0 0
0 0 0
0 0 0
0 0 0
0 0 0
0 0 0
0 0 0
0 0 0
0 0 0
0.0185397 0.00129702 0.00134279
0.0696574 0.0216831 0.0216526
0.146578 0.0399329 0.0398413
0.262425 0.0539712 0.0537881
0.388464 0.0610513 0.0607309
0.511543 0.0640726 0.0636149
0.619058 0.0652781 0.064683
0.706462 0.0658579 0.0651713
0.774563 0.066331 0.0655528
0.827939 0.0667887 0.0659342
0.87187 0.0672465 0.0671855
0.910155 0.0677195 0.0700694
0.945937 0.0682231 0.0749523
0.970596 0.0685893 0.0799878
0.970687 0.068574 0.080766
0.970687 0.068574 0.080766
0.970687 0.068574 0.080766
0.970687 0.068574 0.080766
0.970779 0.0685435 0.0816358
0.97142 0.0683452 0.088716
0.972168 0.0679332 0.100893
0.972778 0.0673991 0.115358
0.9729 0.0664073 0.135424
0.973358 0.0658122 0.149706
0 0 0
0 0 0
0 0 0
0 0 0
0 0 0
0 0 0
0 0 0
0 0 0
0 0 0
0.0155947 0 0
0.0769207 0.0239109 0.0238804
0.157046 0.0417029 0.0416114
0.260395 0.0538186 0.0536202
0.386892 0.0610056 0.0606851
0.510338 0.0640574 0.0635996
0.618585 0.0652628 0.064683
0.706065 0.0658579 0.0651713
0.774334 0.0663157 0.0655528
0.827848 0.0667735 0.0659342
0.871962 0.0672465 0.0672007
0.910231 0.0677195 0.0700847
0.946029 0.0682231 0.0749676
0.970596 0.0685893 0.0799878
0.970687 0.068574 0.080766
0.970687 0.068574 0.080766
0.970687 0.068574 0.080766
0.970687 0.068574 0.080766
0.970779 0.0685435 0.0816358
0.97142 0.0683452 0.088716
0.972168 0.0679332 0.100893
0.972778 0.0673991 0.115358
0.9729 0.0664073 0.135424
0.973358 0.0658122 0.149706
0 0 0
0 0 0
0 0 0
0 0 0
0 0 0
0 0 0
0 0 0
0 0 0
0 0 0
0.016846 0.00120546 0.000869764
0.0670939 0.0208591 0.0208286
0.157244 0.0417487 0.0416419
0.272816 0.0548409 0.0546426
0.38471 0.060914 0.0606088
0.508721 0.0640269 0.0635843
0.617426 0.0652628 0.064683
0.705562 0.0658579 0.0651713
0.774029 0.0663157 0.0655528
0.827741 0.0667735 0.0659342
0.871962 0.0672465 0.0672007
0.910323 0.0677195 0.0700847
0.946029 0.0682231 0.0749676
0.970596 0.0685893 0.0799878
0.970687 0.068574 0.080766
0.970687 0.068574 0.080766
0.970687 0.068574 0.080766
0.970687 0.068574 0.080766
0.970779 0.0685435 0.0816358
0.97142 0.0683452 0.088716
0.972168 0.0679332 0.100893
0.972778 0.0673991 0.115358
0.9729 0.0664073 0.135424
0.973358 0.0658122 0.149706
0.0264134 0.0541848 0.0254826
0.0254673 0.0518196 0.0245823
0.0243687 0.0492103 0.0235447
0.0225834 0.0451362 0.0218357
0.0187228 0.0370794 0.0181277
0.0133211 0.0270542 0.0128939
0.00712596 0.0168307 0.00682078
0.0162356 0.0183108 0.00881971
0.0475929 0.0326085 0.019852
0.0698863 0.0348974 0.025742
0.100221 0.0368048 0.0320745
0.154574 0.0428016 0.0413977
0.265751 0.0542458 0.0540475
0.394842 0.0612802 0.0609598
0.505913 0.0639811 0.0635386
0.615625 0.0652476 0.0646677
0.704341 0.0658427 0.065156
0.773342 0.0663157 0.0655375
0.82739 0.0667735 0.0659342
0.871794 0.0672465 0.0671855
0.910323 0.0677195 0.0700847
0.94612 0.0682231 0.0749828
0.970596 0.0685893 0.0799878
0.970687 0.068574 0.080766
0.970687 0.068574 0.080766
0.970687 0.068574 0.080766
0.970687 0.068574 0.080766
0.970779 0.0685435 0.0816358
0.97142 0.0683452 0.088716
0.972168 0.0679332 0.100893
0.972778 0.0673991 0.115358
0.9729 0.0664073 0.135424
0.973358 0.0658122 0.149706
0.0402838 0.113649 0.0375525
0.0401007 0.111849 0.0374304
0.0398718 0.10959 0.0372778
0.0395819 0.107103 0.0370947
0.0388037 0.101213 0.0365148
0.0374304 0.0928206 0.0354314
0.0368048 0.0896162 0.0349126
0.0443275 0.0831311 0.0338598
0.0842451 0.0826429 0.0332494
0.116426 0.0840925 0.0345617
0.153933 0.0816663 0.0367742
0.203174 0.0720836 0.0434424
0.260548 0.0576181 0.0532235
0.375128 0.0605631 0.0602426
0.508934 0.0640421 0.0635843
0.612345 0.0652171 0.0646372
0.702342 0.0658427 0.065156
0.771984 0.0663005 0.0655375
0.82649 0.0667735 0.0659342
0.87126 0.0672465 0.0671702
0.910063 0.0677195 0.0700694
0.94612 0.0682231 0.0749828
0.970596 0.0685893 0.0799878
0.970687 0.068574 0.080766
0.970687 0.068574 0.080766
0.970687 0.068574 0.080766
0.970687 0.068574 0.080766
0.970779 0.0685435 0.0816358
0.97142 0.0683452 0.088716
0.972168 0.0679332 0.100893
0.972778 0.0673991 0.115358
0.9729 0.0664073 0.135424
0.973358 0.0658122 0.149706
0.0409552 0.165621 0.0359655
0.0410163 0.164446 0.0360876
0.0410925 0.163119 0.0362097
0.0411536 0.161624 0.0363622
0.0412299 0.15996 0.0365148
0.0414282 0.154955 0.0369421
0.0416266 0.144976 0.037583
0.041474 0.132219 0.037995
0.0934768 0.125399 0.0335088
0.13344 0.124941 0.0319066
0.177279 0.122148 0.0313725
0.23238 0.114412 0.0326085
0.300587 0.0995499 0.037995
0.377371 0.0760662 0.0549477
0.470024 0.06421 0.0625925
0.607279 0.0651713 0.0646067
0.699107 0.0658122 0.0651408
0.769848 0.0662852 0.0655222
0.82504 0.0667582 0.065919
0.870268 0.0672313 0.0671244
0.909468 0.0677043 0.0699779
0.945861 0.0682231 0.0749523
0.970596 0.0685893 0.0799878
0.970687 0.068574 0.080766
0.970687 0.068574 0.080766
0.970687 0.068574 0.080766
0.970687 0.068574 0.080766
0.970779 0.0685435 0.0816358
0.97142 0.0683452 0.088716
0.972168 0.0679332 0.100893
0.972778 0.0673991 0.115358
0.9729 0.0664073 0.135424
0.973358 0.0658122 0.149706
0.0360571 0.216342 0.0284123
0.0362097 0.215213 0.0286107
0.036347 0.214099 0.028809
0.0364996 0.212818 0.0290379
0.0366674 0.211551 0.0292668
0.0368353 0.210117 0.0295262
0.0374762 0.2047 0.030457
0.0390326 0.190234 0.0327916
0.077348 0.172961 0.0298314
0.134356 0.169314 0.0243076
0.187182 0.165911 0.0213169
0.251606 0.158694 0.0197757
0.329519 0.145678 0.0208286
0.41091 0.128359 0.0254215
0.488228 0.106081 0.0359045
0.568017 0.0724804 0.0608072
0.674754 0.0656596 0.0650187
0.768185 0.0662699 0.065507
0.822812 0.0667277 0.0658885
0.868666 0.067216 0.0670634
0.908156 0.067689 0.0698558
0.9449 0.0682078 0.0747692
0.970596 0.0685893 0.0799878
0.970687 0.068574 0.080766
0.970687 0.068574 0.080766
0.970687 0.068574 0.080766
0.970687 0.068574 0.080766
0.970779 0.0685435 0.0817121
0.97142 0.0683452 0.088716
0.972183 0.0679332 0.101106
0.972778 0.0673991 0.115358
0.9729 0.0664073 0.135424
0.973358 0.0658122 0.149706
0.027924 0.274617 0.0168307
0.0280766 0.273579 0.0170443
0.0282444 0.272374 0.0172885
0.0284123 0.271168 0.0175326
0.0285954 0.269947 0.0177768
0.0287633 0.268727 0.0180362
0.0290227 0.267002 0.0183871
0.0301061 0.25948 0.0199283
0.0345159 0.240909 0.0234531
0.112764 0.225376 0.0139315
0.17995 0.22208 0.00750744
0.255879 0.215412 0.00323491
0.346502 0.203159 0.00138857
0.441688 0.188022 0.00213626
0.530205 0.169467 0.00610361
0.614038 0.147417 0.01355
0.684993 0.117952 0.0281071
0.742061 0.0735637 0.0616464
0.818616 0.0666972 0.0658579
0.866163 0.0671855 0.0669566
0.906249 0.0676738 0.0696574
0.943358 0.0681773 0.0745098
0.970581 0.0685893 0.0799115
0.970687 0.068574 0.080766
0.970687 0.068574 0.080766
0.970687 0.068574 0.080766
0.970687 0.068574 0.080766
0.970779 0.0685435 0.0817121
0.97142 0.0683452 0.088716
0.972183 0.0679332 0.101106
0.972778 0.0673991 0.115358
0.9729 0.0664073 0.135424
0.973358 0.0658122 0.149706
0.0193484 0.343114 0.00390631
0.0194553 0.342061 0.00407416
0.0195621 0.341009 0.00424201
0.0196689 0.33994 0.00442512
0.0197757 0.338888 0.00459297
0.0198825 0.337819 0.00477607
0.0200351 0.336233 0.00503548
0.020264 0.334096 0.00540169
0.0214694 0.323369 0.00729381
0.0419013 0.30396 0.00819409
0.151522 0.295109 0
0.24184 0.28986 0
0.34551 0.280247 0
0.45333 0.267094 0
0.55285 0.252522 0
0.645594 0.235828 0
0.727321 0.214572 0
0.791806 0.187823 0.00169375
0.836011 0.150515 0.0145724
0.86688 0.0841535 0.057557
0.904784 0.0676432 0.0694896
0.940841 0.0681468 0.0741436
0.970565 0.0685893 0.0798199
0.970687 0.068574 0.080766
0.970687 0.068574 0.080766
0.970687 0.068574 0.080766
0.970687 0.068574 0.080766
0.970779 0.0685435 0.0817121
0.97142 0.0683452 0.088716
0.972183 0.0679332 0.101106
0.972778 0.0673991 0.115358
0.9729 0.0664073 0.135424
0.973358 0.0658122 0.149706
0.016144 0.423026 0
0.0161288 0.42211 0
0.0160983 0.42118 0
0.0160678 0.420081 0
0.0160525 0.41915 0
0.016022 0.418036 0
0.0160067 0.416739 0
0.0159609 0.414694 0
0.0159609 0.413565 0
0.0159457 0.402686 0
0.100114 0.385794 0
0.211688 0.381201 0
0.325856 0.373358 0
0.443015 0.362234 0
0.548348 0.351614 0
0.644648 0.339773 0
0.730846 0.325429 0
0.801556 0.308537 0
0.85687 0.286336 0
0.898161 0.252903 0.00178531
0.928588 0.197238 0.00801099
0.948653 0.0868849 0.0600137
0.970565 0.0686046 0.0797284
0.970687 0.068574 0.080766
0.970687 0.068574 0.080766
0.970687 0.068574 0.080766
0.970687 0.068574 0.080766
0.970779 0.0685435 0.0817121
0.97142 0.0683452 0.088716
0.972183 0.0679332 0.101106
0.972778 0.0673991 0.115358
0.9729 0.0664073 0.135424
0.973358 0.0658122 0.149706
0.026627 0.507576 0.000686656
0.0264744 0.506691 0.000579843
0.0263371 0.505959 0.000503548
0.0261845 0.505074 0.000396735
0.0260319 0.504189 0.00030518
0.025864 0.503304 0.000198367
0.0256504 0.502068 6.10361e-05
0.0253758 0.500465 0
0.0249943 0.498329 0
0.0249638 0.498146 0
0.0314488 0.487282 0
0.180026 0.476631 0
0.30222 0.470893 0
0.425818 0.461723 0
0.536782 0.453071 0
0.635584 0.444511 0
0.72459 0.434485 0
0.798383 0.423987 0
0.856855 0.411109 0
0.902983 0.393561 0.00166323
0.939971 0.365835 0.00363165
0.969451 0.319722 0.00575265
0.987213 0.233509 0.0103151
0.970687 0.068574 0.080766
0.970687 0.068574 0.080766
0.970687 0.068574 0.080766
0.970687 0.068574 0.080766
0.970779 0.0685435 0.0817121
0.97142 0.0683452 0.088716
0.972183 0.0679332 0.101106
0.972778 0.0673991 0.115358
0.9729 0.0664073 0.135424
0.973373 0.0658122 0.149935
0.0423285 0.59559 0.0107271
0.0421759 0.59472 0.0106355
0.0420539 0.594034 0.010544
0.0419318 0.593347 0.0104677
0.0417792 0.592493 0.0103761
0.0416419 0.591791 0.0102998
0.0414588 0.590753 0.0101778
0.0412146 0.589364 0.0100252
0.0408942 0.587655 0.00982681
0.0404669 0.585214 0.00955215
0.0406348 0.58616 0.00965896
0.145205 0.570977 0
0.278004 0.56582 0
0.40705 0.557061 0
0.524224 0.548012 0
0.625971 0.540398 0
0.716701 0.532738 0
0.793118 0.52549 0.00138857
0.853101 0.518578 0.0037995
0.900206 0.509728 0.00572213
0.938109 0.496284 0.00712596
0.970901 0.473823 0.00808728
0.991165 0.434867 0.00813306
0.98761 0.352743 0.00772107
0.987121 0.188876 0.0144045
0.970687 0.068574 0.080766
0.970687 0.068574 0.080766
0.970687 0.068574 0.080766
0.97142 0.0683299 0.0888075
0.972183 0.0679332 0.101106
0.972793 0.0673838 0.115618
0.9729 0.0664073 0.135424
0.973373 0.0658122 0.149935
0.0582742 0.682612 0.0206912
0.0581521 0.681971 0.0206149
0.0580453 0.681346 0.0205539
0.0579538 0.680873 0.0204929
0.0578317 0.680247 0.0204166
0.0577096 0.679606 0.0203555
0.0575723 0.678828 0.020264
0.0573587 0.677714 0.0201267
0.0570993 0.67631 0.0199741
0.0567483 0.674403 0.0197452
0.0570993 0.67631 0.0199741
0.0812543 0.665965 0.016022
0.247944 0.654658 0.00399786
0.383078 0.645991 0.00138857
0.5084 0.63653 0.00138857
0.614557 0.629206 0.0028687
0.708629 0.622522 0.00505074
0.787686 0.616922 0.0074464
0.850568 0.612604 0.00968948
0.899336 0.608545 0.0115816
0.938079 0.602335 0.0130007
0.970932 0.591897 0.013962
0.997955 0.573602 0.0142824
0.997253 0.530861 0.0120089
0.992676 0.461585 0.0089723
0.987152 0.336263 0.00758373
0.970687 0.068574 0.080766
0.970687 0.068574 0.080766
0.970687 0.068574 0.080766
0.972183 0.0679332 0.101106
0.972793 0.0673838 0.115618
0.9729 0.0664073 0.135424
0.973373 0.0658122 0.149935
0.0735637 0.76318 0.0301061
0.0734874 0.762753 0.030045
0.0733959 0.762325 0.0299992
0.0732891 0.761761 0.0299229
0.0732128 0.761318 0.0298772
0.0731212 0.760891 0.0298314
0.0730144 0.760311 0.0297551
0.0728466 0.759457 0.0296635
0.0726177 0.758312 0.0295262
0.072343 0.756878 0.0293584
0.0719768 0.755001 0.0291295
0.0722515 0.756405 0.0292973
0.214511 0.737652 0.0150607
0.356542 0.729717 0.0107118
0.489708 0.71902 0.00950637
0.601862 0.711025 0.0102846
0.699001 0.704555 0.0120089
0.781781 0.699565 0.0141299
0.846983 0.69662 0.0162509
0.897429 0.69453 0.0180972
0.937133 0.692409 0.0196231
0.969924 0.688029 0.0207523
0.999176 0.679591 0.0214694
1 0.657206 0.0201572
1 0.61941 0.0174258
0.999451 0.560678 0.0136416
0.992096 0.451499 0.00863661
0.987839 0.204837 0.0126802
0.970687 0.068574 0.080766
0.970687 0.068574 0.080766
0.972793 0.0673838 0.115618
0.9729 0.0664073 0.135424
0.973373 0.0658122 0.149935
0.0881361 0.836698 0.0389563
0.0880751 0.836439 0.0389258
0.0879988 0.836042 0.03888
0.0879225 0.835645 0.0388342
0.0878309 0.835248 0.0387884
0.0877852 0.834989 0.0387427
0.0876783 0.834455 0.0386816
0.087541 0.833783 0.0386053
0.0873884 0.833005 0.0384985
0.0871748 0.831952 0.0383764
0.0868696 0.830488 0.0381933
0.0865034 0.828641 0.0379644
0.178286 0.813336 0.0267185
0.334264 0.805234 0.0200351
0.47306 0.794263 0.0178073
0.591455 0.784894 0.0178683
0.691173 0.777615 0.0190738
0.776364 0.772076 0.0208438
0.844022 0.768841 0.0227359
0.895598 0.767651 0.024506
0.935454 0.766751 0.0259709
0.967834 0.765332 0.0271763
0.996185 0.762127 0.0280919
1 0.75082 0.0276646
1 0.729824 0.0258946
1 0.699168 0.0233921
1 0.644739 0.0192416
0.998886 0.553307 0.0132296
0.98822 0.370947 0.00741588
0.970687 0.068574 0.080766
0.970687 0.068574 0.080766
0.972915 0.066392 0.135714
0.973373 0.0658122 0.149935
0.101625 0.901686 0.0470741
0.101549 0.90132 0.0470283
0.101488 0.901076 0.0469978
0.101442 0.900832 0.0469673
0.101396 0.900603 0.0469368
0.101335 0.900359 0.0469062
0.101259 0.900008 0.0468605
0.101167 0.899535 0.0467994
0.10103 0.898939 0.0467231
0.100862 0.898085 0.0466163
0.100664 0.897139 0.0464942
0.100359 0.895705 0.0463111
0.106584 0.892149 0.0450752
0.319615 0.871534 0.0288243
0.460868 0.860212 0.0256962
0.58468 0.848844 0.0249943
0.686412 0.840024 0.0256657
0.772747 0.832898 0.0269627
0.841901 0.828428 0.0285344
0.894606 0.82649 0.0300908
0.934646 0.825803 0.0314488
0.966415 0.825269 0.0325933
0.993439 0.824002 0.0335393
1 0.819242 0.0337682
1 0.807324 0.0326848
1 0.790997 0.0311894
1 0.762982 0.0287175
1 0.718242 0.0249332
1 0.643763 0.0191653
0.994919 0.497154 0.0103914
0.970687 0.068574 0.080766
0.970687 0.068574 0.080766
0.973373 0.0658122 0.149935
0.11368 0.957916 0.0667277
0.113664 0.957809 0.0666514
0.113619 0.95761 0.0664836
0.113573 0.957397 0.066331
0.113527 0.957183 0.0661631
0.113481 0.956985 0.0660105
0.113436 0.956771 0.0658579
0.113375 0.956451 0.0656138
0.113283 0.956039 0.0652934
0.113146 0.955413 0.0648203
0.113024 0.954787 0.0641642
0.112795 0.95375 0.063386
0.113191 0.955627 0.0649729
0.313039 0.927962 0.0378882
0.45449 0.91606 0.0327153
0.580774 0.902403 0.031281
0.683696 0.891432 0.0313725
0.770428 0.882643 0.0322118
0.840711 0.876463 0.0334325
0.894057 0.873182 0.0347143
0.934249 0.871839 0.0359197
0.965728 0.871275 0.0369573
0.991928 0.870588 0.0378576
1 0.868681 0.038468
1 0.861875 0.0378119
1 0.852293 0.0368963
1 0.837827 0.035523
1 0.815015 0.0333867
1 0.780072 0.0302281
1 0.720836 0.0251469
1 0.603616 0.0163424
0.986786 0.256229 0.0089723
0.970687 0.068574 0.080766
0.123247 1 0.110414
0.123232 1 0.110323
0.123201 1 0.110155
0.123186 1 0.110063
0.123171 1 0.109987
0.12314 1 0.109606
0.12311 1 0.109438
0.123079 1 0.10927
0.123033 1 0.109026
0.122957 1 0.108598
0.122881 1 0.108186
0.122774 1 0.107317
0.122637 0.999878 0.106584
0.313848 0.974823 0.0603189
0.45478 0.961776 0.0447852
0.580133 0.946227 0.0365606
0.682734 0.933379 0.0361639
0.768902 0.922911 0.0365911
0.839399 0.915129 0.0374609
0.893797 0.910384 0.0385138
0.934325 0.907973 0.0395209
0.96553 0.906691 0.0404364
0.991089 0.905943 0.0412451
1 0.904875 0.0419471
1 0.900893 0.0416419
1 0.895094 0.041062
1 0.8869 0.0402533
1 0.874388 0.0390173
1 0.856809 0.0373236
1 0.829908 0.0347753
1 0.784436 0.0306096
1 0.692897 0.0228885
0.991348 0.438209 0.00822461
0.127489 1 0.154742
0.127489 1 0.154681
0.127459 1 0.154574
0.127443 1 0.154513
0.127443 1 0.154452
0.127428 1 0.154406
0.127413 1 0.154345
0.127398 1 0.154238
0.127352 1 0.154055
0.127321 1 0.153887
0.127275 1 0.153445
0.127108 1 0.15314
0.127031 1 0.152667
0.322896 0.995483 0.0841535
0.462257 0.991272 0.0614023
0.583551 0.981964 0.0443122
0.683513 0.967742 0.0401617
0.767956 0.955886 0.040238
0.838117 0.946654 0.0408026
0.892256 0.940307 0.0415808
0.933227 0.936461 0.0423896
0.964431 0.934295 0.0431525
0.98941 0.932891 0.0438392
1 0.931579 0.0444495
1 0.929076 0.044419
1 0.925277 0.0440528
1 0.920501 0.0435798
1 0.913512 0.0428779
1 0.903807 0.0419165
1 0.89012 0.0405737
1 0.869429 0.0385443
1 0.834852 0.0352331
1 0.765499 0.0289311
0.137453 1 0.177066
0.137438 1 0.177035
0.137438 1 0.177005
0.137423 1 0.176974
0.137407 1 0.176944
0.137407 1 0.176944
0.137407 1 0.176913
0.137377 1 0.176852
0.137362 1 0.176791
0.137133 1 0.176562
0.137102 1 0.176471
0.137057 1 0.176333
0.136995 1 0.17615
0.34934 0.993805 0.101717
0.477012 0.991791 0.0713512
0.590066 0.991592 0.0518959
0.686259 0.991867 0.0430304
0.767742 0.982742 0.0432593
0.835416 0.972091 0.0435035
0.889174 0.96434 0.0440223
0.930205 0.959274 0.0446479
0.961532 0.956207 0.0452735
0.986358 0.954025 0.0458534
1 0.952178 0.0463722
1 0.95024 0.0465095
1 0.947631 0.0462501
1 0.944518 0.0459449
1 0.940108 0.0455177
1 0.934447 0.0449531
1 0.926986 0.0442206
1 0.916564 0.043183
1 0.900832 0.0416266
1 0.874159 0.0390021
0.143389 1 0.185901
0.143389 1 0.185901
0.143389 1 0.185901
0.143389 1 0.185901
0.143389 1 0.185901
0.143389 1 0.185901
0.143389 1 0.185901
0.143175 1 0.185779
0.143175 1 0.185779
0.143175 1 0.185779
0.143175 1 0.185779
0.143175 1 0.185779
0.143175 1 0.185779
0.39913 0.992203 0.10312
0.505699 0.991379 0.07393
0.60354 0.991547 0.0542306
0.68983 0.992309 0.0432746
0.766827 0.993271 0.0444343
0.832044 0.991302 0.0455329
0.884794 0.984314 0.0460365
0.92549 0.978058 0.0464637
0.956771 0.973983 0.046952
0.981765 0.97116 0.0474403
1 0.9691 0.0478981
1 0.967208 0.0481575
1 0.965148 0.0479591
1 0.962646 0.047715
1 0.959701 0.047425
1 0.9561 0.0470741
1 0.951507 0.0466316
1 0.945586 0.0460517
1 0.937285 0.0452277
1 0.924987 0.0440223
0.143587 1 0.186023
0.143587 1 0.186023
0.143587 1 0.186023
0.143587 1 0.186023
0.143587 1 0.186023
0.143587 1 0.186023
0.143587 1 0.186023
0.143587 1 0.186023
0.143587 1 0.186023
0.143587 1 0.186023
0.143587 1 0.186023
0.143587 1 0.186023
0.37641 0.992493 0.110948
0.462409 0.991547 0.085771
0.545068 0.991333 0.0656138
0.624308 0.991669 0.0511025
0.698863 0.992401 0.0433509
0.767819 0.993286 0.0444495
0.828305 0.994354 0.0457771
0.879301 0.995453 0.0470893
0.919707 0.992874 0.0478676
0.950988 0.989761 0.0484169
0.976013 0.986389 0.0488136
0.997055 0.983902 0.0492103
1 0.981826 0.049546
1 0.980179 0.0493935
1 0.978241 0.0492103
1 0.975952 0.0489967
1 0.973251 0.0487373
1 0.970031 0.0484169
1 0.966079 0.0480354
1 0.960891 0.0475319
1 0.954116 0.0468757
0.142336 1 0.20029
0.142336 1 0.20029
0.142336 1 0.20029
0.142336 1 0.20029
0.142336 1 0.20029
0.142336 1 0.20029
0.142336 1 0.20029
0.142336 1 0.20029
0.22536 0.997391 0.172122
0.332433 0.993011 0.131075
0.384695 0.992386 0.108125
0.432609 0.991806 0.0937514
0.482979 0.99144 0.0801251
0.538231 0.991318 0.067155
0.59646 0.991501 0.0557717
0.655894 0.991958 0.0461738
0.716258 0.992584 0.0435187
0.774578 0.993393 0.0445869
0.828305 0.994354 0.0457771
0.875486 0.995377 0.0469825
0.914473 0.993332 0.047776
0.945708 0.990784 0.0483711
0.970886 0.98912 0.0489357
0.991913 0.987976 0.0494545
1 0.987137 0.0499733
1 0.987015 0.0500496
1 0.987015 0.0500496
1 0.987015 0.0500496
1 0.987015 0.0500496
1 0.985763 0.0499275
1 0.982727 0.0496376
1 0.97911 0.0493019
1 0.974502 0.0488594
0.422385 0.991592 0.10457
0.429908 0.991562 0.10135
0.437171 0.991531 0.0983749
0.443976 0.991516 0.0955673
0.450599 0.991485 0.09308
0.457038 0.991455 0.0906996
0.464942 0.99144 0.0877394
0.475685 0.991424 0.0835431
0.489296 0.991409 0.0784772
0.506127 0.991363 0.0741436
0.527062 0.991333 0.0695659
0.5523 0.991333 0.0641642
0.582208 0.991424 0.0583658
0.616587 0.991623 0.0523232
0.655131 0.991958 0.0462806
0.698116 0.992386 0.0433509
0.743755 0.992935 0.0439918
0.789776 0.993652 0.0449073
0.834714 0.994492 0.0459449
0.876112 0.995392 0.047013
0.912032 0.993561 0.0477302
0.941939 0.991043 0.0482948
0.966705 0.989334 0.0488289
0.987686 0.98819 0.0493477
1 0.987335 0.0498512
1 0.987015 0.0500496
1 0.987015 0.0500496
1 0.987015 0.0500496
1 0.987015 0.0500496
1 0.987015 0.0500496
1 0.987015 0.0500496
1 0.987015 0.0500496
1 0.987015 0.0500496
0.583307 0.991424 0.0581674
0.586633 0.99144 0.0576028
0.590112 0.991455 0.0569314
0.593423 0.99147 0.0563668
0.596735 0.991501 0.0557259
0.600046 0.991516 0.0551766
0.604181 0.991531 0.0544289
0.609644 0.991577 0.0534676
0.616587 0.991623 0.0523232
